/* XPM */
static char *result[] = {
/* columns rows colors chars-per-pixel */
"500 592 250 2 ",
"   c #050305",
".  c #090606",
"X  c #070807",
"o  c #0A0906",
"O  c #060509",
"+  c #09060A",
"@  c #0B0A0C",
"#  c #150D04",
"$  c #110E0D",
"%  c #0F100F",
"&  c #14120E",
"*  c #1A170B",
"=  c #19150E",
"-  c #0E0D11",
";  c #110F12",
":  c #141314",
">  c #191615",
",  c #171816",
"<  c #1C1915",
"1  c #161519",
"2  c #19171A",
"3  c #1C1B1C",
"4  c #271605",
"5  c #211D16",
"6  c #291C14",
"7  c #211E1C",
"8  c #1F201D",
"9  c #252116",
"0  c #24221D",
"q  c #29251D",
"w  c #2B291E",
"e  c #342612",
"r  c #1E1D21",
"t  c #211F22",
"y  c #242323",
"u  c #292624",
"i  c #272927",
"p  c #2C2A25",
"a  c #262529",
"s  c #29272A",
"d  c #2C2A2C",
"f  c #372B27",
"g  c #312D25",
"h  c #312E2C",
"j  c #333126",
"k  c #34312D",
"l  c #39352D",
"z  c #3A372D",
"x  c #2E2D31",
"c  c #302F32",
"v  c #2E3130",
"b  c #333234",
"n  c #393634",
"m  c #3C3A35",
"M  c #363539",
"N  c #38373B",
"B  c #363838",
"V  c #3B3A3D",
"C  c #4C3414",
"Z  c #473A2B",
"A  c #413D35",
"S  c #493C33",
"D  c #413E3C",
"F  c #3F403C",
"G  c #43423D",
"H  c #49453A",
"J  c #49453C",
"K  c #584934",
"L  c #715628",
"P  c #6D5330",
"I  c #3E3D41",
"U  c #403F43",
"Y  c #513E42",
"T  c #3E4142",
"R  c #434245",
"E  c #494644",
"W  c #4C4A44",
"Q  c #464549",
"!  c #48474B",
"~  c #464949",
"^  c #4A4A4D",
"/  c #534C45",
"(  c #514E4C",
")  c #4F504C",
"_  c #54524D",
"`  c #5A554B",
"'  c #4E4D51",
"]  c #554852",
"[  c #504F53",
"{  c #4E5152",
"}  c #525255",
"|  c #595656",
" . c #555857",
".. c #5C5A54",
"X. c #565559",
"o. c #58575B",
"O. c #56595A",
"+. c #5A5A5D",
"@. c #685A49",
"#. c #645C54",
"$. c #615E5E",
"%. c #5C605D",
"&. c #64625C",
"*. c #6A6358",
"=. c #756A51",
"-. c #756A58",
";. c #5A5760",
":. c #5E5D61",
">. c #605F63",
",. c #625F67",
"<. c #5E6164",
"1. c #626166",
"2. c #696666",
"3. c #666A64",
"4. c #6D6B64",
"5. c #666569",
"6. c #68676B",
"7. c #67696C",
"8. c #6A696D",
"9. c #736D64",
"0. c #726D6C",
"q. c #786C68",
"w. c #6E716D",
"e. c #73716C",
"r. c #7A7368",
"t. c #6E6D71",
"y. c #6C6D78",
"u. c #706F73",
"i. c #716E79",
"p. c #6F7073",
"a. c #6E7179",
"s. c #717175",
"d. c #757479",
"f. c #7A787A",
"g. c #8A6A38",
"h. c #997946",
"j. c #8C7555",
"k. c #A17D41",
"l. c #847967",
"z. c #867D73",
"x. c #99835A",
"c. c #AA8B53",
"v. c #A88956",
"b. c #B7965C",
"n. c #95886D",
"m. c #898378",
"M. c #978B77",
"N. c #A89068",
"B. c #B99A66",
"V. c #A79678",
"C. c #B49C75",
"Z. c #BCA06C",
"A. c #BBA478",
"S. c #C19C5E",
"D. c #C29E64",
"F. c #C7A467",
"G. c #C3A46C",
"H. c #CCAA6D",
"J. c #C4A876",
"K. c #CBAC73",
"L. c #CBAD7A",
"P. c #D1AD71",
"I. c #D2AE73",
"U. c #D4B274",
"Y. c #D4B47C",
"T. c #DAB578",
"R. c #DCBA7D",
"E. c #E1B26B",
"W. c #E2BA7C",
"Q. c #DFC07E",
"!. c #777881",
"~. c #9B9485",
"^. c #A89B86",
"/. c #A99C8F",
"(. c #B9A887",
"). c #B7AD96",
"_. c #B5ACA3",
"`. c #C4AC85",
"'. c #C9B488",
"]. c #D4B583",
"[. c #DCBC84",
"{. c #D4BA89",
"}. c #DCBD8B",
"|. c #C2AF92",
" X c #C8B797",
".X c #D4BC95",
"XX c #E2BE82",
"oX c #E4BF8A",
"OX c #CBBCA4",
"+X c #DDC18B",
"@X c #D3C597",
"#X c #DCC394",
"$X c #D9C59A",
"%X c #DBC49B",
"&X c #E4C285",
"*X c #E4C48B",
"=X c #E8C688",
"-X c #EAC68A",
";X c #ECCA8D",
":X c #F1CC8E",
">X c #F4D18F",
",X c #E3C593",
"<X c #E5C896",
"1X c #ECCC93",
"2X c #E4CB9C",
"3X c #ECCE9B",
"4X c #F2CE92",
"5X c #F2CE98",
"6X c #EED194",
"7X c #E4D29E",
"8X c #EDD19C",
"9X c #F3D295",
"0X c #F3D49B",
"qX c #FAD69B",
"wX c #F6D89C",
"eX c #FBDA9D",
"rX c #DAC8A7",
"tX c #D4CAB0",
"yX c #D9CBB4",
"uX c #E4CDA3",
"iX c #E5CCA7",
"pX c #ECD2A4",
"aX c #E9D6A9",
"sX c #ECD5AB",
"dX c #F3D5A3",
"fX c #F5DAA4",
"gX c #FBDCA4",
"hX c #F4D6A8",
"jX c #F4DBAC",
"kX c #FCDEAB",
"lX c #E0CAB2",
"zX c #E9D7B6",
"xX c #F3DDB3",
"cX c #FADEB2",
"vX c #F3DDBC",
"bX c #FAE2A9",
"nX c #FDE2AC",
"mX c #F5E2B4",
"MX c #FDE4B3",
"NX c #FDE9B4",
"BX c #F5E7B9",
"VX c #F5E3BC",
"CX c #FCE5BA",
"ZX c #F7EAB8",
"AX c #FDEABB",
"SX c #DBD1C3",
"DX c #ECDCC4",
"FX c #F8E7C6",
"GX c #FEEBC3",
"HX c #FAEECC",
/* pixels */
":.+.>.+.:.+.>.+.$.:.:.:.+.:.+.:.:.:.:.:.:.:.:.:.:.+.X.;.X.[ :.:.:.:.:.:.} ' >.:.:.:.:.:.:.>.:.>.>.>.>.>.$.$.>.o.U t 7 ; ; $ @ o @ @ $ @ $ + + Y >.$.$.>.>.$.>.>.$.:.1.:.1.:.>.>.>.+.1.1.:.:.:.^ <.:.:.1.1.1.>.:.>.:.1.+.! o.:.<.;.} +.1.>.1.1.>.+.+.1.1.<.X.^ 1.1.1.:.5.X.X.5.>.1.5.>.1.1.1.1.7.} o.7.>.>.N ;.:.1.:.1.>.1.>.,.1.:.:.1.1.:.;.:.5.Q ' 7.X.;.:.X.Q r M ! ^ M a r O I 5.<.} ;.<.:.8.1.o.:.1.:.1.:.v - X X               % o y B 8 % - @ y N $.1.1.1.5.1.1.1.1.1.1.1.1.1.1.<.:.5.;.' :.R 1 ! Q ^ { 1.1.O.1.5.:.^ } r Q <.{ ;.o.:.+.o.1.} :.1.1.1.1.;.o.o.x ^ ' ^ o.1.:.:.1.:.X.:.} ' 5.1.1.1.' y I :.o.X.' :.1.1.o.;.:.1.1.1.5.1.<.+.:.1.1.1.<.1.1.1.1.1.1.,.1.1.5.:.5.,.<.5.1.1.1.1.1.1.:.;.X.;.1.o.} 1.7.<.1.:.1.:.R b ' I ;.} { ;.Q Q X.:.:.1.:.' ' X.} } X.M M r 1 1 : : $ @ o . . .   . +   V ,.$.>.,.,.,.2.1.1.,.1.1.+.:.:.>.:.:.1.:.1.:.1.:.>.>.>.>.:.>.>.:.1.+.>.>.1.I r o.M r :.<.1.:.1.1.^ } :.:.;.:.:.;.:.^ V :.:.>.+.1.>.:.>.>.+.1.>.>.+.:.:.>.;.X.o.+.:.} o.;.:.<.' R ! a r N o.5.:.1.<.:.:.<.' x r ^  .;.^ ^ :.",
":.:.+.:.+.>.+.>.+.>.+.:.>.+.:.:.:.:.:.:.+.:.:.:.:.:.:.X.+.X.+.1.1.' R ;.} } 1.:.:.1.:.,.>.:.>.:.>.>.>.>.>.>.$.$.| h 2 > ; $ $ + o @ @ o @ $ + f o.>.$.>.,.$.>.>.>.>.:.1.>.>.:.1.>.1.:.$.1.:.:.' :.:.:.1.>.>.>.>.:.:.1.>.X.[ +.<.<.O.o.1.<.1.1.1.;.o.:.1.:.U } 1.:.1.:.>.:.:.5.>.1.1.>.>.1.1.1.7.:.X.1.:.7.! ' 1.1.<.:.>.>.1.1.>.1.1.1.:.1.:.+.<.I X.7.:.' :.+.I M o.:.:.1.I ; - R 1.<.:.X.:.5.<.1.1.o.:.5.:.;.x % @ X X             : @ 2 v 8 % @ % i N O.1.1.&.1.1.1.1.1.<.1.1.1.,.:.1.5.:.} T } Q r R { 1.:.:.1.:.8.1.+.' } R x :.:.;.o.:.8.5.7.' :.1.1.1.1.} o.I ! } ;.} +.1.>.1.1.:.+.+.' +.1.1.<.} } r I ;.:.' X.1.5.:.:.>.+.:.5.1.5.1.1.+.5.1.1.>.>.1.1.1.1.,.1.1.1.1.:.5.:.5.5.:.1.1.1.:.1.1.:.:.:.:.;.X.o.:.;.1.5.1.1.' d N R ! X.} O.} { X.:.1.:.1.1.Q } :.' ;.I V s 2 : ; ; ; $ o . . . .   .   : ] +.>.>.>.,.2.,.1.1.1.1.1.+.>.:.:.1.:.>.>.>.1.:.>.>.>.>.>.1.:.>.1.:.1.1.1.o.a M ;.x 1 ;.:.<.1.<.:.X.^ } 1.o.:.o.:.O.b ' :.;.1.>.:.:.>.:.>.:.:.1.>.1.:.:.:.+.+.:.:.X.Q ! } :.;.M ! V I ^ R I ;.<.o.:.5.;.X.' V ^ } :.' ! R { ",
"+.+.:.:.>.+.:.+.>.+.>.+.+.+.>.:.:.:.+.:.:.:.:.:.:.<.<.X.' X.X.1.} Q ! :.{ ' <.:.:.>.:.<.:.:.:.:.>.>.>.:.>.$.>.$.$.D 2 2 : $ $ + + $ o @ $ + @ > | $.,.#.$.,.>.>.1.1.+.1.>.>.>.1.>.:.1.:.:.5.+.} +.:.:.>.:.1.>.>.<.1.1.1.1.;.o.;.>.+.X.:.:.1.:.>.1.+.:.1.:.V :.1.:.:.5.:.>.1.1.1.1.1.5.>.1.1.1.1.1.} } :.5.+.I :.1.1.:.1.1.:.1.<.1.>.1.:.<.:.o.;.I +.:.1.' ^ N Q ;.' 7.8.:.1.a - [ 1.5.:.[ ;.<.<.1.7.>.+.:.:.} d % @ X           X X : @ @ y 8 : % @ i B  .1.3.1.1.1.1.1.1.1.1.,.1.1.1.1.:.X.} I r s 1 I 5.:.7.7.+.:.:.1.o.! } :.d } 5.:.;.<.1.:.1.' 1.5.1.1.<.' X.I :.;.:.1.7.1.1.1.1.:.:.} X.:.>.1.o.} :.a R ;.1.^ <.1.<.+.:.7.;.+.1.1.5.1.>.+.6.1.1.1.>.1.,.1.1.1.1.1.1.5.:.,.1.,.,.:.1.1.1.1.1.1.,.:.5.:.} :.:.o.;.1.5.+.Q a a b I X.X.<.X.' o.o.<.1.1.<.+.' o.:.' o.V M y 2 : ; ; $ $ . . .     . . . s +.$.>.>.,.5.,.,.2.,.>.1.>.o.:.:.:.1.,.>.>.>.>.>.>.>.:.>.>.:.1.1.:.1.<.:.1.M y } o.I r o.:.;.1.5.:.5.' ' 1.o.:.o.<.^ x +.<.+.1.:.1.+.+.+.1.:.+.1.>.+.:.+.+.+.:.+.X.! ! ^ ^ X.I x R R <.5.5.Q R <.:.o.;.:.X.! ' o.;.} Q X.I Q ",
":.:.:.+.+.>.+.>.+.>.+.+.:.:.:.>.>.>.+.>.1.:.>.>.:.:.:.:.Q I V ' V ' :.:.:.' <.1.:.<.1.:.:.:.1.1.>.$.>.$.>.>.>.$.>.( t 1 : : $ $ $ @ . @ + # @ $ E >.$.,.$.>.>.>.+.1.1.>.>.>.1.+.1.1.>.1.+.:.1.} } :.>.1.1.>.1.1.1.:.1.1.:.:.:.X.+.+.X.+.:.1.1.1.1.+.+.:.' Q 5.:.:.:.:.:.5.>.1.1.1.1.1.1.:.1.1.>.1.;.' <.+.1.U X.:.1.1.:.,.1.1.,.:.1.5.1.:.:.:.o.M +.:.1.7.M R +.>.[ ,.5.1.1.y - :.1.5.1.:.[ 1.5.:.1.1.;.} :.I y % % @             X : %   , 8 % @ @ i G W 1.$.1.1.1.1.1.,.1.1.1.1.1.5.;.o.;.:.;.M Q r R 1.1.5.<.:.:.5.1.} U ;.5.I R 1.<.1.:.1.1.1.} :.5.1.1.:.' X.~ ;.1.<.1.1.:.1.1.:.+.X.} :.+.1.+.o.1.<.I I :.+.' 1.5.:.o.:.7.+.+.1.1.1.:.:.:.5.1.1.1.1.1.1.1.1.1.<.,.5.:.:.5.5.<.5.5.:.1.5.1.:.<.7.1.<.o.o.o.+.:.1.1.5.' ^ d ;.;.' I o.;.{ X.X.o.7.<.1.;.} } ;.:.X.' I x 1 2 ; @ ; $ o .   . . . . @ . U +.>.>.>.>.1.,.,.,.,.1.,.>.X.:.1.:.1.<.>.1.:.>.:.1.>.1.>.>.1.1.:.>.:.1.:.:.y M 1.:.I 1 o.:.:.1.:.:.1.X.' :.+.:.:.;.N ^ ;.<.:.1.+.>.>.1.>.>.:.1.1.+.1.:.+.o.:.<.+.[ } o.o.' ^ x ! ! } 1.:.:.;.Q X.1.<.;.{ R R o.} +.^ } ' ^ ;.",
"+.:.:.+.+.>.+.>.+.>.+.>.:.:.:.:.:.>.:.>.>.:.>.:.:.>.:.1.X.' Q ^ M } :.<.o.^ X.:.7.>.;.1.:.:.:.:.>.$.>.>.>.$.>.$.$.o.b 7 5 : $ $ @ . . + o @ $ . n $.$.>.,.>.>.>.>.>.>.>.>.>.>.>.>.1.:.1.X.} 5.X.' 1.:.>.,.>.1.,.1.,.<.,.:.1.5.;.+.:.X.X.:.1.>.1.<.+.' } V ' <.7.:.:.7.5.;.>.1.1.>.>.1.,.1.:.1.1.<.1.^ ;.;.1.' ! <.5.:.1.>.1.1.,.1.,.1.:.:.:.:.} M ;.:.1.1.I ;.5.:.[ :.7.1.<.r 1 :.:.1.5.,.:.;.<.<.<.:.1.X.' I r : : @             : , @ X @ < : @ % i E R 3.1.1.1.1.,.1.1.1.1.<.1.1.1.;.;.<.1.:.I { a I 1.1.7.1.:.<.1.>.' Q +.1.' x :.:.1.1.1.1.,.} :.7.>.7.+.^ { ' :.1.1.:.1.1.1.1.1.+.} :.:.:.:.+.:.1.<.! I } ' [ >.1.+.+.1.5.:.o.1.1.1.:.:.<.:.1.1.1.1.1.1.1.1.1.1.1.1.,.1.1.1.5.:.7.1.:.,.1.1.1.1.1.:.} :.;.:.1.1.7.X.X.I ^ X.{ ' x X.{ O.X.X.:.1.1.:.o.} ;.:.:.[ ! R a 1 1 ; $ ; @ + o . . . . +   1 X.+.,.,.1.,.,.>.1.>.1.>.1.>.+.:.:.:.:.>.:.+.1.>.>.1.:.>.:.1.:.:.1.1.1.5.:.M r ' ;.1.R 1 o.:.:.:.:.1.1.+.^ <.+.<.;.' M :.;.:.:.:.:.>.:.>.:.:.$.:.+.+.>.:.+.:.>.;.o.+.' :.:.I x ! :.} X.<.1.1.:.X.Q } :.} ! I ' X.<.' Q ' I ;.;.",
":.+.:.:.>.+.>.+.:.+.>.+.+.+.:.:.>.:.>.:.:.>.:.>.>.:.>.:.:.:.' ^ R } ;.:.:.' <.<.:.:.:.:.>.>.:.:.>.>.>.>.>.$.>.$.$.$./ t > ; $ $ o @ . . . @ + + : ] $.+.*.,.>.>.:.1.>.>.>.>.>.>.1.:.1.1.:.} o.+.! :.:.>.1.<.:.1.1.:.1.>.1.1.1.5.>.:.;.[ 1.1.>.1.1.1.X.^ b ' ' ! o.1.:.:.5.>.1.1.1.1.>.<.1.1.:.1.:.1.X.} 1.5.:.I ;.1.1.1.1.1.:.1.1.1.<.1.5.1.:.' M :.>.1.1.X.1.:.1.o.X.7.5.:.2 a 1.:.:.1.1.X.' ^ I M I x M V R 1 @ @ @           X d i : o X : % @ @ r E F $.1.1.1.1.1.1.1.1.1.,.1.1.1.:.:.<.1.:.! ' x y 1.,.1.:.:.1.5.1.' X.+.:.:.x ^ 1.1.<.<.1.1.} :.1.:.1.} Q R X.<.1.1.1.1.1.1.1.<.+.;.1.1.:.} ;.1.1.1.X.I ' +.+.>.1.} :.1.1.;.+.1.:.1.:.+.1.<.1.,.1.1.,.1.1.,.1.1.1.1.5.1.1.1.:.1.1.5.1.1.<.1.1.<.1.o.:.<.:.<.<.X.^ I R x X.:.:.} x ^ ' ;.X.:.:.:.1.:.+.+.1.:.+.' R R t 1 1 ; ; ; @ + .     .   . + D +.>.>.1.1.>.,.,.,.1.,.1.>.>.:.:.>.1.:.:.1.1.>.>.>.:.>.>.>.:.1.1.1.:.:.1.X.1 I o.<.1.R r +.;.1.1.:.1.:.<.' +.1.:.;.M ' <.:.:.+.:.:.:.1.:.>.:.1.+.1.:.+.+.:.:.:.:.o.o.X.1.! a M :.X.' :.:.:.:.1.:.^ ! ' Q ! ! o.;.;.! Q ' ' <.! ",
":.+.$.:.>.+.+.+.+.>.+.>.:.:.:.>.:.:.:.X.>.:.>.:.:.>.:.>.>.>.X.M ^ :.X.o.:.' o.:.>.5.:.:.1.:.:.1.>.>.$.>.>.>.$.$.$.>.+.s : ; ; @ $ $ . . . . @ $ . A $.>.$.$.>.>.:.>.:.>.>.>.>.>.:.:.:.1.1.+.^ X.' o.:.1.1.1.1.1.,.1.,.1.1.,.:.1.>.>.:.} :.5.1.<.1.1.X.x a :.:.+.} } 1.5.:.>.>.1.1.>.1.,.:.,.<.,.1.1.1.} :.1.5.Q ' ;.7.1.:.1.<.>.1.:.1.1.1.:.:.' I :.1.>.:.+.<.:.<.:.X.1.5.X.- a 7.1.:.1.:.! c Q ;.:.:.} R s x 2 X X               B V 8 @   % : o % i ^ T $.2.<.<.1.1.1.1.,.1.1.,.1.1.1.7.>.:.:.' R M r :.1.1.,.:.1.5.+.Q ;.:.:.5.Q x 1.1.:.1.1.:.} 1.1.,.>.' R ! ;.1.1.1.<.1.1.1.1.:.:.1.<.1.X.X.1.1.<.1.o.x } :.;.:.:.X.5.1.1.+.:.<.<.1.+.:.5.,.1.1.1.1.<.,.1.1.1.1.1.:.1.1.,.:.:.:.5.:.5.1.:.1.1.<.+.o.5.:.o.:.o.! I ! x } ;.5.;.} T V :.;.O.1.1.:.>.:.:.:.:.>.X.' Q M r 1 1 ; ; $ $ + .   . . . . ; ] $.,.>.>.,.>.,.,.1.,.<.>.>.1.5.>.>.1.1.1.:.>.>.>.:.1.:.>.>.>.>.>.1.:.>.1.U 3 X.:.1.1.I x +.;.:.:.:.1.:.1.} o.1.:.Q x :.+.:.:.:.:.:.:.+.>.:.1.+.1.+.1.:.:.<.:.<.:.X.o.:.^ I a ! o.' } :.5.;.:.1.<.;.' I ! } } :.:.} R } } ' R V ",
"+.>.+.>.+.>.+.>.>.+.:.+.>.+.:.>.>.:.:.} :.>.:.>.>.:.:.1.:.:.:.M I <.:.X.;.} ;.o.' ' ' :.1.1.>.1.,.>.,.>.>.>.>.>.$.$.o.D 7 $ $ + + . . . . . o $ . 7 #.,.$.>.>.>.1.:.1.>.>.>.>.>.1.1.+.1.1.:.' } ! } :.<.,.:.1.>.1.>.<.>.1.<.:.1.1.>.:.o.;.5.1.:.1.1.1.M Q 1.;.,.:.' } 5.:.1.1.1.1.,.>.1.1.1.1.>.1.:.1.+.' 1.5.o.U +.5.:.,.1.,.1.:.1.1.1.1.1.1.R ^ 1.:.:.:.+.1.5.,.:.X.:.<.! + M 1.:.:.:.! Q I [ <.:.1.<.t.+.M 1 @               X G } i @ X @ @ X o v  .R $.<.1.1.1.,.1.1.1.1.1.1.<.:.1.1.1.1.:.^ ^ I a } <.1.:.:.1.1.X.^ :.1.:.<.;.a X.1.1.:.5.:.} 1.:.1.7.! R :.1.1.1.1.,.1.1.<.1.:.;.1.1.<.X.:.7.1.1.1.} x ;.+.+.5.:.+.1.1.1.:.+.1.1.<.;.:.1.1.1.,.1.1.1.1.1.1.1.1.1.1.1.:.X.} [ [ :.:.,.1.1.<.1.:.X.:.<.:.:.<.;.' X.I V :.1.:.;.o.} M <.X.;.>.1.:.:.:.1.:.:.:.} ! ^ d 3 1 1 : $ @ @ o     . . . O - E $.>.$.1.1.,.>.,.>.1.<.>.1.>.1.1.1.>.>.<.1.>.>.>.1.:.1.>.>.>.>.<.:.<.<.X.s y :.1.:.1.M M :.:.:.<.1.:.:.1.} ;.X.O.s } :.:.+.:.:.:.1.:.1.:.>.+.>.1.>.:.1.<.:.1.:.X.o.+.} ' ! M o.:.X.;.:.5.:.>.1.:.+.' R o.' } <.Q V :.X.M I R ;.",
">.+.>.+.+.:.+.+.+.+.>.+.+.:.:.>.:.:.1.} :.:.:.1.:.>.>.1.:.:.>.+.! ;.5.} X.' } ! ! X.' ' +.1.:.1.,.,.>.>.>.>.>.1.$.$...} s @ @ +   . .   . . . . + @ E >.>.>.>.>.>.>.>.>.>.>.>.:.>.1.:.:.:.+.:.' I [ :.:.>.1.>.1.1.,.<.1.,.<.1.>.1.1.:.:.X.1.1.:.1.:.1.N 1.:.5.5.:.5.X.' 1.1.1.1.1.1.>.1.,.1.>.1.>.1.:.1.^ :.7.1.U ;.1.1.>.1.>.1.1.:.X.+.<.1.1.I ' 1.<.1.:.+.1.5.:.7.X.} >.I O I 1.5.;.! ^ ' ' :.>.:.5.5.$.,.b 1 +               @ W $.d : . . @ X @ M  .V 1.$.1.1.1.1.1.1.1.,.1.1.1.1.<.>.1.>.+.' X.I r R 1.1.:.:.1.<.' } :.:.1.<.5.I U 7.1.1.1.:.} 1.:.5.+.' Q ,.1.1.,.1.1.,.1.>.1.+.+.5.5.X.+.1.:.1.5.>.} y Q I ! 1.;.1.5.1.1.;.:.1.1.:.:.1.<.1.1.1.1.,.1.1.1.1.1.:.1.<.1.:.:.:.1.o.' >.1.:.1.5.>.o.+.1.:.:.:.:.' ! } d } :.1.:.1.X.! I X.o.>.>.1.:.+.:.+.:.1.$.o.M ~ y 2 3 3 ; $ + $ o         .   d E o.>.2.>.>.,.,.,.1.,.1.1.1.<.:.1.5.:.:.>.>.>.>.:.>.>.>.:.1.:.:.:.1.<.:.N 1 N 5.<.;.:.x M 1.:.:.5.:.1.1.1.' :.o.I N 1.;.1.1.+.+.+.1.>.:.>.:.:.:.<.:.:.:.:.:.<.:.+.o.} } +.x ^ :.o.' <.:.<.1.;.+.X.Q R X.;.' :.{ I ' ' N R o.5.<.",
"+.:.+.>.>.+.>.>.>.:.;.:.:.+.+.:.1.:.:.} :.1.1.:.>.:.:.>.:.>.:.1.' X.:.:.o.^ ' V +.:.5.:.' X.1.1.$.,.,.>.>.:.>.>.>.>.>.$.U - $ +   . . .   . . o . + y 2.$.$.>.>.>.,.$.>.+.>.:.>.1.:.;.^ y M Q :.y ' :.1.1.:.1.1.:.1.<.,.1.1.1.>.>.1.>.1.X.:.1.1.5.5.R ! ;.7.:.5.<.1.5.o.^ :.>.1.>.1.1.<.1.:.1.>.1.1.:.1.o.' 1.<.' b 1.<.1.1.>.1.:.' ' ^ ' } ! M o.1.:.:.:.+.:.5.1.:.:.[ :.c - R 1.5.[ ^ +.[ :.:.:.1.1.>.,.,.s : @ .             o } 5.D 1 $ . + @ % F ) ^ | 1.1.1.5.5.1.<.1.1.1.1.1.1.1.1.1.:.+.' ;.' a I <.1.:.:.,.:.R :.>.:.5.1.;.;.x 7.1.1.>.;.} <.<.:.X.R ' +.5.1.>.1.1.1.:.5.+.+.1.1.1.o.<.5.1.:.1.<.I x X.7.R } ;.1.:.1.5.:.:.:.5.:.:.5.,.1.1.1.1.1.1.1.,.1.1.1.1.:.1.5.1.1.7.:.' } 1.5.:.5.+.;.>.1.<.:.;.} V } I R :.1.:.:.:.X.' ! ^ 1.:.>.1.:.+.1.1.+.5.+.E V B 3 8 8 3 $ @ + $ o o           E } | >.,.>.,.1.1.1.1.1.:.1.1.1.o.:.1.1.:.:.1.1.>.1.>.>.1.1.:.1.,.1.5.:.o.: a I :.1.5.:.r I <.:.:.1.>.1.1.1.' o.1.d :.1.<.+.+.1.+.:.1.+.>.:.>.:.$.>.>.1.>.:.<.:.+.o.Q ' ;.^ a } o.! ;.:.1.1.:.X.Q M I { 5.' { ;.[ ^ M c R 5.:.<.:.",
">.+.>.+.+.>.:.:.>.>.>.>.:.:.:.:.:.:.1.} ;.1.1.:.>.:.>.:.:.>.>.>.+.} :.:.;.^ c ! 1.:.:.:.1.+.} X.>.>.>.>.>.>.>.>.>.>.>.>.] a ; + O O . . . .   . . . ; ] >.>.>.,.+.>.:.,.>.1.:.>.1.7.I N ' [ V R N M :.:.1.1.>.>.1.1.>.1.1.:.<.,.>.1.<.1.o.+.1.:.1.:.R ' :.1.1.1.1.1.<.;.+.X.:.1.>.1.1.,.<.,.<.1.1.1.1.1.:.} ;.:.:.N +.1.1.1.1.:.X.+.<.1.;.} I r o.:.+.1.:.+.:.5.7.,.:.X.;.a @ ' 1.;.[ :.>.X.:.:.+.:.1.1.,.>.a ; $           . o . ^ 1.( y & . o o @ ! { _  .$.1.1.1.1.1.1.1.>.1.1.1.1.1.1.1.<.+.' <.;.x a :.,.:.;.:.:.! :.>.:.1.1.1.:.I R 1.5.,.;.} 1.1.:.' I +.7.>.,.1.1.1.1.1.1.+.+.1.1.+.;.1.1.1.:.t.X.o.^ ' :.} ' ' +.5.5.1.+.:.<.1.;.;.5.<.1.1.1.1.5.<.1.1.,.1.1.1.1.1.1.:.>.1.5.:.! ' :.5.:.:.+.1.:.1.:.' { ' R R } :.1.<.<.;.' X.' ! 5.<.1.;.o.1.1.+.+.&.^ v b v 8 3 8 2 $ + + o . .   . o . d ] ] | >.,.1.>.>.,.1.:.1.1.1.;.o.X.;.<.>.1.1.>.>.1.:.1.1.,.1.1.1.>.:.:.1.c x I I :.1.5.;.3 Q :.:.1.:.>.:.+.1.' o.N x ;.<.:.>.:.+.1.1.+.>.:.>.:.>.>.:.>.:.:.:.o.:.;.' Q <.:.s c ^ } ! :.:.<.+.X.X.^ M { :.} ' } I M M ! ' :.X.<.+.' ",
"+.>.+.:.:.;.:.+.+.>.>.+.:.>.>.+.1.:.:.o.o.<.1.:.>.:.:.>.>.:.:.:.5.} X.<.1.O.R 7.1.+.5.>.>.:.:.X.>.$.>.,.>.>.>.>.>.>.>.,.,.U ; + + O . . .   . . . . . c $.$.$.>.>.>.>.+.[ } X.:.>.[ I :.7.<.1.' V r ;.1.:.1.1.:.1.:.1.,.,.>.1.1.,.>.1.1.;.} 1.<.:.o.R o.1.:.5.5.1.1.<.:.:.:.1.1.:.1.1.1.:.1.,.1.:.1.:.1.1.X.{ <.5.' Q 1.:.1.7.:.:.:.;.:.<.7.;.x +.<.>.;.>.:.:.8.7.1.1.:.X.r - o.:.} X.7.1.+.1.:.+.:.1.,.,.+.t ; o         . . o X m >.$.k 1   @ X @ E E  .{ 1.$.:.<.5.1.1.1.1.1.1.1.1.,.1.1.<.+.} o.;.M y o.:.1.:.:.o.} 1.>.:.1.:.:.8.' t :.7.5.;.} 1.5.:.V R 1.7.,.1.1.<.1.1.1.>.+.:.5.1.+.>.1.1.1.1.1.' o.} ! 5.} } ' ! 5.5.1.+.<.5.:.:.:.5.1.1.1.1.1.,.,.5.<.1.1.1.1.1.1.1.5.1.:.' ' R I ! +.;.:.^ +.5.<.} X.R x c X.:.:.1.:.X.} X.:.! d } 1.+.:.o.:.+.+.{ R v 8 v 0 8 , 3 , $ $ + . .   X .   + ( | | ] ,.>.,.1.>.1.:.5.1.:.:.+.' :.1.1.>.:.>.1.1.>.1.1.:.1.:.1.,.1.<.:.;.a ' R I >.<.<.} 2 X.:.1.:.:.:.5.1.:.' ! - I 1.:.:.:.>.>.1.+.1.:.>.:.>.+.1.>.>.>.>.:.:.X.! X.:.:.' x { ;.} ' 1.<.X.:.;.' b ^ :.o.! ! N x I +.:.X.5.5.o.^ R ",
">.+.+.:.:.+.:.:.>.>.>.:.>.+.1.:.:.:.:.;.X.:.:.>.>.:.:.$.:.>.:.+.7.X.X.:.1.:.' 1.;.:.1.:.:.1.>.:.$.>.>.>.>.>.>.>.>.>.>.>.>.} t - . . . . .   .     @ . 2 | >.$.>.,.,.>.+.' } } X.1.' R :.;.+.8.>.o.M I 1.:.:.,.1.<.1.1.:.1.1.,.<.1.1.:.1.:.X.+.1.:.} Q 1.5.:.1.:.<.:.+.o.:.+.:.1.1.1.1.:.:.1.,.1.:.1.:.>.1.:.! ;.;.:.I o.:.<.1.1.1.:.1.1.1.<.' x o.:.;.o.1.+.:.5.1.<.1.:.' - 1 +.} } 1.5.:.+.:.:.+.:.5.>.>.] t ; + .       .   + u V | 1.D 3   o o % ~ )  .v { ! ^ ' o.1.1.1.1.1.,.1.1.1.1.1.:.+.} X.:.R a ' :.:.<.:.} +.<.:.:.1.1.:.5.:.N R 5.1.;.} 1.5.:.M o.7.:.1.1.1.1.1.1.1.1.>.1.5.:.+.1.1.<.1.5.^ } :.+.N 5.X.o.<.} o.5.:.+.1.1.1.1.5.5.<.1.:.1.<.:.1.<.1.1.1.1.,.1.1.1.:.o.[ ;.1.5.:.' R } 5.^ } :.O.' I x r ' :.:.1.:.+.X.X.O.;.' V I ^ +.1.+.:.+.o.} O.V b m y 0 3 3 : @ @ o o   . . .   7 +.| | ] 2.,.1.>.>.1.,.:.1.:.} } <.1.1.1.1.1.1.1.,.1.1.,.1.:.1.>.1.>.<.,.N M ;.Q M :.:.:.' : } :.<.:.1.:.<.:.<.' y - ' <.:.1.1.:.<.:.>.:.>.:.:.>.1.:.:.>.>.:.:.;.! ' :.5.X.I Q { 1.{ :.;.:.' o.' V M :.<.! I M M ' <.;.} :.X.1.' Q ^ ",
">.+.:.:.+.:.:.:.>.>.>.>.>.>.1.+.1.:.<.:.} :.>.:.>.:.:.>.>.:.>.>.1.:.' +.:.:.' } 1.5.:.1.1.>.:.:.>.$.:.>.>.>.>.>.>.>.>.>.$.>.N ; . O   . .     . . . . + U >.>.>.>.>.>.>.o.:.o.' ' x ' ;.:.>.1.+.:.:.I X.1.1.>.5.:.,.,.1.<.,.1.1.:.1.,.1.:.+.o.1.:.} ' <.:.<.1.1.:.} ^ ! ^ ^ ^ X.1.1.1.1.1.1.1.:.1.1.1.1.:.1.+.R } :.Q ' 1.5.:.1.1.1.1.>.:.<.} ' o.:.:.' :.+.+.5.7.<.1.1.R @ a X.} +.1.<.1.;.<.1.+.:.5.>.:.] 2 : + .       o o . c R D 2.E y + + X : b y b 3 X.+.5.;.X.+.:.1.,.1.1.1.1.<.1.1.<.;.} :.:.' I M 7.1.1.:.X.:.1.>.>.1.1.1.1.<.:.b :.1.+.} 1.1.} R 1.1.:.1.1.1.>.1.1.1.1.1.1.:.:.+.5.1.1.1.;.^ :.8.1.b } X.} <.:.' :.<.;.<.1.1.1.1.:.1.5.5.1.,.5.,.1.1.1.1.1.1.1.1.1.>.:.>.5.1.:.1.,.} ^ :.o.^ ;.o.R { I ! :.;.:.7.:.o.;.;.X.} X.:.X.V V 5.+.<.| R ) | v ~ b i 8 7 3 $ @ + o .     . . o s >.#.,.| >.>.>.1.1.>.1.1.:.X.:.1.5.:.<.,.,.<.,.>.<.>.,.<.1.1.<.,.,.<.:.} y ! :.' N 1.>.:.' ; M +.<.;.:.:.7.1.o.a r 2 :.:.:.,.:.1.:.1.:.>.:.>.>.:.:.:.>.>.>.>.:.' ' ;.:.<.Q M } :.:.[ <.;.' ! R s ~ ;.:.Q x r ! ' o.o.o.o.+.<.' R } N ",
":.+.>.:.>.+.>.:.+.:.>.+.:.:.>.:.1.:.>.:.} +.>.>.>.:.+.1.:.>.:.>.:.:.} X.:.:.X.' :.:.1.:.:.>.1.:.+.+.>.>.>.>.>.>.>.>.>.1.>.,.! 2 + + O . . . .   @   + . t | >.>.>.5.:.:.} 1.<.} M c :.+.>.:.:.5.:.:.X.! 1.1.<.7.<.>.1.>.1.1.:.:.1.>.<.1.:.;.X.:.:.} ' 1.:.1.:.X.^ ^ ;.1.<.1.X.} ;.<.1.1.1.:.1.>.1.:.1.1.1.:.5.M X.;. .V ;.1.:.1.:.1.1.>.5.<.Q { ! I I M M b V ^ X.;.:.5.R - M o.;.1.:.>.:.:.1.:.:.+.1.>.:.^ 1 ; + .   . . .   o U +.n $.[ d @   X + d b ) : 1 V 1.5.o.;.:.:.1.1.1.1.1.1.1.1.<.o.' 1.o.{ ' x 1.1.1.;.+.1.1.:.1.1.1.:.5.>.7.I ' <.:.} <.:.Q } :.:.7.:.1.,.1.1.1.1.1.1.;.:.:.:.5.>.1.>.' :.1.1.:.Q I } ;.<.1.;.+.<.:.:.1.:.:.,.:.5.1.,.:.5.1.1.1.,.1.1.1.1.1.1.:.;.:.1.1.<.7.:.:.7.' } :.Q :.Q } ^ Q :.{ :.5.:.:.;.o.o.} X.X.X.1.;.N R 1.+.' ^ X.V i E i i 3 3 > $ $ + + . . . . + + u >.} $.^ o.+.,.1.>.,.,.:.:.<.1.1.1.:.1.1.1.:.<.>.<.1.:.1.:.1.>.1.1.<.:.N x :.;.^ M 1.1.:.' : r ' :.:.:.1.:.o.M r R r :.;.<.:.1.+.>.>.>.>.1.:.:.>.:.:.>.>.1.:.o.I ' X.:.:.M ' ' :.[ } ' R ;.X.s ! ! } R a 1 r ' { o.;.} ;.o.} x Q R R ",
":.>.>.+.:.>.>.>.,.>.>.>.:.>.>.+.:.:.:.1.+.o.:.>.:.1.>.:.>.:.:.1.+.:.:.' +.+.+.' :.:.1.:.>.<.1.>.;.:.>.>.>.>.>.>.>.>.>.>.>.>.$.c ; @ O .   .   . . . + + ; E >.,.>.>.1.<.X.<.5.:.I ' ;.:.+.:.:.:.:.:.:.! ;.<.:.1.>.1.,.<.>.,.1.1.,.>.1.>.>.;.o.+.7.} ^ 5.1.:.o.^ o.1.<.1.1.1.1.o.} ;.1.1.1.:.1.1.:.>.1.:.1.:.} ' } o.<.M ' <.<.1.1.1.1.;.5.;.! :.} X.o.} o.+.' ' R I I I b O ^ :.:.:.1.1.:.:.1.:.1.X.>.>.1.Q 2 ; + .   .   . . $ ^ ..^ ! ..d >   . @ W +.B i R V N } 1.7.;.<.1.,.1.1.1.1.1.1.1.+.' 5.:.' o.a ! :.:.+.:.<.1.1.1.1.1.1.1.1.7.' y X.X.X.:.' N ;.,.>.:.1.1.1.1.1.1.>.1.<.;.:.+.:.1.1.7.;.} 1.1.:.5.+.c ^ :.:.5.:.X.+.1.1.>.1.5.:.5.:.1.1.5.1.1.1.:.1.1.>.1.:.1.<.:.>.1.>.1.1.1.1.>.:.:.} 5.Q Q } X.V ;.o.} 1.7.1.;.X.:.} } :.+.+.<.1.1.! R ^ X.&.8.{ B n i y 0 8 : $ @ + . .   . . . 7 R | ( ] ] +.] ( o.>.>.:.;.;.1.1.>.:.1.1.:.1.1.>.1.,.1.1.,.<.1.1.1.1.:.' x [ <.1.' M 1.>.1.;.V : I :.:.1.:.:.R 1 Q ' x :.:.:.:.1.1.>.>.>.<.1.1.:.:.1.:.1.:.+.} x a I { :.! I ;.X.:.' [ I X.{ a V ^ M x R o.I x I X.:.' X.' Q R I R M ;.",
"+.;.:.:.:.;.+.:.:.>.<.:.>.1.>.:.:.>.:.>.:.X.:.1.:.:.>.:.>.:.>.:.:.:.:.X.} :.+.' :.:.<.>.:.1.:.:.;.:.:.>.>.>.>.>.>.>.>.>.,.>.,.] t ; + .   . . . .   . . . 7 ,.$.,.>.,.$.[ ,.1.>.I +.+.o.:.:.:.:.:.:.:.} ' :.1.:.1.:.<.,.,.1.1.1.<.1.,.<.<.1.+.X.1.} ^ <.>.:.} ;.:.1.1.1.:.:.7.5.;.X.+.>.1.1.>.>.:.:.1.1.1.;.} 1.X.' <.' U 1.:.<.1.<.1.1.<.1.V +.+.+.} } o.o.+.<.:.1.5.:.c - N ' ;.<.5.1.X.:.1.<.,.X.:.2.,.U t ; .     .       : | $.$.D $.s :   .   R O.d F } $.X.V ^ :.:.:.1.1.1.:.1.1.1.1.>.;.' 7.:.} ;.N r :.;.o.1.>.1.,.:.1.1.:.1.1.7.:.M a X.! <.M Q <.1.1.<.1.1.,.1.1.1.:.1.1.+.+.+.1.:.5.:.} ;.5.1.1.1.5.N I 1.:.>.1.>.<.1.1.:.1.<.1.1.1.1.1.1.1.1.1.1.1.:.1.1.o.;.;.1.1.1.1.1.1.1.1.1.1.y.} :.^ ' :.^ } :.;.} 1.1.1.X.:.:.} X.5.:.:.1.1.1.1.N V +.5.1.v R k i 0 y 8 : @ $ . . .   @ . $ D ] ( o.,.Q ] } ! Q ;.:.:.+.:.1.1.1.>.1.1.,.1.1.:.1.1.,.<.,.1.:.1.1.:.8.I N :.1.1.! U ,.:.1.1.} y r +.;.:.:.! r Q o.! x :.:.1.:.>.>.>.>.>.1.:.1.<.:.1.<.>.^ a r c M I X.:.x Q M O.;.x M x a r r r - 1 r x s a r a c a r a + 1 I ! x R <.",
":.:.<.o.X.+.1.1.:.1.>.:.1.>.:.:.>.:.>.>.:.X.+.<.:.:.:.>.:.>.>.:.1.:.:.;.' +.+.} X.<.>.>.>.>.1.:.:.:.:.:.:.>.>.>.>.>.>.>.,.>.$.$.c > . o . .     .       . + ! >.>.>.,.$.X.,.,.+.~ ;.o.+.:.:.>.>.:.:.:.:.R >.1.1.:.1.,.1.<.<.,.:.1.>.1.>.1.1.1.X.+.+.^ 1.:.1.1.5.1.1.1.1.1.1.1.1.5.>.+.+.1.1.1.<.1.1.:.1.<.;.:.1.:.' o.,.I ;.:.1.>.1.:.5.:.>.N >.1.;.} o.5.:.X.:.:.:.<.:.y - R R I I I ^ ' :.:.5.6.+.X.,.,.U t ; . . .       . 7 2.$.0.D ( y : . .   n ^ 8 V ! <.X.+.} ^ +.1.1.1.5.1.1.1.,.1.1.o.' <.:.' X.X.r } :.o.:.<.:.<.1.1.1.1.1.1.:.1.;.x M X.Q R ' <.:.1.<.1.1.1.1.1.1.,.5.<.;.+.+.1.<.1.} } 1.:.<.:.:.1.' x :.1.>.5.1.1.1.:.1.1.1.1.,.1.,.1.1.<.1.,.,.<.1.5.7.1.X.+.1.1.:.:.1.1.1.>.,.5.o.{ c ' R o.! <.:.+.:.5.5.:.' Q ! } o.5.+.<.1.:.>.5.} R 1.5.X., ^ d i y 8 , & @ + + . . . o   3 [ E o.} ] D U ^ ,.:.X.:.:.;.:.1.1.1.1.>.>.<.:.1.,.1.1.:.1.>.1.1.:.1.>.o.x ' 7.:.7.Q } 1.<.1.1.+.I 1 ' :.<.' y V :.:.Q x :.:.1.:.$.>.:.1.>.:.+.1.1.<.;.^ x I Q ^ o.;.M V I V I I ;.b x x T d ; r x T x M Q I I b I Q I Q ^ M b M r 1 R } ",
":.1.+.I Q ^ ! } 5.:.1.:.:.:.:.:.:.>.:.>.<.+.+.:.1.:.>.:.>.:.:.:.>.:.:.:.' X.:.O.} :.>.1.1.<.1.:.:.:.:.:.>.:.>.>.>.>.>.>.>.>.o.,.] 3 . + . .     .     . . O s >.>.>.>.>.} 1.1.} } +.o.+.;.1.:.<.>.:.:.>.Q +.:.1.1.1.:.1.1.,.1.1.:.1.>.1.1.;.5.+.} X.! 1.1.:.:.1.<.>.1.1.1.1.>.1.1.1.+.X.:.:.:.1.1.1.:.<.:.X.:.1.1.' } 8.! ' 1.1.1.1.>.1.>.X.I 1.1.:.} +.+.+.o.1.:.1.>.o.- r [ :.:.1.:.' M b M R o.+.,.,.,.Y t + . . .       . d 0.$.6.} R u > .   $ 0 ! v y d ! 1.:.] ! I X.1.>.:.7.1.1.1.5.:.o.} 5.:.} ' 7.M N o.o.5.>.1.:.1.:.:.:.1.1.1.5.:.;.r ! M ;.X.1.:.1.1.1.,.1.1.<.1.1.5.:.+.+.+.1.1.:.} :.1.:.1.5.>.1.;.x ;.1.1.1.<.1.>.>.1.1.1.1.1.1.1.1.1.1.1.1.1.1.1.:.1.5.o.o.:.1.:.:.1.<.1.1.1.5.5.+.Q <.Q ^ ' 5.X.O.8.5.1.Q I I R } ;.<.;.<.:.1.5.+.1.! +.1.E d W i 8 , < : % o + .   . . . . d ] V | E h c V V I +.,.o.;.1.1.>.1.1.1.>.1.,.,.1.<.<.,.1.<.,.>.5.:.<.;.I N :.:.:.7.Q o.:.1.1.1.+.' 1 I <.;.a I >.;.7.' x :.:.1.>.:.1.:.>.:.1.1.:.;.<.<.' R :.V } +.^ o.I x R R b I a ! I a - a R X.<.;.I ^ ^ } I M ^ { :.} { :.X.c x a 1 ",
":.:.' } O.o.} } +.o.:.1.:.:.1.:.>.:.:.1.:.:.o.+.:.>.:.>.:.:.:.1.1.:.:.:.X.' ;.:.' :.1.:.:.1.:.:.:.:.:.:.:.>.>.>.>.>.>.>.>.>.$.>.+.s $ @     .           .   1 +.,.>.>.>.X.2.1.[ } 1.:.o.:.<.1.:.:.>.:.:.+.I :.:.1.:.1.1.:.1.:.,.1.,.1.>.1.:.:.1.} ' ^ :.<.:.:.1.1.1.:.>.1.<.1.1.>.1.>.+.+.1.1.1.1.1.:.1.:.} 1.5.5.+.' >.<.R 7.:.1.>.1.>.1.Q ! 1.1.<.X.+.5.:.o.<.:.:.1.! 1 c ' :.1.>.1.1.;.1.' Q U c c M N M t - O .   .     . V 1.2.>.2.D y : @     : E  .~ M E I X.:.| } ' 1.5.5.:.1.1.1.1.<.+.' 7.:.o.' 8.! 2 R :.1.>.1.<.:.:.1.>.5.1.1.1.1.<.I r ! ' o.5.:.5.5.1.1.1.1.1.1.1.1.;.+.:.:.1.1.} ;.<.:.1.1.>.1.>.:.V :.:.1.1.1.5.1.5.1.1.1.,.1.1.1.1.1.,.,.1.1.1.:.1.1.:.<.+.:.:.:.:.1.1.1.1.1.1.:.Q ' ;.I I <.5.} :.8.+.! Q } +.I ' :.:.:.1.1.:.<.<.+.X.^ 3.N ^ V 8 2 , , % o o .   .     . > V ^ k c ( ] o.>.+.I N U X.1.7.1.>.1.1.:.1.>.1.<.1.1.,.1.>.1.1.:.1.:.:.' x ' :.1.1.5.Q ;.;.1.>.1.:.;.a a o.M M 1.5.:.:.} a o.1.:.1.1.:.>.>.1.:.1.1.:.:.} ^ X.} } ;.^ O.o.V s I I a r a s r M Q Q M ;.;.X.X.Q ;.X.~ a ! :.:.' { ;.M T ! ! R ",
"<.X.Q :.:.;.<.:.X.I I Q ;.5.<.:.:.:.:.:.<.:.+.X.:.1.+.:.1.1.:.1.:.:.:.:.+.X.X.5.' X.1.1.:.+.1.:.:.+.5.+.1.1.>.:.$.,.,.>.>.>.;.;.>.U 3 ;   . .             . $ U 5.>.:.>.+.:.1.Q O.5.1.+.+.1.1.1.>.>.1.:.1.R X.:.5.1.:.1.1.1.1.:.1.<.1.o.' ' ' :.+.^ ' :.:.1.>.1.1.1.1.1.1.1.1.<.1.1.,.1.;.<.1.1.,.1.5.1.:.;.1.1.:.5.} ! 1.I :.:.1.:.>.1.1.N X.1.1.1.X.;.>.:.+.1.<.<.:.T - R X.;.1.<.1.:.+.5.5.1.5.:.' ^ ] x 2 - + .           h E ^ ..6.] 0 : @ . $ 1 [ $.$.R +.$.U X.,.+.>.1.1.:.1.1.1.1.1.1.+.! t.:.o.} <.' 1 1 ' 1.:.1.<.>.1.:.:.1.:.1.1.+.1.M 1 o.! +.5.5.1.5.1.,.1.,.1.1.1.1.o.:.:.1.1.o.} :.:.1.1.1.<.1.<.:.' } 1.>.1.1.1.1.1.1.1.1.1.,.1.5.<.5.:.1.1.1.,.1.1.1.1.1.+.+.<.:.:.1.1.1.1.5.<.' ^ +.+.I N :.;.' 1.1.} ^ :.5.:.I ' :.;.+.:.:.5.:.:.+.o.^ 1.M  .b 8 , % : % o X . . . .   - a Y b ^ ( +.:.X.>.:.,.X.s I 1.:.7.>.:.1.1.>.1.>.1.:.1.,.1.1.>.,.:.7.1.:.x ! :.:.<.:.<.Q 1.;.1.+.>.>.o.V r I a ;.<.:.:.:.X.r o.:.:.1.:.1.1.1.:.+.1.1.:.X.! ;.;.X.} X.;.;.;.r r a r r r I x ^ o.' o.I O.;.O.;.' ;.{ ;.c I :.;.' ;.{ R X.! ;.;.",
">.} ' +.:.>.>.1.>.} I Q R ! :.:.>.>.:.1.;.:.1.} :.+.1.:.:.:.:.:.:.:.1.1.:.X.} 5.^ o.:.:.} ' { ;.:.5.X.~ c ' :.>.+.+.,.,.>.>.>.>.>.>.s ; .     .           .   u +.$.1.1.+.o.:.I ;.1.1.:.+.<.1.1.1.1.1.>.<.X.Q >.:.1.1.>.:.>.1.1.1.1.+.' X.;.} [ X.' R +.:.:.1.>.:.1.<.1.,.1.1.1.1.1.:.5.:.:.<.1.1.:.+.<.1.{ 1.1.1.5.:.R o.' R 1.1.1.:.1.+.M :.1.1.1.X.:.1.:.+.1.<.<.;.I + ' ;.X.1.:.1.:.:.>.5.>.1.:.[ >.$.c > O . .         o n ( E ^ E ! d : $ . $ ; ( 5.+.V $.,.$.U >.+.>.5.>.7.,.1.1.:.1.1.X.I :.5.:.^ 5.' x r c 1.1.1.<.1.:.t.7.1.:.1.1.1.^ - @ Q ! :.1.7.1.,.1.<.1.1.1.1.:.1.+.:.o.<.;.! o.1.1.1.:.:.1.1.,.:.' ' 5.1.1.1.1.>.1.1.1.1.>.1.1.,.1.,.5.1.1.1.<.1.1.1.1.5.:.;.1.:.,.1.5.>.1.1.;.X.;.O.^ I I o.! Q :.1.+.:.1.1.:.^ { +.+.:.<.O.+.:.1.1.o.{ ^ N ^ b y , & % % o o + . . . + O M U R } +.:.:.X.1.>.:.1.} x Q 1.8.:.5.>.>.>.>.1.>.1.:.<.,.:.1.>.:.:.:.' x o.:.>.>.1.>.I 1.:.1.:.+.} 5.Q : r ;.<.:.<.:.:.+.r X.1.:.1.1.>.+.:.1.5.:.+.:.~ X.5.o.Q R ;. .^ x - - r r Q R ' ! ;.;.o.X.' ^ ;.<. .^ { ;.;.x r I ;.} 7.s ' ' X.! :.",
":.X.o.+.>.1.:.>.6.;.[ :.} I ' +.:.1.:.:.:.;.1.^ :.1.<.1.1.1.+.<.:.:.:.:.:.+.} X.' } :.:.X.:.;.} } ;.x Q ! } ^ } +.,.>.>.>.,.;.$.>.,.U ; + . + .               $ W $.>.:.:.o.:.R 1.1.1.5.+.+.1.1.:.5.:.>.:.<.! ;.1.:.1.1.>.>.:.7.1.5.o.X.<.1.5.X.' ^ b 1.1.;.1.1.<.,.1.>.1.1.,.1.1.1.1.:.1.+.:.1.5.<.1.1.;.:.1.7.7.:.:.} R } V :.:.1.>.:.} I :.1.>.>.X.:.1.:.o.1.1.:.;.s : o.:.X.:.1.:.1.1.:.1.:.>.>.X.,.>.x : . .           > } 6.1.8.| E y > @   + ; U 0.>.D $.2.$.>.D } +.>.5.:.,.1.1.1.1.:.' M ^ 1.:.I ;.' V I r V ;.1.:.7.:.>.:.:.7.<.1.R r R R a ^ 5.>.5.1.:.5.1.1.1.1.5.,.1.O.+.;.7.' ' :.>.1.:.1.:.1.1.<.:.} ^ 5.1.1.1.1.1.1.1.1.1.,.1.1.:.5.5.:.:.5.1.1.,.1.1.1.1.:.o.:.;.>.5.1.1.1.:.X.;.X.Q R Q N ' ^ ' :.:.1.1.1.;.1.^ ' :.:.1.:.1.:.+.1.+.+.O.b R F b i 3 % % o o @ . . . O O @ c ! +.U 1.>.1.o.1.1.5.:.o.} M R 5.:.5.:.1.1.,.>.1.,.1.1.>.1.,.1.7.1.:.x ! 5.:.>.:.:.X.d } } X.X.1.<.:.} 1 I :.:.:.<.:.:.o.y ' :.<.,.>.:.1.:.:.;.1.:.R } ;.o.' T R x a a r I I ^ I I I ^ o.} +.:.X.1.Q X.o.} ^ X.X.! Q ' x r T x x } ^ X.X.:.",
":.o.1.:.:.:.>.>.1.:.} } 7.:.! X.5.:.:.5.p.1.5.^ Q ' } +.>.1.1.:.>.>.:.:.1.+.;.R 1.I :.1.} o.5.O.X.a d :.+.>.>.} [ o.>.>.,.,.>.>.>.>.[ 7 . @ +                   h 1.:.:.:.o.+.! 1.1.5.1.:.X.:.5.1.1.1.1.1.;.+.I :.5.:.:.5.1.:.1.:.7.:.1.1.:.5.7.o.! a 1.:.1.>.>.1.,.<.1.1.1.1.1.1.1.1.:.5.+.:.1.>.+.5.;.c c c a x y r M M I } 1.:.:.1.:.' Q 1.1.1.:.X.+.5.:.+.1.<.:.;.r 1 :.:.X.o.5.1.1.>.1.1.1.,.+.+.>.>.c 1 .           . 7 $.$...2.$.} i > @   . $ s 5.5.R X.>.>.>.o.U [ +.:.1.>.1.1.7.1.X.' R } ;.:.^ o.<.N o.I - Q 1.;.:.:.:.1.o.! } I : ^ 8.;.V :.5.1.5.1.1.1.:.1.1.,.1.7.<.X.:.+.;.' :.:.1.:.1.1.1.,.>.1.:.X.R <.1.1.:.1.1.1.1.1.1.1.1.1.1.,.,.:.5.1.1.1.1.1.1.1.1.1.+.+.;.<.1.:.1.1.o.;.<.Q ^ X.} M ' X.X.1.1.:.:.<.1.1.! } :.o.:.:.1.1.5.+.+.1.1.i ~ V B i < : % o @ X + . . O @   c } +.^ +.:.:.X.1.<.<.:.;.;.X.M } 5.>.1.1.>.<.1.,.<.<.,.1.>.1.>.1.6.! a +.1.1.:.:.1.^ r M ' } ' +.;.:.! - X.:.:.:.:.1.:.:.y ' :.1.1.1.1.:.:.1.5.1.v M { V c a r x x Q T T ;.' ^ ! x R :.X.} :.+.+.1.;.R { o.' X.X.^ I X.X.R r O N I I I ! R ",
"+.+.:.>.:.:.1.>.:.:.X.+.:.:.+.} } :.:.' N b M M M R R R R Q ! ^ ' X.:.:.>.:.<.Q +.I [ +.;.;.1.:.} M o.:.1.:.1.1.:.} } +.>.>.>.$.>.>.$.A - @ . .             .   > } >.:.1.X.X.Q 1.1.5.1.1.;.;.<.1.1.1.5.<.;.1.T ' :.<.<.1.:.>.1.<.1.<.1.1.1.:.1.5.o.M ' :.5.<.1.:.1.1.1.1.1.1.1.1.1.1.<.1.>.:.:.1.:.V s s I R Q ' ' ' I V a s ' 1.1.:.1.! } :.1.1.:.X.;.5.:.+.5.1.:.o.- a :.1.;.' 1.1.1.1.1.1.1.1.+.+.,.>.c : O             s $.$.>.&.$.>.! 2 $ . . ; 2 $.2.( [ 6.>.2.,.#.U ' >.1.5.:.:.1.:.o.X.' 1.^ 1.;.X.7.d :.+.x 1 R 1.1.1.} ! ' I r r N ! } <.' I 1.5.1.1.1.>.1.1.1.,.1.5.,.o.;.' ! o.5.1.1.:.1.,.<.1.>.1.1.+.I 1.1.1.1.1.1.1.1.1.1.1.1.1.<.5.1.1.1.:.5.:.,.1.1.1.:.7.;.+.:.1.1.1.<.;.o.;.X.R +.+.' R } X.X.:.1.1.>.>.1.1.^ X.:.;.;.X.^ ' :.:.o.:.^ y ~ T V u , : % o o o + . X   @ ; Q c $.! o.;.<.o.<.1.1.:.X.;.8.R Q 1.;.1.1.:.:.1.,.1.1.,.1.:.1.1.1.;.b ' :.:.1.:.1.1.Q ! +.>.:.} <.;.{ x r I 7.:.<.:.>.1.:.s R :.<.:.:.1.5.:.' Q x ; r 1 r a M Q [ :.<.M ! X.X.{ R I ;.;.} :.:.;.1.<.:.R ' :.' [ } ' Q o.o.' s ! I Q N I R T ",
">.:.:.:.:.>.>.1.1.1.X.} +.+.+.{ } } x a I } } 5.+.^ :.<.+.+.o.} ^ Q } :.:.:.:.:.Q ' Q X.} :.<.+.:.I +.1.1.1.1.:.1.1.+.:.>.,.;.>.>.,.>.] t $ + . .               . D >.:.5.;.+.' 1.>.1.1.:.7.o.o.5.<.1.5.:.8.:.5.R } 1.1.:.5.1.:.7.:.1.:.,.1.7.,.<.1.o.! 1.:.:.>.1.,.1.1.:.1.1.,.1.1.1.1.:.7.o.o.1.^ N } { :.:.5.1.1.1.8.o.:.x r +.1.:.1.I 1.:.1.1.:.o.:.5.:.X.1.:.:.' + V ,.1.1.' :.1.1.1.>.1.1.>.>.>.1.>.h ; O             n 1.$.2.>.1.2.( 7 ; + @ t ; [ 6.o.] 2.>.>.>.6.X.R [ 1.1.1.1.1.+.:.1.} 5.+.+.:.' :.b 8.+.1.x - x I Q x x x - r ^ :.:.+.:.;.a +.5.1.1.7.,.:.1.1.1.1.7.1.} } ^ ' 1.:.1.:.1.:.1.1.>.>.>.1.;.M 1.1.1.1.1.1.,.1.:.<.,.1.1.<.,.,.1.1.5.:.5.1.1.1.1.:.1.+.+.;.1.1.7.<.' o.:.} ! :.X.} ! } X.>.1.1.:.1.;.:.1.! } :.O.I 1 : - M o.;.:.V s ^ V V , : % % o o @ . X . + t t ! V Q Y :.:.1.o.1.1.<.:.+.>.<.:.I :.<.1.<.1.1.,.<.>.1.<.1.:.1.:.:.! b ;.7.:.>.:.5.+.N >.+.+.1.X.:.1.I Q x b 1.<.,.:.:.:.1.x I ;.<.:.:.} I x y t y a I ' Q X.} 1.<.;.I r ! { ;.Q a ' :.{ :.5.:.:.5.1.O.} ' <.' } ' ' } X.7.c x 5. .} R ' <.;.",
":.:.>.1.:.:.:.>.1.1.:.o.o.<.;.X.! a @ x ' } X.:.:.+.X.1.>.:.:.1.1.1.:.+.:.:.:.:.! R R +.} <.1.:.:.I :.<.1.:.:.1.>.>.>.,.>.,.>.>.>.>.,.o.N : ; o .       .   .     3 R U U I I x Q I R R ! ' } ^ ;.1.1.1.1.1.1.;.^ ' :.<.1.<.,.<.1.1.1.1.1.1.1.1.1.1.:.Q >.,.1.>.1.>.<.1.1.1.1.1.1.1.1.5.1.1.<.o.' R o.;.{ :.<.:.:.1.1.;.5.+.' r I X.5.' I 1.1.:.<.:.o.:.5.+.X.7.:.5.M - ! >.7.1.X.o.5.<.1.1.1.1.>.:.>.>.,.s 2 O         .   A 2.$.2.2.$.>.| > $ +   D ; U 2.+.[ >.2.2.$.5.5.[ I :.1.5.1.:.+.1.1.^ y.:.} 1.X.Q I 1.1.X.M 1 @ + - O + 1 M } 5.1.:.1.1.<.d I :.7.>.1.1.1.1.1.5.1.1.1.o.M ' 5.1.1.>.1.:.1.1.<.1.1.:.<.:.M :.1.1.1.:.1.:.:.1.5.1.5.,.1.1.1.1.5.:.5.,.>.1.1.1.1.1.>.} :.:.1.o.R R ! <.I } :.^ ;.' ' :.+.<.<.:.+.:.+.5.Q +.o.M r I a r 1 a I o.s { R V b , , & @ X o + X .   + u t } ] } U [ ;.;.:.1.<.:.;.:.<.1.1.' ' 7.:.1.>.1.>.<.1.1.:.1.5.7.<.;.c ' 1.5.:.>.5.>.X.I :.:.+.;.1.:.' I :.I a 1.<.1.:.:.:.,.I I o.' N x y y I } +.:.! } ;.;.X.} { I s 1 1 ^ ;.' r x ;.} ;.:.:.:.:.<.:.;.<.^ o.o.! o.' } ;.! x ' :.o.R ' ;.<.o.",
":.>.:.:.:.>.>.>.<.1.:.;.X.:.:.:.I a I } ' ' ' ' o.:.;.+.:.1.1.:.:.:.:.:.:.1.1.5.} I M :.} X.5.:.} I 1.1.o.:.1.:.>.>.>.>.,.,.>.:.$.>.$.>.] 7 $ o         .     .   + R ^ ! ^ I Q X.o.;.o.' ! ! c x Q :.1.1.+.1.5.;.R o.:.:.1.1.1.5.1.1.,.1.1.<.1.1.1.1.' :.<.>.1.<.,.1.1.1.1.7.>.1.1.1.7.;.' R R d ! o.:.[ :.1.<.>.>.1.7.+.5.+.I N ' Q N } 5.:.:.<.;.:.:.:.;.+.5.:.:.r 1 X.1.5.1.:.} :.1.>.1.1.1.>.+.>.>.,.x > .         . o E >.$.$.$.>.,.#.7 $ $ . I : N 2.1.^ >.2.,.>.2.5.,.U V 1.1.<.:.:.1.1.^ 1.1.X.;.:.R I 1.! M ^ } ' x a x I ' 1.8.1.1.1.:.;.1.Q I ' 1.5.1.1.:.:.1.5.1.1.o.I v :.:.1.1.1.1.1.1.:.1.:.1.1.:.:.N :.1.1.1.1.1.:.:.,.5.1.1.<.1.,.1.1.:.5.1.<.1.1.1.1.7.:.1.[ <.5.o.} ' 5.! I ' :.o.} <.[ ' :.+.1.:.1.+.<.:.1.I 1.a b V } } ;.Q N R a d $.V T i : : , @ o o .   . . ; c d +.[ } ] X.;.:.:.1.1.:.+.:.1.5.1.:.+.:.1.1.1.:.1.,.1.1.:.,.1.<.<.R c +.:.1.:.1.:.:.! ' 1.:.1.<.<.o.a ' :.' r ' 1.:.1.1.:.<.! r x x V ! ' o.;.:.>.+.' o.5.<.' b x I M x a M X.x ! x ! X.<.<.;.:.:.:.:.<.<.! o.X.' :.! X.X.M c ;.:.;.M } ;.{ X.",
">.:.:.1.1.:.:.:.:.>.1.:.X.+.+.:.c ! y.:.1.7.1.' ' o.:.;.:.:.:.:.:.:.1.1.;.} Q ' o.! y } +.' :.1.} Q 1.;.' :.:.1.>.>.>.>.,.>.,.>.>.>.$.| >.s ; + .     . .           a +.:.:.I U 5.:.:.1.5.:.7.X.I M M Q :.t.1.;.;.I Q :.1.<.:.1.1.5.,.1.1.1.1.1.1.>.7.' o.:.1.1.1.:.1.1.1.5.1.1.1.1.1.:.! ! ! I ' ' ^ :.{ :.:.:.>.>.>.:.5.1.+.X.a X.I x o.:.5.:.:.o.1.:.;.<.:.1.1.;.- r :.<.,.1.1.' :.1.1.5.>.1.$.>.,.>.,.d > O         o > | $.>.$.&.1.2.$.7 $ $ O U t u ,.2.E >.2.>.$.>.d.:.5.Q X.:.1.;.:.1.1.' 1.1.:.} 7.^ x R I } 5.6.t.5.:.:.1.,.1.>.5.1.1.1.1.5.} I R :.1.7.1.1.1.1.,.:.7.Q M ^ o.5.<.1.>.1.1.1.:.>.:.1.1.,.7.R ;.1.1.1.1.1.<.:.<.1.5.:.1.5.:.1.,.5.,.,.:.5.1.1.>.:.5.:.~ :.' X.} 1.:.} y ^ } } X.1.} ' :.:.1.:.:.:.:.:.1.' r r x } <.1.:.<.' 1.y s ' I R y , , : @ X o X   . . y D h +.] ^ X.+.+.;.<.1.1.:.o.<.>.1.1.5.1.:.1.:.1.,.<.,.1.1.:.1.1.t.;.x M 5.1.:.:.1.:.:.I :.1.;.1.<.<.R N <.:.;.a a o.7.:.:.1.:.I c X.:.1.;.<.1.:.:.1.:.Q X.:.' I Q ;.;.M x X.a r c ;.I c ' ;.1.:.:.:.o.o.:.o.' X.o.;. .} 7.I R ' :.;.{ T ' Q ;.X.",
":.:.:.1.1.:.:.1.1.:.1.:.} +.:.X.x X.:.1.:.:.1.1.o.' } X.;.:.<.:.X.' ! Q Q Q ' X.>.:.a I :.} } :.R ' 1.+.} 1.1.:.>.>.>.>.,.,.>.>.>.>.,.$.,.Y : + . .       .         @ [ >.5.' I <.5.1.>.:.1.X.R ' 1.+.R V V T Q ' X.! ;.:.:.1.1.1.1.1.1.1.1.,.1.1.>.7.o.} :.1.1.>.1.1.1.1.1.1.1.1.:.} X.X.1.1.+.^ 1.! o.;.X.:.1.>.>.1.:.:.<.1.5.! I ! ! 1.:.:.<.<.o.1.1.:.1.<.1.1.' @ r :.1.5.5.>.X.;.:.<.1.+.+.:.>.>.>.5.c > O         . 7 1.>.2.$.2.1.>.$.t @ ; . D c ; +.,.E >.2.2.>.5.>.5.1.1.X.:.1.o.,.1.5.' 5.1.5.X.<.o.I [ } :.6.:.1.5.<.:.<.7.5.1.>.5.1.:.5.5.+.R } R X.5.1.1.:.:.;.o.Q V 1.1.o.1.:.:.1.1.1.1.1.1.1.<.1.:.7.! o.1.1.1.1.1.:.:.1.1.5.5.,.,.5.<.,.:.5.1.1.1.1.1.1.<.1.;.I ' ^ ' o.:.;.' M ' Q o.<.1.} ' :.;.1.<.1.:.,.<.:.a 1 c ^ <.;.1.:.:.} 5.x V r y I 8 : , & X X X X o   $ N U s +.} ^ X.1.+.+.1.:.1.:.o.1.>.1.1.:.:.1.1.,.1.1.1.1.:.<.1.1.<.<.R I ' :.:.1.:.>.:.o.I 1.:.:.:.:.o.M :.<.:.;.b - r I Q N U o.N X.>.:.:.<.1.1.:.:.:.' } :.} ! ! X.<.! M { { x M ' Q ! I Q O.<.:.:.:.X.X.;.X.X.Q o.;.^ ;.' I ' } o.X.} X.:.Q { o.",
">.:.:.1.1.1.1.:.:.:.1.1.X.;.:.' M 1.>.X.;.1.:.;.:.7.o.R ^ } ' M b Q X.+.:.1.1.<.;.:.Q x 1.:.' } x X.:.' X.:.:.>.>.>.>.>.>.,.>.>.>.$.$.>.+.[ u + . .     .   .         c :.>.:.U :.1.:.1.5.:.;.X.;.:.:.1.:.} V y 1 ; y I 1.1.,.<.1.1.1.1.,.1.1.1.1.1.1.:.^ >.>.1.<.,.1.>.1.1.1.1.:.X.' ;.1.5.<.;.' 1.' } 1.} :.,.1.1.1.7.+.1.1.:.<.I x ;.<.:.1.:.1.:.:.1.1.1.5.1.:.x O r <.1.1.7.>.:.X.1.<.+.X.;.>.>.,.>.,.x : O     . O . u $.&.2.$.2.$.>.$.u @ $ O t D ; ^ 2.Q $.1.2.,.6.+.7.+.1.:.+.1.X.5.1.1.' 1.5.1.;.o.o.! 1.1.:.>.>.5.1.1.1.1.7.1.6.5.5.5.:.1.5.5.U 7.Q x :.,.7.1.5.} x N ' o.1.' t.:.:.<.1.1.1.1.1.1.1.1.:.1.' } 5.,.1.1.7.:.:.<.1.1.5.:.1.<.:.5.1.1.1.1.1.>.1.1.:.X.o.Q X.5.} :.} o.I I X.' ;.5.1.^ ' 1.:.1.>.1.:.1.5.o.x c ;.5.1.<.:.5.;.:.^ M 7.V X d 8 : , : o o X o @   < ^ U c $.X.[ ;.5.X.+.1.:.5.1.o.5.:.5.1.1.>.1.1.1.>.1.:.>.1.>.5.:.1.' M :.+.o.:.>.1.1.:.' ' >.:.<.:.:.I I :.5.;.R M x + @ - + 1 a M 8.7.<.:.;.:.1.<.:.X.X.:.! N M R ' 7.! I 5.I a I { ! ' [ R X.<.<.;.X.' ' } :.+.R X.X.;.o.x ^ X.o.} o.} } o.o.' :.",
">.>.:.:.:.:.:.} ' ' o.1.,.>.+.o.R :.:.>.+.+.:.<.:.:.:.' I M I } +.:.:.:.:.:.;.<.:.:.X.a ! 1.X.U M :.:.Q :.<.1.:.$.>.>.1.,.>.>.>.>.,.$.,.+.;.Q ; o . .   .           . 3 >.>.5.U :.5.1.>.:.:.X.+.5.:.1.1.;.<.t.:.} ! x r R :.1.,.1.1.7.:.1.1.1.,.1.1.:.1.^ :.1.:.,.1.<.1.1.1.1.<.o.' +.1.>.<.1.o.} 1.8.+.X.X.;.:.1.>.1.<.1.1.;.1.<.' a :.5.1.:.:.1.1.:.1.1.5.1.1.X.-   r 1.1.1.7.1.7.[ >.>.+.:.:.>.,.,.,.6.x > O       O   d $.>.>.$.>.2.$.} t $ ; @ ; b 1 D 2.^ o.1.6.2.1.8.>.7.1.:.+.:.o.5.1.7.' :.8.5.<.' R I ' } 1.1.5.1.1.1.,.<.1.5.7.>.:.5.5.5.1.7.^ 1.5.! a x M M x x N o.+.:.1.;.:.1.1.1.1.1.1.1.1.:.1.1.1.:.' } 7.1.1.1.1.:.:.1.,.5.1.5.1.1.5.<.1.1.1.1.1.:.<.1.+.:.;.^ :.:.} ;.X.' ' R o.o.:.1.1.! ' 1.;.:.>.1.+.7.<.! Q :.<.1.:.1.1.1.<.5.M ~ <.G y 1 : , , % X o X   @   h o.U N >.X.| >.1.X.X.1.:.1.:.o.1.1.1.<.1.1.:.1.<.1.1.:.1.>.<.,.:.>.I R :.o.o.5.:.>.:.:.I X.:.:.:.1.X.x X.:.} Q [ ;.X.I Q I Q c r U :.:.1.1.<.1.:.} } [ Q Q ' X.:.' ^ } M X.! R I I { ^ { <.R X.{ ;.X.' ' ^ Q } } R } ' 5.T I O.o.} X.X.} :.o.X.} :.",
":.>.:.1.1.:.+.' +.:.1.1.:.:.:.1.! :.:.;.:.o.<.>.:.1.X.I Q } ' } :.:.:.:.:.:.:.+.+.:.>.b : I ' y s ' :.! ;.<.1.:.:.:.1.:.>.>.1.>.>.>.>.>.:.$.+.7 @ + . O O           O - ^ ,.,.Q | 2.2.>.>.>.X.+.<.:.1.:.1.1.1.1.1.1.1.! x R :.7.:.,.:.5.1.,.1.1.1.:.7.>.} [ ,.1.<.1.1.1.1.1.1.:.} o.:.1.>.1.1.X.' 1.<.1.;.^ X.1.1.1.:.1.1.:.>.1.<.' y ! 5.:.1.<.<.:.o.+.1.1.1.1.I O O y 5.>.1.1.1.5.o.o.<.1.o.X.+.>.>.:.7.x r O O O O   O x 1.1.$.>.>.o./ ] t ; + + : u 2 b ,.} } 1.>.2.1.5.1.1.5.1.+.:.+.5.>.5.' ;.5.5.5.<.' ^ o.X.} 1.1.5.1.:.>.7.1.} ' ' :.1.7.1.1.1.' :.1.1.X.! R R ' :.:.^ X.:.t.o.:.1.1.5.1.,.1.1.1.1.<.1.1.1.X.} 5.<.1.1.1.1.1.1.1.7.1.1.1.5.1.<.1.<.1.<.1.;.<.<.+.:.X.} 1.X.+.+.X.' X.' o.X.:.1.:.Q ' 1.+.<.:.<.1.1.o.N o.:.:.:.<.1.5.1.:.X.c X.O.F d 3 : , : @ @ . X X X @ m  .R V 1.O.+.1.2.X.X.1.1.:.:.o.1.1.1.1.1.1.,.1.1.1.,.:.<.1.>.:.5.[ M X.:.:.+.1.:.1.:.+.I :.;.<.:.:.M I 1.;.' } 1.7.;.X.:.1.>.X.x I X.<.:.<.:.:.:.;.! x M R 1.1.1.:.R R R ' I X.I } ' } } 1.R ^ ' o.:.:.:.;.' R X.R o.X.:.I :.:.o.:.o.X.X.X.:.o.o.<.",
">.:.:.+.<.+.+.X.:.:.>.<.:.;.+.+.Q X.;.;.:.<.X.1.5.} R ' o.+.X.' ' :.5.:.+.;.:.:.+.+.:.I I R x I } Q V ' 7.:.:.:.1.1.<.,.>.>.:.>.>.>.:.:.:.>.>.N ; @   @ O         . O O a +.:.] } ,.,.>.>.,.} +.1.:.>.>.>.1.1.1.1.:.:.t.;.M ' 1.:.1.1.>.1.1.1.1.1.1.,.1.X.! 1.:.,.1.1.,.1.1.7.} o.:.<.5.>.1.1.o.o.7.:.1.1.^ } <.<.5.1.1.1.<.1.1.<.Q ! x ' t.:.1.1.5.:.X.;.1.:.:.a - ; y 5.1.5.5.<.5.o.} :.1.' o.+.+.1.>.<.x ; O O O     O x 6.:.2.>.>.( o.>.a ; + $ M V 2 s ,.] ( 2.>.2.1.5.5.1.5.1.:.1.+.>.>.5.} +.5.5.5.5.} ' 7.:.} X.<.5.>.1.>.} ' ' ;.1.:.1.1.1.1.5.} X.1.1.t.7.5.1.1.7.1.^ ' 5.1.>.} 5.:.<.:.o.' X.:.1.1.1.1.5.o.} 5.1.5.5.1.1.:.1.1.1.1.1.5.1.1.1.1.,.1.1.<.+.+.+.1.+.' ;.+.+.;.X.X.o.' +.o.o.1.1.:.R } :.+.1.1.:.5.1.R ! :.:.:.:.:.<.1.1.:.~ I &.X.V d y , : % @ X + X @   2 ) } E R &.o.$.1.1.+.+.1.:.1.:.+.1.1.1.1.1.>.1.1.1.1.1.1.1.,.>.1.:.I Q :.:.:.+.1.:.1.:.^ ^ :.<.:.1.' x +.:.' } :.:.1.+.o.>.5.1.>.a x ;.:.:.;.o.X.' ' I x I 1.:.:.1.1.[ x ! ! { } I } ' +.} :.I I X.;.<.:.:.:.:.' ' Q } :.x ' ;.X.o.:. .o.X.o.;.o.:.<.",
">.:.>.1.1.:.;.o.:.:.1.1.1.:.:.<.' ' :.:.o.;.1.:.^ R X.:.:.+.:.X.^ ' +.:.:.+.:.:.:.+.:.I T 5.;.o.:.:.! R ' :.<.1.1.<.>.1.1.:.1.:.>.>.1.>.>.>.>.} t @ .   O . O .     O O O ] ;.} o.>.2.>.>.>.} +.:.>.1.1.1.1.1.1.1.1.1.:.<.o.M ! 7.:.1.1.1.1.1.1.1.5.:.1.:.' :.1.,.<.1.1.1.1.1.o.;.:.1.5.1.1.1.} o.:.1.<.1.1.' :.1.:.5.1.:.:.1.1.;.I 8.! d ;.1.,.<.1.<.:.X.:.,.o.r a y x 1.1.5.5.:.5.:.o.1.o.o.;.>.>.1.1.<.c ; + O O O   + c 6.$.1.>.} ..>.>.h $ @ $ ^ ] s 7 $.| E >.2.,.1.6.5.5.,.5.>.1.:.>.>.5.} X.1.5.5.1.^ ^ 1.5.1.X.;.1.1.1.:.! o.1.:.5.1.1.1.1.1.1.+.! 7.:.5.1.1.5.5.:.X.' I 7.1.1.} [ 1.1.;.X.+.:.1.5.1.1.1.1.;.' 1.1.5.1.1.1.+.<.1.1.1.1.,.5.1.1.1.1.1.1.5.o.o.<.1.X.+.} +.:.:.X.X.o.R 1.} ;.5.<.<.M ^ :.;.5.:.1.1.} N :.1.:.:.>.1.1.,.;.7.M X.+.) N d 8 : & @ @ @ X X X   d $.) E T &.O.&.1.1.:.:.:.1.1.+.:.1.1.1.>.1.1.1.1.1.:.1.1.:.:.<.5.! I <.:.:.:.o.5.<.1.:.R o.:.1.:.<.V Q o.} } +.1.:.1.o.o.:.:.:.o.I 2 I <.:.} R R I N I ' R :.1.:.1.<.R a I ' 1.[ V ^ o.o.1.+.! ' 1.:.+.<.o.^ ^ Q ' ! ' I I :.} } :.:.} :.o.X.o.o.+.:.",
":.>.:.+.;.+.} ! ' ^ ^ ' +.1.1.1.{ ! ;.X.:.<.<.Q R +.1.:.:.:.X.;.} ' } :.1.:.:.:.:.:.:.R V :.;.:.1.;.' >.} ! :.1.1.:.:.,.:.1.:.>.>.:.>.1.1.:.+.$.U : @   O     .     O @   N ;.X.] $.,.>.>.,.} +.>.:.1.1.1.1.1.1.>.1.7.:.{ :.' x } :.1.5.1.1.1.1.1.1.:.7.:.{ o.:.1.:.1.1.1.1.:.5.<.1.1.5.1.<.1.X.o.,.:.5.:.' M ' 5.;.1.:.1.<.1.:.' X.5.7.I s :.5.1.:.1.5.1.X.:.I ; ! x M 5.>.7.5.:.1.5.:.;.' :.:.:.5.1.1.:.M - + O O O     c 6.1.2.>.^ 2.1.$.c + @ $ ^ 1.U : X.$.U >.>.2.1.1.,.1.1.1.>.5.:.1.1.5.X.} 5.1.5.1.} ' 5.1.1.1.:.:.5.<.} Q ' 1.1.7.1.1.1.5.1.,.:.I 1.<.5.5.5.5.;.[ ' o.I 1.5.1.:.} ' ! ' :.5.5.5.1.1.1.1.1.;.' 1.1.5.1.1.5.+.:.5.1.1.1.1.1.1.,.1.:.1.,.7.;.X.5.:.o.:.R +.:.O.X.;.o.' :.' :.<.:.>.N ^ :.:.1.:.>.5.V ' 5.:.:.:.>.1.>.5.:.:.x 7. .R b i 3 : % @ X o @ o   @ F 1.{ ^ G <.| &.1.1.>.1.>.1.1.+.:.1.1.1.>.1.1.1.1.1.>.:.1.1.<.1.;.M ' 8.:.1.:.o.1.>.:.} Q 1.:.1.:.} a o.o.R :.>.1.1.1.X.o.:.<.1.o.' r r I ' Q :.o.o.o.} +.' ' 1.:.;.;.M M Q 1.:.' N ! ;.} 5.X.R o.:.:.:.+.} ' R M O.:.' x <.;.} +.5.X.' ;.o.X.X.X.o.:.",
">.:.:.1.:.<.^ x I Q ' } ' } o.1.:.! ' I ^ ^ Q ' :.:.:.:.1.:.:.;.:.o.} X.O.:.:.+.:.:.:.^ N o.:.:.>.:.^ 1.:.o.} ;.>.:.:.:.:.1.1.:.>.:.:.>.>.>.>.>.| s @ . + . . .   O + . + r X.X.X.+.,.,.>.>.} +.,.:.1.1.1.1.1.1.1.1.1.1.5.X.} ' M ' <.:.1.1.1.1.1.1.1.1.:.o.! :.,.:.1.1.1.1.1.1.1.1.1.1.1.1.1.} o.1.1.+.' I b I o.1.1.<.1.<.5.;.R 1.1.5.1.M V :.7.>.:.1.y.:.} r a :.a I 5.:.7.1.:.5.1.:.! { :.1.1.5.5.5.1.N - -   O       x 6.6.>.] +.5.q.>.c @ @ + ^ >.( 2 ( >.D >.2.>.2.,.,.1.1.5.>.5.:.1.1.5.} } 5.5.1.1.' ' 5.<.1.5.>.1.1.+.} 1.o.o.5.:.1.1.1.5.1.1.1.I ;.1.5.1.7.:.X.:.1.1.} o.1.7.1.1.;.Q I X.:.>.1.1.1.1.1.1.:.' 1.1.1.1.1.5.+.:.1.5.1.5.1.1.1.1.1.1.1.:.5.;.X.1.o.1.' ^ :.:.o.+.:.^ X.:.} 1.:.:.1.! ^ ;.;.1.:.:.' I +.1.:.1.1.1.1.1.:.7.I I ' I F b i , : @ @ X @ @ X X , ) <.} ^ G %. .1.1.1.<.1.1.1.1.;.1.,.1.1.>.1.1.,.1.1.1.>.1.1.5.5.R b :.:.1.1.:.o.1.<.>.' } 5.+.:.O.c Q <.R ^ :.>.1.:.1.X.X.:.1.:.;.:.M r r r X.X.o.o.} } :.:.^ :.:.X.Q I ! o.:.;.' I X.:.1.+.:.! ;.:.<.+.} } o.' R :.:.N { ;.} +.:.:.' o.+.+.o.o.o.:.1.",
":.>.>.:.+.+.V ' :.+.;.>.+.<.' X.} y a x N Q +.:.:.>.1.>.1.1.1.<.;.:.X.} X.X.:.:.o.;.:.} x o.o.<.1.:.' 1.1.1.} } 1.1.:.<.1.:.^ ' } [ :.1.>.>.>.>.$.U ; + + O O O O O   O + + Y ;.o.+.>.>.1.1.} +.1.1.:.1.1.>.1.1.<.1.1.1.1.1.[ ^ X.r o.;.1.;.1.1.1.1.1.>.1.;.I t.:.7.:.1.1.1.1.:.1.1.1.:.1.1.1.X.o.:.^ ' <.X.R ^ I <.:.1.:.1.1.! } 7.5.1.5.:.V t i.+.c 5.7.1.' - ^ ;.a I 5.:.6.1.1.1.1.:.! 1.1.1.1.1.1.5.<.V - + O O     O N o.6.| ^ 8.2.+.,.c + + @ E >.| s B >.D >.>.2.1.5.5.5.1.1.1.1.1.5.1.1.o.} 7.5.5.5.X.' 5.5.1.5.1.5.;.X.:.5.:.+.:.1.1.1.1.1.1.5.<.' } 1.8.<.+.+.+.>.:.:.:.} 1.5.1.:.<.1.' R ;.1.1.7.7.:.5.1.:.' 1.1.>.o.>.7.:.1.1.1.1.1.1.1.1.1.1.1.1.,.1.:.X.o.:.<.R } 5.' :.+.' R X.:.;.1.<.:.1.' ^ 1.:.:.1.>.b X.>.:.1.:.1.1.1.1.:.1.d x R R B n i , % @   % X o X @ v $.+.) R E +. .1.1.1.1.1.1.:.1.:.:.<.1.5.1.,.1.1.1.1.:.7.:.7.:.:.M ' 5.:.1.:.;.+.5.<.;.V :.5.:.<.! c 1.o.Q o.1.1.:.1.>.X.X.<.5.1.o.o.a R o.I x } X.;.o.o.5.1.' o.} } M V X.<.<.X.I Q <.<.<.:.+.! <.o.:.o.<.+.} o.:.:.R I 5.o.' 1.:.:.o.X.^ ' X.:.:.;.o.",
">.:.>.>.>.' R +.o.:.O.:.1.5.;.} M r M o.+.:.1.:.:.1.1.>.:.:.1.:.<.:.o.X.o.} +.;.<.:.+. .x X.;.:.>.:.' 7.<.1.>.X.X.:.:.<.X.Q ' ' ' } :.>.>.>.>.$.>.] t + + . + + O O O   - O s X.>.o.$.$.1.,.} +.1.<.1.1.,.1.,.1.1.,.1.,.1.1.1.;.! } d ' :.1.1.:.1.1.7.,.1.:.I o.1.:.1.1.1.1.1.1.1.5.5.+.1.1.1.} +.} ! ;.1.^ ;.5.V ^ 1.1.:.:.:.R :.1.5.5.5.5.;.x c } y ! :.<.a r ' 1.a ' 5.:.1.1.1.1.5.<.' :.1.1.5.1.1.1.1.I 1 + O       O V } 2.o.} ,.2.,.2.d ; + @ ! 2.o.b s >.] 2.2.2.1.5.5.1.1.1.5.,.1.5.1.5.o.' 5.5.5.1.X.' 1.5.1.1.1.1.o.:.1.1.1.:.:.1.1.1.1.1.1.5.1.} ! :.1.:.o.:.1.<.5.<.:.} 1.1.1.1.1.>.:.} ^ :.5.;.1.5.1.1.:.' 5.1.o.X.5.1.:.:.1.5.1.1.7.1.1.1.1.:.<.1.1.1.;.} 1.:.R ;.+.} 1.+.} ! o.;.:.1.<.:.1.! ' +.7.>.:.' I :.>.1.:.;.;.:.1.<.7.' y } :.I B b a : @ @   X X @ X , ~ $.O. .~ ~ +. .3.5.1.1.1.1.<.$.1.<.1.1.1.1.1.1.1.1.>.5.:.6.1.:.' I <.1.1.1.:.o.:.;.1.R R ;.1.+.:.I ' :.} ' ;.:.1.1.>.<.+.X.5.<.;.} ' b o.<.:.x I O.} } <.:.;.^ o.' ' x ^ :.<.o.' M I } Q M M R { ;.o.o.o.<.X.;.} <.' V :.:.} { +.<.! Q ^ X.{ ' :.<.X.' ",
":.>.:.>.:.R } :.o.:.+.X.:.:.1.} t } ! ! o.+.:.>.1.>.,.1.1.1.1.,.1.:.o.:.+.+.X.o.:.:.+.;.c X.:.+.:.:.' 1.1.:.:.>.+.o.:.;.^ X.5.1.1.:.:.>.>.>.>.1.>.$.b @ + . . . . O O   O O - Y ,.+.} >.,.>.X.+.1.1.:.1.1.1.1.1.1.1.1.1.1.1.>.:.;.! I x ' 1.<.5.5.:.1.1.1.1.{ R <.:.1.1.1.1.5.1.1.:.5.:.5.:.:.} } } :.:.:.} 1.<.X.b ^ 5.;.1.N Q 5.>.5.1.1.7.7.:.x r 1 I <.' r I Q X.a ' 1.5.1.5.1.1.1.5.' 1.1.1.1.1.1.1.1.R r @ O O     X U ] X.] $.$.2.,.$.t @ @ @ ] ,.o.Y 1 o.>.>.,.1.2.1.,.1.1.5.1.1.1.1.1.,.o.' 1.1.1.5.X.[ <.1.5.1.5.:.} 5.1.1.1.:.;.1.5.5.1.1.1.1.,.:.Q :.+.;.o.1.1.:.1.1.1.X.;.:.:.1.1.:.5.:.' R X.6.1.1.1.1.>.! 7.1.X.:.6.1.1.1.1.5.1.1.1.1.,.:.:.:.7.1.1.1.:.X.7.} ' :.} ;.<.X.o.' +.+.:.<.:.:.1.^ ^ :.>.>.:.I :.1.>.1.+.o.<.5.;.1.o.x I :.' V V b y : o @ X X @ @ X i O.$.| | ~ E &. .&.+.$.<.1.1.1.1.>.1.1.1.1.1.1.1.1.,.1.1.>.5.:.:.N } 5.:.:.1.1.} :.:.} a X.1.1.1.} M 1.} } } :.:.1.1.>.1.<.o.1.:.} ' o.x :.:.{ :.x R ;.;.:.:.+.' } } ' R :.:.5.} Q M M ' o.;.;.M N o.! X.o.o.} o.o.1.M ' 7.o.o.;.;.o.R ' X.+.:.} } :.+.} ",
":.>.:.:.o.R <.o.5.:.:.} X.X.^ @ V ;.<.1.^ } X.<.1.1.>.1.<.,.1.1.1.o.X.:.:.+.+.O. .;.:.:.M ' :.;.:.o.} 1.1.:.5.:.;.} } ' ' :.1.<.>.5.:.1.1.1.1.1.>.$.E > @ O . . .   O +   O   s ,.$.+.>.,.>.X.+.1.1.>.1.,.<.5.1.1.1.,.1.1.1.:.,.1.:.' R x ' :.1.1.1.1.:.1.5.1.I ' 5.:.7.:.1.1.1.1.1.:.+.1.<.:.' } :.7.o.} +.<.1.:.^ Q V :.V Q +.1.5.1.1.5.5.5.t.:.a - r 1.I r ;.[ c r ^ <.5.:.1.5.1.1.5.} :.1.1.,.1.1.1.:.Q r - O         R [ ! ( ,.$.$.o.] t . - - ( >.| ] + U ,.2.2.>.5.5.5.1.1.1.,.1.1.1.5.1.+.' 1.1.1.7.X.[ 1.1.5.1.5.+.X.5.:.,.1.:.:.1.1.7.1.1.1.1.1.1.I } } :.;.1.5.1.1.1.5.<.} :.1.<.1.>.1.1.1.X.! ' :.5.>.1.1.' 1.:.o.1.5.7.5.:.1.1.1.1.5.1.:.X.' ' X.:.1.5.1.o.5.^ o.' X.1.:.o.X.} :.:.:.>.:.1.5.Q x <.:.1.' R u.>.5.:.:.+.:.<.:.' ' x Q X.R V N v 8 % X X @ X @ X X m $.$.O.+.^ k | E } X.:.1.1.1.1.1.1.1.1.1.1.1.1.1.1.1.1.,.7.;.1.R I +.:.1.1.;.X.1.+.' V M 1.<.:.+.M ! +.' o.} <.:.1.>.:.1.1.X.;.o.' X.X.x :.X.+.:.} M { ;.:.<.o.^ +.} ! O.<.;.:.R I I 5.7.:.+.1.} M R X.:.:.}  .} o.I I :.o.o.X.:.<.^ } :.<.+.:.o. .;.o.o.",
">.<.:.:.o.^ :.:.5.;.:.o.o.' r r o.+.:.:.:.+.+.+.1.1.,.>.>.1.>.>.<.:.o.+.:.:.;.+.o.o.:.:.V ' 1.<.+.} X.<.1.:.1.:.5.1.! I +.1.>.1.>.1.1.1.1.:.1.:.>.2.[ s @ + + + . O + O   O O > } >.+.,.,.,.X.+.1.1.,.1.1.1.,.<.1.1.1.1.1.1.7.:.1.:.:.' M x R :.1.<.1.1.1.1.5.^ ! :.:.1.1.1.1.1.7.<.[ ' >.1.<.' X.1.:.:.^ ;.:.<.5.o.} ' x Q :.1.5.1.1.1.5.6.5.5.:.M I x r ; M <.' r 1 R 7.<.1.1.1.1.1.5.} o.5.1.<.5.1.1.<.I r - O       O Q +.! | $.o.$.o.^ c + @ - / >.o.o.; t | 6.5.>.1.1.5.1.,.5.5.1.5.1.5.1.:.' 1.1.,.7.} ' 1.5.1.5.>.} >.>.1.1.1.1.:.:.5.5.5.1.1.5.7.1.I I +.5.>.1.1.1.1.1.1.5.' ;.1.1.1.5.:.1.5.+.>.X.! :.5.1.>.' 1.o.+.7.1.7.:.:.1.7.1.1.5.1.7.1.:.:.X.' } :.5.:.} ' ' X.:.1.+.+.} X.:.:.>.>.1.:.1.I a ^ 7.+.I +.5.:.1.1.:.} ;.} R ;.} x ' ' R Q N d 2 @ % @ % @ @ X , ^ +.&.^ ) B y R G ^ } :.1.1.1.1.1.1.1.1.1.1.1.1.1.,.1.1.1.:.1.' M X.:.>.5.>.+.+.X.' X.^ ^ 1.1.+.} x ;.' X.o.o.1.1.1.<.:.1.:.} o.+.{ X.;.V X.+.1.>.<.R } <.:.} } ' ;.I R ;.:.1.' c Q ! <.X.:.;.:.} Q Q :.;.:.X.;.o.! M :.;.o.:.X.:.} ! :.5.:.;.o.;.<.o.X.o.",
":.>.:.:.<.} ;.1.+.+.:.:.;.I - ' :.1.+.+.:.:.+.+.;.:.1.1.1.>.1.:.:.1.1.X.+.<.:.1.:.} X.<.V ^ <.1.o.} X.:.5.:.1.1.;.5.<.' ' 5.1.:.1.1.1.1.1.:.5.1.>.>.+.U : @ + + O . + O - O + - ] +.+.>.$.,.| $.1.,.1.1.1.1.1.1.:.5.1.5.1.,.1.:.7.1.1.7.' M r I 1.:.:.5.1.1.1.} ' ' 5.:.1.1.1.1.1.} I R :.1.1.} } 7.+.1.R ;.5.1.+.p.} 1.Q +.:.1.:.>.5.5.1.5.7.7.:.I :.' + O x I 1 ; - ; ' 1.y.:.1.1.;.7.} X.1.1.1.7.1.1.1.I r + + O O     ^ :.} ,.o.+.;.2.U c ; ; ; E >.$.>.2 t U $.,.,.5.5.5.,.1.1.5.1.1.5.,.1.:.' 1.1.5.5.[ ! >.7.1.5.+.^ 6.:.7.1.:.5.:.;.1.7.5.1.1.1.,.5.U t +.5.:.1.1.1.1.5.1.1.o.;.:.1.1.1.5.<.1.+.:.7.>.+.7.:.1.' :.o.:.5.5.1.:.:.1.1.1.1.1.1.,.1.1.1.1.1.X.X.5.:.I X.I 5.1.7.X.:.' X.<.1.>.>.>.1.<.Q I M ;.Q Q 6.X.5.:.5.:.:.R ! t.;.M R o.X.' V M i & X @ % % @ @ X i o.%.3.G ^ d i R +.O._ :.:.1.1.1.1.1.1.5.1.1.1.1.1.1.1.1.5.:.5.d I 1.<.5.+.+.;.o.I 1.:.I 1.1.:.:.Q R <.} 1.' 1.1.1.1.1.1.<.o.' o.;.} ' o.Q +.o.5.:.:.R ^ ;.:.;.^ :.Q b ' 1.:.X.R R [ ' :.;.:.X.:.' ' Q 5.;.} <.o.X.b 1.o.1.o.} 1.;.R } :.<.:.} X.<.:.X.o.o.",
":.+.:.:.:.' :.:.1.+.:.:.} 1 x X.:.:.:.:.;.<.:.+.o.+.:.:.1.1.:.1.1.:.1.:.X.:.+.o.o.X.o.<.I ' 1.1.+.^ ! ^ } X.o.<.<.1.,.} ^ [ 1.:.:.>.>.>.>.1.>.>.1.>.1.[ s : + . . . + O O O + O s >.$.$.2.>.,.>.<.1.:.1.1.,.1.1.5.:.5.:.1.1.>.1.1.,.:.:.1.} R x x o.o.;.1.1.1.5.Q o.X.:.1.1.:.1.5.:.1.5.} ;.:.' +.:.5.+.} o.:.1.<.8.;.^ } 5.:.<.1.1.5.5.5.5.5.6.X.I I 1 - r - - r M 1 1 - a ' 1.1.1.1.7.} X.1.1.1.1.1.:.7.I r O + O O O   M :.} ,.+.>.;.[ E t ; @ O ^ >.>.$.h 2 h $.5.5.5.1.5.1.5.1.1.1.5.1.1.1.:.M ' :.5.1.X.V :.1.1.6.} :.5.1.1.>.1.1.1.:.1.,.1.1.5.1.1.7.' I ! X.7.>.5.5.1.1.<.5.:.} 1.1.1.:.>.1.5.X.o.>.} [ [ } :.} } ;.1.1.1.5.,.:.7.1.5.1.7.1.1.1.5.1.,.5.:.} 1.:.I ^ } 1.1.:.X.+.Q :.:.>.1.:.:.1.;.R :.R X.I :.7.:.1.1.<.} I ^ :.+.;.V ' <.} I M d , % X % @ & @ % @ ) +.1.1.^ &.B v ^ %.&. .X.,.1.:.1.1.1.1.1.,.1.1.1.1.1.1.1.:.' X.M I :.1.1.+.:.+.' +.:.} Q 1.1.1.;.I :.;.;.<.' >.1.1.1.1.1.+.o.} <.1.} :.' ' :.:.>.1.:.} R o.:.} { ! R R +.:.+.} M ' ' } :.X.1.;.;.} o.' o.:.o.:.} c ' :.1.<.:.+.O.} ' o.:.:.+.} :.:.X.X.:.+.",
"1.+.:.:.;.} :.:.<.:.:.{ V @ R X.:.<.:.:.:.1.:.:.+.o.:.<.<.:.1.1.1.<.1.>.;.o.<.+.} :.+.:.I ^ 1.:.5.^ I ' X.' ' } } X.+.X.X.[ } 5.:.>.1.<.>.>.>.1.>.>.1.+.D > $ + . . + O O O + . ; ( $.>.$.1.>.1.1.,.1.1.1.1.1.1.,.:.5.:.5.,.:.1.<.:.1.7.:.' R I M x R ;.+.7.>.1.' ^ o.o.:.1.1.1.5.>.:.6.;.} ;.^ ;.:.5.X.+.<.o.:.1.5.;.R :.<.:.5.:.1.5.5.1.5.5.5.R y + ; x ;.Q I } [ a ^ x - t X.:.5.5.1.} } 1.:.1.5.1.,.7.I r - +   O     t ,.] ,.:.5.} Y U t - ; + ! ,.$.,.S 2 c U ,.2.5.1.5.5.1.5.5.1.1.1.1.5.:.I ! ' o.1.1.Q :.1.5.<.+.:.5.:.1.1.1.1.1.:.1.1.5.1.1.,.>.5.} ^ ' ! >.5.<.5.1.1.1.5.:.o.X.5.1.1.1.1.+.R V ^ ^ [ X.' U ^ ! o.,.5.1.7.>.:.5.,.1.1.7.1.1.1.1.1.1.1.5.X.' X.I ^ X.1.5.:.+.} ' :.1.1.<.:.1.1.+.Q 1.! R ' 5.1.1.1.X.' ! { 1.1.+.^ M o.:.! I M i , o @ @ % @ @ @ 8 o. .&.o.)  .R B } $.<.o.^ <.1.<.1.1.<.,.:.1.,.1.1.7.1.1.>.^ ' 5.! I 1.:.:.:.;.} :.5.1.R } 5.1.7.' Q t.X.:.:.} <.1.1.1.;.X.+.:.} ;.1.} +.R } 1.:.1.+.;.:.x T :.} R X.Q } 5.+.o.! I } Q +.+.+.:.o.o.' ;.o.} o.o.:.x R :.:.1.:.:.:.} ' o.:.+.X. .:.:.+.o.o.<.;.",
"1.:.:.o.:.X.} :.<.;.' I r x ' { ;.1.1.>.<.1.>.:.:.;.o.+.:.:.:.1.:.1.1.1.:.X.+.1.} :.X.;.I ^ <.1.:.+.X.1.1.<.:.o.[ ' } ^ X.1.o.+.1.1.>.1.1.1.>.1.>.>.>.>.] t @ $ . + . O + + + . . c >.X.o.>.1.>.:.1.:.1.1.1.,.1.,.5.<.1.<.1.7.,.:.5.1.;.I ! ;.' R N r I 1.1.>.7.:.^ ' } 1.1.:.:.1.>.1.1.:.} I } :.5.5.o.:.1.X.+.1.<.+.R :.:.:.<.1.1.1.1.5.5.5.>.x + 1 ! 7.5.:.,.:.' t 7.:.I 1 x o.7.<.5.} [ 7.1.1.5.1.1.1.R r + O O     O @ } } 5.,.5.' I d 1 ; ; + E ,.,.,.$.t D t ,.+.1.5.5.1.5.5.1.1.1.1.,.,.X.' 7.;.} X.:.^ +.;.5.o.+.5.>.>.5.1.1.5.1.1.1.5.1.1.1.5.1.1.} ' ;.} +.1.1.1.1.1.1.<.1.;.^ 1.5.1.:.} ' Q ' :.5.7.6.5.' x b ;.1.1.1.7.>.:.7.:.,.1.5.1.5.,.1.1.1.7.<.} Q I V Q ;.1.>.;.:.' } <.1.1.1.1.1.:.' I :.! x :.7.<.;.' ' X.o.:.:.5.<.x I :.} I R b 0 : @ @ % @ X X @ m &.o.1. .} } W b _ O.1.&.} :.1.1.1.1.1.5.1.1.1.1.,.1.1.:.o.' 1.>.! ' <.:.+.1.} +.1.:.;.I :.7.1.:.I } :.o.:.+.} 1.7.1.:.+.+.:.1.X.+.:.^ X.' :.5.<.<.X.o.;.I b V Q ^ X.Q 1.1.X.{ R R o.! ;.+.:.:.+.o.} :.;.! :.:.! M ;.:.:.>.>.:.:.X.X.;.:.o.X.;.<.:.o.+.:.:.:.",
":.:.<.:.1.o.' :.' R Q M r o.:.1.:.:.:.>.:.:.:.1.1.<.:.X.;.1.1.1.1.1.1.>.1.5.o.+.} X.+.:.I ! 1.1.<.:.} 5.5.>.1.5.5.5.1.+.o.:.:.X.:.1.1.1.1.1.>.1.>.5.>.>.$.c ; + . . . O O . O . O : | o.o.>.,.1.1.1.1.1.1.1.1.1.<.5.:.,.5.5.1.:.1.>.' R ;.7.1.<.X.M I y x X.1.:.t.;.R X.o.<.} o.1.:.1.:.:.:.I I ' :.1.;.1.1.:.+.:.:.X.} :.1.1.:.5.1.5.5.5.5.5.[ 1 r ! 5.5.1.:.7.,.! a :.:.,.I 1 a X.5.5.;.' 7.1.1.5.,.1.1.' a + O O         N ;.:.,.6.] c t ; - $ @ U ,.$.>.>.U t t ( 5.1.5.5.1.,.5.5.,.1.1.1.1.} o.1.7.5.+.X.R :.;.1.} :.1.1.1.1.1.5.1.1.1.1.1.5.1.1.5.1.1.+.X.} :.} :.1.:.1.:.5.1.1.:.' :.1.:.:.:.+.+.1.5.1.5.:.5.:.M x :.1.7.1.5.>.;.5.:.:.5.,.1.1.5.1.1.1.:.o.+.;.! V V :.1.1.:.;.' :.1.:.1.1.+.X.X.R ' ' I Q :.;.} } X.1.:.o.:.:.<.X.x } X.R M I b , : % % % @ o @ , ^ O.O.1.| } O.^ b | $.1.&.1.1.<.1.1.,.1.1.1.1.1.1.:.1.5.>.X.:.:.5.U [ 7.:.+.} +.>.5.:.' ' 1.1.:.Q I ;.' :.:.X.X.,.5.:.+.+.:.:.:.:.:.o.' +.' :.:.5.;.+.o.O.^ } M x o.! { <.;.X.' I } } ' :.:.1.1.:.X.o.:.[ ^ <.o.I } >.<.>.1.:.;.+.+.+.:.:.o.:.1.+.+.:.:.<.+.:.",
"5.:.:.1.:.1.' ! x ! X.a M ;.:.:.1.1.1.:.>.>.:.1.1.:.1.} ' o.,.<.>.1.1.1.1.1.+.' X.} ;.:.I R >.1.:.;.' 1.1.1.5.1.:.:.1.1.:.:.:.:.+.>.1.1.1.1.1.:.>.>.>.,.,.Y 7 # @ . . . O O O . . . N >.| >.>.1.1.:.,.1.,.1.1.<.5.:.5.,.,.:.:.y.5.' ' :.:.:.:.1.:.} r s x r ! :.7.1.} ^ } ,.X.+.5.1.1.,.1.1.' I V ^ [ o.5.1.1.+.:.:.X.:.+.1.1.1.1.1.1.5.5.5.>.x ; [ 5.6.5.7.:.:.:.I a 7.1.5.:.I : r } :.;.Q 5.<.1.5.<.1.<.;.x - O O O   O O t o.] :.] I 2 r 7 + ; @ n ,.>.$.>.} t t n 2.1.5.,.5.5.1.1.1.5.1.1.<.' :.6.:.1.5.+.T 7.;.+.+.1.1.1.1.1.,.1.1.1.1.1.5.1.1.1.1.<.8.+.<.Q ;.' [ o.+.X.:.1.5.1.1.+.X.5.:.1.5.:.:.1.1.>.7.1.7.5.X.I <.1.1.5.5.1.:.5.:.:.5.1.1.1.5.1.1.:.o.o.:.:.} ^ I >.>.<.:.X.} 1.1.;.:.:.;.;.:.^ 8.' r ' o.Q ^ 5.7.:.+.:.:.:.:.' c :.R M b V v 2 % , @ @ o o @ i O.| +.O.%.^ <.) b o.+.5.1.5.1.1.,.1.1.1.1.1.1.1.1.1.1.:.X.[ ^ X.:.I :.:.:.+.} 1.>.:.1.! :.:.:.o.I X.o.o.:.:.o.:.:.:.X.;.:.>.:.:.<.:.' } X.[ 7.:.<.^ ' ' ;.! ;.O.' } M ;.;.:.} ' ! :.} X.:.:.1.<.:.{ ;.} [ } :.M R :.:.5.1.:.:.+.;.+.+.+.:.:.;.:.o.+.:.<.<.+.:.",
":.:.:.1.:.5.I c I ! ' r ! X.1.:.:.<.:.1.<.:.>.:.1.:.X.} ' ^ ' { +.>.1.:.1.:.:.o.{ [ ;.<.Q I :.7.:.,.' 5.>.>.1.1.1.1.1.1.;.:.<.>.:.X.:.1.1.1.>.1.1.:.1.1.1.o.h : @ @ . . + . O . .   y ,.o.$.,.1.1.1.,.1.5.1.,.,.5.1.,.1.1.1.1.5.>.,.1.1.1.5.:.5.:.5.:.Q ' I x I ;.:.<.' Q ;.{ :.<.5.:.1.5.:.} } I ' I I ' +.:.:.X.<.o.:.:.<.1.1.>.,.5.1.<.:.} : x 1.:.:.1.1.1.7.,.I a <.,.1.:.;.Q - 1 I X.N ;.:.5.1.>.5.1.:.U 2 O O O O   O 1 } N ! t ; - 2 t ; - + c >.,.$.,.#.M @ 1 V [ 5.>.5.5.1.1.1.<.1.1.:.^ 6.1.1.5.5.:.Q 5.+.X.:.5.1.1.1.1.1.1.1.1.5.1.1.1.5.5.1.5.5.} 7.' } ' } } ;.[ [ ;.1.:.1.5.' 5.5.1.1.+.<.5.1.1.5.5.5.<.;.Q 1.1.1.1.5.1.+.5.:.:.5.1.1.5.5.1.1.:.+.1.1.X.o.:.} 5.<.:.X.^ } 1.1.o.1.1.5.7.1.! ;.' r U +.;.7.:.<.:.>.:.,.:.:.I { X.x x x M s - : 1 @ @ X @ @ B +.| o.o.&.} 5.} x X.+.1.5.1.5.1.1.1.1.1.1.,.1.1.5.:.Q I R ^ R I X.I <.:.;.o.1.1.:.:.:.^ 1.:.1.' Q 5.' :.:.:.o.1.o.+.+.:.1.1.:.1.5.:.X.<.} X.1.;.o.^ } } ' ' :.:.;.I M <.:.:.' ' ^ :.' :.:.:.1.:.o.' :.X.X.} R I +.:.:.:.>.:.:.:.+.+.o.+.+.:.+.+.+.:.:.:.:.:.+.",
":.1.+.+.1.' s r M X.! y X.X.:.<.:.1.:.,.1.:.1.1.:.o.X.:.<.:.} o.[ ' ;.1.:.1.:.:.} Q ' o.c R 7.1.1.:.' 7.>.1.>.,.<.,.1.1.:.+.:.1.:.X.+.:.1.1.1.1.1.1.1.1.2.>.D 7 @ + @ . . + . O .   : ( 6.>.1.1.1.1.<.1.:.1.<.5.:.1.1.1.1.1.,.:.1.1.1.1.1.1.5.:.,.5.:.:.} I ' x r M 1.1.I ' ' O.:.1.1.7.>.+.>.:.' ' ' R ' ^ V } X.;.;.7.1.o.:.<.t.:.X.Q M r 1 - ' :.5.5.5.1.,.1.<.c M :.<.5.:.:.1.I r - a 1 R ;.>.>.1.>.5.1.X.r O O         @ ' x r ; ; 2 M c - - @ t $.>.>.>.>.+.s + @ n 5.5.5.5.1.1.5.<.5.>.+.} 5.1.1.1.1.1.^ :.+.X.1.1.5.1.5.1.1.1.7.1.5.5.5.7.1.1.5.5.;.o.5.} } 1.6.5.7.5.:.[ ' :.5.:.} :.5.1.1.:.1.5.1.1.1.1.1.5.:.R ,.1.5.5.1.<.+.5.>.:.5.1.1.1.5.1.:.:.:.<.o.o.;.o.} <.+.o.{ R } <.:.X.1.,.1.5.1.! :.I I +.5.5.:.' :.1.:.<.1.:.<.x ! Q x b c x r - 1 : % @ X X : W +.+.|  .O.O.1.o.x X.1.1.1.1.1.<.>.1.:.1.:.1.7.:.R M M R +.1.:.o.c R X.<.;.<.1.1.1.1.' } 1.1.:.I o.:.^ :.:.:.} :.' :.:.:.:.1.:.>.;.+.o.5.! X.1.X.} +.1.} ~ ;.:.:.:.M [ :.:.} ' ^ [ ;.' 1.>.:.>.;.X.} o.o.:.! c +.:.:.1.:.>.:.:.;.+.X.+.+.:.:.:.;.+.:.1.:.:.:.X.",
":.5.:.5.' N I V ' ' N M :.' X.;.:.:.1.:.:.1.:.1.:.;.V Q R ! ' } [ ' o.:.:.1.1.:.:.! M x r } 7.:.<.:.' 1.:.1.1.>.1.1.1.1.1.+.:.:.:.5.o.;.1.>.1.1.1.1.1.1.>.>.o.f $ + @ O + + . O   O O n 6.>.1.1.1.1.<.1.5.,.5.:.5.:.1.1.,.<.<.5.1.1.1.1.1.1.1.1.1.:.5.5.<.;.Q ;.! a a Q o.I Q X.5.:.:.1.>.+.:.7.;.' } +.:.1.O.Q I b } :.,.X.:.7.;.^ a - O + r I } 1.:.1.5.1.5.:.1.a I 1.1.1.>.7.:.:.} x - 1 b ;.5.7.1.1.1.:.1.M + O     O   O t r O t t Y >.U - @ ; 1 ] $.,.$.4.,.o.Y 7 r ' 6.5.1.5.1.5.1.1.1.' +.5.1.5.1.>.5.Q X.+.+.1.1.5.5.1.1.1.5.1.5.1.5.5.,.1.5.1.1.;.+.1.' } t.7.1.5.>.1.1.X.} :.5.o.} 7.5.:.;.1.5.1.1.5.1.5.5.1.I ;.1.5.1.5.1.+.7.:.:.1.1.5.1.:.:.;.:.5.<.o.;.:.o.' o.;.:.X.Q } :.:.+.5.5.5.:.,.^ X.x ' 5.:.7.' R :.5.:.1.;.1.' c T c M c c a - X : % % @ X X i O.$.O. .X.+.O.>.:.x } >.1.1.1.5.>.1.5.1.1.>.1.<.' ' +.1.1.1.;.1.5.a a o.o.:.t.:.1.1.<.R :.;.5.Q R 7.X.} 1.:.;.' :.+.<.1.1.1.<.1.1.+.;.X.} x ^ <.X.X.:.X.' ' 5.+.:.[ I :.:.X.{ X.! ;.:.' :.>.>.:.:.+.X.:.<.' s { :.1.1.1.1.:.:.:.+.+.+.+.:.:.<.:.:.+.:.:.:.;.+.' ",
":.1.;.:.x ^ X.} } o.a x { ! ;.' :.1.1.1.5.<.:.5.^ b b ' o.:.:.} } ' ! } 1.1.1.:.1.X.x r ! :.:.1.1.:.[ 1.,.1.:.1.:.1.,.>.5.o.:.:.>.1.<.+.;.1.5.1.1.1.,.1.>.$.,.U 7 $ @ + . + . .   ;   t >.5.1.5.1.1.1.,.5.:.:.5.:.5.1.<.,.5.1.,.<.1.1.,.,.1.1.1.:.5.5.<.1.<.X.M X.,.I r y x r I y.:.1.7.>.:.:.1.} ' 1.o.X.1.5.5.+.x x r N I ! Q x - - r x R ;.:.Q 1.<.7.1.>.5.>.1.2 I 1.1.5.1.1.:.1.<.;.N 1 + y ! >.>.5.5.1.5.I - O O       O - - r U ! ;.] U - ; ; ; ! >.>.,.$.>.2.1.^ a t ' 6.5.5.5.1.5.1.>.Q >.5.1.1.1.1.5.! ' X.+.1.1.1.1.5.5.5.1.5.1.1.5.1.1.5.7.5.5.:.:.1.X.' :.1.1.5.5.1.5.5.:.:.5.:.' 1.5.+.:.1.5.5.1.5.1.1.5.<.I :.>.5.1.5.1.+.5.:.:.1.5.1.1.+.:.:.1.5.;.:.1.:.:.' o.o.<.} ^ X.X.+.:.1.1.5.<.:.! R I [ 5.>.1.' ' 1.1.:.<.:.5.x V R c N x c r + @ % % % o @ @ T 2.%.+.o.X.+.+.1.:.x ' 1.1.2.1.3.1.1.1.5.1.>.1.} ' ;.1.:.:.1.5.5.:.' 1 Q ;.1.1.:.>.5.X.' <.1.X.V ;.<.' o.1.<.' I ;.<.:.1.1.:.1.1.1.:.:.} ^ I } } } ;.+.X.Q } <.:.:.! R [ o.[ :.:.' :.:.' :.:.1.<.:.+.;.:.o.M ^ ;.:.1.>.1.<.1.:.+.O.+.:.:.>.>.:.:.:.:.<.:.+.+.} ^ ",
";.:.1.c V 7.' X.:.:.a I ' Q } ^ X.1.5.:.5.:.6.! M R } 1.:.1.>.5.5.:.:.>.1.>.1.:.1.>.! N 6.>.;.1.<.<.' :.<.1.:.1.<.1.>.<.1.:.;.>.1.+.5.:.X.:.1.1.1.1.>.2.,.,.9.] u ; $ @ O O . O O +   @ ^ 1.>.1.:.1.5.:.,.,.<.1.5.5.,.<.1.,.<.5.1.1.1.1.:.1.,.<.1.1.1.1.<.,.1.;.' } 1.{ x r r r ' :.:.:.;.;.>.1.o.' 1.;.X.+.1.5.} ' } V r ; 1 @ 1 M ' :.:.5.8.7.} o.5.1.1.1.1.1.:.2 I :.1.5.:.>.1.1.:.7.+.^ a ; ; r c I } ;.;.R 1 O O O O O O O > U ,.] ;.} I + - + ; Y 2.,.$.>.1.2.>.2.' 3 r ;.8.5.5.1.1.1.X.^ 5.1.1.1.1.1.5.} ' } ;.1.5.1.1.1.5.1.1.5.1.5.5.,.1.5.5.:.:.X.o.,.+.X.X.1.1.1.1.7.:.1.5.1.5.1.} o.5.+.:.5.5.1.1.5.5.1.1.1.Q } 1.1.5.5.1.+.6.:.:.1.1.1.1.1.1.1.5.1.X.:.1.:.o.} :.:.:.} o.<.o.;.:.1.1.5.5.o.V x ' 7.:.1.:.R } 1.:.:.1.:.o.3 Q R b V s x 2   % % % % @   < _ 3.1.O.X.X.+.o.1.1.x ^ <.1.5.1.1.5.>.:.5.1.:.:.X.:.7.5.1.1.5.1.1.:.I b r { <.:.1.<.1.R ;.<.5.~ Q :.;.' X.>.>.Q N X.1.1.1.1.1.>.1.<.:.+.' Q } :.Q I ' I R I Q :.O.X.^ X.I } o.5.' { :.' } :.>.1.:.o.:.:.+.c I :.:.:.:.:.>.>.>.:.+.+.+.:.:.:.1.:.+.:.:.:.+.+.+.' ' ",
"} :.' x o.:.o.X.1.o.r ' 1.+.Q ! R :.1.:.:.>.o.x } ;.:.:.:.:.1.1.1.1.1.:.<.1.1.1.1.:.} R 5.<.:.1.1.:.} :.>.1.>.1.,.1.1.,.:.:.:.:.1.:.:.1.;.o.:.,.1.>.,.>.2.$.>.&.n : ; + + . O O O . .   h >.1.1.5.:.5.5.5.:.1.1.,.:.:.5.1.1.5.:.,.1.1.1.5.1.,.5.,.1.1.1.1.:.1.1.:.Q I X.:.} M r 1 I ' ^ ' ;.1.:.} o.;.+.<.:.;.1.} +.;.} N 1 r I X.<.1.5.1.1.5.1.;.} 5.1.1.1.1.6.} 1 ' <.:.5.>.1.1.1.>.1.:.>.:.I r @ 1 - 1 1 1 s 1 @ O O O O O   M >.u.! ;.} I ; + t t c $.2.>.2.>.>.2.$.>.} 3 c 8.5.5.1.>.1.' ' 1.<.5.5.>.1.1.o.' [ :.1.1.1.1.5.5.5.5.1.5.1.7.1.1.1.:.X.[ I ' :.:.:.' <.1.1.5.1.5.1.1.5.1.1.+.[ 1.:.1.5.5.1.1.5.5.1.6.1.' Q 5.5.5.1.1.+.8.:.:.1.1.1.1.1.1.5.5.1.o.1.{ I ' ' 1.:.:.' X.1.} ;.:.5.;.7.5.' x I } :.1.1.>.N +.>.1.:.1.+.^ d } ^ M M x a @ O % - @ @ @   v 1.&.1.O.X.o.+.o.:.7.x ' 1.1.1.5.1.1.:.+.1.1.;.X.1.6.1.1.1.1.1.1.<.:.a ' I M :.5.:.1.:.Q :.7.+.R o.<.+.} +.>.} } } ' >.1.1.1.1.1.<.<.>.+.' ^ X.X.Q ' <.X.:.! ' ' :.X.' :.! } 7.;.^ :.<.! ;.1.1.1.o.} ;.+.N R o.+.:.1.>.:.>.1.:.:.:.+.+.>.>.:.:.:.:.:.:.<.;.+.o.' V ",
"V 1.r Q :.:.' :.' R t o.1.<.} ' I I ;.<.:.X.N } 1.:.+.;.:.1.1.:.>.1.1.>.1.>.>.1.1.>.o.I :.:.1.:.:.:.X.} 1.:.>.1.>.>.1.>.:.1.:.:.>.:.1.1.1.<.:.5.,.1.2.>.,.$.2.2.] y $ O + . . . . O +   2 ] 1.1.7.:.<.,.:.5.1.<.,.5.5.,.,.1.1.1.1.1.1.1.:.1.<.:.1.1.1.1.1.1.1.:.1.1.;.I I ;.:.' c ; x 1.7.} <.1.o.o.:.+.5.<.;.:.X.} Q b ' c ' :.5.1.1.1.5.1.5.1.<.' 1.1.5.1.1.1.' - o.1.1.1.5.1.<.1.:.1.>.>.1.:.;.U x t 2 - : 1 r @ O O O       t ,.6.! ;.X.x ; - t E t ( ,.>.,.2.>.1.1.>.7.' 1 } 5.8.1.^ ' R 6.1.1.1.5.1.5.:.;.R } >.5.5.>.>.5.1.5.5.,.5.5.,.1.1.:.+.X.5.5.' o.1.1.^ +.5.:.1.1.1.1.5.5.1.:.6.^ <.+.6.5.5.1.1.5.1.5.5.1.;.N 1.:.5.:.+.1.5.1.X.5.5.1.1.5.1.1.1.<.:.5.:.' x y R o.Q R ' ' Q ' ' } X.8.1.V 3 } ;.:.1.1.1.I } 1.:.1.<.>.b ' } ^ M b d 1 @ - - - @ @ . @ ^ 1.+.5.+.O.o.:.o.1.:.M ! :.5.1.:.1.<.} [ ;.:.} >.6.1.>.:.<.1.1.<.7.} N ;.<.I } :.:.o.} ' 1.1.' ^ :.<.X.X.:.1.' X.5.' :.5.1.1.1.1.1.1.1.} +.Q X.o.o.' o.o.1.^ ;.} :.^ { :.{ { 5.{ ! :.o.! ;.1.:.:.{ ;.7.M R o.o.:.<.1.<.>.1.>.1.:.:.>.1.1.:.;.:.:.:.<.<.;.o.+.' M : ",
"a x x } o.+.:.' R I x 1.1.:.:.o.} Q Q ;.1.^ ! :.:.:.1.:.:.:.:.1.1.:.>.1.>.1.,.>.1.:.+.N o.1.:.:.:.1.X.} 5.1.<.,.1.1.:.1.>.1.:.:.:.>.1.1.1.<.>.1.2.,.,.,.2.2.,.>.$.c ; + + . O . . . +   @ V 7.:.5.<.1.1.5.1.1.1.,.:.5.<.1.1.1.1.1.1.,.1.5.,.1.5.1.1.<.1.1.1.1.1.1.7.1.:.;.! I ! 5.' x y ' 1.:.1.:.:.o.o.5.:.:.{ o.X.I ;.o.b 1.5.5.1.1.5.,.1.1.5.1.' 1.1.5.1.7.1.I r ;.1.1.1.1.>.:.1.>.1.:.1.>.:.1.5.:.o.' I M x c 1 O   O   O   ; ] ,.! X.] M - + t +.d D $.4.,.>.2.,.1.5.:.:.V a +.:.1.+.:.R y.5.1.1.1.1.1.1.1.N +.5.1.1.1.1.>.5.1.1.7.5.1.1.1.1.1.:.:.<.5.;.} 5.1.} ' 1.5.1.1.1.1.1.1.1.1.8.X.+.>.5.5.5.1.1.1.1.1.5.1.:.M X.7.<.5.;.+.5.>.} 5.5.1.1.1.1.1.1.+.:.1.:.;.:.M x d ' ' ' } ' o.+.X.+.X.o.M d :.<.1.1.5.;.R :.1.:.<.1.o.d ' :.N d a 1 % X @ @ @ X @ X i +.5.1.&.+.X.o.+.+.5.1.I I ,.5.5.5.:.:.1.+.^ } +.1.1.1.1.1.1.5.1.:.:.V X.<.;.' ! X.;.:.R X.<.:.I ;.:.1.o.+.+.:.[ :.5.^ :.>.5.1.1.1.1.:.:.>.X.' :.;.:.' X.:.:.! X.o.o.' X.:.:.o.<.^ ' } ' Q o.1.1.+.X.:.I I o.<.<.:.<.1.,.1.>.,.>.>.:.:.1.<.1.:.+.+.:.:.:.;.o.' x % @ ",
"s 1 x ! ' ' ;.M ^ I I 7.1.+.1.:.:.o.Q Q ' x o.<.+.:.:.:.>.1.:.:.1.1.:.1.1.>.1.1.>.1.:.N ' 5.:.1.:.>.o.[ 7.:.,.1.:.,.<.1.>.1.>.:.:.1.>.>.>.>.,.,.,.,.2.,.,.2.>.>.2.! 2 + @ + + . . O O O O r 7.:.5.,.1.1.1.1.1.1.1.,.<.5.,.1.1.,.1.1.,.,.5.:.:.5.1.1.1.1.1.1.1.1.<.:.5.5.5.:.} I I X.,.^ 1 I :.5.<.+.:.+.o.o.} Q X.^ ' <.Q I 6.:.5.1.1.5.1.1.>.7.1.' :.1.5.>.1.:.M a :.<.<.1.>.1.1.1.1.1.+.1.>.>.5.5.,.,.,.2.,.2.} t - + O   O   O ! 6.! ! ! M + + t ,.! t $.2.2.2.,.1.2.>.8.:.+.3 R 7.o.7.' ,.1.1.1.5.1.1.1.7.5.c :.5.1.>.5.5.5.1.1.1.5.1.<.t.1.:.X.+.5.5.8.5.} :.5.+.^ :.7.5.1.1.1.1.1.1.5.5.:.' 5.5.5.1.5.1.5.5.1.5.1.5.I } 1.>.:.+.X.1.>.X.5.1.5.1.1.1.1.:.:.1.1.<.1.7.} 5.R R t.^ +.X.:.5.;.} I I c Q 5.1.1.1.5.} ' 1.:.:.:.<.R V ^ } V v r 1 - - - @ - @   @ R 5.1.1.<.+.O.;.o.:.5.<.} M 1.1.1.:.1.1.7.:.' ' +.:.:.5.1.:.;.o.' Q I 1 M M N V M I M x y ' ' I I 5.1.:.X.+.:.+.o.:.;.R ! 7.5.1.<.1.1.:.;.1.^ } :.o.:.X.o.5.:.' X.:.X.} ;.+.1.;.;.I ;.+.Q V :.1.1.;.;.Q b :.1.1.1.:.1.>.1.1.1.1.1.:.:.1.<.>.:.+.+.:.1.<.1.:.! a : @ - ",
"r y ! <.Q I ' M ;.v I <.1.:.5.1.;.o. .} I M ;.:.:.:.1.:.>.:.>.1.:.,.1.:.>.>.:.>.>.>.1.R ! 1.:.1.<.1.o.} 1.>.1.>.1.1.,.>.1.1.1.:.+.:.>.:.>.1.1.2.,.,.,.1.1.>.>.$.2.o.d $ + + + O . O   O O - ' <.1.,.:.1.1.1.1.,.,.5.5.:.5.<.1.1.5.1.<.5.,.,.5.:.5.<.5.1.5.,.1.5.1.5.1.1.1.5.8.:.' I R :.' 1 y } 5.o.5.+.^ :.:.' I ' ;.o.x } 5.8.:.1.1.1.1.1.5.1.<.X.X.1.1.1.X.o.x M 5.:.>.:.>.1.>.1.:.:.X.1.1.5.7.1.5.5.2.2.2.,.,.b - ; O O     O U 8.! U ' c - + t o.>.: } ,.,.>.2.1.>.1.5.:.1.R r ' :.<.x } :.1.1.1.1.1.1.1.5.N ;.1.1.5.5.5.1.5.5.<.<.5.5.;.o.' ' ' X.1.1.1.1.+.5.5.X.o.5.1.;.:.5.5.5.1.5.1.5.' 5.5.1.5.1.>.5.5.1.5.1.>.I } 1.1.5.:.} :.:.:.1.<.1.5.5.5.+.+.1.1.1.1.:.1.' +.<.I ;.! X.} X.5.:.M y 1 1 X.<.:.1.<.5.! } :.:.:.1.+.8 b +.} b b r : @ @ @ @ @ @   8 O.5.$.2.1.| +.<.o.:.1.<.;.c <.:.5.5.1.:.1.;.' o.:.1.:.+.' ! I N I I I V } } X.' ' 1.+.y.b ! ! M ;.5.:.+.} X.<.X.+.+.[ Q U R +.:.1.:.1.:.:.+.Q :.:.o.o.;.1.5.o.' } X.} +.:.>.:.<.^ I <.1.I V 5.<.5.:.' x 1.1.:.>.1.1.1.>.>.:.:.>.:.1.:.:.1.:.:.$.1.+.1.:.:.R y - @ @ : ",
"a c X.X.' X.' I } x I X.:.:.1.1.5.+.} Q b M ^ R ' o.<.1.:.:.1.1.1.:.:.1.>.>.>.>.1.:.1.' I 1.1.1.:.1.} } 5.<.<.,.<.,.1.<.<.>.1.<.:.:.:.1.1.1.1.,.1.,.,.1.,.>.2.$.1.$.E 2 + . O . .           x :.:.1.1.,.5.:.1.1.5.:.,.5.,.,.1.1.:.5.5.:.<.5.:.5.,.1.5.1.1.5.1.5.1.1.1.,.1.:.8.1.1.:.X.I I X.a r } +.t.<.! } ' I I <.' 1 a <.:.5.5.,.,.1.5.1.5.,.1.+.Q >.1.1.X.} a ! 5.1.1.:.:.1.+.+.+.:.+.1.>.>.>.1.1.,.,.,.,.2.,.! ; ; + + O O O N 6.} Q ;.c - ; t o.,.s U 2.2.>.>.2.>.5.:.6.>.:.a d ! I I { 7.1.5.5.1.1.1.1.:.R o.1.1.5.5.:.:.1.;.' 5.1.+.o.} :.5.1.6.5.1.1.5.+.:.1.:.' 1.:.:.<.1.1.1.1.1.:.1.' +.5.5.1.5.5.5.5.1.7.1.5.U ' ;.! ' +.+.X.;.1.1.1.<.1.5.5.:.+.1.1.1.1.:.:.;.X.:.^ ^ ' X.} o.<.R x V M x :.1.1.1.1.:.V ;.:.1.1.1.F 3 R <.) M b r % @ O @ % O @ X b 1.5.+.2.+.O.1.:.+.1.:.1.:.c ;.1.5.5.:.>.:.} ' } R M V I ! ' X.;.:.{ o.' ;.<.:.1.I t.1.:.R ' I I >.7.:.X.+.+.:.} +.:.X.X.1.' ' :.1.:.1.:.,.} ' <.:.o.o.<.1.1.} I ' R ' +.:.5.:.:.N } <.1.I Q 5.1.1.' x X.:.5.<.1.1.1.:.>.>.:.1.>.>.1.:.:.>.:.:.<.+.<.7.:.T y % - - - % ",
"a M X.X.^ ;.' ' } x Q ;.+.:.1.<.:.;.X.^ r I <.O.! Q } ;.1.1.:.:.:.1.>.:.<.>.>.>.:.:.1.} V :.1.:.<.:.o.' 1.:.1.1.1.1.>.1.1.:.1.1.<.:.>.1.1.1.>.,.,.2.1.1.2.>.2.,.>.>.o.u + . . O     + O   O - X.:.7.1.1.,.1.1.1.:.5.<.:.:.5.<.1.5.:.<.,.5.:.5.:.<.1.1.5.5.1.1.7.5.5.1.5.7.7.:.5.1.<.1.1.[ x ^ a r Q 1.o.I I ! R X.Q 1 c X.<.1.5.7.1.5.1.1.1.1.:.5.+.I :.>.5.1.o.3 +.1.1.1.:.:.:.} } X.:.;.>.>.5.5.1.5.6.8.,.6.,.6.] t - O O O O   a ,.] Y ,.N + ; t $.2.E s 2.>.2.2.>.2.1.5.>.1.;.I + I ;.o.X.:.1.1.1.1.1.>.7.;.} } 7.1.5.1.;.:.} a y } } ^ :.+.o.<.<.5.>.5.5.>.5.;.1.:.' ;.:.5.1.>.:.1.1.1.1.5.o.X.5.5.5.1.5.>.6.>.5.5.8.R I 7.:.M I 1.X.O.5.<.7.1.:.:.5.1.:.1.1.1.:.1.6.;.<.1.o.Q ^ X.X.X.! N o.;.o.I 1.5.1.7.:.:.M :.;.1.<.:.y x O.<.~ x x 8 - @ - % % X - - R $.1.&.<.o.+.1.+.;.1.:.1.<.I o.1.1.1.<.:.R x I I R } :.>.:.>.:.:.1.1.[ ' 1.1.1.:.I ' I R ' } c ' ' 5.[ X.:.<.:.} 1.1.;.:.:.:.^ :.1.:.:.>.<.' X.:.o.o.:.1.;.1.R ' +.R X.:.1.:.>.o.c 5.:.:.I ' X.:.o.x } 1.1.:.<.1.:.1.>.>.>.1.:.>.>.1.:.:.1.:.>.1.$.1.O.N 2 - @ X @ % : ",
"r r X.;.^ ' Q ' ;.d Q o.o.} +.5.:.:.O.' c :.+.:.;.+.X.X.X.+.:.:.>.1.1.1.:.<.>.>.1.:.1.o.N ;.1.:.1.,.;.^ <.1.>.>.>.1.,.<.1.,.,.1.1.>.>.1.1.1.1.1.,.,.1.1.,.>.>.2.,.2.$.U @ + . + O   O O O O + I 1.:.<.,.1.1.5.:.5.:.5.,.5.1.,.1.,.1.1.5.5.,.1.5.,.5.5.1.,.5.1.1.5.,.5.5.5.5.5.5.1.5.1.7.5.:.' I + r I ' ' ' <.X.I y M o.1.1.1.1.5.1.1.1.1.1.5.,.5.;.X.} 5.>.7.X.r ;.5.<.1.:.1.5.:.1.:.+.X.5.>.1.5.1.5.5.,.2.5.2.,.>.t - O +   O   t X.' ^ ;.I + + s $.>.#.t $.,.>.2.,.2.2.5.:.} ^ ^ x y :.;.X.:.5.,.1.5.5.:.5.o.:.' 7.5.5.,.X.N I ' { I t x I U R } 5.>.5.5.5.>.1.:.1.:.o.' :.1.5.1.1.5.1.1.5.1.5.[ >.1.5.5.5.5.1.5.1.7.1.^ V t.1.:.^ :.;.^ 1.1.5.1.+.} ' :.5.<.1.:.1.1.1.+.;.<.<.' R o.X.R I ;.:.o.! I 1.1.1.1.5.' V :.5.1.8.^ 3 R :.+.R x i 1 - @ @ @ - O X r O.1.<.1.1.+.>.:.:.+.<.1.1.:.R R 5.1.o.' I R ' +.:.:.1.1.:.,.:.1.:.7.5.I ' :.:.<.;.N ' ^ y o.I R ' } >.:.;.>.1.+.+.1.:.+.:.1.5.' +.:.+.:.+.:.' o.o.;.o.5.:.1.:.R :.Q V } 1.:.<.:.' R <.:.o.~ :.o.} V ! 1.:.,.:.1.>.1.>.>.>.>.>.1.:.1.1.:.1.:.:.:.<.1.) d : : % @ @ O @ % ",
"r r R ! ^ Q I X.;.x } o.X.! :.7.<.:.+.} M ;.:.1.<.:.>.>.X.' +.:.:.,.:.:.:.>.>.>.>.>.>.:.M ;.:.<.,.<.:.! 1.:.1.>.<.,.1.1.,.<.>.1.>.1.1.>.>.1.>.,.,.,.2.,.,.2.>.>.*.,.$.] t @ O O .     . O O O y 7.<.1.5.<.1.:.5.:.5.:.5.,.1.:.<.,.<.1.1.<.5.5.1.1.1.1.,.1.1.5.1.,.5.5.<.1.1.,.1.5.1.5.1.1.7.1.:.X.a O y ;.:.' } 3 R :.;.:.1.,.7.5.,.5.1.1.5.1.7.:.X.:.+.1.t.>.I x ' o.<.:.1.1.5.1.8.:.o.' 5.5.,.5.5.1.1.2.,.2.,.2.,.M + + O O O   : X.] ^ ,.N - ; s $.,.>.M | ,.2.>.>.6.5.>.^ R ;.<.o.3 I { :.' 7.5.1.1.1.1.7.o.7.! 7.,.1.5.M x } :.1.:.' +.;.' I V I Q Q +.:.5.1.<.o.1.:.R +.1.5.5.1.1.5.1.5.1.5.} >.6.5.>.5.>.1.5.1.5.5.} N t.X.:.X.+.} N 5.<.1.<.7.:.d R :.1.7.5.1.1.<.;.o.<.1.} ^ ;.} I <.7.:.:.' ! 1.>.1.1.1.^ R 1.+.1.7.a c O.1.{ V v 2 @   @ - @ O X O I &.1.1.1.&.+.>.:.:.:.1.1.:.7.' I 5.:.' ' o.:.:.<.:.:.:.1.1.:.:.7.1.,.:.s { 5.;.;.o.M ' :.a { M ;.} :.X.+.:.>.;.X.:.5.<.+.<.1.1.X.:.1.+.5.<.o.! +.o.o.:.1.<.5.o.V o.I M I ' <.1.7.I :.5.:.X.X.o.x r ^ 7.:.:.1.:.<.1.>.>.1.:.1.>.:.1.:.:.1.;.+.:.1.$.R y : % @ - % @ @ X @ ",
"I ; ^ ' ^ I I ' } x <.1.' o.X.+.<.1.<.} V :.:.1.1.1.<.:.:.:.X.} ;.1.:.:.5.>.>.>.>.1.>.1.V X.:.1.:.1.:.^ :.1.<.1.>.1.:.:.1.:.1.<.<.,.,.1.1.1.1.,.,.1.2.,.,.>.2.>.,.,.>.$.b ; + O O     O O + + ; [ 5.1.:.5.1.5.,.1.1.1.1.1.<.1.1.1.1.1.5.1.1.1.5.1.5.1.5.1.1.,.1.5.:.1.5.5.5.,.5.5.1.5.1.1.1.1.5.7.X.T r 1 r r 1 I 1.<.;.:.5.1.1.5.1.,.1.1.1.1.1.1.X.o.<.X.1.;.y I ;.} :.:.1.1.1.:.7.5.:.+.7.7.1.1.1.1.,.,.1.5.5.,.8.U + O   O O O ; ' ] ^ :.I + + s ,.>.,.D N 2.,.>.2.2.$.^ ^ :.5.1.5.Q r R :.:.1.5.1.1.5.5.1.;.7.' :.t.>.I I +.1.1.1.1.X.:.7.o.' R U I ' [ Q ' o.;.o.1.+.} ' 5.5.5.5.1.1.1.5.1.6.o.;.7.1.5.5.5.1.5.5.1.5.+.x <.:.' o.' o.R :.1.1.5.5.;.r y ' <.5.5.>.<.1.:.} :.:.o.I :.! o.t.<.1.1.I ' 1.1.<.1.1.R ' 5.1.1.^ r ^ o.{ R M x 2 O O - @ X   @ 1 o.5.1.1.<.+.1.1.1.:.:.:.1.1.t.} x I ^ X.o.;.:.:.<.1.:.,.:.<.>.1.1.:.1.' x X.;.X.<.:.! ;.:.M Q ' 5.X.X.' :.+.1.+.+.1.1.:.:.1.1.1.X.' :.} ;.1.+.' R ;.5.<.:.:.1.' Q o.' ;.o.! ;.<.;.! :.Q ! I M r V :.5.<.:.1.:.1.,.:.1.1.,.>.>.>.>.:.>.1.:.o.:.1.' V 8 : : % @ % : % @ @ % ",
"X.- I R ' X.I I T a <.:.} X.;.' ;.1.1.} R ;.+.1.:.1.>.:.1.1.:.+.X.O.<.5.:.>.>.>.>.>.<.5.^ ' <.:.1.:.1.^ ;.1.1.>.1.,.1.1.>.1.1.,.1.>.1.>.,.>.1.,.2.,.>.,.2.2.>.>.>.>.>.>.! 7 @ @ O   . O O O O O x ,.,.5.:.<.1.,.1.1.,.1.1.1.,.<.1.1.1.,.,.5.1.1.1.,.1.5.1.5.1.1.5.:.5.5.1.,.5.5.1.5.5.5.1.5.7.<.7.;.X.X.c - 1 r +.;.+.o.o.1.1.,.5.5.1.1.1.1.1.5.:.X.1.:.o.:.;.r U :.o.:.:.5.5.1.:.1.,.1.;.5.5.7.5.5.5.5.2.,.5.5.6.8.Y ;     O O O O I } ] :.I @ - s $.,.8.] t >.2.>.2.$.] X.5.5.5.1.7.1.a r ;.<.:.1.5.1.5.5.:.:.5.} } :.I Q 1.:.1.1.:.7.o.X.:.X.o.7.1.} Q >.5.:.! ! I +.7.} ^ 5.5.1.5.1.1.1.>.5.5.:.o.1.5.>.5.>.1.5.7.1.:.+.x ;.5.} +.R 1.o.o.5.1.1.7.;.x 1 b +.5.5.5.5.1.+.' :.:.1.c Q Q ,.:.1.:.:.M o.1.1.:.7.:.V X.>.8.:.d b +.1.X.V x v r @ X @ - X O @ v <.1.<.&.+.+.$.1.1.:.<.:.1.:.d.:.a I :.X.o.:.+.:.:.1.1.1.<.>.1.1.:.:.5.R I X.' { 1.X.I X.:.x N :.;.X.' Q ' o.1.>.<.1.1.+.:.1.5.1.' I } ^ ' +.:.' ' <.<.<.1.:.:.} +.} } 1.:.' X.5.R I a r + 2 M I <.;.:.1.:.1.:.1.1.1.1.:.1.>.>.>.:.1.>.:.1.1.X.I y r 3 % % @ : % : % % @ @ ",
";.a r R :.7.X.! x r } } X.+.:.' X.:.1.' ' :.;.:.:.:.>.1.<.:.1.1.:.+.+.:.1.>.>.<.1.:.<.1.X.^ 5.:.1.>.1.' ;.1.<.,.5.:.<.,.5.:.:.5.>.1.,.<.,.1.1.,.,.1.1.5.,.1.5.>.>.1.2.>.$.u ; + O O . . .   O   1 } 1.1.1.1.,.1.1.1.1.1.,.1.:.1.1.1.1.1.,.5.:.:.5.5.1.5.<.5.<.5.5.,.5.5.,.5.5.5.5.5.,.<.1.5.1.,.} o.:.5.+.V 1 r X.:.:.o.o.>.5.1.5.1.1.1.1.1.1.1.>.+.X.^ I x a r X.5.1.+.:.1.1.5.<.1.1.1.o.5.1.1.1.5.1.5.1.1.5.5.6.,.' r     O   O   t } ] >.U - - s $.,.2.,.t o.1.1.1.^ X.1.6.5.5.5.8.1.+.; M :.+.5.5.1.1.5.;.5.:.o.Q R Q 7.1.5.6.7.,.5.} X.' ;.7.>.5.5.} } 1.5.1.o.I Q ' [ [ [ 5.5.,.7.>.5.:.5.1.6.} :.5.1.7.5.,.1.5.1.1.:.I ' 1.:.' ! :.:.' <.1.1.7.:.Q 1 1 R :.:.:.:.1.:.^ ;.:.t.I N } >.:.1.:.:.M :.<.1.>.5.+.M :.1.8.' y ' <.<.) b y d , @ @ @ @ @ X @ ^ 1.1.1.1.O.o.1.1.1.:.<.1.1.:.5.+.d R :.+.:.<.;.:.:.:.>.1.1.1.1.:.1.<.;.R { } <.;.;.' ! } :.r ' o.} [ ' Q ! ' o.:.1.1.1.:.:.1.1.:.} } o.+.X.X.X.^ +.1.:.:.1.:.:.' X.' :.:.;.' X.1.a a a I Q I ;.1.<.1.1.5.7.:.,.1.,.1.1.:.1.:.1.:.:.1.:.<.+.^ d 3 r y : % , : , : % % @ % o ",
"' b 2 R { { ' ! y x V Q +.+.:.+.} } :.' ' :.+.:.1.1.1.:.1.1.:.1.1.:.+.X.+.>.1.:.:.>.1.1.+.R 5.:.>.<.1.' O.:.1.1.:.:.5.:.:.:.5.:.1.1.1.1.1.1.1.1.1.1.1.,.,.1.1.,.,.2.1.>.,.U 2 @ + . O O O . -   O I ,.5.5.,.>.6.1.1.1.1.1.1.1.1.1.1.1.1.5.<.5.5.1.,.,.,.5.1.1.,.5.:.<.5.5.<.<.5.:.5.5.5.1.5.7.:.} :.:.1.1.:.c 1 x [ 1.:.} :.7.1.5.1.1.:.5.7.1.1.5.' R +.,.! 1 a +.+.1.X.;.:.1.5.1.1.5.:.o.5.1.1.1.5.1.1.2.,.5.5.6.>.+.a O   O O     - ] ! ,.U + - f $.8.>.u.h U 0.>...^ :.1.5.5.1.5.5.5.,.I ; I ;.>.>.5.<.:.:.1.1.+.M ' :.1.1.1.6.:.5.7.:.' } 5.1.1.5.1.1.+.1.8.7.1.>.} U I :.Q ;.5.5.1.5.5.>.1.7.7.X.X.1.6.>.1.1.1.5.1.1.:.I b :.;.} ' ;.5.} :.6.:.,.1.+.c r y U ' ' ! ' :.' 1.+.t.N I :.1.1.1.:.:.I >.:.5.:.5.X.M 5.1.8.b I 1.$.| R v r y 3 % @ % @ X O 3 o.<.2.<.1.+.+.5.1.1.;.<.1.1.5.:.:.I M +.>.:.:.:.:.1.1.1.1.1.1.1.:.:.t.[ ' ' ~ ;.^ X.:.} o.X.t +.' } +.X.+.;.X.' :.:.>.:.1.1.1.1.;.} :.+.1.:.' } ' +.5.:.<.;.1.;.o.} R ;.:.<.X.{ ' ; M X.:.{ { ;.:.5.:.7.:.1.,.1.1.1.:.1.1.1.,.:.1.:.:.1.} M 3 % 2 r , % : 2 : , : % X @ @ @ ",
"~ ; r } ;.:.' M 2 ' ' I } >.;.:.} o.+.' ' 1.>.:.:.:.>.1.,.1.>.:.:.:.:.;.o.;.:.1.:.1.:.:.:.^ +.1.1.:.1.} X.1.,.<.5.:.:.5.,.5.:.5.1.1.1.1.1.1.,.5.1.1.1.1.>.5.1.1.1.1.1.>.>.| t ; - O . O O O @ O   t ;.,.,.2.>.2.,.:.1.<.1.1.1.1.:.5.1.5.5.,.5.:.5.5.:.5.:.5.5.1.5.5.5.<.1.5.5.,.,.5.1.5.1.1.1.:.;.5.1.1.1.:.R x x - } 5.! ;.;.t.o.1.8.6.:.:.1.1.:.! +.7.;.o.1 x X.;.X.' X.1.5.1.1.1.1.<.o.1.1.7.5.5.1.5.5.,.5.5.7.>.:.M + O O O O O   ' ! ,.I O + s #.2.,.q.U b 1.>.X.o.1.5.5.1.5.5.5.8.;.X.N 1 Q 1.1.7.:.;.:.1.1.:.y ' 8.>.5.7.1.1.5.5.1.' +.7.1.1.1.5.7.:.:.1.1.5.>.1.:.Q [ 7.! :.t.7.>.5.1.1.:.+.^ R +.5.1.7.1.1.5.>.1.:.Q x } I Q ' :.:.+.+.>.5.>.X.Q I M - x [ ;.;.R } R o.7.} I Q o.,.1.<.1.o.I 1.:.:.1.1.' R 5.:.o.a ;.7.O.^ B s s i , @ X @ X X @ N <.5.1.1.<.+.:.1.<.1.+.:.1.1.5.1.+.+.x o.5.<.:.:.:.:.:.1.1.1.1.1.6.5.1.R I R R ! R I ' ! R N 2 R +.>.5.+.+.:.:.' +.:.1.:.1.1.1.1.1.} ;.:.1.1.} ' ;.+.5.:.:.:.:.o.} I ! 1.<.<.:.} N x :.X.:.' X.+.:.1.,.:.,.1.:.,.1.1.1.+.:.:.1.,.,.,.:.' y 1 % , 8 8 , @ : , : : % X X @ @ o ",
"M ; r X.;.1.' a r ;.:.' I :.:.:.;.+.+.^ ' 1.1.>.:.;.:.1.1.:.>.:.1.1.1.:.:.X.+.:.1.:.:.:.:.X.T 1.1.:.1.} X.1.1.,.:.,.,.:.5.:.5.<.1.1.,.1.<.1.,.:.,.1.1.1.,.>.>.5.1.,.>.>.>.>.U 2 + O O   O + O O   ; ' ,.>.1.,.,.1.,.1.1.1.1.1.1.5.1.1.<.5.:.5.5.:.5.5.,.5.5.:.5.:.5.,.,.5.:.:.5.1.1.5.:.1.1.5.:.5.5.1.:.1.:.N I 7.! a I ' } 6.:.5.5.:.5.5.1.5.5.[ } 8.5.5.! 1 ' :.>.1.+.R :.1.5.1.5.1.>.o.5.1.1.5.,.,.5.5.5.1.5.,.7.1.I - O   O       Q ] ,.I + + c ,.,.,.8.>.d <.$.X.5.5.1.1.5.1.5.5.5.1.X.:.x r +.<.X.:.' I ! } ' M V X.;.8.5.1.5.1.1.:.' :.5.1.5.1.5.5.,.:.;.>.7.1.1.>.[ +.:.+.' 1.1.1.1.1.1.o.} o.Q >.>.7.1.5.1.5.5.1.:.' x ;.} O.I :.7.:.X.7.:.} [ :.>.' y - I 5.<.5.^ I o.;.R ! ' [ 7.1.:.1.' I 7.;.:.1.5.Q ' 1.5.I M X.} O.V d d v s : @   @ @ O : { 1.4.1.1.+.+.5.1.1.1.:.1.1.:.5.5.} 5.c } 1.:.:.1.1.:.:.1.1.1.1.:.5.:.' I ! :.X.} ! x M c Q M x ! ' } } :.:.5.<.o.} 1.8.;.1.5.:.1.1.' :.1.<.<.;.R 1.X.1.>.+.<.+.o.' V o.5.1.1.1.' M } :.;.;.! o.;.<.1.1.1.<.1.1.1.<.<.1.1.1.1.;.:.:.^ M 1 : : , < , , : % , : : % @ @ % % % @ ",
"M r r ;.o.X.} x I :.5.<.Q Q o.>.<.:.+.} ! :.1.1.<.1.:.1.1.>.:.1.>.>.>.:.:.:.+.o.;.<.1.+.:.:.b ;.1.:.1.} X.<.<.<.5.:.,.:.:.5.,.,.1.1.1.1.1.1.<.5.1.1.1.1.1.1.,.1.1.1.1.,.>.2.] t - + + + + + . O - O I ,.>.>.,.>.5.,.,.1.1.1.5.1.5.:.5.,.,.5.5.,.:.5.,.5.,.5.5.,.:.5.5.5.:.5.<.5.5.<.1.1.1.5.1.1.1.5.1.>.7.1.I I 5.,.} r t I >.7.+.1.5.' U ' } ' U o.t.5.t.N a 7.:.t.:.8.X.:.1.1.1.5.5.:.+.1.1.5.1.,.1.6.1.5.1.1.1.6.5.^ r O O O O   O M ' 5.I - + b ,.| >.2.6.u +.o.+.1.1.5.5.1.5.1.5.1.>.+.>.5.3 t x r x y a a 3 r ' R o.+.5.5.5.5.<.1.;.' :.1.1.5.1.5.1.1.1.:.1.5.5.5.:.X.6.X.:.Q X.7.>.1.1.;.:.>.,.^ :.:.7.5.,.1.1.5.1.1.+.d } :.X.I ;.8.t.} [ [ >.5.1.7.1.U 1 + I <.5.} x o.o.^ ^ ' +.5.1.:.1.! I 5.;.<.:.7.I ! :.I 1 I N ! O.F d i d 8 : @ X @ @ @ y O.+.6.1.5.;.,.7.1.5.:.:.1.1.1.5.1.} ;.' ' <.:.;.:.1.1.1.1.1.1.1.1.s.! b o.! ! I I ! ' I I I I I <.X.X.' :.>.>.:.+.' >.5.+.1.1.:.:.:.X.1.1.:.<.;.Q <.+.+.:.:.:.+.X.V Q :.1.5.1.5.R Q ;.:.:.} ' ;.:.1.<.1.,.1.:.1.1.1.<.1.$.1.$.7.o.M r 1 @ @ 1 < , , , 1 : : : & % @ % : % @ o ",
"a r a <.:.X.X.x ' ;.:.;.+.} ' :.1.1.:.o.^ :.1.1.1.>.:.>.1.:.1.>.1.<.:.>.:.<.:.+.+.:.1.1.1.1.R ' :.:.1.} ;.:.1.,.:.5.:.5.5.:.:.5.1.1.1.,.,.1.1.1.<.,.1.1.1.1.1.1.1.1.1.2.,.,.+.M ; O - + O + O O O   2 o.2.>.,.$.7.:.1.1.1.1.1.1.5.5.5.:.5.<.<.5.5.5.<.,.5.:.1.,.5.,.:.5.5.1.5.1.,.5.1.,.1.1.,.5.1.1.>.>.1.1.N ' 8.5.,.7.x r o.<.7.1.:.^ } ;.' V U +.5.5.7.r I t.5.1.1.7.;.o.1.1.1.1.1.<.o.5.5.1.5.5.5.1.5.5.5.1.1.6.5.X.r @ O O       a ' :.I - + N ,.| $.$.| d V } 1.1.5.1.1.5.5.5.5.6.+.5.:.6.I + r ! } X.t.:.' x x R 1.X.<.8.1.6.<.5.:.X.X.1.1.5.1.7.1.1.1.7.5.5.1.1.1.>.>.7.X.:.Q :.5.5.+.X.>.5.1.o.+.>.5.1.5.1.5.1.5.1.:.^ ~ ;.o.^ <.5.;.R [ :.6.5.5.1.:.:.M 1 - ! :.:.R o.' :.' R >.>.1.>.:.! R 1.:.5.:.1.x ! } x y N R ;. .V d 0 8 , % @ X @ @ , R O.+.3.1.1.<.1.5.1.1.:.:.5.1.1.1.o.;.} 1.R >.<.:.:.:.1.1.1.1.1.1.7.' I ' { Q ' I ! ;.:.I M M ' X.1.5.+.' +.>.1.:.:.} :.:.:.1.<.<.1.:.+.1.<.<.:.X.} :.:.+.+.1.:.:.' V X.:.:.1.>.1.M Q :.+.;.' X.<.:.1.1.1.1.>.1.:.<.1.&.$.1.<.$.^ v r 1 : @ 1 3 , < , , , : & % @ % @ % @ o @ , ",
"' s 1 <.:.X.' x o.^ R Q N +.' } <.<.o.} Q :.1.5.1.>.1.>.1.1.<.1.1.>.1.1.1.:.1.>.+.O.+.1.1.:.X.I :.:.5.} ;.:.,.<.:.1.,.,.:.5.5.:.1.1.1.1.1.1.1.1.1.1.1.1.1.1.1.1.1.,.2.1.5.,.2.! t + + + O O + O + + + Y 2.>.2.>.1.,.,.,.1.5.5.1.,.5.5.5.1.5.5.,.5.:.:.5.5.5.5.<.<.5.:.5.,.5.5.,.1.:.7.1.7.1.,.7.5.1.,.1.1.:.M } 8.7.1.1.I 1 2 o.1.1.o.o.1.5.:.X.} } 5.7.o.r ;.>.8.1.1.:.5.O.5.1.5.1.1.:.o.1.5.1.1.5.1.5.5.1.5.5.>.6.5.:.s 1 +       O 2 ! } c ; + U 2.] ^ ] [ ! 0 O.&.5.1.5.5.5.1.5.6.5.+.:.1.1.} a M :.:.:.:.1.7.' ' I +.:.:.1.1.8.:.1.;.:.' 1.5.,.1.7.7.5.,.,.1.5.1.5.1.>.1.1.+.X.:.^ +.1.[ +.5.5.1.>.' 1.,.1.1.1.5.5.5.1.+.X.I 1.X.X.} } ^ ^ 7.5.5.>.1.5.1.6.X.x - 1 R :.' ' :.:.[ U 1.:.7.:.1.! ! :.:.<.1.>.a X.' a o.Q ! 5.} b y 8 3 , % @ @ % @ , } } $.1.1.:.1.1.,.1.,.1.:.5.1.:.:.^ :.:.:.I } ;.1.:.:.1.1.1.5.1.1.o.' +.;.' ;.;.! I :.;.I a o.R +.1.;.X.+.X.:.1.:.:.+.:.o.1.<.:.1.5.:.;.:.:.1.>.' ' :.o.1.1.:.o.o.Q ' ;.1.<.7.>.+.x I } 1.} [ +.:.>.1.1.1.>.1.<.1.1.<.1.$.$.) v 3 ; 2 t 1 : > 3 3 > : : : : @ % : @ @ % @ % 8 Q ",
"I a ; I ' ;.o.x X.R X.:.^ ! ' U ' :.5.X.b +.5.>.5.<.1.:.:.1.1.1.1.>.<.1.1.5.1.:.:.:.o.+.1.<.;.Q :.:.1.;.X.1.1.,.5.<.5.<.,.5.:.5.1.1.1.1.1.1.,.1.1.1.,.1.1.1.,.1.1.1.,.1.,.1.,.$.c - O O - O + O + + + s >.,.,.>.5.1.1.5.1.1.,.5.<.5.:.5.5.:.:.5.,.5.5.5.:.:.5.5.5.,.5.5.:.5.<.5.5.5.5.1.1.5.1.:.+.:.7.7.1.o.a ;.7.:.<.M r a r a +.1.o.7.<.1.1.o.1.o.5.5.I x 5.5.7.1.:.5.1.:.X.5.1.1.5.1.o.5.1.5.5.5.1.1.5.1.5.5.1.1.>.5.x 1 + O O O O r Y I t - @ Y | ] 2.1.[ ] 2 $.1.5.1.1.1.1.1.1.1.8.+.>.7.1.:.r I o.:.;.t.1.t.' ;.' } 1.<.1.5.1.1.1.<.1.} :.7.1.1.,.5.1.5.5.5.1.5.5.5.1.:.5.1.} :.1.I ' } :.7.1.1.:.} ,.5.1.5.5.5.>.6.>.} 6.N 5.+.' ' ^ <.X.6.1.7.1.o.6.>.<.<.! r - O x ^ Q 1.:.} I 1.>.:.<.8.Q o.X.<.1.1.+.a X.x V o.! { :.^ v a 3 8 : : o X @ @ v ^ | 7.1.1.1.1.7.1.,.y.:.5.5.5.5.+.} >.:.1.} I 1.1.:.1.<.1.5.1.1.o.^ X.} +.X.<.:.' I :.U ' a o.R :.1.<.' 1.+.:.;.:.:.+.:.:.1.1.1.1.1.+.<.:.5.:.:.R I +.+.5.5.+.X.+.^ +.o.8.1.5.:.V ! :.X.} ' :.+.1.1.:.1.<.1.:.:.:.&.$.%.T 8 % : 1 r 2 1 > : 3 7 3 3 , , : % : % % % % @ & v { 1.",
"{ a 1 I I I I x X.I ;.<.<.:.X.+.' } :.I y I { ;.:.<.:.1.1.1.1.1.1.1.1.1.1.>.>.>.>.:.:.X.+.:.5.^ Q 1.1.X.X.<.1.1.,.1.1.1.,.1.,.<.:.,.5.1.1.1.5.<.,.1.1.,.1.1.1.1.,.1.1.1.,.5.1.>.Y ; + + O + + O + O + ; o.>.,.2.2.1.1.5.1.1.5.1.5.:.5.,.5.1.<.5.5.,.<.5.:.:.5.5.:.5.5.,.5.5.5.,.5.1.7.1.1.5.1.:.o.o.:.<.5.' r :.1.t.' V >.o.6.V a +.1.>.5.:.8.:.:.;.<.:.a I 8.1.5.1.:.1.1.<.X.1.1.1.1.1.+.1.5.1.5.1.5.1.>.5.5.5.<.1.7.8.M - @ O O O   1 s r r ;   U +.$.,.>.>.] y R 1.1.1.1.2.5.5.5.1.8.o.<.7.,.} x I Q Q ! X.:.5.X.X.X.' X.;.5.1.1.1.1.:.1.;.+.5.1.1.5.5.1.5.1.1.5.1.5.5.1.:.1.5.+.:.5.X.I ! ;.1.5.>.1.o.>.7.5.5.5.1.} ;.5.o.7.M +.:.R } X.1.+.1.5.1.5.} 6.1.1.<.1.' r 1 - 1 M X.X.' I :.<.:.5.7.R ;.;.:.<.<.X.1 x - x x r r x V i r , , : % o @ @ % E } +.2.<.1.5.1.5.5.1.7.:.1.1.1.1.o.:.>.>.1.:.I o.;.:.5.1.1.:.5.o.' ' X.} <.+.:.X.' M I X.M a { R :.1.:.} +.+.<.:.1.1.:.:.:.1.>.1.1.1.+.:.1.5.:.o.T Q ' :.1.>.+.X.:.R X.' 1.1.:.+.b X.:.X.^ I +.5.<.:.5.:.1.1.1.1.+.^ b 8 : @ $ 7 2 2 1 ; : : 7 t t s t > - $ + . o @ X : R | } O.",
":.1 a :.R I c a c X.;.<.<.o.:.X.:.1.N x ;.} ' ' ^ X.:.5.5.1.:.+.:.1.>.1.>.:.:.>.>.1.1.:.X.+.1.+.V 1.1.X.} 1.1.1.1.1.1.1.1.1.5.:.5.5.:.1.5.<.,.1.1.1.1.<.1.1.1.,.1.1.1.1.5.>.1.1.;.t - + O + O O + + O + U ,.>.>.,.,.5.1.1.,.1.1.5.5.<.5.1.,.5.,.5.<.5.,.5.5.5.,.5.5.:.5.:.5.5.,.1.5.1.1.1.5.5.1.1.:.:.:.:.I M <.1.;.N <.:.:.;.8.M r +.6.5.y.:.:.1.:.;.' r X.t.1.5.5.1.:.1.1.X.:.5.1.5.1.;.5.1.5.,.5.1.1.5.1.:.o.o.} o.5.I : - O   O O @ t x r - - D | ,.2.>.,.#.v s 1.1.1.1.1.5.1.5.5.7.+.1.7.1.' M { o.I [ } ;.} +.X.+.' +.} 1.5.1.1.>.>.1.5.} 1.1.7.1.1.5.,.5.5.1.5.5.5.1.:.5.7.1.:.>.5.:.Q R :.7.,.:.+.:.:.1.:.1.+.I ^ :.} t.I Q +.^ 1.+.1.;.:.5.1.1.' 7.1.1.1.1.,.[ x 1 - - 1 x ^ R ;.:.:.;.<.Q :.<.1.X.I x + O + + + 1 1 a M i r , : : @ @ @ o 8 +. .<.1.$.5.1.1.5.7.1.5.;.,.,.1.:.+.1.>.1.1.5.R ^ <.1.1.:.:.5.X.I ' } ;.:.:.X.:.+.' ^ R ^ r I ' I 1.:.{ X.' +.:.:.1.1.:.>.:.1.>.1.1.1.o.:.1.1.+.X.^ X.' 5.5.:.X.:.X.! +.} 1.:.1.' N 1.:.^ Q Q ' 5.1.:.1.<.<.5.o.^ k : X @ $ ; > 2 2 > ; > 2 2 t t s f 7 ; ; + + @     8 ) +. .+.+.",
"M r a X.;.:.R x a I Q ' +.:.:.:.' I x R X.o.:.:.X.} } X.o.;.1.1.1.1.1.:.1.1.1.:.:.>.:.1.:.:.:.>.^ } <.+.} 1.1.1.1.1.5.:.5.:.5.,.,.1.1.<.:.5.5.,.1.,.1.1.<.1.1.1.1.1.5.1.>.1.1.,.,.U ; + O O O + O + + + t 5.,.$.5.1.,.1.1.5.1.1.:.5.5.,.1.5.:.5.5.5.:.,.5.,.:.5.5.:.1.1.5.5.:.5.5.1.1.1.1.1.1.1.5.1.1.:.X.I I <.X.N ' +.t.:.7.:.:.U x ' >.>.,.7.1.1.1.M x >.5.1.5.1.5.+.1.>.+.+.1.1.1.1.+.1.5.1.5.5.1.5.>.+.X.+.:.+.;.;.R 2 - O O O O O 2 x t + ; ] ] $.$.,.,.$.R r <.1.1.1.1.2.5.1.5.7.o.:.7.5.} I :.o.^ } o.<.X.:.o.X.^ 5.} o.5.1.1.>.<.1.1.X.;.1.1.1.5.1.5.1.1.5.1.1.5.5.:.5.5.5.1.1.<.:.1.} R ' :.8.:.' 8.1.:.X.X.1.5.} } 5.I a ' } 1.:.5.+.+.5.1.+.} 1.1.1.1.:.1.5.:.V r - O 1 ; r I ' X.:.;.M ! ! c a - - ; + r 1 - 1 r x x 8 8 , : % % @ o % F 1. .5.2.<.1.1.5.1.1.1.1.;.<.>.1.:.+.5.<.5.1.1.;.R :.1.:.5.1.:.Q ' >.:.:.:.;.O.} } I ! R x I } I I y.o.' o.} 1.1.1.1.1.:.:.:.1.1.1.1.:.o.1.5.;.+.} ' } +.<.:.+.X.5.^ [ ;.+.1.1.7.M ' <.;.[ X.} } X.1.1.1.:.' T d 1 @ % : : : : 2 7 2 > ; > 2 2 7 t t t ; + . $ o @ : b X.&.O.&.1.+.",
"M + 1 I I I x I X.a ! Q R } ' M a I ' o.' ' X.:.1.1.1.:.X.} } X.:.1.1.>.1.>.>.>.1.:.:.1.1.1.1.1.;.Q ;.O.X.:.1.1.<.1.,.,.:.5.:.5.1.<.,.5.:.,.:.1.1.1.1.1.5.,.1.1.1.,.,.1.,.1.,.1.,.o.t - - O O O + O O + @ ] 5.2.,.1.5.1.1.1.5.1.5.,.:.5.5.:.5.1.:.5.5.5.:.5.:.5.1.,.5.5.,.5.5.5.1.5.1.1.1.1.1.5.1.5.1.1.} N Q o.N } 1.1.+.:.>.1.:.7.U a [ 1.5.7.:.7.:.y Q 1.6.1.5.1.5.:.1.:.:.X.1.1.1.5.;.1.1.5.1.5.5.>.+.+.:.>.1.<.5.o.R r - +   O     t I r 1 ; | ^ | $.2.2.$.O.y } 5.1.1.5.7.:.:.5.5.o.:.1.5.o.R ;.{ :.} } 1.;.+.+.' ^ ;.<.+.>.5.1.>.1.1.1.1.o.t.5.t.1.5.1.5.1.5.5.1.5.5.:.1.5.5.6.5.1.1.1.+.7.[ I ' } R o.' o.1.7.<.5.+.^ 1.} r o.^ <.:.5.:.X.1.5.' :.1.5.1.,.7.1.<.;.} ! a r - 1 - - 1 r r a ; ; ; 1 ; - + r - 1 - r r a I x 8 3 , : : % X @ 8 O.| o.5.2.1.:.5.1.5.1.1.:.:.>.1.<.:.:.:.1.1.5.<.5.^ ' 1.<.1.X.! X.5.7.>.:.o.X.o.' ^ ^ ;.I x } } I I ;.' ^ +.;.1.1.1.1.1.+.:.:.1.1.5.1.:.;.5.5.o.:.} ^ } :.1.1.:.>.X.' } +.:.1.5.} b :.;.o.X.X.X.+.X.:.[ I c 1 : : : : : : , & < t t 6 ; ; 2 6 > - ; > ; @ + @     t W +. .1.3.+.<.+.",
"! - a M r - - a N a y x M x x I o.:.<.:.{ ' [ ;.5.:.:.1.1.:.o.} o.>.1.>.:.<.,.:.>.1.>.:.:.:.:.1.1.! X.{ o.<.1.1.:.5.,.5.1.,.<.1.5.,.,.<.5.:.5.,.1.1.:.5.:.1.1.:.1.1.1.1.,.1.1.1.,.,.M ; - O O + O O + + + c ,.6.>.1.1.1.5.1.5.1.5.,.5.<.5.<.5.5.5.:.5.<.5.,.<.5.1.1.5.1.1.1.5.,.5.1.,.5.5.>.,.1.5.5.<.<.^ b R N R 7.1.7.:.1.;.<.,.>.1.! x ' :.,.1.1.! a ' :.8.1.5.5.5.+.1.1.1.} ;.5.1.<.+.1.1.5.1.5.1.,.+.:.7.,.1.:.1.1.;.r - O O O O O s U 1 ; ; ^ ] >.$.,.$.$.2.c ! 6.1.1.1.+.X.;.5.5.o.:.>.5.:.I ' } 5.+.o.:.+.:.8.} ' ^ 7.1.1.1.5.:.>.1.<.1.' :.:.5.>.5.1.1.1.1.5.1.5.5.:.1.5.5.5.1.1.1.+.+.1.6.5.[ } ! I ! o.:.8.1.5.5.;.^ ' a ! ! 7.:.<.:.X.1.5.^ <.1.5.>.1.5.1.1.X.o.o.R R a r ; - ; - - 1 ; 1 r 1 r a 1 x ! ^ R { ;.Q I a 8 : , % @ @ X @ v 1._ <.2.1.1.:.5.2.1.1.5.;.<.1.1.1.+.:.:.1.:.1.5.1.o.R o.1.<.R Q 8.6.<.1.:.:.} } } ' ' } I ^ } R V I o.' +.>.1.1.:.5.1.1.;.:.:.>.>.>.:.:.:.:.1.X.:.[ ' X.:.1.:.:.1.~ X.o.+.1.<.1.V I :.;.;.X.;.;.] U x t 1 1 : ; ; $ & : 1 % : 0 d u : @ : 7 2 2 $ + ; + + +   @ i ^ 1.O.<.+.+.&.:.+.",
"r - 1 a r a a a ^ } Q I ' :.X.o.X.o.X.<.t.X.{ X.1.;.1.:.1.>.>.1.:.:.1.1.1.:.:.1.>.:.:.1.1.:.1.1.1.X.! X.o.:.1.1.5.<.1.<.1.1.1.1.:.5.1.1.1.,.:.5.:.,.5.<.5.,.,.5.1.1.1.,.1.1.1.,.:.5.' 2 ; @ @ O + O O O . 2 $.,.2.1.5.1.5.>.1.1.:.5.,.5.1.,.,.1.5.5.,.5.5.,.<.5.5.1.,.1.1.1.1.5.1.5.1.1.1.1.1.1.1.1.1.1.I R a I :.1.1.1.1.,.1.<.<.1.1.5.I x Q 7.:.I 1 M o.1.1.1.1.5.8.1.+.1.:.o.X.1.1.1.+.>.5.1.1.7.1.1.>.,.5.1.1.1.,.1.;.t ; + O O O + I Y 1 ; ; ^ o.>.2.,.>.,.6.E B 2.5.1.o.o.1.1.1.5.} :.1.5.<.R I o.,.;.X.o.;.,.5.X.[ Q >.7.:.5.5.:.1.1.1.1.+.X.+.+.+.1.7.1.5.5.5.5.5.1.:.5.1.5.8.1.;.<.:.:.>.5.5.5.7.:.} o.Q R } <.5.;.o.:.} x R ! :.:.1.:.o.5.o.} :.7.1.1.:.7.<.:.' 1.X.I X.{ ! x a a 1 r 1 - r a I ;.' r { ;.;.{ <.<.Q x y 3 : @ @ @ % X @ R } ) &.1.<.%.5.1.2.5.<.1.:.1.:.:.:.X.5.1.1.1.>.1.<.:.^ ! { b I 5.5.5.5.<.+.;.' } ' o.} R I { Q Q I R :.} :.>.>.>.1.>.1.1.+.<.1.:.1.1.1.:.1.:.>.:.+.} X.+.:.1.+.5.} ^ o.o.<.1.5.} a ' :.:.;.! U c t t 1 - ; ; : $ $ $ & : & o & , u , $ ; > 7 2 ; $ + $ + . + , n } $.%.+.+.+.1.1.:.+.",
"+ - I <.:.:.;.' ' ! ' } Q ;.<.1.<.;.! { :.:.X.! ' 8.1.1.1.1.:.<.:.:.1.1.1.:.1.:.:.1.>.>.,.:.,.:.:.:.! I :.1.1.1.,.1.1.1.1.1.1.1.1.1.1.1.5.:.<.,.5.,.,.1.1.,.1.<.1.,.1.,.1.1.1.1.1.1.o.x 1 - + O O O O O . ; E 2.5.1.6.1.5.>.1.1.5.:.1.5.<.5.5.,.:.5.5.,.5.,.5.1.,.1.1.1.5.1.1.5.1.5.5.1.1.1.1.1.1.5.1.;.R I x o.7.:.,.1.1.1.1.1.1.1.5.1.1.! t I x - y X.:.1.1.1.5.8.1.<.;.5.1.+.} 5.1.7.;.1.7.1.1.5.1.1.1.1.1.1.7.1.1.,.,.c - O O O + + I U 2 - u +.>.2.2.$.2.>.>.] s 5.5.+.+.7.1.1.5.1.} ,.1.7.1.' Q o.1.+.:.o.} :.7.:.X.Q :.,.1.5.1.:.1.5.1.1.<.5.7.>.o.+.:.5.7.1.1.5.5.1.:.:.7.1.:.5.1.:.:.1.5.5.5.5.7.>.o.>.6.} ' o.7.' o.7.o.x M R X.;.5.:.o.5.} o.1.1.5.,.:.1.:.X.o.7.;.R Q I ' R ;.X.I T Q x X.! <.5.R a 5.} ;.X.7.;.Q x 3 , & @ @ & X X 8 _ E ^ &.2.7.&.+.1.2.1.<.1.+.1.7.1.:.;.5.5.1.>.>.1.1.<.1.I x r ^ 6.7.5.1.1.o.;.} ' ;.1.} I ! } I ;.I ! X.X.1.1.1.1.1.>.1.>.:.<.1.>.<.1.>.1.1.1.:.+.:.X.:.:.>.1.1.:.} X.X.+.1.1.5.! x ;.,.,.U t 1 - ; ; - - ; ; : : & & : : > $ & , 1 & ; ; ; > ; - + @ + . + t R &.$.| +.<.:.:.1.:.+.+.",
"- - Q ;.X.{ :.:.' ' o.o.' I o.1.1.1.:.X.;.1.o.X.' } :.1.>.5.1.1.:.1.:.1.1.1.<.1.1.:.1.<.<.1.<.:.1.:.[ b :.1.1.,.1.1.1.1.,.1.1.,.1.1.,.1.1.1.1.5.<.1.5.:.1.5.:.5.1.1.1.1.1.1.1.1.>.,.>.Q 2 $ @ O O O O O . O s ,.,.o.1.1.5.1.1.5.5.5.5.:.5.1.,.5.:.5.:.5.1.5.:.5.5.1.5.1.1.1.1.1.5.1.5.5.5.1.5.1.5.:.1.' r N I ;.5.7.1.1.1.1.1.5.1.1.1.1.7.1.[ y r R :.5.:.1.5.5.<.:.1.o.} <.7.;.' 1.1.:.:.:.5.1.1.5.1.7.1.5.1.1.1.1.1.1.:.M - - O O + + U ] 1 + h ] | $.,.$.>.>.5.+.h ^ +.:.6.5.5.1.5.:.[ <.<.5.<.o.' :.:.:.:.o.X.+.5.1.X.U X.>.1.1.8.1.1.1.1.5.:.1.5.5.1.+.o.1.1.1.5.1.5.5.1.+.' ' :.5.1.X.+.1.5.5.5.5.5.5.:.o.7.:.} ^ o.' 1.7.:.I a I X.;.5.;.o.5.' 1.7.:.5.1.,.5.1.o.:.7.7.^ Q ' R I X.:.5.:.:.I ;.I ^ X.I ! :.X.X.:.7.{ I x r , % @ @ %     M  .R  .+.}  .O.+.1.1.1.1.>.:.1.5.>.;.:.1.<.1.5.5.1.t.:.;.M r x V :.6.:.<.1.:.X.' } <.<.Q R ;.[ Q } x } ' :.1.1.1.1.1.1.1.:.:.1.1.1.>.,.1.<.>.1.:.+.;.X.:.>.>.1.1.} } o.} 1.1.1.1.s R 1.Y x t 1 r 1 1 ; - 1 r 1 : 1 0 3 , 0 0 : > , & & ; ; ; ; - + + . + 2 b ( o.+.O.%.| &.1.1.:.+.:.X.",
"; - I { X.:.;.O.<.o.} X.X.} R ' :.<.:.:.+.:.X.+.^ x +.1.:.>.1.1.>.<.1.1.1.>.1.:.1.,.1.,.<.,.1.:.>.:.>.N ;.1.1.1.1.,.1.1.,.1.1.1.1.5.:.5.:.,.<.5.:.5.,.:.5.,.1.1.1.<.,.,.1.5.:.1.>.5.5.+.d - @ @ O . . + + + 2 $.5.} <.1.1.5.1.,.,.5.<.5.:.5.5.5.:.5.5.,.5.,.1.5.,.5.,.5.:.5.1.5.5.5.1.5.1.5.1.1.:.7.:.M x } R :.,.7.:.1.5.5.5.5.7.1.7.:.1.7.,.+.:.y.,.5.:.1.7.1.o.' ! ' R I X.1.' [ 1.1.+.:.5.1.1.5.1.5.1.5.1.5.,.5.5.1.:.M 1 - + + + O I Y ; - M +.o.+.$.#.>.>.2.+.D d [ 5.6.1.7.5.5.:.} 1.1.5.,.+.! ;.:.1.:.:.+.X.>.5.+.R ' 5.1.1.:.X.} :.1.6.5.5.7.5.1.:.,.6.5.1.5.1.5.1.1.5.1.X.I ! t.+.:.,.5.5.1.5.5.6.5.[ 5.1.X.' ! o.5.1.7.o.r V ;.:.<.:.o.:.} 5.7.>.5.1.1.5.7.:.5.1.1.' ' 7.[ N } [ 6.1.;.M ;.{ ;.<.M o.{ o.' 7.1.! x y r , : @ @ %     F ) b ^ ) ) ! G ^ +.:.1.1.1.1.1.:.:.+.5.7.:.} ' ' ! a a : r a x x Q 7.1.5.<.:.} ' ;.5.X.I X.+.' ' ' V } +.7.>.1.1.1.5.1.1.<.1.<.>.1.1.,.1.1.1.1.+.+.+.} 1.1.5.5.:.' +.+.X.<.1.5.Q x 7.' y @ 1 a t - 2 t ; 2 t t 2 2 d u t u 7 $ > , $ $ $ ; @ O + +   . t ! +...+.%.$.$.+.+.1.1.+.+.:.[ ",
"+ a I R +.:.o.:.:.:.X.} o.:.' ' } :.1.;.+.:.1.:.:.' ! :.>.:.1.1.1.:.>.>.:.1.>.1.:.1.<.,.>.1.1.1.1.:.:.M } 5.1.1.1.1.1.1.1.1.1.1.5.:.5.<.5.,.5.:.,.5.<.5.:.1.1.1.,.5.5.:.<.1.,.5.>.5.>.1.R 1 ; @ O O . O . O ; ! 1.} 1.1.1.1.5.5.,.1.:.5.5.,.:.5.5.,.,.5.<.5.5.<.5.:.5.<.5.<.1.5.1.5.1.5.5.5.5.1.7.;.I N 7.} R :.1.y.1.5.1.1.,.1.5.1.1.,.1.7.>.7.7.1.5.5.7.1.1.7.1.1.5.7.+.} } [ +.' :.5.;.>.5.1.1.5.>.5.5.5.5.1.1.1.5.1.:.I 2 ; - + + O M I + - I ,.,.,.>.2.>.>.2.+.R s +.5.1.>.1.5.5.:.X.1.1.8.7.:.! 5.+.1.1.:.+.:.+.>.6.! U 7.>.>.X.} >.,.7.1.:.,.5.>.5.5.5.5.5.1.5.1.1.1.1.1.1.5.5.X.R ' :.6.6.7.5.6.6.5.5.} :.>.:.! a } 5.1.1.:.M x +.+.+.:.;.o.o.5.6.5.>.1.5.1.5.1.1.;.1.} R X.^ ' ' :.7.1.O.M 7.Q Q ^ y ! ;.' :.1.:.I a r 3 2 % @ X % X   d B ^ O.1.1.+.^ | 1.1.1.1.5.1.1.1.:.' R a t a s a a x I M r y a I x 1.5.5.5.o.' 1.5.5.Q Q :.} ' ! } I ;.5.5.5.,.1.1.1.1.1.:.1.1.>.1.1.<.1.1.1.;.:.<.:.} 5.1.>.1.X.' 1.X.+.<.5.1.v ^ +.x 2 r 3 y 2 2 d t t t t t 2 t h d u y 2 & > > : & ; @ .   O $ 2 N ] >.+.| $.$.O.+.<.+.+.+.+.+.:.+.",
"- ' X.X.' } :.:.:.:.:.X.{ o.;.} ! } 1.1.<.:.:.>.1.1.' ' +.1.1.1.1.:.1.1.>.1.1.1.1.1.1.1.1.1.1.1.<.1.o.V Q 7.>.1.1.<.:.1.1.1.1.,.:.:.5.,.5.:.,.1.5.:.5.1.5.:.,.,.:.5.,.5.1.1.1.1.1.5.1.5.' a 1 $ + + . O . + @ t 1.X.;.1.5.5.5.>.1.,.5.,.<.5.:.5.,.5.:.:.:.5.,.1.5.5.1.5.,.5.1.1.5.8.5.1.1.5.5.,.:.I R } 7.' ^ :.1.8.1.5.5.5.5.5.1.5.1.5.5.1.5.1.,.5.5.1.1.1.:.1.1.1.1.:.:.1.1.;.:.X.;.7.:.1.5.1.5.5.5.1.,.1.1.1.1.5.1.1.;.I 2 : ; - - + s M ; O Y 8.8.2.2.>.,.>.6.o.U u [ >.6.>.5.5.5.>.} 1.5.5.7.6.! 7.+.1.5.5.1.1.+.>.7.:.I } :.:.6.5.6.5.1.5.>.1.5.5.5.5.6.,.5.5.1.5.1.5.1.1.>.1.5.>.:.M X.8.6.1.5.8.8.5.6.>.' 6.5.:.y ' 5.5.>.1.' r O.} o.<.:.' 1.5.1.6.:.<.7.5.7.1.:.} [ <.I ' ' :.' 1.+.:.;.I <.Q r c b I :.' 5.1.[ M x r , : : X % @ X   @ M O.2.5.o.}  .X.O.5.1.5.5.1.1.8.X.M I X.;.:.>.:.1.1.1.;.^ x ; r x ;.t.5.5.' o.:.1.' ' } <.Q ' ' Q ! <.>.>.1.5.1.5.5.1.5.:.1.1.>.1.1.1.1.5.1.X.:.1.+.;.1.1.:.>.} } :.o.$.3.6.{ x } b y 3 a r 3 7 t s t t s t t 7 t s d y < & : & : 1 & @ + . . > c ( >.2.$.>.>.%.+.O.&.+.1.+.+.:.:.o.;.",
"1 ;.;.X.} O.:.o.:.+.:.:.} } o.<.X.' } <.:.>.:.:.<.:.;.Q ^ +.1.1.1.>.1.1.<.,.1.1.1.1.1.1.1.1.,.1.<.1.o.' ! :.>.1.5.1.1.5.<.1.1.1.,.5.:.5.,.5.<.1.:.5.:.1.:.5.<.1.1.:.1.<.1.5.1.1.5.1.>.5.+.N 3 ; + + O . . O O > } >.X.1.>.>.>.5.5.5.<.5.5.,.5.5.5.<.5.5.5.1.5.1.:.5.1.1.1.1.1.5.1.:.,.5.5.1.1.7.:.o.' o.t.} ^ ;.:.7.1.5.1.,.1.,.5.1.1.5.1.5.1.5.5.5.1.,.>.,.1.1.,.1.1.;.+.+.X.+.X.Q R 7.:.o.1.<.5.1.>.5.1.5.5.1.5.7.>.>.,.' t 2 ; + - + r t - O Q 8.6.2.>.>.2.2.$.$.o.N I :.5.5.:.5.5.:.} 5.5.5.5.6.' >.:.>.>.1.1.5.>.1.7.:.I Q +.>.6.5.5.5.5.5.1.1.5.1.5.5.5.5.5.5.7.5.1.5.5.5.5.5.7.5.+.! N :.1.t.t.5.>.6.1.7.^ [ Q ' I M 5.7.1.;.' 1 ' +.o.:.:.^ +.:.>.5.1.:.1.,.1.1.5.:.U I I >.} ;.7.o.:.1.X.N :.X.M r N { X.{ 7.1.' I a r , , % @ % X & 1 @ F $.&.&.&.%.2.+.+.1.1.5.>.5.5.Q M Q :.5.5.1.1.1.1.1.:.+.o.' I 1 - ' 5.5.X.! 1.:.o.' ! <.5.I R Q I } :.:.7.1.1.1.1.1.1.1.,.1.<.>.1.1.1.1.1.X.o.<.1.+.:.:.1.:.:.} +.1.X.1.$.1.N R ^ s i y s r t t d s 2 f x t t 2 t d f 7 < & : : & & > : + : d ! +.1.2.1.>.>.$.<.&.O.$.+.$.+.:.:.X.+.X.",
"r } :.O.X.:.:.X.o.o.} X.X.! I o.5.X.Q o.1.1.<.:.1.1.1.:.} } :.1.1.1.1.1.1.1.>.1.1.1.,.1.1.1.1.1.1.>.' } ' o.>.1.1.1.5.>.1.1.1.1.1.1.,.,.,.1.1.1.1.1.1.1.1.1.1.,.<.1.1.1.1.1.1.5.5.1.>.1.,.^ 7 ; + + . . O   O $ M 6.} 1.>.5.1.>.1.1.5.,.1.5.5.:.5.<.,.,.5.<.5.,.1.1.5.1.1.<.:.:.:.:.,.1.t.7.5.>.5.5.R 1.7.' ' +.:.1.7.1.5.,.5.5.1.5.1.5.5.1.5.,.1.5.5.5.1.1.,.1.1.1.1.:.<.5.1.5.Q U V } } ' +.:.5.>.>.5.5.,.1.5.>.5.5.5.,.! s r ; + + + + ; - + ] 6.5.>.,.2.>.2.6.o.>.| c $.>.5.>.1.5.1.X.5.5.5.5.6.} o.:.5.5.5.7.>.5.1.5.>.' x ' 5.5.5.1.5.5.5.1.1.1.1.5.6.5.5.5.5.5.5.5.5.5.,.5.1.1.>.} :.1.! ! X.5.7.7.,.,.8.[ x Q } +.I 5.8.5.X.X.x M { :.;.} } t.} X.5.:.:.5.1.1.1.1.1.t.' s U } t.1.} o.5.' V O.;.{ 1 I 5.[ :.<.;.Q b a r 1 : @ @ % X d M   b 2.<.%.$.1.3.+.o.1.1.>.>.6.' M } >.:.5.5.1.1.1.1.1.>.;.+.>.:.! y r X.1.! ' 5.y.} ' R ;.X.! ' :.Q :.1.:.1.1.1.1.5.5.1.1.5.1.:.:.1.1.1.<.;.} <.1.1.X.:.:.1.:.o.+.1.&.X.1.1.} k E v y i y r 3 d s u t 7 s f t > > 7 u 0 > : > & $ : > $ : h ^ $.>.>.,.>.>.$.>.$.1.&.O.+.&.+.+.1.+.[ X.} ",
"O I ;.<.:.;.:.;.;.' ' ' ' ' I ' 1.1.X.^ 5.1.1.1.:.+.:.5.:.' { :.1.5.1.1.>.1.1.1.1.1.1.1.>.1.,.1.:.7.' ;.} ! 1.7.:.1.1.<.1.1.1.1.1.<.1.5.1.<.:.5.<.1.1.,.5.1.1.1.5.,.1.1.1.5.1.,.1.5.1.1.1.o.c : + .   . @   O + t 1.} 1.>.6.1.5.:.5.<.5.<.5.1.5.5.5.5.5.,.5.1.5.,.5.5.,.1.:.;.' ' ' ! X.1.:.>.7.5.:.Q 8.5.X.X.;.>.5.5.5.5.1.1.5.5.1.5.,.1.5.1.5.,.5.1.5.1.1.1.1.1.1.5.<.1.6.5.8.5.^ y X.+.} +.:.5.5.5.5.1.5.5.,.1.5.7.5.:.! t 1 - + + - - ; ; ; [ 6.2.>.2.>.>.>.2.o.$.2.b X.:.>.6.5.1.>.X.5.5.5.5.5.+.^ 1.+.X.>.5.>.5.6.5.1.o.x X.7.1.1.>.5.5.7.1.1.7.1.5.5.5.5.5.5.5.5.5.1.>.7.5.5.:.+.:.o.7.:.X.N ! +.6.t.8.:.Q ;.t.:.5.Q 1.6.5.:.o.V x ' :.;.^ :.:.5.Q +.;.1.5.1.1.1.1.,.1.:.' x r I 5.<.+.<.' I } o.o.1 I ;.' 1.<.;.I a r 1 : % o @ % : ^ E X i +.O. .1.&.1.&.o.5.1.6.>.[ ! :.+.1.t.5.5.5.1.1.1.:.:.+.1.7.1.5.' x a R X.o.;.1.' I V <.R Q I R V ;.5.1.1.1.,.1.,.1.1.1.5.1.;.:.5.1.5.:.X.o.5.>.:.+.1.1.>.:.X.1.5.o.+.1.3.B k V i d y y y y d t 7 > 2 t t 7 ; 1 3 7 , : & > > & $ o 0 E o.1.$.$.2.$.$.$.&.>.>.%.+.&.+.o.X.X.{ Q I I :.",
"- - I <.<.:.:.<.:.<.:.:.:.1.:.o.} 1.1.' ' } ;.1.:.:.1.;.<.:.X.+.>.1.1.>.>.1.1.1.,.1.1.1.1.1.1.1.<.1.} 5.;.R o.1.,.:.1.1.,.1.1.,.1.,.5.:.,.5.5.:.1.1.1.1.:.5.<.1.1.1.1.1.1.5.1.1.1.1.1.1.>.1.^ : + . + O @ + + + : ' +.:.1.1.1.,.5.5.,.1.5.5.5.5.:.5.5.5.1.5.5.5.1.5.5.1.5.1.5.1.,.<.1.:.X.:.7.1.1.;.' 5.1.;.:.:.1.1.1.5.1.5.1.5.,.5.5.5.5.1.5.1.1.5.1.5.5.5.1.5.5.1.1.:.1.6.5.8.5.+.R X.5.;.5.1.5.>.5.5.5.5.1.5.5.5.>.>.,.X.x : - + + + + 1 - ; ' ,.2.2.$.$.2.>.] :.1.1.U U >.>.8.5.1.>.X.6.5.5.5.1.:.R 1.+.>.5.5.1.5.5.5.t.1.c U 5.7.5.5.1.5.7.1.1.5.5.5.5.5.5.5.5.5.5.5.5.5.5.>.>.+.:.7.:.1.y.>.5.+.Q ^ o.^ ! :.X.1.7.:.! 5.5.5.o.} I a ! o.} } :.5.:.o.V } 1.5.1.1.5.7.:.1.:.' } ' x a } Q 5.} I O.5.' r I I o.5.:.^ x x r r % o @ % % d 1.G X 8  .$.&.3.<.1.1.+.1.<.7.X.U +.:.7.1.5.5.5.1.1.:.1.7.;.+.1.5.1.<.' ' V a ^ 5.<.! R N x { I ! ! ! I :.7.8.7.1.5.1.1.1.,.1.1.1.:.1.5.1.1.:.X.:.5.1.:.+.1.1.;.+.} :.5.X.2.&.} i d V d i u a y u u 7 ; ; 2 t t 7 > : : > & : : > : : u V ..2.2.1.1.2.$.$.>.1.1.1.&.+.&.$.O.} O.X.' ^ ^ ' :.",
"O + 1 ' :.<.:.;.;.+.:.<.:.:.:.;.} +.>.:.} } } X.:.1.:.5.:.5.+.X.:.1.>.>.1.1.>.1.1.<.1.1.,.<.1.1.1.} ! 7.,.X.' 1.7.1.5.,.1.1.1.1.1.1.<.1.1.:.,.5.,.1.1.1.1.,.5.,.5.1.,.1.1.1.1.5.1.1.1.2.1.1.+.t ; + O .   @ + @   c o.X.6.1.1.2.5.:.5.,.5.,.,.1.5.5.:.5.5.1.5.,.5.1.5.5.1.7.1.,.1.1.1.7.5.;.;.6.1.' ' :.1.' :.:.1.5.1.1.5.1.5.1.5.1.1.5.1.5.1.5.5.1.5.1.5.1.5.1.1.5.5.1.1.7.1.5.8.1.[ } <.+.1.1.6.5.5.5.5.5.5.5.1.5.5.,.,.o.M r - + O + - t ; t [ | $.,.>.>.2.o.1.&.1.1.[ s >.>.5.7.5.>.o.5.7.7.5.5.1.I 1.+.5.5.1.6.7.6.5.1.1.+.I :.6.1.6.5.5.7.5.1.5.5.5.5.7.5.5.5.5.5.5.6.5.:.:.X.+.1.1.>.t.1.6.5.5.7.;.' [ ,.5.5.X.:.t.^ 5.>.1.' ' X.s N } } o.7.~ } U I I 1.1.>.>.1.:.t.:.:.[ ' :.t.x Q ' ;.X.M ;.t.R x ' x 1.1.:.I a a r - @   % : % V O.v : X u y d d b ^ } X.&.1.' I 5.>.:.1.5.1.5.5.5.1.1.1.+.} o.<.1.1.5.Q ^ :.x M 8.<.a I ' } x I :.' X.R <.7.7.1.1.1.1.5.1.5.5.,.:.:.1.5.1.+.:.:.<.5.>.:.+.1.:.O.} Q X.1.o.3.2.V v B N k i b d y d y > $ ; ; 7 t t > > $ @ @ $ & & 7 m $.$.$.>.,.>.$.>.>.,.>.1.+.1.5.1.O. .} O.1.o.o.} ' ;.:.",
"- 1 + r X.;.:.:.:.:.:.:.1.>.1.1.:.+.+.1.1.:.:.+.X.o.:.1.>.1.1.:.X.;.1.,.:.1.1.1.1.1.1.<.1.1.1.1.+.R :.1.1.:.R :.5.:.7.1.1.1.1.,.1.:.5.:.:.5.:.,.1.:.5.:.1.5.1.5.,.5.1.1.5.,.,.5.<.1.5.,.1.5.2.I ; @ O + + + + O O - Y ;.;.,.,.,.5.,.5.1.,.5.5.,.,.5.5.5.:.5.,.5.5.1.5.1.5.5.1.5.5.5.5.5.5.<.:.5.5.' o.;.' R :.;.5.5.1.5.1.1.1.5.5.5.5.1.5.,.5.1.5.,.1.1.,.1.1.1.1.1.1.:.1.5.5.1.7.1.} ' ' X.;.t.5.5.5.5.5.5.5.5.1.5.1.:.5.>.U t ; +   @ 7 ; ; t >.$.$.2.>.>.,...>.2.2.>.:.y ' X.5.5.5.>.o.7.5.>.5.5.1.^ X.:.7.5.1.6.5.6.1.6.:.<.' [ 5.5.1.1.7.7.7.6.,.5.5.5.5.6.5.1.1.1.5.>.X.} +.:.1.1.5.5.1.7.5.5.6.5.6.6.6.5.5.5.X.1.>.R X.} } o.6.;.a a o.' X.+.} :.5.X.I :.7.1.5.1.5.>.1.>.! ' <.t.} M o.' } M :.1.b x ^ Q X.5.:.M r r 1 - O @ X X : y : @ X   X @ @ @ X o : a V c a ' 1.:.:.5.5.5.7.1.5.1.1.:.X.>.o.7.1.1.<.' ' X.' r ' I ! ' :.:.I Q ;.{ ' [ X.5.5.5.,.1.5.1.1.1.1.:.:.1.1.5.5.:.;.1.1.1.1.;.;.<.+.X.[ :.O.+.O.2.{ B F V R b p F V y 8 7 2 $ ; > > 7 2 ; o o   $ > u b E $.1.$.1.>.1.>.>.,.>.>.>.1.>.1.$.1.+.} X.:.1.:.} X.X.:.>.",
"r x - O M :.;.:.+.:.:.:.:.>.>.>.:.+.+.:.5.+.+.:.<.+.+.;.:.:.<.1.;.o.:.1.:.1.:.1.7.1.,.5.7.:.:.:.Q ' :.:.5.<.' o.:.1.1.1.1.1.1.1.1.5.:.5.5.:.5.:.1.1.:.5.<.5.5.:.1.1.,.5.5.:.5.<.5.,.1.1.1.,.,.] t ; - O O + + + + O r U :.5.2.5.,.5.,.5.5.1.5.5.<.5.1.5.5.5.,.5.5.1.5.,.5.1.5.,.1.1.5.1.5.5.1.;.' ' +.1.:.} :.+.1.1.1.1.5.5.5.1.,.1.5.5.1.5.1.5.1.5.5.5.5.5.5.5.5.1.5.>.1.8.5.5.5.1.+.' ' X.:.7.5.6.5.5.5.5.1.5.1.5.1.>.5.>.^ s + +   ; 2 ; + x ,.2.>.>.$.2.+.o.1.>.>.1.7.I y R +.>.5.>.o.7.6.6.5.:.5.} R 1.8.8.5.5.5.5.5.7.+.1.X.I 6.1.t.5.5.6.5.1.;.1.6.8.1.:.:.1.5.>.1.1.5.5.5.5.5.1.1.1.5.1.6.5.5.6.6.5.5.6.7.1.X.1.7.} ' 5.1.:.1.:.b M 1.I +.+.:.1.1.t.:.R 6.>.>.5.1.1.1.:.R } 1.,.1.I ! ! I N :.o.a M ' +.' <.X.x r r ; - X   X     X , n d 1 a ^ ) E V a 1 @ O - x :.<.:.1.1.5.5.5.7.1.1.7.} o.>.+.5.1.1.<.' ! o.;.x x R ;.X.:.{ I R :.' R +.} >.6.6.:.>.5.5.1.+.:.>.:.:.8.1.1.:.:.:.1.5.<.' 1.1.1.} o.>.+.$.1.O.F F E B W b v F m u 3 < > $ : 2 2 7 1 $ $ @ $ 7 V ] &.1.$.+.$.&.1.>.,.1.>.2.>.1.>.1.1.:.:.X.X.:.5.:.X.X.+.o.;.>.",
"a { a + : ^ <.:.1.:.1.1.:.1.1.:.1.:.:.;.1.:.X.+.1.:.:.+.+.:.1.1.<.X.X.:.1.1.1.1.,.:.1.1.,.5.7.' Q 1.1.>.1.5.} ! 1.1.<.1.,.1.<.1.5.<.5.,.:.5.1.1.1.1.5.:.5.1.5.5.5.:.1.5.5.5.5.<.:.5.5.1.1.1.,.,.V 1 ; O + + + + + - O t } ,.5.,.5.,.,.5.1.5.<.5.5.5.5.5.5.:.5.<.5.,.1.5.5.5.5.5.5.1.1.5.5.5.5.:.! R 1.1.X.o.<.:.:.1.1.1.1.5.1.5.5.5.,.1.5.1.5.1.5.1.1.5.5.,.5.5.5.5.5.1.5.5.5.5.:.:.:.Q ! ' 1.6.,.6.5.5.5.6.5.5.1.1.1.1.5.5.} N : - O ; ; ; ; N 2.>.>.>.>.2.} +.2.>.>.2.1.o.x ;.I :.1.1.o.5.6.6.5.1.1.+.M 1.7.5.6.,.7.5.5.5.X.1.1.Q [ ,.t.>.1.5.5.t.5.>.6.5.:.+.o.+.:.5.5.5.1.1.1.1.5.5.7.1.1.5.5.5.6.6.5.6.5.5.6.1.:.:.5.>.' 8.5.:.7.5.! b o.! 5.5.;.:.1.6.1.~ } 1.8.1.>.5.1.+.! o.8.1.<.Q b ' a I 1.o.a I ' 5.I [ I a ; r 1 + X       a d ^ &. .0 8 3.7.2.7.5.$.T , @ + x :.:.+.1.5.;.5.8.1.1.;.} 1.:.+.1.1.1.5.' ' :.' ' ; I R :.:.[ ! ! :.! ^ 1.X.:.6.7.5.5.1.<.X.' V ' :.;.6.;.:.:.1.1.1.1.} I o.+.5.} 5.<.X.<.<.^ N E ^ m E p v j n y 7 3 > ; : 7 7 > : ; 7 n R | $.2.$.$.$.$.1.1.>.1.1.>.>.>.1.>.1.>.>.+.;.O.+.1.:.X.X.+.<.+.<.>.",
"r ' { 1 O r O.:.:.:.:.:.1.>.1.>.1.1.:.:.+.1.:.X.+.:.:.:.:.+.+.:.5.1.X.X.7.:.5.<.:.1.7.5.5.} Q ! +.7.1.7.:.7.;.R 1.1.1.:.1.1.1.1.:.,.5.:.5.1.1.1.1.1.,.5.<.,.,.:.5.5.5.:.:.5.1.5.5.5.:.5.,.5.5.5.] t : - + + + + + O + O c ,.,.2.,.5.5.5.:.5.5.,.5.,.,.1.5.5.5.5.5.1.5.1.,.1.1.5.1.5.5.5.1.1.5.7.' ^ 1.1.+.} <.:.:.5.5.5.5.1.5.1.,.1.5.5.1.5.1.5.1.5.5.5.5.5.5.5.5.5.7.5.5.5.6.6.:.1.1.Q ' I +.7.5.5.6.5.5.5.,.5.5.5.1.5.7.5.] D x t ; ; ; $ + A 2.2.,.2.>.$.E ] $.>.1.5.1.7.c :.1.' 1.5.+.5.5.5.5.1.1.8.x +.5.5.5.5.5.5.6.1.X.5.6.+.M +.1.5.6.6.1.+.! ' } ^ } 1.1.+.+.>.1.1.1.5.1.1.5.1.5.5.1.5.5.5.5.5.6.5.6.6.5.5.5.:.1.1.' :.1.<.5.1.X.a R X.5.5.:.>.5.t.5.5.R ;.:.<.1.1.1.:.} 1.:.5.:.;.3 I x R 7.} a R } 5.' X.I a r r 1 - @ X X 8 T d %.O.1.d @ O.2.&.<.3.1.2.v M a - y I 1.1.1.1.5.1.<.>.} +.8.:.;.7.7.1.1.' I ' X.X.I a ! I { ' ' ' ;.M } 1.:.1.1.5.5.1.<.;.o.o.[ N ' } +.} } } o.:.:.+.} } o.} X.:.:.:.:.o.^ V F ^ E V F i i 8 0 < > 3 6 ; $ $ ; 7 n / | $.1.1.2.2.>.2.1.2.>.&.>.1.>.1.,.>.,.1.>.1.1.+.+.:.1.1.+.} ;.:.+.+.1.1.",
"- I ' c - @ x ;.+.:.1.:.>.1.1.:.1.>.1.:.+.:.1.:.+.;.<.1.1.:.X.+.:.5.:.{ :.:.1.5.1.1.:.o.I I ! :.1.1.,.5.1.5.,.} ' 1.:.1.1.1.1.1.5.,.:.5.:.,.1.1.5.1.1.1.5.:.,.5.:.5.,.1.5.1.,.1.5.:.5.:.5.5.,.6.;.M ; + - O O O + O O - $ U ,.5.5.1.5.2.5.:.5.5.5.5.5.5.5.5.<.5.1.5.,.5.5.1.5.,.5.1.1.5.1.5.1.o.R :.7.O.} ' :.:.1.5.5.5.5.1.1.5.1.5.5.,.5.1.5.1.5.5.5.5.5.5.5.5.5.5.5.5.5.5.6.7.:.5.1.! O.V ' 1.5.1.6.5.5.5.5.5.5.,.5.5.5.5.^ b M t t ; ; 1 @ d >.8.$.2.>.X.| | | $.,.2.6.>.Q [ 6.+.:.>.+.5.5.5.5.:.1.y.V ! 1.5.1.6.5.5.5.>.o.5.5.7.Q I X.+.1.>.+.X.} :.' ^ ^ X.1.5.>.:.1.5.5.:.>.>.1.5.5.1.5.5.6.5.6.6.5.6.6.5.5.7.5.;.>.5.' } 1.5.<.<.X.a c ;.1.5.>.>.>.6.1.y.' ' ;.1.1.5.1.:.X.7.1.5.5.5.c a x ! <.' x R <.3. .Q I y - ; - -   % X , V } 1.O.4.R X R &.<.5.4.6.8.Q +.7.I + 1 Q :.>.5.1.:.1.;.o.1.1.X.X.o.:.<.<.Q I Q M Q ;.a X.{ Q Q ! ! o.x o.<.:.5.1.5.5.5.:.^ I M V a V ' } [ ' ' X.:.1.+.X.5.1.} ' 5.;.1.1.^ V N F R T F i y 8 , , , 1 @ - > s U | >.>.>.| >.2.2.2.5.>.$.$.$.$.2.>.>.>.>.>.1.>.1.1.:.>.o.+.1.1.<.:.} 1.+.+.+.>.>.",
"+ c ;.{ x - O M :.:.1.:.1.1.1.1.:.:.:.<.;.+.<.5.:.o.+.1.<.1.1.:.o.:.<.X.{ :.1.:.o.' R I ! X.:.:.<.5.5.5.1.:.1.:.I :.:.5.1.1.,.1.5.<.5.1.,.5.,.5.,.5.5.1.5.5.5.:.5.,.5.<.:.5.,.5.,.5.5.:.,.5.5.5.,.U ; - - O + O + - O + O 1 ] ,.,.1.2.,.5.1.5.5.1.1.1.1.,.5.,.5.5.1.5.1.1.5.1.5.,.5.5.1.1.8.o.' :.' o.X.} } X.o.1.5.>.1.1.5.1.5.1.5.1.5.5.5.,.5.5.5.6.5.5.6.8.5.5.5.5.5.5.5.5.5.1.1.:.Q +.' Q 5.5.5.5.5.5.6.5.5.6.5.5.6.5.6.X.s x t t > : $ 2 ( ] 6.2.6.X.| ,.$.$.>.>.,.5.5.X.N t.>.X.:.+.5.5.5.5.1.1.1.' Q ' 5.5.6.5.5.5.1.+.7.5.t.:.y Q ! o.o.X.1.:.5.5.<.o.X.o.1.1.:.1.5.>.5.5.5.5.,.,.5.1.5.5.5.5.5.6.5.6.6.5.6.5.:.5.7.o.Q :.5.1.7.;.x r <.7.1.:.>.6.5.5.7.' ^ 5.1.1.5.1.:.+.5.1.1.1.:.:.x 1 N o.I y M 1.1.<.x d r - + - 1 @ X   u E &.O.$.8.{ @ F 2.5.&.1.5.7.^ X.1.7.I r 1 ' >.>.5.1.1.:.:.<.o.} o.X.;.:.X.I x M a ! ! Q R :.} ! Q ! ' a M o.:.1.5.7.5.o.Q I ' +.1.^ R <.>.+.1.5.5.5.:.:.X.1.:.} } 1.5.1.^ I V V V T V V i v 8 & % : 3 y c Y } >.2.>.$.2.>.,.2.>.5.2.2.>.1.1.>.2.>.,.1.>.1.>.1.1.1.>.1.:.:.5.1.+.o.;.1.+.+.:.:.1.",
"- x <.;.;.y - 2 o.:.:.1.:.:.:.1.:.1.1.>.1.:.:.:.1.+.X.:.5.1.>.>.+.X.+.:.o.;.! R R ' [ :.5.,.:.1.1.1.1.1.1.1.1.5.' [ 7.,.,.1.1.1.:.,.1.1.<.5.:.:.:.1.1.1.:.,.5.5.,.<.5.5.5.5.,.5.5.1.5.5.5.5.5.1.,.] 2 - - O + + + + - + O @ t } 2.$.5.>.,.5.5.1.5.1.,.5.5.1.1.5.5.5.5.1.5.1.5.1.5.1.5.1.1.<.{ ;.:.' :.5.X.Q Q Q [ 6.5.1.5.5.1.1.5.5.1.1.1.5.5.5.5.5.5.5.,.5.5.5.5.5.5.5.5.5.1.5.:.;.} N I I V 7.6.5.1.5.1.5.5.5.1.6.5.5.5.6...s t 2 : > > @ 3 1.o.^ 2.$.| >.>.>.1.$.$.2.5.5.:.x :.>.+.+.;.7.5.5.1.5.1.:.[ o.Q 5.+.1.5.5.5.1.:.5.7.8.t.I I 5.U ! 1.7.6.5.<.<.;.:.} ' o.X.+.5.5.5.5.5.5.5.5.5.5.5.5.5.5.5.5.5.5.5.5.6.5.>.5.8.:.Q :.1.5.;.<.I - ' 8.5.:.5.6.6.8.:.^ I 1.1.1.5.7.X.;.1.y.<.1.5.' Q x a 5.N 2 ~ <.$.<.s 2 % @ @ - - % @ @ 0 ) %.5.2.2.| % R 2.&.1.1.5.4.R +.:.1.} ' a r :.1.1.7.5.1.1.:.1.:.<.1.:.' R V ^ ~ R ! Q ;.X.:.:.} I ' ' R ! I ! 7.:.1.} ' X.:.5.1.1.5.Q X.:.1.5.5.5.1.:.:.+.:.:.O.X.5.7.X.R R I b M M d a , 8 d v m R } | ,.,.1.>.>.>.>.2.2.2.,.2.2.2.,.>.>.2.$.>.>.1.>.1.>.1.1.1.:.1.1.1.:.1.:.:.:.1.<.+.:.:.:.1.",
"O x 5.:.<.^ 1 + r X.1.5.1.1.<.,.>.1.>.1.:.:.+.+.:.1.:.} ;.5.:.1.>.:.+.+.:.R I o.:.5.5.5.<.1.1.1.1.1.1.1.1.1.5.7.o.R y.:.1.1.1.,.5.,.<.1.1.1.5.,.1.5.5.,.5.5.:.5.1.5.,.1.5.:.5.:.,.,.<.5.:.5.,.,.,.,.I ; - - + + + O O + + + O t >.,.,.,.5.1.5.5.,.5.1.5.1.5.<.5.,.5.1.5.1.5.1.5.1.5.5.1.5.} :.5.1.;.o.X.' X.} ' X.>.5.5.1.5.5.5.5.5.7.7.7.5.5.5.5.5.5.5.7.5.5.5.1.5.5.5.5.5.5.5.+.:.X.I x ' } ' 6.5.6.5.5.5.5.5.5.5.5.5.5.1.>.s > ; ; : ; @ t 2.>.Y } ^ $.2.$.>.6.2.$.,.6.5.1.M ! 1.:.:.:.1.5.6.5.5.1.1.} >.^ X.o.6.1.5.5.1.+.6.8.1.t.:.N I N M ! I [ 1.7.1.:.:.o.o.o.1.5.5.5.5.5.5.5.5.5.7.5.5.5.5.6.5.5.5.5.5.6.7.5.1.5.7.5.Q +.5.5.<.;.o.s r } 6.:.8.:.i.:.} X.M >.:.:.7.,.^ ;.1.:.<.:.X.N ' ' 1 } x a { $.5.) 2 X X @ - @ % % @ % , ^ +.3.6.3.O.% E 3.1.3.5.7.1.Q :.X.;.X.;.' 1 x 7.<.:.1.<.1.1.7.;.7.7.;.M I X.5.' ;.^ R o.5.;.;.[ Q Q R } 1.' N ;.5.X.' +.5.1.5.5.5.8.} X.1.1.5.5.1.:.<.o.+.:.+.+.;.5.:.R ' ^ M v c M a 1 : 8 ~ %.%.2.1.1.:.:.>.>.>.,.1.1.2.,.,.2.,.,.2.>.1.>.>.>.>.,.1.,.,.>.:.1.1.1.1.1.:.;.X.^ +.<.:.;.:.>.:.:.",
"; - Q :.;.<.I 1 O x ;.<.<.1.:.1.1.1.>.1.:.1.:.;.:.1.5.X.X.>.5.:.+.:.:.:.+.^ ! 8.1.>.1.1.1.1.1.1.<.1.1.:.;.X.5.1.1.^ X.7.>.1.1.1.:.5.1.,.1.<.<.1.1.1.5.1.5.:.5.1.,.5.5.1.1.1.1.1.1.,.1.,.,.2.>.2.,.5.] 1 @ - + + + + + + + + - O I ,.,.7.5.1.5.5.1.5.5.,.1.1.5.5.1.5.1.5.1.5.1.5.1.5.,.y.+.+.>.5.1.:.X.;.X.1.;.} +.X.+.5.5.1.>.1.8.5.6.5.8.5.6.5.7.5.5.6.6.5.5.7.6.5.5.5.6.5.1.1.;.7.1.+.' o.1.Q :.5.6.5.5.5.5.5.5.5.5.5.5.5.>.s ; $ ; ; ; + s 6.6.$.D } ,.,.>.2.6.2.>.2.6.>.6.' M >.>.1.:.5.5.7.1.5.1.5.[ >.:.^ 5.:.5.5.5.1.+.5.5.,.7.>.V y Q ' } :.! U +.,.o.:.5.>.;.>.5.5.5.5.5.5.6.5.6.5.5.5.6.6.,.6.,.6.6.7.6.5.5.,.5.8.5.} } 1.1.1.o.1.M 1 2 ;.:.5.,.1.o.:.1.N ' 5.+.6.1.Q +.>.5.+.} X.o.<.^ 2 s r I X.O.o.v X - : : & @ @ @ : , % V 2.2.5.2.| % ^ 2.3.1.2.2.1.R X.o.X.} :.+.' : R :.:.:.1.1.1.1.;.t.+.R I ' 7.:.' X.o.^ o.5.X.{ } ' } I <.:.<.^ ' [ ' :.5.1.1.5.5.1.5.o.o.5.1.5.5.1.:.:.X.+.;.+.+.+.:.' R ' T a r x x a 2 r E 1.$.:.1.5.:.1.1.1.1.:.5.5.:.>.,.,.1.1.1.,.1.1.>.1.>.1.1.,.>.1.:.1.:.1.1.1.:.:.;.I a Q :.;.:.:.>.>.:.",
"1 r c { 7.;.<.x 1 - N <.1.:.1.1.<.>.1.>.:.>.1.:.:.:.<.1.+.} } } } X.:.:.1.;.' ' :.1.5.1.1.7.1.,.1.1.1.:.o.} :.:.1.+.I 1.1.1.1.1.5.1.1.1.1.,.5.,.1.1.,.,.,.5.1.1.1.1.1.1.5.5.1.5.1.5.1.5.1.,.>.,.,.,.>.d - - + + + O + + + + O + O I 6.,.1.5.1.5.1.5.5.1.1.1.5.1.5.1.5.1.5.1.5.,.5.1.1.8.[ >.>.>.1.:.} 6.X.1.1.X.X.1.} :.5.5.:.:.,.6.5.6.5.6.5.5.5.5.5.5.6.5.5.8.6.5.>.5.5.1.:.>.:.5.>.+.:.X.o.+.' 1.5.5.5.5.5.6.5.5.6.5.5.5.>.s ; @ : ; @ - M 6.2.s.U o.>.0.>.>.,.2.2.>.6.>.6.1.b +.:.5.1.7.1.5.5.5.1.5.[ :.+.N :.1.1.5.5.1.:.5.6.8.:.o.:.R I 7.} 5.:.X.} U +.6.>.6.>.>.5.6.5.6.6.6.5.6.5.5.6.5.5.5.,.6.6.5.5.5.5.5.5.5.5.5.5.:.^ :.5.+.+.5.I a r b o.<.1.^ } 7.<.' M 5.+.5.1.Q +.>.1.;.M R 5.1.X.x r - ' { | a & & 1 3 : @ % % o : : y s >.2.2.4.) @ _ 2.1.3.2.6.1.V o.5.o.X.1.5.+.R + ' :.5.1.1.>.1.o.+.' Q 1.:.5.' o.} ;.X.o.:.X.} o.o.t.M ;.7.7.^ I o.:.:.;.+.<.5.:.5.1.X.+.<.<.1.>.:.:.:.} +.:.<.:.+.' V Q ^ M a r r r r a ~ &.1.+.1.,.:.:.,.<.:.,.5.1.1.5.>.2.1.1.1.1.1.,.>.1.,.1.,.:.1.1.1.1.,.1.1.:.,.1.:.^ x r I ;.:.:.<.<.:.>.",
"s ; T I X.:.;.O.1 + 1 R <.1.1.:.:.1.:.>.1.:.>.:.+.:.;.<.1.^ ^ :.<.1.:.o.:.<.X.V :.1.1.1.1.1.,.1.1.1.5.1.<.:.} ;.1.<.R } ,.1.1.>.:.5.1.1.,.1.:.5.1.1.<.5.5.<.5.,.1.5.5.,.,.1.1.1.5.1.5.1.5.5.>.,.,.,.>.U ; ; + - O O O + - O O - O - I ;.1.1.1.5.5.5.5.<.,.,.5.1.1.5.1.5.1.5.1.5.1.5.5.+.+.1.:.1.5.>.' 1.} 5.7.5.O.:.:.X.>.7.:.:.,.5.5.5.5.5.5.5.5.5.5.5.8.5.5.5.1.:.:.>.7.5.1.1.5.5.1.X.:.5.+.+.^ 1.1.7.5.5.6.5.5.5.5.5.6.5.>.c + . ; ;   - I t.6.2.$.! 2.2.q.,.>.2.2.2.2.u.,.0.U ' >.5.5.5.5.6.1.5.>.6.[ } } [ V } 1.5.5.<.:.7.7.5.:.>.5.} R ' [ 7.7.5.1.! ! 7.6.7.5.>.5.5.5.5.7.5.5.5.5.6.6.5.6.,.6.6.,.6.6.5.6.5.,.5.7.1.8.:.Q 5.1.X.5.1.+.r I 2 ' 5.X.Q :.5.1.<.I +.<.>.1.Q o.5.1.:.X.R R 1.} x r r X.} v X , 3 @ : : : @ @ % 1 : ^ h o.5.2.t.^ @ | 1.&.<.1.1.o.R ,.t.} >.1.1.1.:.a M ;.1.:.+.5.1.} M R I +.1.+.} ^ X.:.o.;.<.} } X.o.o.R } :.[ ' I :.:.+.;.X.} :.5.1.1.' ;.1.5.1.:.:.>.+.X.;.:.1.+.} I I ^ I s r r r 1 a ' 7.1.&.<.<.1.5.5.1.5.5.:.:.5.5.:.1.2.1.1.,.2.1.>.,.1.1.>.<.1.,.<.:.,.<.1.1.:.1.1.:.! x ; x ;.:.:.1.:.:.1.",
"! 1 I ! M :.:.1.I - + 1 I y.+.5.1.:.1.:.:.>.1.>.:.:.+.:.5.o.' o.1.5.<.;.:.X.:.Q ;.1.1.1.1.1.1.1.1.>.1.1.1.1.o.} o.7.X.' >.:.7.;.7.:.1.1.1.1.1.1.1.5.5.1.,.5.<.5.5.1.1.1.5.1.1.,.5.1.1.1.1.,.2.,.2.2.2.} t ; - + O + O + - O + O + O - r ;.5.,.7.5.:.5.5.;.7.7.:.8.1.1.6.,.1.7.5.1.>.>.+.:.7.1.5.>.1.[ 5.+.5.5.1.+.X.1.1.o.<.6.>.5.5.6.5.6.5.5.5.5.6.5.5.1.6.1.8.+.X.6.5.6.5.5.5.8.5.1.;.>.7.1.+.Q :.8.5.8.5.8.6.5.5.5.5.5.5.,.s O   ; ; - + Q 1.6.u.| >.] 6.>.2.2.2.,.,.6.,.8.8.[ Q i.5.>.1.1.5.5.>.5.:.' ' 5.5.I Q :.8.1.1.+.6.5.1.1.1.:.:.1.o.I I ;.7.7.:.R ! 8.>.5.7.5.5.5.5.5.5.6.5.5.6.5.5.5.7.6.,.7.5.5.6.5.5.5.6.5.5.,.y.' } 6.;.1.5.5.V a x I 5.[ ,.7.7.1.1.5.! 5.+.:.' ;.1.1.+.;.:.I b ~ M 1 3 +.M & b N 8 o X $ @ $ @ 3 i u 1.U +.2.0.7.' , } 5.1.5.5.>.} ! 5.1.X.1.1.7.1.7.X.1 } :.;.1.1.t.M M R R s 1.X.} ' o.1.} o.o.o.;.} :.' ;.1.[ X.+.Q V o.1.1.1.:.} +.1.1.' :.:.5.>.:.1.:.X.+.<.:.1.X.V M I Q I a r - - r ' <.2.5.1.1.1.1.:.5.1.<.5.:.5.:.:.5.,.>.1.1.,.,.1.>.>.>.,.:.1.>.1.<.1.1.1.:.1.1.:.:.:.Q c 1 a X.7.:.1.1.1.1.",
"' 1 c :.' Q 1.5.;.r + + - I <.;.:.1.;.1.:.1.1.1.:.1.;.:.1.:.} } +.>.5.1.>.+.1.' X.1.1.1.1.1.1.1.1.1.1.1.1.1.>.:.' 1.7.' X.7.>.7.:.,.1.5.5.5.:.5.1.,.1.5.5.,.5.,.:.5.<.5.1.5.1.5.>.5.,.5.,.1.1.2.,.5.,.,.c - + + + + + + + O ; - - + + O r U ,.:.:.8.5.1.} :.5.5.:.+.:.5.>.5.1.5.5.1.+.o.,.1.>.1.1.1.} 1.+.5.5.6.:.+.1.1.:.X.;.1.5.5.5.5.6.5.5.5.5.5.5.6.5.1.6.:.[ >.7.5.6.5.5.5.8.5.1.:.1.7.8.1.! I 5.5.7.6.8.5.7.5.5.5.5.5.1.r   + ; - + ; X.7.5.u.$.>.} >.5.,.2.>.2.2.5.6.6.6.:.R 5.5.5.8.5.5.5.1.5.:.} X.1.>.+.} Q 1.7.1.+.5.7.1.1.1.:.>.:.+.5.} M Q +.;.5.} +.1.1.5.6.,.5.5.5.5.5.5.6.5.5.5.6.5.6.5.5.7.7.,.5.5.5.5.5.5.6.5.X.I :.1.<.5.:.' 1 x r I <.1.1.1.1.5.1.R <.:.;.^ :.1.:.;.+.5.:.^ y y r r U > k ^ V 3 @ . @ o $ + u y c 2.c | 2.6.1.( > o.2.1.$.>.>.$.Y ,.o.+.2.5.1.7.1.1.x N :.:.1.1.U M ! } ;.I Q ;.X.+.1.>.:.R ' o.;.} o.} } } ' :.:.' ! 1.1.1.5.,.;.<.1.:.X.:.>.5.<.:.1.:.X.:.<.1.;.I a x N M a r 1 1 y ^ 1.1.5.7.1.1.1.1.5.:.1.1.1.,.1.,.1.1.1.1.1.,.1.1.,.:.>.1.>.1.1.,.<.,.1.1.1.<.1.,.:.:.7.[ M 1 r :.:.1.:.:.>.1.",
"x ; r ' 5.I ! ;.y.M - : - O r I :.:.1.:.>.:.<.:.1.1.<.:.:.1.o.o.X.+.1.1.>.<.:.:.Q :.1.1.1.5.1.1.,.1.1.,.1.1.5.1.o.! } ;.Q >.1.:.5.:.,.:.:.1.5.,.1.5.5.<.:.5.<.5.5.,.1.,.1.1.1.1.5.>.1.1.5.1.5.,.5.,.5.5.Y r ; + + + + + + O I I r - O + + - c :.8.5.1.:.;.1.1.7.+.o.,.5.5.7.1.1.7.:.} :.7.1.5.1.5.1.X.+.+.5.8.8.<.+.;.5.7.;.X.:.5.5.5.6.5.5.5.6.5.5.5.5.8.1.8.X.X.6.5.6.6.5.5.5.8.5.1.:.:.5.t.>.X.c :.6.,.5.5.7.5.5.5.5.5.5.5.r   @ ; - O r :.7.6.6.$...$...2.2.2.,.,.2.5.u.5.5.8.R } 7.5.5.>.6.5.:.:.:.+.+.7.1.5.o.' R :.:.:.5.6.5.1.5.:.>.1.+.<.5.} R R ' <.<.X.} 7.8.1.6.5.5.5.5.5.5.5.5.5.5.6.5.5.6.6.,.5.5.5.5.6.5.5.5.5.5.1.M } 5.1.5.5.1.y 1 a r :.7.1.1.1.5.1.X.I +.} ' :.:.:.:.:.:.:.:.R y 1 1 : y ! E n 3 @ @ @ . . $ d : n o.b +.2.8.8.] ; } 5.1.+.:.$.,.Q 5.] >.5.,.6.>.1.1.Q y :.1.1.R M ' :.' :.1.^ :.' :.t.:.t.' ' X.o.X.} ! R } 1.<.:.' ' 7.5.1.1.7.5.5.:.:.X.:.:.1.1.:.1.+.o.:.:.1.' x r x x r r ; - r ' 1.5.7.1.1.1.1.1.1.:.5.1.1.1.1.1.1.1.1.1.1.1.1.1.1.1.1.1.>.,.>.<.,.,.1.:.1.:.1.1.:.:.:.1.X.M ; ; } :.7.:.;.:.:.",
"r ; 1 Q 1.{ Q X.5.R - - ; O ; r a ^ :.:.1.1.:.:.:.1.<.:.;.1.o.;.:.+.+.1.1.1.:.5.Q +.5.1.1.1.1.1.1.1.1.1.1.1.:.:.6.1.' ' N o.5.1.1.<.<.5.:.5.5.:.:.5.,.1.:.5.5.:.5.5.5.1.5.,.5.1.1.5.1.5.5.1.2.5.5.,.,.,.Y 2 ; - + + + + + + t ] ] ! t O + O - a ' 7.1.;.:.1.1.5.+.:.7.1.5.1.,.5.1.o.+.5.5.>.5.5.1.1.:.+.+.6.5.8.1.:.:.X.X.} R ' ,.5.5.5.5.5.5.5.5.5.5.5.8.5.1.X.,.5.6.6.5.5.5.1.7.5.1.:.:.5.8.5.7.U R +.:.5.5.5.5.5.5.5.<.1.;.r O + - - + a :.,.6.6.&.1.2.+.$.6.6.2.1.2.5.8.5.5.1.} M 8.5.5.6.7.7.:.:.5.:.+.6.5.1.X.1.' :.:.;.8.5.5.5.1.>.:.:.1.1.1.+.I :.X.! :.1.' :.8.5.5.5.5.6.6.6.5.6.6.5.6.7.6.,.,.5.5.7.6.5.5.5.5.5.5.,.t.5.! I >.5.:.p.5.' 2 I a I 7.:.1.1.5.5.1.c ^ ' ' X.;.:.:.5.5.:.1.} : - % 3 ^ ^ m b 3 @ $ o +   7 b t V ! c b $.>.2.[ ; } 6.>.>.>.>.2.E ,.[ 5.5.,.5.1.5.+.[ r ' 1.' N o.:.+.X.<.1.:.^ ' :.t.1.8.o.I } ;.{ R I ;.7.>.1.1.} ^ 5.5.1.1.1.1.7.<.:.o.1.:.1.1.1.1.:.+.+.:.:.I r x a r : O - r Q 1.:.,.1.5.1.1.1.1.1.:.5.1.1.1.1.1.1.1.1.1.1.1.1.,.1.1.>.1.>.1.1.<.1.:.1.1.>.1.1.:.+.:.1.1.:.I 1 - x 7.:.1.} :.1.",
"a + ; Q 7.7.{ Q <.b O a r + a ^ x r M } :.1.1.1.1.:.1.1.:.1.+.<.5.:.+.+.1.1.:.5.^ } 5.1.1.1.1.1.1.1.1.1.1.1.1.5.:.,.1.X.x M 1.,.1.,.1.<.5.1.,.5.5.1.5.1.5.,.5.5.:.:.5.1.1.1.1.1.1.1.1.,.,.2.,.5.5.5.y.,.U ; ; - - + + + + + ; ! ;.5.X.I 1 O - O r ' 7.:.1.5.5.o.:.1.5.5.1.1.5.5.1.:.:.5.5.5.1.1.1.5.5.o.:.5.1.5.1.7.;.I ' +.o.' I 5.,.5.5.5.6.5.5.6.5.5.5.5.X.X.5.,.6.5.6.6.5.5.7.5.1.:.+.5.8.t.6.;.x ! 5.6.6.5.5.5.7.5.1.<.} -   @ 1 - 1 r ;.7.5.5.1.1.1.+.] 1.6.2.5.2.6.6.5.5.1.1.x :.5.1.5.1.7.>.>.5.>.} 8.5.6.:.:.<.;.1.} t.5.7.,.5.1.>.t.5.+.1.+.Q :.:.+.;.X.+.X.>.8.>.5.6.6.5.5.6.5.6.6.5.5.6.6.7.6.5.,.6.5.6.5.6.5.7.1.7.5.X.M +.6.1.8.5.7.a ;.! r R 1.1.1.5.1.+.' Q } Q ' :.>.:.>.5.:.<.Q @ 1 3 V | R D k > : @ @ $   h b M | +.^ c o.$.] [ ; ] 2.+.+.>.,.,.U o.[ 5.5.5.5.5.:.+.1.I b Q c R } o.} } X.1.;.I +.5.5.7.7.} R { } M R X.<.<.1.1.:.X.' 5.5.5.1.>.>.1.<.;.;.1.;.1.1.1.1.+.:.+.:.} x r a r 1 + O r I :.5.:.1.:.1.1.<.1.1.,.5.<.1.1.,.1.,.1.1.<.1.1.,.1.1.1.1.1.1.>.1.1.,.1.1.1.>.1.:.:.o.;.<.1.<.:.I a 1 ; { <.1.X.X.7.",
"r 1 a ;.7.:.5.^ ^ I O I Q 2 - ! :.! 3 r } +.:.:.:.<.:.:.1.1.:.+.1.7.;.X.:.<.1.1.} ' 5.1.1.1.1.1.<.,.1.1.1.<.,.:.1.7.1.,.7.d U 1.1.:.1.1.1.1.1.5.1.5.1.,.1.1.5.,.5.,.1.5.1.5.,.5.1.5.,.1.1.5.1.,.,.2.5.>.U ; 2 - - + + + O + O U | ,.,.>.' r + @ + r [ <.1.,.:.X.:.7.1.1.7.1.5.5.1.1.1.>.5.7.>.1.1.5.7.X.+.5.5.1.1.7.} ^ >.1.1.:.N :.1.5.5.5.5.5.5.5.5.5.1.5.} :.5.6.7.6.5.5.5.5.8.5.5.:.X.8.1.d.:.d.Q X.t.1.8.8.5.5.5.5.1.,.' + O 1 r - - - Q 7.6.2.2.>.,.>.| $.,.2.2.,.5.2.6.,.5.5.;.;.6.5.5.8.5.1.1.6.>.! t.1.7.1.:.5.:.s.} t.1.5.5.1.5.1.1.6.:.:.1.' } 1.:.1.1.7.:.;.:.7.6.5.6.5.6.5.6.5.6.5.6.6.,.7.,.7.6.,.5.5.5.5.5.5.8.;.8.>.I ;.5.6.:.5.1.a } 8.x 1 X.5.:.:.1.<.:.Q ^ I [ :.:.5.5.5.:.:.I + ; a R Q V D h 2 + ; $ o + B t M o.| ( c 0.s.1.| $ M ] [ >.6.,.,.U ] [ 5.2.,.5.' ' o.o.;.1 a ' 1.t.;.X.:.X.:.+.Q 5.5.1.1.8.! ' ' N N d ' 8.1.1.:.+.;.} 1.5.5.5.:.:.5.:.:.;.<.:.1.1.<.<.:.;.;.;.Q a 1 a ; - + - I ;.<.1.5.,.7.1.1.,.<.1.1.1.1.:.5.,.5.,.1.5.,.1.1.1.,.1.1.1.,.5.,.1.1.,.1.1.:.1.1.:.:.+.:.1.1.1.:.' x 1 O c 7.;.;.' 1.",
"; 1 M 1.1.1.1.:.[ I 1 ! ;.M : 1 ' 1.} x 2 M +.1.:.1.1.:.:.1.1.X.:.:.1.:.:.1.1.1.X.! 1.1.1.1.,.1.1.1.1.1.,.,.1.1.1.1.1.1.1.;.I } 5.1.1.1.1.1.:.1.1.,.1.5.<.5.:.5.,.5.1.,.5.:.5.1.1.1.1.5.1.5.5.1.5.,.,.5.N t t ; - + + + + O O t ] >.+.>.<.' a O - O r R 1.7.;.;.1.1.1.5.1.5.1.5.5.1.5.5.,.1.5.5.5.5.8.X.5.1.5.1.1.:.[ } 1.1.>.1.} } 5.1.7.5.5.7.5.5.1.>.+.+.' 1.5.5.5.5.5.5.5.5.8.1.5.<.X.p.5.8.7.5.X.! +.5.8.5.5.5.5.5.1.1.' @ O r r r - - r :.1.,.2.>.2.>.,.$.2.2.2.2.5.6.5.5.5.5.5.5.5.5.5.5.5.5.5.8.X.N :.5.8.7.:.5.:.1.X.1.5.5.1.5.1.5.1.5.1.:.;.:.' 7.X.8.,.5.8.:.;.7.6.5.5.6.5.6.6.6.5.6.7.6.6.6.6.6.6.6.5.5.5.6.5.8.,.y.5.t.' ^ 1.5.1.1.7.M X.+.+.r a +.7.7.1.1.7.X.I I ;.:.1.,.5.:.:.:.b X r b M R b b y $ $ $ $ $ : E n ( >.^ +.c 0.2.1.1.2 a X.X.+.+.,.6.c Q Q 6.$.o.X.} } } ' Q 1 ^ 7.:.:.o.1.+.:.<.! +.5.5.5.5.1.' U N :.7.! M >.>.5.>.;.+.+.1.1.1.5.:.5.,.5.:.:.:.1.1.1.1.<.o.<.X.' I r - ; + + - x ;.5.<.1.1.,.1.1.1.1.1.1.1.1.1.5.1.1.:.5.<.<.1.1.,.1.1.1.1.1.1.:.,.<.1.1.:.,.1.:.:.;.:.:.>.:.<.1.1.' M a - 1 R <.o.[ :.",
"r c M <.1.:.1.1.:.c ; I t.X.x O r o.1.5.I r y } 5.>.1.1.1.+.>.+.o.+.7.:.:.1.:.:.:.I :.5.1.1.1.>.1.1.1.1.:.5.1.1.1.1.1.:.7.5.:.c :.:.:.1.5.<.7.1.1.5.1.5.5.5.1.5.5.,.1.5.,.5.:.5.1.5.1.5.5.,.5.5.2.6.,.5.c x U - - + + O O + O 1 ! o.;.+.5.t.X.1   + O - Q 1.O.:.1.5.1.1.5.1.5.1.5.1.,.5.5.5.5.1.5.1.8.' 6.7.1.5.:.} X.>.5.1.1.1.,.} :.t.5.5.5.1.5.5.1.1.X.[ ' 5.5.7.5.1.8.8.1.:.5.5.8.:.' 5.5.1.5.5.:.U +.1.6.,.5.5.5.6.5.5.I + O r r 1 ; + - - o.5.1.>.2.,.2.>.>.,.2.2.5.5.6.6.5.5.5.8.5.5.6.5.5.5.1.>.+.Q ;.>.6.7.>.:.7.} ' ' 6.5.5.5.5.5.5.5.7.>.>.1.} :.:.5.8.5.5.5.:.;.7.7.8.5.5.6.5.6.6.5.7.6.6.6.6.6.6.6.5.5.5.5.5.6.5.6.5.6.:.N 1.5.5.1.8.I X.o.5.+.1 x ;.:.;.;.7.7.I a { 1.1.:.5.,.8.;.3   1 X.V b B d t ; + $ O ; d V M o.>.] >.s >.u.$.$.> t >.$.+.[ ,.o.t ! ! } } >.<.5.7.1.X.M - ' 7.5.<.+.<.X.+.:.Q +.1.8.5.<.X.R R ' 1.1.} a X.:.1.:.1.:.:.1.1.5.5.5.1.5.5.<.5.5.5.5.:.5.<.:.<.X.I a 1 - O O O a o.:.<.5.1.5.1.1.1.1.1.1.1.1.1.,.1.<.:.5.:.1.1.,.1.1.,.1.,.1.<.1.<.5.5.<.1.1.1.:.1.:.:.:.:.>.>.:.:.1.} N x 1 O r R I I R ",
"1 I I :.1.:.:.1.8.Q - x 5.<.! r - M ;.:.:.' a r R 1.1.1.:.1.1.;.} X.8.5.:.>.:.X.:.I :.1.1.1.1.<.1.1.1.,.5.1.1.,.1.,.1.1.1.:.,.;.I 1.1.:.:.1.,.5.1.,.5.1.,.1.5.:.<.5.5.<.1.<.5.,.1.1.1.1.,.5.5.,.,.,.2.>.t M X.> - + + + + + + - N [ :.+.7.7.1.b 1 r - O - N o.1.1.5.6.1.1.5.1.5.1.5.5.1.5.1.5.,.5.1.t.R 1.6.1.5.:.X.:.5.1.1.1.1.7.;.} 5.5.7.5.5.5.5.6.5.1.X.+.8.5.5.5.5.1.X.' ' X.} +.+.+.:.t.5.t.7.1.R +.1.y.>.5.5.5.5.7.7.x O O r r 1 - - + - c 2.2.>.2.2.2.>.>.2.6.2.6.5.5.5.5.5.5.5.5.5.5.5.5.7.,.+.+.+.>.>.6.7.1.+.5.X.' ' 6.5.5.5.5.5.5.5.7.5.5.5.;.+.1.1.8.5.5.8.,.;.7.7.5.6.6.5.6.5.6.5.6.,.6.,.7.6.,.6.6.5.5.5.5.5.5.5.6.6.5.Q Q 5.1.1.7.I o.5.>.5.U 1 a ;.:.;.:.6.^ x ' y.,.1.7.<.5.[ : : @ Q v 3 u b t $ $ o   7 R D U $.[ $.o.t [ [ } 1.h c ,.,.>.>.;.U c N ^ ! ,.,.5.1.<.o.o.R x } 5.5.;.+.+.X.;.X.^ :.8.1.5.o.V R :.>.<.;.} } R :.:.:.1.:.:.1.1.1.:.5.1.1.,.<.5.5.1.1.<.5.:.5.;.x r ; - : + O - ! 7.<.<.<.1.1.1.1.1.<.1.1.,.1.1.1.,.,.5.:.5.,.:.5.1.1.1.1.1.1.1.1.,.5.:.,.:.1.1.1.>.1.:.<.1.>.>.1.:.<.o.I x a - - - - - : ",
"r I I O.:.:.:.:.:.;.r r ;.:.:.Q 1 + I <.:.;.1.R r x ;.1.:.1.:.o.X.' :.1.1.<.:.o.;.I ;.1.1.1.1.,.,.<.1.,.1.1.1.1.1.1.1.,.5.:.5.6.' R ;.1.1.,.5.1.5.1.1.1.5.:.:.5.5.<.5.:.5.,.1.5.5.>.5.5.5.,.>.5.2.,.,.>.2 ^ 2.x - + + + + O - + t ' :.+.5.8.5.X.s ;.a O O + I <.5.>.5.5.5.5.1.5.5.1.5.,.5.5.1.5.1.1.8.I o.1.1.1.:.>.1.1.5.5.5.1.5.5.' +.1.6.5.5.5.5.5.1.5.;.:.8.5.5.5.:.X.+.1.7.1.+.X.X.1.:.5.1.6.5.7.' ' } 5.7.6.5.5.1.6.6.r + O r r 1 + x r + : ] >.>.2.6.2.2.$.,.2.6.5.6.6.5.8.6.5.5.5.6.5.5.5.7.>.X.>.:.:.:.1.t.6.>.>.6.[ ;.5.5.5.5.5.5.5.5.7.5.5.5.1.X.1.1.8.5.5.7.8.:.8.5.6.6.6.5.7.7.6.7.6.7.6.,.6.6.6.6.5.6.5.5.5.6.5.5.6.7.6.:.M :.1.7.5.U X.:.5.>.>.I 1 1 M Q Q 7.;.I ;.5.,.:.:.1.y.! @ 1 3 { ! a : r t $ $ + @ i E R ] ..[ 5.| t c n c X.U t ,.>.,.>.] N U s ,.o.o.7.5.1.5.1.:.' R ' 8.1.5.' :.:.} } X.1.1.8.:.R I +.X.:.:.:.} 8.I <.:.<.5.:.:.1.1.1.1.1.5.5.1.5.1.5.1.1.5.5.;.<.R r - + + - + - M <.:.5.1.5.1.1.1.,.<.1.1.,.1.1.1.1.,.1.<.5.5.1.<.1.:.1.1.1.1.1.,.1.5.:.5.5.1.1.1.,.1.:.>.>.1.>.>.1.1.>.;.^ v x : @ + O O - ",
"r [ b ;.:.:.:.<.:.<.x r X.<.:.:.I - r { 1.1.<.1.^ 1 b ' 1.:.1.1.:.} X.1.:.1.:.:.} I ;.1.1.1.,.1.1.1.1.1.<.1.1.1.<.,.1.1.7.:.y.:.:.V V +.y.:.1.1.1.1.1.5.,.5.5.1.,.5.,.5.<.5.1.,.1.1.1.5.5.,.6.,.>.2.,.+.2 o.,.^ 1 + + O + O - + ; ] +.>.8.1.:.:.x :.;.x @ O - R :.5.>.5.,.1.5.,.1.5.1.5.,.5.5.1.5.1.5.! ;.<.1.1.X.5.>.1.1.5.5.6.5.5.+.[ >.6.6.7.5.5.5.5.1.:.+.5.6.1.} ' +.8.6.1.5.5.:.' :.5.1.8.6.5.1.} U Q } 5.1.5.6.7.5.1.1 + O a r 1 + I ! ; @ t ] >.,.2.2.6.>.>.2.6.6.6.6.8.5.5.5.5.5.5.5.5.5.5.:.:.5.+.>.:.:.6.7.>.>.6.o.+.1.5.5.1.5.5.5.5.5.5.5.5.5.X.<.5.5.8.8.5.8.5.5.6.6.6.6.6.6.5.5.6.6.6.6.6.6.6.5.6.5.5.5.5.5.5.5.6.6.7.5.6.! Q 5.5.8.I X.,.1.5.>.5.R r + 1 a I R r } :.7.5.5.:.} x d r a O.X.E 3 : 3 $ $ $ . n R E | >.| >.+.t N >.] ( o.t o.,.,.#.^ ! N t ' X.t.1.1.<.<.:.o.' ' ! 5.5.1.[ :.:.X.} X.:.5.;.Q Q ;.o.5.:.;.>.+.1.} Q ;.o.5.:.:.1.1.5.1.1.1.1.1.1.1.1.1.5.1.<.;.' a - - - O - + r ;.7.,.1.1.1.5.1.1.1.5.1.1.1.1.1.1.,.,.5.1.1.:.1.1.,.5.1.1.1.1.1.1.1.:.5.,.:.1.1.1.5.1.1.<.1.>.1.>.:.1.:.1.;.M d 1 @ - + O r ",
"r X.x :.<.:.:.:.:.1.! 1 R :.<.1.X.M + a X.7.:.1.<.X.x r Q 1.:.5.,.;.o.:.<.1.5.:.X.M o.1.1.1.1.1.1.1.1.1.1.1.1.1.1.5.1.5.:.5.:.7.5.:.' M +.>.7.1.1.1.:.:.5.5.5.1.1.5.5.,.5.:.1.5.1.5.>.5.1.1.5.} N ,.,.( 2 >.,.>.s - + O O + O + O V ] ;.5.7.5.:.M ;.7.} a O O 1 I 7.:.5.1.1.7.5.1.5.5.1.5.>.1.5.5.1.:.} 5.<.1.1.+.7.:.:.1.5.5.5.5.5.5.+.} 8.5.5.5.5.5.5.:.X.' >.6.+.X.1.5.1.5.:.+.;.X.' ' 1.X.' Q U U U c M N U R } 5.8.5.+.- + - a 1 1 + V 5.U - @ N $.>.2.5.2.5.>.,.6.5.5.5.5.5.5.5.5.6.5.5.5.5.6.+.:.6.+.>.5.;.8.7.>.:.6.:.' 5.1.5.1.5.5.5.5.5.1.5.5.5.+.+.1.8.5.8.5.5.6.5.6.6.6.6.5.5.5.5.5.6.6.6.6.6.5.5.5.6.5.6.5.8.5.8.5.6.6.5.5.:.x :.1.t.! } 5.7.7.<.5.1.;.I r - - r - x I :.:.} ' c ; V x a 1.X.F y & : @ ; @ @ V ^ E $.2.+.X.:.y ] 6.,.^ :.3 X.>.$.] ^ U ! I V X.! :.7.1.1.5.<.' ' Q 7.1.X.+.;.X.X.} 1.5.} I R } X.1.5.:.X.:.:.;.+.r R R ! ;.:.7.1.1.1.5.1.5.1.1.1.1.5.1.1.:.X.I - - - O + + - Q <.5.1.1.1.1.1.1.5.1.:.5.1.1.,.1.1.<.5.:.1.<.5.:.5.,.,.1.1.,.1.,.1.<.5.:.,.1.<.1.1.1.1.<.1.:.1.1.>.1.1.>.1.>.R x y 2 - X - { ",
"r Q x ;.:.:.:.1.<.:.:.x M ;.<.:.:.' a + V ;.1.1.5.<.1.V 3 R 8.+.6.7.' ;.7.1.1.1.<.c } 1.5.1.1.1.1.1.,.1.1.1.1.1.1.1.1.1.1.1.5.1.1.t.1.X.x :.;.7.:.:.y.8.<.,.1.,.5.<.5.:.5.5.1.1.,.5.5.5.5.5.5.X.s >.,.U a 5.6.2.U ; + + + + O + O a Q +.8.1.1.<.M :.1.7.I O O   1 I 8.5.8.5.:.7.:.,.7.1.5.:.5.5.1.1.+.} 5.1.1.:.+.8.1.+.+.:.1.5.6.1.5.>.! 6.5.5.6.5.5.1.X.:.^ X.[ ' 7.8.1.5.>.1.7.5.:.^ I b I Q [ :.5.6.! ! ;.7.5.' ' :.5.U - @ 1 a 1 ; + N :.5.s   : U 2.2.,.2.2.,.5.6.6.5.5.5.8.8.5.5.5.5.5.5.5.X.! +.t.>.:.1.:.>.1.t.+.5.6.+.1.5.5.1.5.5.5.5.5.1.1.5.5.1.X.>.8.7.8.8.:.5.5.6.5.,.6.6.5.5.6.5.6.6.,.7.6.5.8.8.5.6.6.5.5.5.5.8.6.6.5.y.t.I y 1.<.^ +.,.1.1.1.:.5.8.y.:.I a r - 1 - r r x ! x r X.s r ^ V b 3 - - ; @ @ 3 R  . .>.6.,.o.:.s } 2.>.^ ,.t ! >.+.! ^ o.o.X.c [ o.:.1.1.1.1.;.' o.! 8.:.X.X.:.+.+.X.1.' ' } X.' :.1.1.<.+.} :.<.7.M ^ +.' } :.1.1.1.1.1.1.1.1.1.1.1.1.1.:.o.^ r - - + - - + M ;.5.<.1.1.1.1.1.1.1.1.,.,.1.1.1.1.1.1.:.5.1.,.,.5.:.5.<.1.1.1.1.1.1.1.1.1.1.1.1.1.<.1.1.1.1.1.>.>.1.1.:.1.:.1.' R M r : @ % Q ",
"1 r I <.5.<.:.;.:.<.:.I r } <.:.5.<.{ r + I 5.<.5.<.1.8.' 1 x +.:.1.7.;.:.1.<.5.1.b o.1.1.1.1.1.<.1.:.5.<.,.5.,.5.<.,.5.5.:.:.5.1.7.1.1.[ M :.1.1.5.1.1.1.1.1.1.1.1.5.1.1.1.,.1.5.1.5.1.5.>.t.1.x ! 5.M x 5.1.:.X.t + - O + + + O ; U } 6.7.5.5.c :.6.5.' ! b -   : ~ <.<.5.5.1.5.1.:.,.7.>.7.5.>.1.:.} 1.>.:.:.:.7.7.>.:.:.:.:.>.6.1.5.o.o.7.5.6.5.1.:.o.7.} :.' +.5.8.5.8.1.X.X.X.} ' ^ ^ X.1.5.1.,.6.o.I 6.:.5.<.;.} <.I + O r a r ; - I :.8.' ; + t 5.2.5.2.2.>.2.6.2.5.5.5.6.6.6.5.5.5.5.7.:.} +.5.1.1.+.1.5.<.8.8.:.1.5.+.&.5.>.5.5.5.5.5.5.5.1.5.5.,.+.;.7.8.6.8.1.:.5.6.5.5.6.6.5.1.5.6.6.6.6.7.5.,.6.6.5.6.5.6.5.6.6.6.6.6.5.7.5.6.a M y.I } 7.5.1.5.5.1.1.1.5.5.' I 3 y r 1 - 1 2 O r ;.r a ^ I a r - @ - @ - r T ! 1.,.5.5.+.| t ] t.:.U } t s ,.' Q o.6.:.5.Q Q :.>.1.1.1.<.X.X.o.' 5.;.:.:.:.o.:.:.} R +.1.+.' +.5.1.1.:.! +.5.1.R R 7.1.! <.1.1.1.:.5.5.:.5.5.5.:.5.1.:.;.x ; - - O - + r ;.7.,.1.5.5.:.5.5.1.5.,.1.1.1.1.5.:.5.,.<.5.<.1.1.,.1.1.,.1.:.1.<.1.:.5.,.5.,.1.<.1.5.,.1.1.1.,.1.,.,.1.<.1.$.1.} ^ N y 3 : @ 2 ",
"; - I 1.;.:.5.5.:.<.<.{ 1 M ;.;.:.;.:.R - r X.5.:.7.5.;.5.' - r X.1.1.:.o.:.1.8.;.b :.1.1.1.1.1.5.,.5.<.5.5.:.5.,.5.1.1.5.5.5.1.1.:.5.1.:.Q x :.:.:.1.:.7.1.5.1.1.1.1.5.5.5.5.1.1.5.1.5.1.,.5.7.Q M Q 1 a :.1.1.,.c + + O + - O O O M } 5.5.5.5.N o.6.7.[ :.1.x - O 1 { 5.7.1.:.1.5.t.1.1.>.>.6.1.5.+.[ 7.5.+.;.,.5.1.1.1.1.>.:.+.:.1.1.[ ! 6.7.>.>.5.>.5.>.+.X.X.+.8.6.:.:.;.+.:.1.1.1.5.1.1.>.>.5.7.7.o.y R 1.y.,.<.} ^ a O O r a r r r a ;.5.:.I @ ; U >.>.5.6.>.>.2.5.5.6.5.6.6.6.6.8.5.,.,.1.:.:.8.:.5.X.5.5.' +.;.1.+.1.+.O.5.:.5.5.1.7.5.7.1.5.5.5.7.:.;.5.8.5.8.8.1.1.5.6.5.6.6.8.1.1.8.6.7.6.5.6.6.6.6.6.6.6.5.5.6.5.8.6.6.5.5.y.,.>.M x x ;.5.:.5.1.5.1.5.7.8.5.} I I ^ :.! x x - - - a + M { a a 1 - @ @ @ @ 3 } ) 5.2.>.2.,.X.t ^ 6.! U :.N 1 X.' +.>.7.>.6.X.Q [ 5.5.<.5.1.X.1.o.! :.:.:.} :.;.:.} U +.1.1.1.' +.1.1.:.:.R } 7.:.o.! 5.1.' 1.:.1.5.5.1.1.5.5.:.1.5.:.1.:.I r - - - @ O - I 1.5.:.:.:.1.5.1.<.,.,.5.<.1.1.,.<.1.,.1.5.:.1.,.1.1.1.1.5.:.5.,.:.5.5.<.1.:.<.1.,.1.:.5.1.1.1.1.:.1.<.1.<.1.<.<. .R B a 3 3 , : ",
"a r 1 I <.7.! x a x b x O 1 ;.:.,.:.:.:.I + a ;.1.1.:.y.>.7.^ 1 a Q :.:.<.o.:.8.;.x :.1.1.1.1.1.,.:.5.,.:.5.5.:.1.1.5.,.,.,.<.5.1.1.,.5.1.:.Q I 7.5.1.:.1.1.1.1.1.5.1.5.1.5.1.5.1.5.5.5.1.7.>.1.5.x : 2 a 1.:.>.,.Y ; + + + + O O   s ] ,.5.5.6.! ! 6.>.} 5.5.:.M @ O r ;.7.:.7.7.1.^ R :.6.5.1.7.,.+.} 6.5.:.:.1.5.1.1.1.1.5.1.1.;.} [ :.! ;.1.:.:.>.>.5.:.:.' 1.:.5.<.o.o.<.1.5.5.1.1.1.6.1.:.>.>.1.:.' X.U a I I c x r ; O - x a ; r x 1 I :.7.:.t   2 #.>.2.2.,.,.2.2.6.5.5.6.6.,.6.5.5.,.;.5.1.1.8.1.>.+.5.1.' :.:.o.' 6.1.' 5.1.1.6.5.6.7.5.5.5.5.5.7.,.,.5.8.5.5.8.8.<.1.5.5.7.5.5.1.1.8.,.5.8.7.6.6.7.6.6.5.6.5.6.5.6.5.6.6.6.y.,.7.t.+.a ; ! 1.5.5.5.7.+.:.+.+.5.Q a X.;.6.7.1.' 1 r r O + x Q r r 1 - - @ @ @ v <.} 1.,.>.5.>.] 2 U ^ M } 5.~ - I } 7.5.;.:.6.o.! +.1.5.<.1.1.+.5.X.R :.<.7.' :.o.! N +.t.:.<.:.' +.5.<.:.o.' } :.1.1.! :.5.X.:.1.5.1.,.5.:.5.5.1.1.1.:.:.X.x - ; +   + O a ;.5.5.5.1.:.5.1.5.5.5.5.:.:.5.1.1.5.,.:.5.,.<.5.,.5.:.5.:.1.5.5.:.5.:.5.1.5.:.5.:.5.,.5.1.,.1.1.1.1.1.1.1.+.1.$.1.1.! F v i i s 8 ",
"x I x r c b ; a ! ' ^ I s - ! <.:.<.<.:.:.x O M :.1.t.:.1.7.:.R a N ! o.7.;.;.+.X.M 1.1.,.1.:.1.,.5.:.,.5.:.5.:.1.5.<.5.<.5.5.1.5.1.5.:.7.:.,.Q I 1.:.y.,.1.5.1.1.,.5.1.5.,.5.1.5.,.5.1.5.1.5.>.7.I x X.3 :.>.1.,.;.t O - O - O @ - r ] :.>.5.6.+.U 5.+.o.5.5.>.;.N O O r [ 8.,.t.} r I 5.>.7.1.5.>.+.+.6.>.1.1.5.6.1.5.1.1.1.1.5.1.>.' +.' ' :.1.5.5.7.8.5.[ ;.5.:.X.+.1.5.5.5.5.1.<.1.5.6.1.>.1.5.1.o.} 7.+.+.! ! I ' I ; O 1 I a r r I I ^ Q 5.y.' - O D d.2.2.2.2.,.6.5.5.6.6.6.6.5.5.5.5.5.1.+.1.8.8.1.+.5.:.+.5.8.1.} 1.>.} 5.5.>.8.5.5.6.8.5.5.5.5.5.8.7.5.6.8.8.8.8.5.:.5.6.6.5.5.1.<.6.5.5.6.5.6.6.,.7.5.6.5.6.5.6.6.8.6.6.6.,.7.8.} ' I a 2 M ;.1.1.t.5.1.X.' R x I ;.:.>.>.5.N y ! ' ; - r x a r : @ - - X X ^ :.O.8.,.2.,.[ ' t Q ,.R :.<.} 1 x :.,.5.:.:.7.1.' } +.5.5.5.:.+.7.X.I :.5.+.X.:.! I } 5.1.+.1.;.X.>.1.:.:.X.;.} o.1.1.' ;.1.} X.1.1.5.5.5.5.5.5.,.1.1.:.;.M r - + O O O 1 ' :.t.5.<.<.5.<.1.,.5.<.5.:.5.:.5.1.:.,.5.:.1.1.:.5.,.5.:.5.<.1.,.,.,.1.,.1.,.1.,.5.:.5.:.1.1.1.1.1.1.:.:.1.:.5.1.1.1.o.E m M b b d ",
"' V R R - ; c ;.1.7.:.1.<.1 r ' 8.1.1.1.1.X.r + Q 1.1.1.1.5.>.7.I a o.I } 7.} 5.^ V :.<.1.>.:.1.1.1.1.1.:.5.,.5.5.5.:.5.5.:.5.,.1.1.1.1.5.,.5.1.x I >.5.8.:.,.1.,.5.1.5.5.1.5.,.5.,.5.,.1.5.:.5.y.^ d 1.r Q :.5.:.5.V - + + + + O ; ; U ;.6.5.6.:.I 6.:.:.:.7.;.;.^ s @ O x :.:.i.x x 1.5.1.1.7.5.1.} +.1.7.1.5.,.1.1.5.,.5.5.,.1.5.5.>.+.U c } 5.5.6.6.1.8.Q 1.1.:.+.5.5.5.1.5.5.1.1.>.>.6.1.1.1.6.:.+.>.5.1.5.<.7.;.d.' - + r I I x x I I 7.^ | 1.2.h   2 ,.5.6.2.6.$.5.6.5.5.5.6.6.5.6.6.6.6.1.;.8.8.8.5.X.:.+.:.>.8.6.:.;.5.+.>.7.>.5.6.5.8.5.8.7.:.6.6.6.6.6.5.6.5.5.7.6.:.5.5.5.6.5.5.:.6.5.5.y.,.6.6.6.6.5.6.5.6.6.5.6.6.:.:.o.+.+.[ o.5.1.I I 1 ; M I I I V r 3 a ^ ^ 5.:.1.7.>.a ^ ;.:.d O 1 x x 3 : O % - @ - } 1.O.+.<.<.;.' ;.a ^ 7.~ :.<.;.r c 1.5.5.+.:.1.7.' ' +.;.7.8.+.1.:.} Q 1.1.} :.} N o.1.5.1.>.1.X.X.1.<.1.:.:.5.} +.1.1.} o.>.X.! ,.1.5.1.5.5.1.5.1.:.5.;.! r - + + O O @ I <.5.8.:.5.5.5.,.5.<.:.5.5.5.,.5.<.1.1.5.:.5.<.,.:.5.:.<.5.:.<.1.1.5.5.:.1.1.1.1.5.:.5.,.,.<.<.1.,.1.1.1.>.:.:.:.1.5.1.1.O.R B b b d ",
";.} I a r a I ;.:.:.:.:.<.s O r } 1.:.5.1.<.! ; r ;.7.1.1.5.>.,.5.I x :.! ! :.o.b } :.<.>.1.1.>.<.1.,.1.5.<.5.1.:.5.5.,.,.5.5.,.5.1.1.5.1.1.1.:.;.b I 8.:.5.1.1.5.7.5.1.1.5.1.5.5.1.5.1.5.1.7.,.:.<.r ' N U 1.>.5.5.] 2 - + + + O - + x o.,.6.5.1.! 1.+.5.>.:.o.' o.;.x + + r } +.a } 5.1.5.7.1.1.5.X.:.1.1.1.1.1.5.5.5.5.5.5.5.5.1.5.5.5.:.Q I >.5.5.7.6.5.^ 5.5.5.1.8.8.5.5.5.7.5.5.5.5.6.1.5.5.6.:.;.>.5.6.6.5.5.:.;.r O + a I c a a I c 7.:.+.6.1.] > O c 2.,.5.2.2.5.5.6.8.6.5.5.6.6.5.5.8.1.:.7.7.8.5.X.:.:.>.1.6.6.1.:.8.+.:.6.5.5.6.7.7.5.5.8.5.5.,.7.,.5.6.5.6.5.6.5.>.5.6.5.6.5.5.>.5.,.,.1.6.7.,.7.6.5.7.7.5.5.5.5.5.,.:.:.1.' Q } :.7.M o.o.' I c x x x c Q :.;.Q <.;.+.t.' r o.1.5.^ 1 r x s r : X @ - : - F N s i s I v Q 7.x ! 5.R ;.;.{ I Q 1.:.5.+.:.5.7.Q X.5.1.:.5.} :.:.} ! 7.;.:.[ I ' :.7.1.1.:.>.+.X.1.:.:.1.;.5.X.:.5.1.o.} 1.+.' 5.5.1.5.1.,.5.1.5.1.1.;.x - - + O O O a X.5.1.5.,.,.,.:.5.,.5.5.5.,.1.5.:.5.1.5.:.5.1.1.5.,.:.5.,.,.5.1.,.5.:.:.5.1.<.5.<.<.1.,.1.1.,.1.1.1.1.:.1.1.1.1.1.>.<.+.<.2.^ F v v s ",
"<.;.V a ! X.a x :.:.:.1.;.I + + c :.:.:.:.1.1.I @ a >.1.;.5.>.1.7.5.M c :.{ ^ Q a } 1.<.:.1.1.1.,.1.1.1.,.1.:.5.<.5.1.5.5.:.1.5.1.1.5.1.1.1.1.5.5.X.a M 5.6.<.7.1.1.1.5.5.1.5.1.5.5.,.5.5.5.5.y.:.5.I x ^ R o.>.,.5.:.a O + + O O @ O > ^ ,.6.6.t.} :.X.1.:.' ;.1.} :.o.x - O - a s ;.+.7.1.1.1.1.5.+.:.5.5.1.1.1.1.5.5.5.6.5.6.5.7.5.5.5.6.5.[ +.5.5.8.6.:.' 5.5.5.1.6.6.6.6.8.6.6.6.6.5.8.5.5.5.8.>.:.5.5.5.5.:.y.{ y O O + a I x x x a I ,.7.>.2.,.6.N + > o.2.2.,.6.5.6.6.5.5.6.6.5.5.6.5.5.1.:.5.5.6.5.;.:.1.1.1.5.7.5.:.8.:.X.+.' } >.5.6.5.5.5.,.5.7.6.6.6.6.5.6.5.7.6.>.5.6.6.6.6.5.>.>.,.1.6.7.7.6.6.,.6.5.5.5.5.5.7.6.7.6.5.5.:.5.7.} o.M o.1.7.8.5.1.1.;.' :.y.:.R 1.:.' 7.x r >.,.5.X.1 N M x 2 - O O @ % % F X.1.$.X.^ I a v M o.5.T I R 7.X.R ' :.1.>.;.8.8.' >.5.1.>.:.} :.<.o.^ 1.:.} V X.X.>.7.1.1.:.:.+.+.1.:.1.<.+.5.} :.1.5.;.} 5.;.[ 5.1.5.5.5.1.5.1.7.1.:.Q ; - : + O O + ^ 7.<.5.5.5.5.:.1.5.1.5.5.:.<.5.5.,.5.1.,.1.1.1.1.1.1.5.1.,.<.5.:.5.5.1.5.,.,.1.:.1.:.1.<.5.:.5.1.1.1.1.1.>.1.:.1.1.1.1.1.1.^ W O.| } R ",
"<.:.R I :.' :.a x o.:.:.<.X.; a a I :.1.:.5.,.:.x @ b 5.1.1.1.5.:.1.<.N I 1.;.x V ' ;.:.:.>.1.1.1.1.1.1.5.:.5.,.5.,.5.:.5.:.5.1.1.1.1.1.5.1.5.1.1.1.;.M I :.7.>.1.5.5.,.5.5.1.5.1.5.1.5.1.<.1.5.5.7.;.r I o.! 5.>.,.,.M + + + O O + O - c U +.[ ' I R +.+.X.O.8.5.X.;.:.:.x O @ - d 8.1.5.:.5.5.1.7.;.:.1.5.5.5.5.5.5.5.6.5.6.6.5.5.5.5.1.5.5.>.' >.6.5.6.+.X.1.1.5.1.5.5.6.7.5.5.6.7.6.6.6.6.5.1.6.:.1.7.7.7.5.1.} a O O O ; M x a a x 1 T 7.:.1.,.2.,.$.2 @ M 2.6.>.6.,.6.5.6.6.5.5.6.6.5.8.5.1.>.6.5.7.8.:.} :.1.5.6.6.1.:.t.:.' >.>.:.+.:.>.8.5.5.8.6.,.6.,.6.5.6.5.6.6.7.:.1.5.6.6.6.5.1.:.<.1.6.,.6.6.6.6.6.5.6.5.>.5.5.5.5.6.5.:.>.7.5.>.;.a :.t.1.1.5.5.5.:.} 1.5.o.R <.>.' } 1 M 5.1.7.Q r T d a 1 @ - @ : @ r +.<.$.2.<.<.<.{ I 1 x V x T M ^ { ' ' o.X.+.;.5.7.' >.5.1.;.+.X.:.:.} } 7.' I } :.+.5.>.1.:.:.:.:.+.X.+.5.:.1.1.} <.5.8.5.} 7.o.} 7.1.1.1.5.5.1.1.5.:.{ a - ; - O O + I :.1.:.7.:.:.5.5.1.1.1.,.1.,.5.,.:.5.,.1.<.1.,.1.:.5.1.1.<.,.5.:.,.5.:.1.<.,.,.5.5.,.5.,.1.1.5.:.1.1.,.1.1.:.1.1.1.1.>.5.&.b R  .O.O.4.<.",
"1.<.! ^ o.X.^ o.a r ^ :.:.;.a M R r N :.:.7.1.:.} d - ! 5.:.1.1.1.5.>.+.x b 1.I I I X.+.+.:.1.<.1.1.1.1.,.1.1.1.1.1.1.1.5.,.,.1.1.1.1.1.1.,.1.5.1.1.>.:.N x ;.5.5.>.5.5.5.1.5.1.5.1.5.1.1.1.5.:.X.1.5.M y 1.^ 1.>.,.>.] 2 + + O + + + + a +.>.5.} N M X.' o.7.:.6.} ;.8.:.:.d @ + r X.5.,.5.7.1.1.7.+.:.5.5.1.5.5.5.5.5.5.5.5.5.7.5.5.6.5.5.5.6.' Q ;.t.8.:.o.+.5.5.5.5.5.6.5.5.5.6.5.6.5.6.8.6.1.5.:.5.8.5.8.8.{ r + O   + a I I r + - - R 1.,.1.1.6.1.2.c + > ' 5.5.1.5.6.6.5.6.6.6.5.5.6.6.5.1.:.6.5.5.7.+.! +.+.1.8.5.7.:.5.+.[ :.5.5.1.+.+.>.5.5.5.6.5.5.6.5.6.6.5.6.6.6.:.,.5.7.5.6.5.5.:.1.7.7.7.6.7.6.5.6.5.6.>.>.6.6.5.6.6.:.;.5.6.6.6.+.t :.5.>.5.1.5.5.1.X.:.+.^ V } ;.' M - Q 7.7.:.M s T a r 1 - - + 1 - d %.+.$.1.<.7.<.:.:.c { ! a <.<.~ R ' { 1.+.} 1.1.+.} +.7.5.+.' o.5.1.' [ X.U X.+.<.5.+.8.1.:.<.:.:.+.+.:.5.;.6.o.Q } O.X.:.} 7.o.} 1.1.5.1.5.1.5.1.1.;.I ; 1 - O O + a ,.8.1.,.7.:.1.1.5.,.5.:.:.5.5.:.5.,.5.5.1.1.1.1.1.5.:.1.1.1.1.,.1.5.,.,.1.1.1.5.:.5.:.1.1.1.1.1.1.1.:.1.1.:.1.1.:.:.X.+.:.{ x o.+.+...+.O.",
",.7.X.o.} :.I I ' r 1 R :.<.x ' I R r } 1.1.1.1.1.' 1 r o.<.<.5.X.5.1.8.+.a M ! o.^ +.+.o.:.1.,.<.1.1.5.1.1.1.5.,.5.5.1.5.1.5.1.5.,.5.,.1.5.1.1.>.5.8.>.1.x V ;.>.5.5.>.5.1.,.5.,.5.1.5.5.5.1.>.Q ^ 1.} - :.' o.,.>.>.>.s + - + + O - + t ^ X.,.7.1.Y U Q ,.1.5.5.+.X.;.5.8.:.x - + r ;.5.5.,.7.1.7.+.:.,.5.5.5.5.5.5.5.5.5.5.6.5.5.1.5.7.1.1.5.1.U ^ :.5.:.X.} >.5.,.5.5.6.8.6.y.6.6.6.8.5.5.6.1.1.:.1.8.5.5.:.x O O O O a :.! a r O - O Q :.7.>.2.1.5.$.^ 3 @ M :.5.,.6.6.5.6.7.5.7.6.6.5.5.5.1.:.5.5.5.5.:.+.t.5.1.5.5.5.:.:.[ [ +.>.5.5.8.>.1.6.6.5.5.5.6.6.6.5.5.6.5.5.7.,.7.y.6.5.5.5.5.:.1.7.6.5.5.5.5.6.6.6.6.1.:.7.5.5.5.:.X.1.t.8.>.5.6.y ;.,.>.t.7.6.1.:.} o.>.[ U [ } R r 1 ' 1.7.+.M x I r 1 1 + - O r : x 3.1.+.7.<.<.7.<.X.c <.} M ;.<.O.} ^ Q ;.Q U >.1.X.X.1.1.5.:.^ ;.:.>.[ R ^ :.+.;.8.:.t.1.1.;.1.<.+.+.1.1.1.:.1.:.} :.:.+.:.' 1.X.o.5.1.1.5.1.5.1.7.1.' r r - - O O - ! 7.5.5.5.1.1.1.1.1.5.:.5.5.,.,.5.1.1.1.1.,.1.1.1.1.1.,.,.1.1.1.1.1.:.5.1.<.5.1.<.1.:.5.1.<.,.1.1.1.1.1.1.:.1.:.1.1.1.X.X.' M } 1.<.| +.6.1.",
":.1.o.} X.' R ! ! R r : x <.Q M ' ! M r ;.7.,.5.1.:.I + a :.1.:.:.<.5.5.5.X.x 3 R 1.o.1.1.;.} :.1.:.1.1.:.5.1.5.1.1.1.1.1.,.1.1.1.1.1.5.5.1.1.1.1.5.1.1.5.:.R x ;.7.:.7.>.1.>.5.5.1.5.1.1.5.1.5.1.X.R } y x ;.Q >.,.,.,.Q ; - + + + + - : ! +.>.6.>.! M X.5.5.1.7.>.X.>.1.5.8.+.c - O t } 7.7.1.1.7.X.>.5.5.1.5.,.5.5.5.5.5.5.5.5.5.5.5.5.>.:.;.:.' Q ! } >.<.X.:.>.6.7.6.5.6.6.5.5.6.5.5.8.5.8.1.<.1.5.5.5.8.N O O O O r X.<.X.x - O + O ! 5.1.5.1.6.1.,.+.N @ + Q :.8.5.6.5.6.5.6.8.5.7.5.1.1.+.} 5.7.7.5.>.+.5.8.5.5.5.1.>.! :.:.:.:.>.8.5.5.5.5.5.5.6.6.8.5.5.8.6.5.6.8.8.:.5.8.5.8.5.5.5.+.,.5.8.6.7.6.7.8.6.5.5.5.:.5.1.1.:.} :.5.6.5.5.t.7.M +.5.1.5.5.5.5.:.+.1.6.} ' 5.:.^ - x :.<.;.o.I M M r ; - + O - B 1 x 3.1.&.1.1.1.5.:.X.x 1.^ ! ;.7.X.<.;.o.,.o.! I ! :.<.1.5.1.:.} +.1.X.N ^ 1.:.:.1.5.6.5.5.:.:.5.1.;.1.1.1.<.:.1.+.+.1.6.1.o.R X.{ 7.1.5.1.5.5.1.5.,.X.M r ; + O O O N ,.1.1.1.1.1.1.1.5.,.5.5.5.5.,.5.<.5.1.5.:.5.1.1.<.,.1.:.1.:.:.5.1.5.,.<.,.:.:.5.:.,.5.,.1.1.1.1.1.1.1.1.1.' :.:.,.<.1.1.1.' R +.X.:.O.5.<.1.",
":.1.;.} X.R o.;.' X.! a + s Q x :.' o.V t :.1.7.:.1.:.x O I 1.:.1.5.5.1.5.7.:.d r d.X.o.7.1.} } 1.5.:.<.5.5.1.1.1.5.5.5.1.5.1.5.,.5.5.1.1.1.1.5.1.1.1.1.1.5.5.x y 5.7.>.5.5.7.5.1.5.1.5.1.5.5.>.5.8.:.x r @ ^ Q >.,.>.,.>.u - O + - + + O I ] >.5.5.} c X.,.1.,.1.5.+.>.1.5.8.t.:.c @ O y X.7.:.6.>.+.>.5.7.1.5.5.5.5.5.6.5.5.5.5.5.5.5.1.1.5.1.o.Q +.o.b } t.X.X.>.5.>.6.6.5.8.5.6.6.5.5.6.5.8.5.1.5.t.5.8.} -   O   2 ^ 5.7.I r - - + + c 7.:.1.1.1.5.5.:.[ a O r :.,.5.6.6.5.6.5.6.6.5.6.1.1.+.X.<.7.8.1.>.o.1.8.5.5.1.1.+.[ 6.>.:.>.,.5.5.5.5.5.5.7.5.6.5.6.6.5.6.5.,.7.8.:.5.8.6.5.5.5.1.X.>.,.5.8.5.5.>.:.7.5.5.5.:.6.1.+.:.1.8.5.5.7.5.6.5.V ;.7.5.1.1.1.<.1.1.5.7.} ' 8.7.X.; R :.{ X.o.^ I c r - O + + 1 Q - M 2.1.$.1.2.5.1.<.' d 5.} X.' ;.<.5.o.;.7.:.+.+.} ^ } t.5.8.X.:.7.' U I 7.:.:.>.1.5.6.1.>.:.1.1.:.<.1.1.1.>.1.1.+.:.5.5.5.1.I V R o.:.5.5.1.7.5.:.:.I a ; ; + O O r :.1.5.1.1.1.5.5.5.1.1.,.5.:.:.5.<.5.1.5.<.5.1.5.1.,.1.1.1.1.5.5.:.5.:.5.:.5.5.5.:.5.,.1.,.,.1.1.1.:.1.1.1.1.;.X.:.7.1.5.;.5.I X.:.{ } +.5.:.<.",
";.<.1.' ! ' X.:.1.X.X.} a O a r ' Q ;.<.x x :.:.1.7.<.;.a - ^ :.1.1.5.1.7.>.7.1.x I 1.o.o.<.1.} } :.1.,.1.<.1.1.1.1.5.1.5.<.5.,.1.1.5.:.1.1.5.1.1.1.1.1.1.1.1.8.N x ;.7.5.,.5.,.5.1.5.1.1.5.1.1.7.7.7.1.b ; - r I ,.6.,.:.I ; + + - + + + t >.o.,.2.,.N >.,.2.5.1.5.+.>.5.6.5.5.7.o.c - O r { 1.5.:.+.5.1.5.>.5.5.5.5.5.7.5.7.5.5.5.6.5.1.1.1.1.7.' X.t.o.R } o.;.+.5.5.5.6.6.7.6.5.6.6.6.6.5.5.5.1.5.7.8.' 1 O @ O r ! :.:.;.r O r - - + 2 :.:.1.1.1.5.5.>.>.! 1 @ I :.7.6.5.6.5.5.6.6.5.5.5.1.1.1.1.6.8.5.1.;.5.5.5.5.5.7.+.X.t.>.+.1.1.5.5.5.7.5.5.7.6.5.6.5.6.5.6.5.6.5.8.:.5.8.5.6.5.5.5.+.5.1.5.5.6.7.5.5.5.6.6.1.:.5.:.:.5.1.>.1.5.5.6.5.5.M +.1.5.5.5.>.:.1.1.:.1.^ ! 1.1.' r ;.! X.} ;.^ I x r O - O - M x % Q 8.1.1.$.<.1.5.1.! b +.X.:.! :.7.<.;.:.5.o.1.1.X.o.X.+.5.+.Q :.' b :.} 5.:.1.:.<.5.5.1.:.:.5.5.:.1.1.5.1.:.1.:.+.1.5.5.1.7.' R X.;.:.1.5.1.1.1.:.! r 1 1 ; - O - ' 7.,.1.5.:.:.5.,.,.1.1.,.5.,.5.<.,.5.:.,.1.1.5.5.1.:.1.1.<.1.1.,.,.<.5.1.1.1.:.5.:.<.1.<.5.:.5.1.,.1.1.1.1.1.1.' :.7.:.1.1.X.Q +.>.} } 1.5.1.1.",
"+.:.:.;.R } { :.:.:.} } ;.a r ; I ' ' ;.1.x I 1.1.<.1.1.[ ; r ' 1.5.1.5.1.:.1.<.;.d N ' o.:.:.X.^ ;.5.1.1.,.1.1.1.1.1.1.:.5.,.5.1.5.5.5.1.5.,.1.1.1.5.1.5.:.1.:.1.N r } 5.5.5.5.1.5.1.5.5.1.,.7.7.,.8.1.Q - - + ; x U ;.,.Y 2 + + + + + - ; ] X.0.,.,.U +.,.5.6.1.,.:.>.5.6.6.7.7.y.:.x + O r o.8.5.:.5.5.5.,.5.5.5.5.6.6.5.6.5.8.5.6.5.5.5.5.1.5.;.' 1.t.;.Q I [ [ ' 7.6.5.6.6.5.6.6.5.5.6.5.8.5.1.8.7.>.y O + O 1 ' 7.;.<.' 1 r I r - - - ! 1.5.1.1.5.6.1.:.;.s O - [ 8.5.6.6.6.6.5.5.1.5.5.5.1.5.1.1.6.,.6.:.1.5.5.6.5.5.:.+.1.1.+.1.5.5.6.6.5.6.5.6.5.6.6.5.6.5.,.6.6.5.6.:.5.5.5.5.5.5.5.;.7.7.6.6.>.} } X.:.+.>.8.>.+.<.1.5.5.5.5.1.7.6.5.5.I +.5.5.5.>.:.1.1.1.1.1.' R >.:.N c :.T ;.{ o.! M a r - O + O v d x ^ 7.$.O.O.%.+.<.5.! ^ ' o.:.^ ,.,.<.:.:.1.' 1.<.o.1.;.:.+.} ' ^ V ' t.' 1.:.5.:.1.1.6.5.1.<.5.1.1.5.5.5.>.+.1.:.+.1.5.1.5.5.' ' 5.:.;.:.5.5.1.7.:.c 1 - - - + O x 7.1.1.1.,.5.5.1.1.5.1.5.5.:.5.<.5.,.5.5.1.5.5.:.1.,.5.1.1.,.5.1.:.5.5.:.1.<.1.5.,.5.1.1.1.1.5.:.1.1.1.1.1.>.1.5.' ;.1.1.:.1.R } >.:.X.} <.1.1.<.",
":.+.:.<.' ' :.:.:.<.X.' o.:.M a r R ^ :.;.X.x [ o.7.1.1.<.I + a :.6.>.5.>.5.1.<.8.;.a b } o.} } ;.:.:.1.,.5.7.5.7.1.1.,.5.5.5.:.:.5.:.5.1.1.1.1.5.1.1.1.1.5.5.5.1.t.I t ' 1.7.7.5.1.5.5.1.5.1.5.5.5.1.5.I r x I 2 ; - t I I 2 - + O + + + + U o.,.2.2.D } 8.,.6.1.7.:.>.>.5.5.7.5.5.y.:.N + O r } 8.1.5.1.5.1.5.5.5.6.5.5.6.6.6.6.5.6.6.5.5.5.<.:.1.' ;.5.X.R d U 5.Q } 8.6.,.6.6.5.5.6.5.7.7.7.5.5.7.<.b O + + - I 5.7.<.:.' - I <.M - ; + x 6.1.5.5.5.7.5.:.1.} 1 O x :.5.6.5.5.7.5.:.:.:.1.5.1.1.1.>.1.1.8.1.1.6.6.6.5.1.1.5.>.6.:.1.6.5.7.6.6.5.6.6.6.6.5.6.6.5.5.6.6.5.:.:.5.5.1.5.5.6.5.:.6.5.,.:.:.5.8.8.1.:.X.>.1.5.1.5.1.5.1.1.:.1.7.5.5.I +.6.5.5.:.1.8.5.:.5.1.X.^ 5.:.r I R R X.:.;.I I a 1 O O O 1 M { d { 4.1.<.<.5.+.+.:.T O.' 1.,.} ;.7.<.<.<.<.' t.:.} 1.1.1.;.' R ' 1.;.:.' :.+.5.1.1.5.5.5.1.1.1.1.5.7.5.5.<.+.5.:.;.1.5.5.5.1.X.X.5.;.<.5.1.<.8.:.Q r ; - + O O 2 X.1.1.1.,.5.5.5.1.<.5.1.5.5.5.1.5.5.<.:.5.:.5.5.:.:.5.1.1.5.1.5.<.1.,.:.5.,.1.5.<.:.5.5.,.:.5.,.,.1.1.1.1.1.1.1.1.} :.;.1.:.} Q +.1.+.} [ 1.<.1.1.",
"<.} ' ;.' ' <.:.5.<.;.^ } :.X.x 2 r M ^ X.:.} s } X.1.5.1.;.x + I 5.,.:.5.>.1.:.5.<.} M c ! ' <.1.X.:.:.:.:.X.:.:.1.5.5.5.:.5.:.5.1.5.,.1.1.5.,.7.1.1.5.1.5.1.5.5.1.;.r 1 I 1.5.1.,.5.5.,.5.7.1.1.,.<.<.Q 1 Q 7.;.c t r - r t 1 O - O O + + s } >.6.,.U ! 6.2.5.1.5.>.>.1.5.5.6.5.7.5.7.:.x + O r X.8.5.1.>.5.5.5.6.5.5.7.7.5.6.5.5.5.7.7.5.5.5.5.+.} ' { Q } ^ N X.7.} } 6.y.,.5.8.5.5.5.5.8.1.5.1.7.R - O O + I ;.7.5.1.} I 1 ' ,.X.r @ O 1 [ 6.>.1.5.1.1.1.1.8.I @ 1 c 8.>.t.>.5.5.,.X.1.8.<.o.1.1.:.:.5.8.5.>.6.6.6.5.1.5.6.:.t.>.>.6.5.7.5.6.6.5.5.6.5.6.5.6.5.6.6.5.8.5.:.5.5.5.7.5.5.6.;.5.5.1.1.1.6.t.5.8.6.:.X.' X.5.1.X.X.+.:.+.X.6.1.8.I +.7.5.5.1.6.7.1.X.1.5.X.' 5.X.; x I X.X.<.{ I c r ; - O + a ;.O.r { 1.3.2.4.4.8.<.) d ' Q :.<.;.' ,.:.:.5.;.} 1.;.:.5.<.t.} I ' y.5.:.1.' :.5.1.1.5.5.5.5.5.1.1.1.1.5.8.1.+.1.1.:.1.5.5.5.1.:.X.+.7.+.<.5.5.,.<.X.a 1 - - + + + Q <.1.7.5.5.5.:.1.,.5.1.1.,.:.5.1.1.,.5.5.,.5.5.,.5.5.1.5.,.5.1.5.<.,.5.:.,.,.5.:.1.1.,.:.,.5.1.<.1.1.,.1.1.1.,.1.1.} :.>.1.1.! +.1.1.1.} } 1.5.1.5.",
"<.X.} :.' ' :.:.1.:.X.' } X.} +.x M a M :.<.:.I M ;.:.<.1.8.I 1   x 5.5.:.5.1.1.1.1.+.o.x b 1.7.1.X.' ! ^ R ' } o.+.+.;.1.5.1.1.1.1.5.1.5.1.1.1.5.<.1.5.5.<.5.:.8.X.d V ! r V 5.7.7.:.,.1.5.1.5.,.5.1.1.I ; ! <.5.' ] Q a a t 1 - - + + + + r } ;.,.,.] U ,.5.2.,.1.,.+.:.5.7.6.6.6.5.8.t.>.M - O r ;.t.1.1.1.1.1.6.6.6.5.6.5.6.6.6.6.6.6.6.7.,.6.1.5.I x :.1.1.:.I +.t.X.o.8.8.5.5.5.8.5.6.6.6.7.t.! r O + O x ;.1.5.7.,.X.M r :.y.7.N - + - x :.7.1.,.y.6.:.5.1.;.y   ; Q 5.5.7.5.1.5.:.o.{ [ o.5.5.5.:.7.8.1.1.5.7.5.5.>.5.6.:.5.1.>.6.5.5.7.6.6.6.5.5.6.6.5.6.5.6.6.6.6.5.1.5.5.1.5.7.5.8.;.7.5.1.5.8.5.8.5.1.:.;.X.' ! X.:.+.1.5.5.1.X.+.1.8.I +.7.5.6.5.6.5.1.o.1.<.;.' ,.I - r X.{ { ;.^ I c r - - + - R t.} : R  .$.6.w.8.5.w.R r M x N ;.:.[ 5.:.1.o.' 5.:.>.X.+.:.X.V } 7.:.1.,.:.^ :.6.5.5.5.5.5.5.1.5.5.,.1.5.8.:.;.1.1.:.:.1.5.5.<.:.;.+.5.:.1.5.5.5.:.T r - + - O O a :.5.5.5.1.<.5.5.1.5.1.5.,.5.1.5.,.5.:.5.,.5.,.5.<.5.1.5.:.5.<.5.,.<.5.1.5.:.:.5.,.:.5.,.,.1.<.<.1.1.1.1.1.1.1.1.1.1.:.o.:.:.^ ^ 1.1.1.:.} :.1.1.1.:.",
":.:.+.>.<.^ o.1.:.;.X.X.+.} o.+.b r x x I <.1.:.a I ,.7.<.5.} r   - x ' ;.<.<.<.1.<.:.} c y a Q ' Q Q ' X.1.5.5.5.:.:.:.:.1.1.1.1.1.1.1.1.1.5.1.,.1.1.1.5.;.1.:.1.Q I 5.;.} r M ;.1.5.5.1.5.5.1.1.1.1.5.I 1 ! ;.1.} [ :.+.Q M t + + + + + + - ! } ;.;.;.U >.5.,.2.5.1.>.:.5.6.5.6.5.1.8.7.5.+.N ; + r { 7.1.5.1.7.5.5.7.8.5.6.6.6.5.,.7.6.7.8.,.7.8.1.M ! 1.+.5.1.;.^ ' 5.:.X.1.5.5.7.8.7.8.1.t.1.{ 1 + + O r { 5.7.7.7.7.:.s t 5.[ M y r - + - X.1.7.7.7.1.5.1.5.1.R - - ; ;.7.7.7.1.7.>.[ ' ;.+.,.1.1.:.5.8.5.1.1.5.5.5.1.:.5.>.5.1.>.5.6.5.7.5.8.5.5.6.6.5.6.5.7.6.5.5.6.1.+.1.5.5.5.1.5.8.:.8.8.6.6.6.8.6.5.1.:.:.1.:.o.^ } +.8.5.5.7.:.' 1.6.I +.6.6.6.5.6.5.5.;.7.<.;.^ <.c r I } Q ;.,.I x x r - - ; - :.:.T : ^ $.2.3.2.6.1.O.s ^ ' ;.X.Q :.^ :.1.:.X.} X.:.:.5.:.Q Q } +.1.5.:.:.} ' 5.5.5.5.5.5.5.5.5.5.6.5.1.5.1.:.:.7.1.;.1.1.5.5.1.1.:.+.5.1.1.1.5.<.' x 1 - + O + - ^ 7.5.5.1.5.5.5.,.,.5.5.:.5.<.5.<.1.1.:.5.5.:.,.1.<.5.5.1.5.,.1.,.,.5.<.1.:.5.5.:.<.5.5.:.5.:.5.,.:.5.1.1.1.,.1.1.:.1.:.' 1.:.R +.1.:.:.1.} :.5.1.+.X.",
":.1.:.+.5.' } 5.:.:.o.:.:.} X.X.Q M x r M I 7.:.:.t ! 7.1.t.;.x O O ; M M 5.1.1.1.1.:.' M ;.x I y.8.:.:.+.' :.>.1.5.1.<.+.1.1.5.1.1.1.,.5.1.1.1.:.5.7.5.:.5.1.7.} Q 1.5.1.1.:.r a 1.7.:.:.1.1.5.1.7.1.,.M - Q ' 1.:.' :.8.>.;.N 1 + + + + + O I +.+.' ,.^ Q 6.1.1.5.1.>.+.1.8.6.5.5.6.8.5.:.1.8.R - O 2 Q y.1.:.5.6.5.6.6.6.6.5.6.6.6.6.5.5.6.5.5.1.^ R ' 8.1.5.1.5.5.^ Q 1.5.:.1.8.8.5.5.8.5.8.X.r O + O - R 5.8.8.5.6.y.1.r - M r 1 r a ; + O r :.5.5.5.1.>.;.} ;.t.Q + O a <.5.7.t.1.X.+.6.y.:.:.:.,.:.5.7.5.1.5.5.6.5.>.:.1.5.:.1.>.,.6.5.5.5.8.6.5.5.6.5.6.6.6.6.6.6.6.1.X.+.1.5.5.1.5.8.:.6.8.5.6.5.8.5.6.1.1.5.5.1.1.^ I X.1.5.8.1.1.X.1.6.R X.5.5.6.5.6.7.1.:.7.<.;.Q :.x Q X.I Q 7.X.I a a r - - - 1 d.X.d % ^ $.7.6.1.2.2.Q M ^ ^ y.y.I ' x I R I R Q ! X.:.^ M [ u.' :.7.7.,.:.' [ 7.5.1.5.5.5.5.5.5.5.5.8.5.5.:.:.1.1.:.:.1.1.1.1.1.5.:.:.5.5.5.1.1.;.T r - - + - O I 5.<.:.5.1.1.5.5.,.1.<.:.5.,.1.1.5.1.,.5.1.5.5.5.1.5.,.5.,.5.:.5.5.:.:.:.5.5.:.<.5.,.5.,.:.5.1.<.1.5.:.1.,.1.1.:.1.1.,.;.{ 7.' } 5.:.X.X.X.R ^ X.+.} X.",
"1.1.:.+.:.X.' :.1.<.o.;.<.o.o.+.' T <.I x I N :.1.[ x } 7.:.<.x + ; 1 ! :.1.:.;.:.;.+.I b 7.:.I I :.7.:.5.:.>.<.:.1.1.1.1.1.1.1.1.5.1.5.,.1.5.1.1.1.,.:.:.7.<.1.' +.5.5.5.1.7.o.I r R 1.5.5.1.1.5.1.1.1.I 1 { ! :.1.:.,.5.6.6.] r + - + - + O a ,.X.' >.:.U 1.1.5.1.5.>.+.1.8.5.8.6.8.5.6.6.1.5.7.! 1   2 I 5.t.5.7.8.6.5.6.5.6.6.,.6.6.8.7.1.y.1.+.^ } } ;.6.1.5.5.8.5.X.^ o.+.+.5.8.5.6.5.6.1.M O O O + I ;.7.8.6.5.6.7.:.r r r 2 a a a r ; + O 1 c { 5.>.+.[ X.5.5.1.b + + I t.1.5.;.X.5.t.5.:.:.:.,.:.5.5.5.5.1.5.6.1.5.>.5.5.>.7.1.>.6.1.5.5.5.6.5.6.5.7.7.6.5.6.7.7.6.5.:.:.+.+.5.5.5.7.:.6.8.7.5.6.5.5.8.5.8.7.:.+.:.o.I } :.1.6.1.5.1.:.6.Q X.5.6.6.7.6.5.1.;.7.<.<.R Q x ,.Q x ;.7.[ I r r r - - - r <.Q a : ~ %.2.2.3.7. .~ Q I ' ;.^ I ;.R :.o.I R X.X.;.U I ! :.t.X.5.1.5.7.,.} X.7.5.5.5.5.5.5.5.5.5.5.5.5.1.,.1.1.1.:.1.7.5.1.:.1.5.+.>.1.5.1.5.<.Q s ; - - + - r ;.8.5.5.1.5.1.5.1.5.1.5.5.1.1.5.1.,.5.5.5.,.:.5.:.5.1.1.<.5.,.5.:.5.5.5.5.<.,.5.,.5.:.:.<.5.,.1.1.,.5.,.1.1.<.1.1.1.1.5.:.X.X.! 1.5.1.:.:.+.} ' I Q X.+.",
">.:.<.5.:.:.R X.:.1.+.o.1.<.:.X.^ 1 } X.a M x a o.1.I x :.1.:.x O c a r ;.5.5.<.5.6.5.Q I 7.:.1.! M o.5.1.<.1.1.>.>.>.1.1.1.1.1.1.1.1.1.1.1.1.1.5.1.;.X.o.;.o.' ' 1.5.6.7.1.5.1.7.! r x +.1.,.1.1.5.5.<.V 1 o.R ] 6.1.1.,.2.,.,.c ; + + + + + ; ,.] ] >.6.U +.5.5.1.5.5.+.>.8.5.6.6.5.7.8.5.5.5.6.5.^ r + - U 7.5.5.6.6.5.6.6.5.5.5.6.5.5.5.5.y.:.o.:.} o.[ t.1.t.1.6.6.8.:.! ' X.;.5.7.6.8.6.X.- O O - M :.7.1.5.8.6.6.5.+.; 1 r r R <.^ a - + + + O 1 M X.1.1.5.5.7.5.:.- + - :.5.1.+.1.8.7.8.,.8.5.5.:.5.5.5.5.1.6.8.1.5.1.5.5.:.6.5.>.8.1.5.5.5.6.5.5.6.5.6.5.6.6.5.5.8.5.+.8.6.+.+.1.1.8.:.7.6.6.6.5.6.5.6.5.5.8.:.+.:.<.' } 5.1.1.6.5.6.:.8.Q X.5.7.6.6.6.7.1.+.5.:.:.I x Q y.T M ;.7.;.a r r 1 ; ; + M { I d @ ^ O.2.3.2.+.{ } R I I ' ;.I :.X.:.t.' ' o.R N ' 7.;.+.:.X.5.5.1.7.,.o.o.1.8.5.5.5.5.5.5.1.5.5.5.8.1.,.5.<.:.:.1.7.5.:.:.1.5.;.1.5.5.1.1.X.x r - - + + - ' 7.5.5.5.:.5.5.1.,.5.:.5.5.:.5.5.5.:.5.<.,.5.5.5.5.,.1.1.5.1.5.1.5.:.:.5.,.5.:.5.:.5.:.5.1.1.1.1.5.:.1.1.1.1.1.1.1.1.1.:.1.{ ' X.<.1.1.5.1.:.} ' I ! +.X.",
"' } X.o.:.:.X.' O.5.<.o.;.5.:.:.R r b Q x R I x r M I M I :.;.c - I } 1 M 5.1.5.1.8.5.} N 1.:.:.7.R x ' 7.;.1.5.>.:.:.1.<.1.1.1.1.5.5.1.1.5.,.7.1.:.:.[ :.:.;.I +.1.5.8.5.5.5.1.1.:.' y t U +.1.:.,.5.;.r y <.O.^ +.8.1.5.5.2.>.I + + + - + O - V } U >.t.] ] 5.1.6.1.5.>.:.6.6.6.8.5.6.7.5.6.5.7.5.t.[ r + + M >.6.5.5.5.6.6.5.6.o.:.>.5.5.6.;.:.X.:.+.o.:.:.7.8.5.6.7.5.8.1.! R X.5.5.5.8.5.+.r O + x :.1.5.6.5.5.6.>.X.M 1 - r I ' 7.<.a r + O + c r - a +.<.5.7.8.5.5.;.: @ c 5.1.X.5.5.8.5.6.6.7.6.8.8.5.6.5.5.6.6.5.5.6.5.5.5.6.7.:.5.7.1.5.5.5.6.6.7.6.5.5.5.6.5.5.5.1.1.+.:.5.:.;.:.:.+.6.8.5.5.5.6.5.8.5.5.5.:.;.:.:.+.+.7.1.1.8.5.8.:.5.' } 5.6.5.6.5.5.+.:.<.:.;.a r ;.7.I a Q } I - 1 r r - - @ x T 1.3 : } +.6.8.6.} } } } I } :.8.^ ;.[ 7.5.:.V R U o.:.1.5.5.>.5.5.,.5.5.7.1.1.1.5.5.5.5.7.5.5.7.6.5.5.5.5.7.5.1.:.,.1.1.,.>.1.1.5.:.:.1.5.1.o.R r 1 - + O - N 1.:.5.1.5.5.5.1.5.5.5.5.,.,.5.,.5.5.<.,.5.1.5.:.:.<.5.,.5.5.1.<.5.5.5.5.<.5.:.5.,.5.5.5.:.,.5.:.,.,.5.,.1.1.:.1.1.>.1.1.1.1.! R :.;.5.1.5.;.<.! ' N ' +.X.",
"N ^ ^ ' ^ R I ' >.+.;.} +.5.:.5.I s Q ' I ' ' x y Q I x r } :.I O R 1.I : ' :.<.5.7.1.' I ;.+.:.;.5.^ x ! 1.1.:.1.5.:.>.<.1.1.1.1.1.7.1.5.1.1.:.' I Q ' R I R N X.+.5.5.1.1.5.1.>.1.7.;.I r 2 M o.:.;.I - x ;.:.X.} >.6.6.6.6.,.^ r + + + + + O t ! U ,.5.,.R ^ b >.>.5.5.>.5.5.5.6.5.6.5.6.7.5.6.6.1.y.:.x - + x 7.7.5.6.5.8.6.5.6.5.>.:.1.5.+.;.<.1.:.;.+.} :.8.5.5.7.8.8.5.6.X.M R 7.t.5.1.1.x   r } 5.5.5.5.6.7.5.:.M t - r R { <.;.Q r x - O - } :.I 3 r X.<.1.7.8.1.t.R + : X.1.:.8.7.6.8.6.6.6.5.5.8.6.8.7.5.5.6.6.5.6.7.5.5.7.5.:.1.8.7.5.5.5.5.8.6.8.5.8.6.6.5.5.8.1.5.1.X.+.5.>.X.[ :.6.5.5.1.5.8.5.5.8.1.:.:.:.:.;.5.o.5.5.5.6.5.6.>.5.' ! 6.6.5.t.7.;.+.+.X.;.;.1 c ;.' c a I I r 1 1 r 1 - - - 2 N +.r d } &.7.2.2.} 5.R R I 7.<.5.^ ;.} 7.o.Q M o.>.>.1.6.5.5.5.5.5.1.,.5.5.1.1.5.5.5.5.6.5.5.5.5.5.5.5.5.5.5.5.,.:.<.1.5.1.1.1.5.1.<.1.1.5.1.' d - + + O O a ;.7.5.1.5.5.,.5.1.,.,.5.5.5.5.1.5.5.1.1.,.5.5.:.,.5.5.5.<.1.:.:.5.,.,.,.,.5.,.5.:.5.5.:.:.5.1.1.5.:.1.5.5.,.1.1.:.:.1.:.,.:.:.I } 1.1.1.;.7.5.^ ! o.! X.:.:.",
";.8.8.1.5.5.} U M Q X.} ' 1.1.5.M I ;.' o.' :.} r ! X.} [ a 1.' ; b 1.1.y 3 +.1.:.t.1.' Q :.X.;.;.:.8.X.b Q 5.1.:.1.:.1.1.1.5.1.1.5.1.5.1.<.5.' x ! :.' Q ' { ' :.} X.1.7.5.1.1.1.7.1.1.t.o.c - 1 2 2 1 x a a ' +.o.+.6.5.1.8.1.;.s - + + + O O ; Q c o.,.2.^ ; M 5.5.7.:.+.+.6.5.6.6.5.6.5.6.6.1.7.t.1.5.1.I - : >.5.5.5.6.5.5.6.1.5.6.7.>.:.,.<.1.5.:.:.:.' X.8.p.1.X.:.6.t.8.i.} a y Q 1.6.6.Q s ' 1.>.5.5.5.8.5.6.U ^ t @ c y.;.' ' Q x Q r O   M o.t.} 1 r :.5.8.1.8.8.X.r + c +.1.8.5.8.8.6.6.6.5.y.5.6.6.6.5.5.8.8.7.8.6.7.6.6.5.,.1.5.8.,.5.5.5.5.1.1.1.1.1.7.2.8.8.5.} s.X.} 8.1.:.I } t.5.5.5.5.8.8.5.1.+.+.1.7.1.} 5.o.o.7.5.7.5.5.1.:.X.R 6.6.1.6.;.1.X.I [ } I r { I x I I ^ X.x 1 1 r 1 - %   3 : i r d } 1.6.6.+.+.8.R I ' :.7.,.^ :.} :.^ ' ^ } 1.;.>.7.5.5.6.5.1.5.1.5.5.1.5.5.5.5.5.5.5.5.5.5.5.5.5.5.5.7.5.,.1.1.5.5.1.1.1.1.>.1.1.1.5.o.V 1 + + + O - ! 8.,.<.1.5.1.5.1.5.5.5.,.5.:.5.5.1.5.5.5.5.:.5.5.5.<.,.1.5.,.5.5.5.,.<.5.5.:.5.5.:.5.1.,.5.<.,.1.1.<.:.7.7.,.5.:.o.} ;.1.7.:.} I :.1.:.1.7.:.! R ' :.;.1.:.1.",
"5.1.>.1.1.1.1.:.:.X.' Q M ' >.1.a R ;.^ { ! 5.7.' a ' <.;.V I :.1 a ;.<.o.r M 1.:.1.1.} ! 1.:.:.X.o.1.5.} M Q ;.1.7.1.>.1.5.1.1.1.1.1.1.1.5.1.Q X.[ R X.1.1.+.[ :.5.+.} +.1.5.1.1.>.5.5.>.7.6.[ b x x I +.1.1.+.V X.5.:.5.8.5.5.;.I ; - - O + O - ! U } 6.>.>.! 5.1.7.1.6.+.o.7.5.7.6.5.6.6.5.6.t.5.6.6.5.8.:.R t 5.7.6.6.6.6.5.6.6.5.6.6.1.} X.' ' } Q I ! M M I I I I I I [ ' R d x V y r I :.t.;.1.1.:.5.5.5.1.7.:.' [ 1 ; ! 7.1.M ^ :.N } V 1 @ 1 o.:.1.;.a t X.7.t.1.6.7.Q @ 1 { 7.7.5.7.5.6.6.6.5.y.5.6.8.7.5.1.8.6.5.6.6.6.6.t.7.5.5.5.5.1.1.7.5.6.5.<.+.+.+.+.+.:.1.+.:.;.} { O.:.+.' X.7.8.1.5.6.6.5.5.8.:.o.o.:.>.o.1.1.} 5.8.5.5.5.1.+.o.I 7.7.5.7.,.X.5.' N } I r o.! ! X.{ I ' a - - r 1 - - 1 } ' s @ v Q p.2.O.o.8.+.! Q <.:.5.1.} :.! X.1.7.^ X.1.;.1.5.1.1.5.5.5.1.5.5.1.5.1.5.5.5.5.5.7.,.6.5.5.6.5.6.5.6.6.5.5.5.5.7.5.5.1.1.1.:.1.8.5.^ d - - + O O c <.:.5.:.5.<.5.5.1.5.,.1.<.5.5.1.5.5.5.1.5.1.1.5.5.:.5.5.,.5.5.5.1.<.5.5.:.,.1.5.5.:.5.,.1.,.1.1.1.5.:.1.1.:.} ' X.1.:.X.;.1.<.Q { o.1.1.:.<.} ' :.o.[ o.:.:.1.",
":.1.5.1.1.1.1.:.:.:.1.+.U M I +.x { o.Q ;.R <.5.i.{ x } <.;.M ' a r ;.:.7.' r ' 7.>.1.o.Q 1.1.1.:.} X.>.:.+.I M X.5.:.6.5.1.1.5.1.:.7.1.5.5.} ' I ^ :.>.>.:.+.+.:.1.5.X.X.>.1.5.5.5.5.>.5.7.5.5.6.8.5.5.1.:.1.:.X.Q Q :.5.1.1.1.;.' r - @ + - + + M +.^ 2.>.,.5.1.:.5.1.5.:.X.:.5.6.5.5.6.5.6.5.5.8.5.1.8.1.,.,.I 6.6.6.5.5.7.6.6.5.6.6.1.} ^ Q ^ +.5.1.1.1.o.:.+.o.I y a a M N I o.8.1.t.' a r I 7.8.5.5.5.5.5.6.6.' :.' r - ;.y.o.M 5.5.c } ' r 1 O ' y.:.:.;.r r o.:.6.>.5.5.N O b <.t.7.5.8.6.6.6.6.6.6.8.8.6.7.,.8.8.5.y.7.6.6.6.6.5.6.5.6.>.1.6.5.5.5.6.6.8.8.8.6.5.5.+.X.:.8.o.' 1.1.8.1.:.t.>.5.6.5.5.5.1.5.7.:.[ ' } :.1.} 5.8.1.7.5.5.} ' V :.:.5.:.' } +.7.R x r r ;.! ! x ;.R M x - 1 1 - - - a y.;.O.8 O d 8.1.} <.+.^ ^ N t.1.:.1.' } R :.t.;.o.^ ;.1.1.1.1.1.1.5.1.7.1.5.5.1.1.5.5.5.6.5.5.5.5.6.7.,.7.5.5.5.7.5.5.5.5.6.5.1.5.1.<.5.5.5.X.M 3 - O O O r X.y.:.7.<.,.5.5.5.,.5.5.5.5.,.5.5.1.1.1.1.:.:.5.:.5.5.,.,.5.:.:.,.,.5.<.5.5.,.5.<.5.5.,.5.1.1.<.1.1.1.:.1.1.1.>.+.} ^ ;.5.o.X.' ^ o.} 1.7.} ' o.7.5.' Q } +.1.1.",
"1.1.:.5.:.1.1.1.>.>.X.[ :.:.! R r R I M V M ;.<.7.7.X.r } :.X.M ' + { 5.1.1.N a :.1.1.:.Q :.>.5.5.:.X.o.<.5.1.' N } 6.>.1.1.5.1.1.1.7.;.o.X.b N M 5.:.t.>.>.+.:.+.1.5.1.>.:.:.1.5.1.1.5.1.5.:.,.1.1.5.>.5.1.5.1.:.X.Q Q } } O.1.:.X.a - @ + + + + t ,.] ,.2.,.2.5.1.1.8.5.>.X.+.5.6.5.7.6.5.5.5.8.,.5.y.7.5.5.t.! 6.6.5.6.5.6.5.7.5.1.:.+.>.5.[ X.1.+.X.7.5.+.6.7.:.Q ' 1.;.:.>.:.:.>.7.5.t.1.' y a N } :.<.7.7.7.1.<.7.! - y :.8.' I 7.6.M ' :.M ; + r 1.1.1.1.X.r a :.5.:.1.7.:.r - ;.7.6.5.8.5.6.6.6.6.8.8.5.t.5.,.8.6.6.8.7.7.6.6.6.6.6.6.8.1.1.8.6.5.6.5.5.5.5.5.5.6.6.:.1.1.:.:.:.o.:.:.>.X.t.>.5.8.5.5.5.5.1.1.1.;.} } } 1.;.8.7.1.8.1.5.;.Q d ^ ' ' R } 5.' o.} M 2 r ' V ! I V I M b ; - 1 - - + ! <.7.^ 2 } 8 ) :.+.+.^ ' { V y.5.7.5.' ! +.6.:.+.+.I ^ +.+.+.;.1.1.>.,.:.1.5.1.5.5.5.5.5.5.5.6.6.6.,.7.5.,.6.6.5.5.5.5.5.5.6.7.1.5.,.>.5.5.;.R a - - O O ; I 1.1.7.1.7.:.5.,.1.5.<.5.5.1.5.<.5.5.5.1.:.:.,.1.1.1.5.<.,.1.5.5.1.1.,.5.,.:.5.5.5.<.<.5.,.1.1.1.1.1.1.1.1.1.>.5.:.5.o.^ X.;.} I ;.;.{ :.;.^ X.7.1.:.} ' } ^ } ;.",
"1.:.5.1.+.:.5.:.1.+.' ^ X.} X.:.1 a a r a I ^ ! +.6.7.I c Q 1.Q M r x ;.o.t.:.a I 5.>.7.' +.1.7.5.1.:.X.+.5.7.5.+.R I :.5.1.:.:.5.5.;.' :.' M y Q 1.1.6.5.>.+.+.+.5.1.5.5.1.:.>.1.5.1.1.5.1.5.1.5.1.1.5.<.5.5.1.1.1.^ ^ R Q ' 1.;.} x + @ O - + + 7 } } $.6.1.2.5.1.>.1.1.5.:.O.>.5.5.6.5.5.8.5.5.5.5.8.5.5.5.5.[ 7.6.6.5.6.5.5.5.>.:.>.5.6.5.} 5.1.1.:.;.1.:.1.} x ' 8.:.1.+.:.:.1.1.5.7.5.7.1.;.R x r 3 M } ,.t.5.<.y.I - M 1.5.R X.y.p.V } 1.^ r ; + ! 1.1.1.:.' 2 t X.:.6.<.5.I + ' 5.6.y.5.y.5.6.6.6.5.6.8.7.5.:.8.5.y.6.6.6.6.5.6.6.6.7.t.5.1.1.1.5.6.6.6.1.5.8.8.6.6.:.1.;.>.5.1.' +.:.7.X.6.>.5.8.6.5.8.5.:.5.5.1.5.:.^ :.o.8.8.7.5.5.:.1.1.b Q U I N y U } } ' x x M r } :.:.x a a a 1 - - - - - Q 7.<.} 3 1.{ y R } { +.^ ^ ' 8.1.1.:.^ ' t.7.;.;.X.x :.:.<.1.} ' R ' ' ^ } >.1.1.1.5.5.5.6.5.,.6.5.7.,.5.6.5.6.,.6.7.5.5.5.5.7.7.5.1.1.5.1.^ M r - + O O x :.1.1.1.5.5.5.5.5.:.5.5.5.5.5.5.5.1.5.1.5.1.:.:.1.5.1.,.5.<.5.:.5.1.5.,.5.1.5.5.:.,.5.1.,.5.1.1.1.,.1.1.5.1.1.1.1.1.1.5.;.^ o.R ^ 1.:.' } ' +.1.1.5.<.X.X.:.1.X.} ",
"5.+.1.5.;.o.<.1.1.+.' ' :.:.:.8.N } ' x s +.o.' [ [ +.:.! N a ' r + 1 ' { X.X.} y o.1.5.o.' 1.1.5.1.1.:.X.X.5.5.6.:.! I } :.;.:.1.7.} ;.7.7.X.y I X.:.:.:.5.:.+.>.1.1.5.5.1.>.>.1.1.1.5.7.5.5.5.5.5.5.1.1.8.5.:.+.^ :.8.} <.:.5.X.' I - + + - - - - I ;.} 6.1.1.5.>.:.>.:.:.1.;.>.5.5.5.5.5.5.5.6.5.6.5.6.5.7.7.} 5.5.5.5.6.6.5.5.>.5.5.5.6.+.X.:.5.6.>.1.+.7.:.Q ' ,.8.5.+.X.5.5.6.7.6.6.5.5.5.5.5.>.! I x 1 t I +.7.5.c + ! 5.:.R 8.5.6.x X.:.<.M 2 + r X.7.1.t.1.N 1 x :.7.1.+.! - c >.5.6.6.5.8.5.8.6.6.6.6.6.6.>.6.6.8.6.6.6.6.5.1.>.:.+.:.+.o.1.s.6.6.5.7.8.8.6.6.6.6.>.5.:.7.1.7.' } 5.6.;.5.>.5.5.5.5.7.>.>.5.6.7.t.1.' [ +.1.6.5.5.7.1.1.:.x ' +.O.X.5.[ c r b r M y x <.Q x 3 r 1 r 1 @ % - @ ; Q <.:.R d +.} 2 d | 1.1.Q Q o.6.6.:.} R +.1.1.<.1.' c 5.1.:.:.o.O.' :.:.+.} :.7.,.,.5.5.5.,.6.6.,.5.5.6.5.5.7.,.6.,.6.5.5.5.5.5.5.5.1.<.5.;.M x r - @ O r ' 8.5.<.,.5.5.5.,.1.5.1.5.1.:.5.5.<.5.5.5.1.1.:.:.5.1.1.,.1.5.5.,.1.5.:.5.5.5.1.,.5.1.1.1.5.1.,.1.1.1.1.1.5.1.1.1.1.5.:.1.:.+.' I ;.o.{ ! o.:.5.1.:.:.} X.} 1.<.o.o.",
"5.+.<.5.;.o.+.<.>.1.;.o.1.1.>.8.V } ;.} d } :.6.>.' ! } ^ } a r R r - ;.:.;.X.} I a o.;.:.R 7.1.5.<.1.1.:.X.:.7.5.7.1.' N R 1.:.:.' X.8.,.! x d I N Q X.X.:.+.:.5.1.5.5.5.1.1.>.1.1.1.5.5.5.5.5.7.5.5.5.5.1.5.1.} } 1.5.:.;.1.5.} } ^ r - O - + + + t >.] ,.6.>.5.1.5.1.X.X.;.+.>.5.5.5.5.5.,.5.5.6.5.6.5.6.5.1.>.! 5.5.5.6.6.6.6.5.6.5.5.>.^ >.1.>.1.:.1.X.! R ' t.1.7.5.;.+.5.6.6.6.6.5.5.5.5.5.5.5.>.,.5.o.I s x ! } r 2 X.y.' ' 6.;.+.M ^ 1.5.[ 2 - + N 7.1.8.,.' I t I 1.} ;.+.s a :.+.o.5.8.5.8.5.6.6.8.6.6.6.5.6.6.8.8.6.5.6.6.6.5.>.>.1.+.^ ' } 1.1.5.5.6.7.6.6.7.5.:.8.:.8.:.8.X.} 8.5.:.>.>.5.5.5.5.5.:.5.7.8.6.6.6.:.U :.7.5.1.1.:.>.1.:.a o.+.5.X.1.5.:.R r r R x a x d 3 1 r 3 r % O @ @ O a O.} :.V 3 R ^ b d 1.1.+.^ } :.8.7.8.^ R X.8.1.>.<.} R 1.1.' ' } :.o.1.5.6.:.:.1.5.5.5.5.5.6.5.6.6.6.5.,.6.5.6.6.5.6.5.5.5.5.5.5.5.5.1.<.<.Q a r ; + O ; I 5.:.5.5.5.5.,.5.5.5.5.1.,.5.5.5.,.5.,.5.5.1.5.:.:.1.:.5.5.<.5.<.5.1.1.1.5.:.:.5.1.<.5.,.1.1.1.5.1.1.1.1.1.1.1.5.1.,.7.1.5.5.o.N I } I ' } :.:.:.5.5.:.o.;.' 1.;.:.o.",
"5.o.+.:.:.+.o.:.1.1.:.+.5.>.>.7.Q :.:.;.b X.[ +.y.,.:.X.! Q ! I I I O ' <.y.5.1.;.M x ;.1.s Q <.5.1.1.5.1.1.o.' ;.+.o.7.7.R x t.:.R ;.t.I a Q :.;.:.8.X.R ' ' :.7.5.5.5.5.1.1.1.1.1.1.1.5.5.5.5.5.5.5.1.7.1.5.:.X.:.1.7.o.+.5.:.} ;.] t - O - - + - ; o.[ ;.6.,.1.5.5.:.} :.;.X.>.1.5.5.7.1.,.5.5.6.5.6.6.5.6.,.t.I ,.1.5.5.6.6.7.5.7.5.6.:.' 5.6.1.:.:.:.} I [ 6.7.1.t.:.>.:.5.6.8.6.5.5.5.5.6.6.6.1.5.t.1.t.8.:.R s t 1 r X.t.^ 5.<.7.5.' N 5.7.y.a - O r ;.7.1.t.X.' [ O N :.8.7.V r >.6.+.>.6.8.6.6.6.6.6.6.6.6.5.5.6.6.6.5.6.5.8.8.t.y.8.t.8.8.8.8.X.X.o.1.8.6.5.6.6.5.+.6.1.8.1.5.} X.8.t.:.X.5.5.7.5.1.>.1.6.8.8.6.6.6.7.' [ t.5.6.>.+.+.;.X.y } } :.' 1.y.;.:.x a R ' 1 3 1 : 3 d r r - O @ @ X N +.M V k r 1.O. .s ^ 5.[ +.+.5.8.1.1.' ' X.t.+.:.:.o.' } ' } :.+.+.:.8.5.y.7.1.7.5.5.5.6.5.5.5.,.5.5.6.6.5.7.5.5.,.6.5.5.5.5.5.5.5.7.<.<.[ b a ; + O O x 5.7.:.,.5.:.5.5.5.1.5.,.5.5.,.,.,.5.5.1.1.7.1.5.:.:.5.5.5.,.5.<.5.1.5.1.5.1.,.5.,.<.5.5.5.5.:.1.1.5.1.1.5.1.1.1.1.1.1.:.:.:.:.R b I R ^ ' I ' :.1.:.:.o.7.;.} 1.+.o.} ",
"5.:.;.+.1.:.o.:.>.1.:.:.5.>.:.:.I } 1.:.! } +.} >.5.1.:.:.} N ' ' b - c <.:.<.5.1.:.x R o.x ! } 5.1.:.1.1.7.;.R ' +.:.:.1.1.X.V R M +.! r } 5.5.;.X.;.7.:.+.} O.:.1.5.5.1.5.5.1.1.1.7.1.1.5.5.5.5.5.5.7.5.5.:.o.5.+.<.1.^ o.;.Q ' ;.[ I ; + + + - - + Y >.[ 6.5.1.6.1.+.>.6.:.} :.1.5.5.7.1.:.>.6.5.6.5.6.6.6.7.1.>.[ 7.5.5.5.7.6.5.5.6.6.+.[ ,.1.5.:.1.[ ' ^ X.6.7.1.5.:.7.5.5.6.6.6.6.6.6.6.6.7.5.>.5.5.7.6.7.t.y.o.a - I ,.8.^ 5.:.5.8.} N +.1.7.R 1 + - I <.,.7.:.' :.I 1 ^ 6.5.^ : [ y.6.7.6.7.8.6.6.6.6.6.6.6.5.5.5.6.6.5.6.8.6.6.8.t.t.6.1.1.7.1.6.5.1.+.o.o.1.5.6.1.X.:.+.+.;.+.' +.:.1.' ' 6.6.6.7.1.:.,.6.6.6.8.7.5.t.5.U 6.5.6.7.7.:.} R M I 1.:.1.X.;.:.I b ;.a a + 1 a R <. .r % @ @ @ % X b R R X.R i 5.O.1.R F +.' 1.1.8.6.5.X.} ! +.1.+.+.;.X.Q ' 5.5.t.:.o.} t.8.6.5.5.5.5.6.,.5.5.5.6.6.6.7.,.6.5.,.6.5.7.5.6.5.5.5.5.1.5.7.5.;.I r 1 - O O r [ 7.5.5.,.5.5.5.1.1.,.5.5.5.1.5.5.5.<.5.1.5.7.1.5.:.:.5.5.:.5.,.5.,.5.:.1.,.5.5.<.5.5.,.,.:.5.5.,.5.1.1.5.1.5.1.1.1.1.1.:.:.o.X.s R ;.<.5.<.} o.I ' 7.X.o.:.' ' Q ^ X.X.",
"1. .5.+.:.5.:.:.1.5.1.:.5.>.+.} I } 7.:.o.X.;.:.X.1.1.1.:.1.[ Q ;.^ r 1 X.5.:.<.7.:.o.s R Q 5.} ~ +.5.1.1.1.1.o.:.' ' ' X.1.7.1.} b d r I :.6.5.7.;.X.:.1.:.;.:.o.;.5.1.7.5.5.5.1.5.1.1.5.5.5.5.5.5.5.6.5.,.:.:.1.+.' :.:.X.R ^ X.+.+.^ t   ; + - + + x ] I [ o.' X.:.:.;.1.:.Q ' 5.1.1.5.1.:.>.8.1.5.t.5.5.5.5.5.5.X.1.5.5.5.5.6.5.6.5.1.^ >.8.5.5.5.o.+.:.o.X.5.5.1.1.>.7.5.5.5.7.6.6.6.t.5.6.6.5.1.5.5.6.6.6.6.5.5.s - I t.8.^ 1.:.1.t.o.! I 7.5.} M + + 1 ;.;.5.1.! o.y.I 3 :.5.:.1 I 7.t.5.7.6.6.6.8.6.6.5.6.6.6.,.6.6.6.y.6.6.6.6.6.8.8.6.5.,.5.5.5.5.5.5.1.>.+.X.>.:.+.5.+.X.} } ;.:.! 1.+.X.7.5.5.6.6.:.:.5.6.t.6.6.6.t.5.' [ 5.5.5.8.8.} ' ! M t.:.;.+.X.} r 3 v : @ % V <.1.8.W % % X X @ % : ) +.%.O.R y 6.$.<.O.a O.} 6.1.1.5.X.o.o.} +.;.+.} ' ;.o.:.8.5.6.6.:.+.5.6.5.6.6.6.6.5.7.5.5.6.,.,.7.6.5.5.6.5.5.5.5.5.5.6.5.5.,.5.5.5.>.' d - O O   + I :.,.y.,.5.5.5.:.5.,.5.5.5.<.5.7.5.5.5.1.1.7.:.7.1.,.1.1.,.5.1.5.,.1.5.:.5.5.5.5.5.1.1.1.1.1.1.5.1.1.1.1.1.5.1.1.>.>.:.:.+.1.:.X.a } 1.1.7.X.:.1.X.I Q I ! ' R Q V I V X.",
":.1.<.;.:.:.' ' +.} o.:.1.1.1.:.' Q :.:.! o.:.:.X.;.<.5.1.>.} ! ' X.I - a ;.1.:.,.:.1.U 1 } :.1.} ! } 1.:.7.t.:.X.} :.;.O.:.1.1.1.o.+.I ! 7.>.1.1.,.+.:.5.} X.1.<.:.:.>.>.:.:.1.5.5.1.5.5.5.5.5.5.5.5.5.6.,.:.>.1.1.^ 1.+.:.' X.+.:.>.' b - - O - - + ; I M ] >.1.[ I Q ' ' ^ ! R o.1.} 6.1.>.:.5.1.5.8.5.6.6.5.5.5.>.1.5.1.5.6.6.8.5.5.5.} 1.7.t.1.X.o.1.:.O.} ,.6.1.1.5.6.6.5.5.5.6.6.6.6.6.6.5.>.5.6.5.6.6.5.t.>.>.t @ N 7.5.Q 5.1.7.5.;.X.c 5.<.' } a O O I 8.5.} ' 1.t.1.x a <.y.r x 7.7.5.6.6.6.6.5.8.6.8.6.6.6.6.7.6.6.6.8.6.8.6.6.6.7.5.,.5.5.5.5.5.6.5.7.6.5.:.:.X.X.+.;.o.X.X.' +.O.5.:.:.6.7.7.6.5.>.+.5.6.6.5.6.5.t.6.+.[ 5.6.6.8.1.} } :.c 1.5.<.X.{ v @ - @ @ 3 b { <.2.} y @ X X @ o % 8 o.<.1.o.V y <.1.&.1.M V X.1.1.6.:.X.1.X.+.+.o.o.}  .5.:.+.7.1.5.5.>.:.7.7.6.6.5.6.6.6.5.5.5.6.6.6.5.5.5.5.5.5.5.6.5.5.6.5.5.5.6.5.5.5.X.M r - O X O s ;.5.7.5.:.,.5.5.1.5.5.5.,.,.5.5.:.1.1.5.1.1.1.,.} 1.>.1.1.1.1.5.1.<.5.1.1.5.:.5.:.5.1.5.1.5.1.1.1.5.1.,.,.<.1.7.1.:.+.:.:.>.>.:.Q ^ 7.1.:.;.} :.' ! a a V o.1.:.X.} o.Q M ",
"^ X.<.1.^ ' } X.:.:.1.1.1.1.<.:.;.I :.:.I ;.<.<.+.+.+.1.1.1.} ^ [ :.! 1 - a ' :.t.6.:.:.a M y.:.;.:.' I } :.1.;.^ :.7.5.1.5.1.1.:.+.1.5.X.^ 7.7.1.1.;.:.1.' [ 7.7.1.:.o.' o.>.+.1.5.1.5.5.5.6.5.5.5.5.5.6.5.5.5.5.8.o.1.X.;.} +.o.:.1.' I > O - + + - 1 U ,.o.,.1.' Q X.:.6.t.t.+.Q ;.:.1.5.+.5.:.1.5.5.6.5.6.5.>.1.5.5.5.5.5.5.6.6.5.5.1.+.5.8.t.:.} 1.8.<.;.X.:.1.5.5.1.6.5.5.5.7.6.6.6.8.8.8.5.>.5.6.5.7.6.5.6.,.} 1 r ! X.5.R 1.;.8.<.:.1.I { y.;.;.^ + + r <.:.X.+.8.>.8.:.y b 5.M - ;.7.7.6.6.6.6.6.6.6.6.6.6.8.5.,.6.6.6.6.8.8.8.8.8.5.1.1.1.5.5.6.5.5.6.6.5.6.5.:.+.[ Q :.7.+.' Q } +.8.+.5.6.6.5.6.7.1.+.5.5.7.5.6.6.6.6.5.[ :.,.1.1.+.} o.+.x <.t.<.I T v @ @ @ d T $.} 4.<.d X @ X @ @ @ @ k $.1.1.o.F a $.1.$.1.} s | <.1.6.;.+.5.X.5.+.' ' X.<.5.<.:.6.5.5.5.1.>.6.5.6.5.6.6.,.6.5.5.7.5.5.5.6.5.6.5.5.6.5.5.5.5.5.6.5.5.5.5.5.:.U a 3 @ @   1 ' 5.5.,.,.7.5.5.,.5.<.5.<.5.,.5.5.:.1.5.1.5.5.5.7.' } :.1.1.1.5.1.5.5.5.,.5.5.1.<.5.5.1.5.1.1.1.1.1.1.1.1.7.<.;.o.o.+.:.:.1.1.1.} R >.:.1.:.' I M ! X.X.^ a M Q [ ;.} } +.R ",
"} } ' +.^ } :.+.X.1.1.<.1.1.1.:.:.V 1.} R :.1.1.<.+.X.<.5.1.X.} { :.:.a a a r x I o.7.<.x y o.1.1.:.5.1.^ ! ' ' I :.1.;.1.1.1.:.:.1.:.:.t.o.! >.5.5.5.1.X.^ X.1.:.1.5.:.' +.5.1.5.1.,.5.5.5.5.5.5.5.5.6.6.5.5.6.8.5.8.;.:.[ <.1.} X.5.:.M 1 O - + - + - 1 ] } 6.[ ^ +.1.:.1.7.1.y.1.} o.:.8.} :.+.5.5.1.6.5.6.8.,.>.5.5.7.5.5.7.6.5.5.8.:.:.1.5.:.X.>.8.5.:.:.X.X.+.1.:.1.t.6.7.6.6.6.7.5.6.8.8.5.>.5.5.5.6.6.7.5.6.I O I 1.' 1.' :.o.1.7.1.1.o.R :.<.^ 7.a + - Q +.>.5.1.7.1.s.o.2 R ^ + ' t.7.6.6.6.6.6.6.6.6.6.6.6.5.6.6.6.6.8.6.8.5.6.6.5.5.5.5.5.7.5.6.5.6.6.6.8.6.5.+.Q ' :.6.>.:.5.' Q 5.X.6.6.6.5.5.5.5.+.,.:.5.6.7.6.6.5.6.X.:.6.>.1.+.:.X.' c } O.+.~ d @ : r V } V 1.R 8.B X @ X @ @ @ % @ R 1.3.$.O.V i 1.<.1.<.7.y ' +.5.6.} 1.1.+.<.' ! ^ +.5.1.1.1.5.5.5.7.5.>.5.6.7.6.5.7.6.6.6.6.,.5.7.6.,.6.,.5.6.5.5.5.5.5.5.5.5.5.8.1.y.X.x y 1 X O   M <.5.,.7.:.7.1.5.5.1.5.,.5.5.5.5.5.1.1.5.5.5.1.1.5.o.I :.1.1.,.5.5.1.,.1.1.1.1.,.5.:.1.1.1.1.1.1.1.7.1.,.1.:.:.;.o.:.<.1.>.:.>.>.' :.:.;.^ ' I ! } >.7.<.5.5.I s X.X.' ;.' o.",
"+.;.o.! ' :.:.:.X.<.1.5.5.1.1.:.;.N :.Q } <.:.1.>.:.;.;.1.1.X.X.[ ' 5.N r R 1 - s M x x s I a <.<.5.5.1.1.+.' ' Q } :.:.1.<.1.:.1.} 5.1.1.1.5.o.+.<.1.X.} +.1.:.1.5.1.7.:.X.+.1.1.5.1.5.5.5.5.5.5.5.5.5.5.5.5.5.7.,.t.:.:.' 6.5.} ' :.:.U r ; - + - - + - I Q X.} +.>.1.:.>.7.6.5.6.1.' } :.;.>.+.5.5.5.8.5.8.8.1.1.7.6.5.6.6.5.6.5.5.8.:.5.5.1.X.;.8.7.1.:.8.:.:.5.+.X.1.8.8.6.8.6.6.6.5.6.7.8.7.1.7.7.5.6.6.6.6.:.r ; ' 5.X.;.' :.+.:.1.5.5.7.M :.o.M { V @ O x :.1.1.:.7.t.>.>.R r ! - I 8.7.8.5.6.5.y.6.6.6.5.8.8.5.6.5.6.5.5.5.7.5.7.7.5.5.5.5.5.6.8.6.6.6.6.7.5.7.8.+.! 8.o.X.;.1.5.+.I :.X.6.5.6.7.5.6.6.} 1.+.5.6.6.6.7.7.5.:.X.5.+.^ I Q R R a x I c a @ @ % s E ~ b } F R %   @ o & % X @ @ ) 1.1.$. .R b 1.1.2.1.1.M V X.1.:.' t.;.+.>.' X.[ 1.5.7.5.:.6.6.5.5.8.5.7.5.6.5.6.5.8.6.,.5.5.7.,.6.5.7.7.5.5.6.5.5.5.5.5.5.5.5.8.5.:.R a r -   O r X.<.7.5.7.,.5.5.5.5.1.5.5.5.1.5.1.5.5.1.1.1.:.:.<.:.1.^ } 1.1.1.5.1.5.5.1.5.1.5.5.5.:.1.1.1.1.1.5.1.1.1.1.:.+.;.:.<.1.:.<.<.1.5.} V ' ' } +.} I } 1.:.:.1.<.1.1.N I { ' X.X.o.",
"} X.:.X.' } } :.} } :.5.1.:.1.<.:.N o.R :.1.:.1.:.<.o.} :.,.} ' y.I I Q - I I a x :.:.I I <.r N 5.:.:.5.:.>.7.t.:.I I R Q } >.>.1.} 5.<.1.5.1.1.} o.X.' o.1.1.:.5.:.5.6.8.>.;.1.5.,.1.1.5.5.7.5.5.5.5.7.5.5.5.1.>.t.5.>.} Q 1.7.,.+.:.X.Y r 2 + ; - ; O ; 2 U R ;.>.1.5.>.1.>.6.7.t.1.:.^ 5.+.' +.8.5.5.8.5.8.6.,.5.7.8.8.5.6.6.6.8.5.8.;.p.8.:.o.5.7.5.1.1.t.:.+.6.+.X.:.5.5.7.7.6.6.5.5.6.5.6.6.5.5.7.5.5.6.6.7.Q + x :.7.:.^ ' :.:.+.:.1.1.;.a ' I M R ^ - + - o.1.:.:.+.1.5.1.7.M } 1 a ;.5.6.6.6.y.5.5.6.6.8.6.5.8.8.6.5.5.5.5.5.7.5.5.6.5.8.7.8.5.6.6.6.6.6.6.6.6.8.+.o.>.:.X.;.7.5.5.I } +.t.5.5.6.6.6.6.} :.o.1.6.8.6.6.t.5.5.Q 5.>.' ' o.1.1.I ' t.s : % a R R d r 3 r v @ X @ @ @ % 2 X % @ X.&.1.1.} ^  .5.&.1.1.&. .3 } o.Q ;.1.+.+.t.X.X.X.8.1.5.1.;.5.5.:.:.5.1.5.6.5.6.6.5.5.6.5.6.5.6.6.6.,.,.6.6.5.6.5.5.5.6.5.5.5.5.5.5.^ c r : X   - ' t.:.5.<.,.5.7.,.1.5.5.5.,.,.5.5.5.<.5.5.1.:.+.;.1.1.1.1.! :.1.,.5.5.1.1.1.,.1.:.5.1.:.:.1.5.1.1.1.1.1.1.o.;.1.5.1.1.1.1.1.:.:.} I ' ' 1.:.>.' :.1.1.7.<.1.:.:.<.R M ' R X.<.} ",
"X.1.+.} X.5.X.' ;.X.} X.:.:.<.:.:.I R ^ 1.1.1.:.1.:.:.o.X.<.X.} :.X.x I 1 x } I b Q o.t.' X.X.a X.>.>.:.5.1.} ! Q Q ' } ' X.;.5.5.+.>.1.1.5.>.5.1.X.R ' :.1.1.<.:.5.5.5.5.5.>.:.5.1.5.5.6.5.5.7.5.6.5.5.5.5.5.>.:.:.6.1.} I >.5.7.>.:.,.;.I 1 - - + + - ; t x I 1.:.6.1.1.:.>.6.6.6.5.5.X.X.o.o.^ :.5.1.5.6.8.8.1.5.6.6.5.5.5.7.7.6.6.1.:.5.5.o.:.8.7.5.:.5.7.5.[ +.;.5.:.:.1.5.5.5.6.5.,.6.6.6.6.6.6.5.6.5.1.8.X.r + ' 1.7.5.' ^ <.:.o.7.:.o.} Q d ;.V { ;.M @ + M :.:.:.5.5.7.1.1.5.1.x 1 ;.t.5.5.5.5.y.6.6.6.6.6.6.6.5.y.8.6.8.8.6.8.6.8.6.6.8.5.6.8.y.6.6.8.6.8.6.6.6.:.+.5.:.1.[ 5.6.1.} ^ +.6.7.6.6.t.5.1.' >.:.>.t.6.6.7.6.7.1.^ } :.:.} ' 1.:.R r M : r 3 R } 1.1.R s i 3 @ X % @ @ , : X @ u %.2.3.1.! &.<.1.5.O.2.O.o.b M ' } 7.:.;.5.' :.V :.7.5.5.5.[ +.:.:.;.:.t.5.6.5.6.5.8.6.5.6.6.6.5.5.6.6.,.6.6.6.5.5.5.5.6.5.6.,.5.5.;.M r 1 % O X V 1.1.5.1.5.,.5.5.1.5.,.1.5.1.5.5.:.5.,.,.1.5.5.1.5.:.t.:.7.R ;.1.>.1.1.1.5.1.1.7.5.1.:.:.X.1.1.5.5.>.:.+.+.:.:.1.5.1.<.1.1.:.o.} I R 1.1.>.:.X.+.7.>.:.,.5.>.7.,.5.^ M c o.X.I d ",
"' <.:.o.} :.:.o.} X.! o.o.X.:.<.1.R N R X.1.1.:.1.:.1.:.} ;.X.{ X.:.R ' a r Q { x ! ' ' 7.' ;.I b 1.5.1.' Q ! o.5.7.>.:.>.:.' } 1.o.>.1.1.1.5.5.5.[ o.:.' ;.1.1.:.>.1.5.5.5.1.1.1.5.5.5.5.5.5.5.5.5.5.5.5.5.5.5.5.:.5.1.X.I :.5.6.1.;.,.,.] t - - + ; + 1 M t r :.1.5.5.7.+.>.6.7.7.1.8.:.^ ! :.~ 5.8.5.5.7.8.8.,.5.5.5.6.5.5.6.5.6.6.5.1.5.5.o.1.8.5.6.+.5.1.1.[ +.+.+.5.1.+.1.5.5.6.6.6.6.7.6.6.6.6.5.5.6.8.:.y O r X.7.7.5.:.R ^ :.:.5.' X.7.<.r ^ I ' 7.~ 1 O - R 6.:.5.5.5.1.<.1.5.! : } :.,.5.6.7.,.6.6.6.6.6.6.6.5.6.8.8.8.8.8.6.6.8.6.6.7.8.6.5.5.5.8.5.6.6.8.6.5.1.:.5.5.>.>.1.1.5.' o.' 5.5.6.:.,.5.>.X.:.>.>.6.6.6.6.6.7.7.o.} :.>.7.:.o.:.} r ; x r 3 R o.<.^ R } R 1 @ @ % @ X 3 : o X b 1.7.1.1.{ 5.5.1.5.1.$.} 1.R 2 { :.t.} :.1.+.X.} >.6.6.1.5.} :.5.6.5.:.,.5.5.6.5.6.5.6.6.6.6.6.,.7.,.6.6.6.,.6.5.6.5.5.5.6.5.5.5.5.U r - - O   y X.5.5.5.5.,.5.5.5.5.1.5.5.1.5.5.1.5.5.5.5.5.5.1.5.1.<.5.1.5.} X.1.5.5.5.5.5.1.1.5.,.1.:.:.X.1.1.1.1.1.+.} ' :.:.1.<.1.1.:.:.' ' ' I ;.5.1.>.+.X.1.:.1.5.1.:.1.1.:.<.M x I ^ x y 3 ",
"V ' o.o.} ;.;.5.7.;.Q ' X.;.o.o.:.} s ' ' <.1.:.5.:.1.1.o.} ' o.;.1.! } x + Q 5.V r +.! ' ;.:.} y ^ o.I ^ :.5.5.5.>.>.:.+.1.+.R [ +.>.5.>.>.1.5.>.:.1.5.1.} ' 1.5.>.5.5.5.5.5.1.1.5.5.5.5.5.5.5.5.5.6.5.5.5.5.5.5.>.>.5.:.R :.5.6.5.>.1.6.2.M ; @ - @ O - 2 I 1 I 8.1.5.2.+.,.5.6.6.5.6.5.[ R 5.X.5.5.1.5.5.6.6.1.5.7.5.5.5.6.5.6.8.8.5.5.5.5.+.5.8.5.5.+.1.:.5.+.1.5.1.+.5.6.+.,.8.7.5.5.6.6.6.6.6.6.7.6.5.6.:.3 O c 1.8.8.8.1.' x X.X.X.! <.7.o.a o.:.R :.;.x + O b ;.X.1.5.7.5.>.>.5.:.- U ;.5.5.8.5.7.6.6.6.6.6.6.8.6.8.8.5.6.8.6.8.6.8.5.6.8.8.8.6.6.t.6.6.6.5.6.6.5.5.:.5.6.5.7.<.1.5.} +.' :.7.5.o.X.o.5.o.>.1.7.7.5.5.6.5.6.8.5.^ X.:.8.<.;.;.Q r a { a d v 1.) R +.:.a X 3 3 % @ X 1 @ : @ R 2.1.3.:.! 1.5.5.1.5. .X.^ M 2 ' 1.;.R <.:.:.X.>.>.5.7.5.5.:.:.<.8.5.1.,.7.7.6.6.,.6.6.,.6.6.7.7.,.6.,.6.7.7.5.6.5.6.5.5.5.5.7.<.;.x : + O @ : ~ 1.1.5.5.5.6.5.,.,.7.5.5.1.5.1.5.,.5.1.5.1.1.5.1.5.1.1.1.5.,.>.} 1.1.5.5.1.5.5.5.1.5.<.;.:.} 1.1.1.1.5.1.1.:.X.:.1.:.1.>.+.+.} ;.' ' 1.:.5.:.' :.8.1.1.1.:.+.5.:.1.X.1 x a r r a 2 ",
"^ :.X.' U ' o.<.+.1.R I } o.o.:.;.o.c R } ;.:.:.<.1.1.:.1.! I o.5.<.} o.' : ~ 8.} N N } Q ' :.<.' 1 I } 5.1.1.5.1.1.5.5.>.;.1.1.X.+.:.>.1.1.5.8.6.5.5.1.1.7.;.[ X.>.7.7.6.5.5.1.1.1.1.5.5.5.5.5.5.5.5.5.5.7.5.5.7.>.>.,.1.' >.5.6.7.>.5.5.6.] 1   ; O - - + x ] x X.1.8.>.$.2.5.6.6.6.,.5.1.Q >.o.1.5.8.5.5.5.6.1.7.6.6.8.5.6.6.6.6.8.6.6.8.5.1.5.1.5.5.:.1.+.5.X.+.8.7.>.+.1.5.:.:.,.7.5.6.6.6.6.6.7.5.6.5.6.5.M - I 5.7.5.5.>.t.I X.R I X.y.1.;.R R :.I ^ ;.b - O b ' R ;.7.7.,.7.5.5.5.r c 5.8.8.6.7.6.6.6.6.6.6.6.7.6.8.8.8.8.6.8.6.8.6.8.6.8.8.6.5.6.t.t.6.7.6.6.6.6.5.:.5.7.8.:.:.5.1.:.;.>.X.>.8.7.+.^ :.+.5.<.;.+.X.5.t.1.>.1.5.R } 5.8.7.<. .a 1 ' ^ r ~ b R ^ 7.5.M @ r v , @ @ , y o % @ F | 1.1.X.v V b i a y d b v ' I M 8.{ :.<.+.X.+.:.5.5.5.5.5.1.:.1.7.5.5.5.6.6.6.6.7.7.6.6.6.6.,.6.6.6.6.7.6.6.5.5.5.5.6.5.5.1.7.;.c ; - -   - M 1.<.1.7.5.5.,.6.6.7.6.,.1.5.1.5.1.5.1.5.1.5.5.1.5.1.5.,.,.5.5.7.} 1.>.>.7.1.5.:.1.5.1.:.+.+.X.1.1.1.1.5.1.1.1.X.1.5.:.+.+.o.+.:.:.^ O.5.5.:.X.;.1.:.1.5.:.1.1.<.:.5.I : r 1 r a , : ",
"' X.X.o.' R V } 5.} ^ t.1.^ } X.5.O.b x } o.:.<.:.<.1.;.7.U V +.1.:.:.' :.a x y.;.:.I I :.' ^ :.7.y 1 ' :.t.1.5.5.5.5.:.5.5.+.<.>.;.} X.;.1.7.1.5.5.6.6.1.>.t.5.U ^ :.1.1.5.1.1.1.1.1.1.5.5.5.5.5.5.5.5.5.1.>.5.5.5.1.1.1.o.:.1.5.5.1.5.,.1.>.x + - + - - + + R x M 1.5.>.>.8.,.6.6.6.1.1.5.[ 1.X.1.5.o.X.8.6.5.5.6.6.6.5.8.5.8.6.6.6.8.8.6.5.5.5.1.5.5.+.1.:.7.+.:.5.5.6.:.:.8.5.+.;.1.5.6.6.8.7.6.6.5.5.1.+.I r : ^ 5.6.5.5.X.:.' ' ' ' ' ^ Q M ' R 1.! o.c a r + + R X.{ :.<.6.6.8.7.7.M r t.6.8.8.5.7.6.6.6.8.5.5.8.6.6.8.6.6.8.8.8.6.8.8.6.5.5.,.;.1.6.6.5.7.6.5.1.5.1.>.8.6.8.o.:.:.1.X.X.5.;.+.6.7.5.;.Q ! o.' o.1.' ! o.' ' ' ' I ! 5.6.7.7.Q 1 ^ 7.I a R d R 7.2.~ 1   r d 1 % @ d v @ % X @ % 0 , , @ b _ 1.X.v b +.O.7.o.t <.Q 5.:.:.X.:.+.7.5.6.5.5.1.:.5.1.5.5.5.5.,.y.7.6.6.,.6.6.6.6.7.6.6.6.7.5.7.6.6.5.5.6.5.1.5.:.T a 1 ; @ O r o.8.3.5.5.5.5.,.6.6.,.6.5.5.,.1.1.5.1.5.1.5.1.1.1.5.5.1.5.1.1.:.:.' :.5.1.1.1.1.5.5.1.1.<.;.:.} 5.1.5.5.5.5.1.1.;.>.>.+.X.+.5.:.5.o.' 1.5.5.X.+.5.1.:.5.1.1.1.1.<.1.} a : 1 r r 1 1 @ ",
"} X.:.<.' I y x ! ' :.:.1.<.:.' [ o.I r o.} :.:.1.:.:.5.o.R Q :.1.1.5.' ;.c r X.7.:.' R ' :.' } 7.Q : I X.+.1.5.5.1.5.5.5.1.1.1.:.:.X.+.X.+.6.6.1.5.5.,.7.7.5.1.;.' X.o.+.:.>.1.5.:.>.5.5.5.5.5.5.5.5.5.:.1.,.5.5.1.5.1.>.;.<.1.6.5.1.1.:.5.5.V > + + + @ @ O @ d I 8.1.,.,.8.8.6.6.6.1.>.>.X.6.X.:.1.I X.6.6.5.5.5.5.6.8.5.8.6.8.5.7.6.8.6.6.5.5.5.7.:.o.1.1.5.>.>.1.>.+.:.1.1.7.7.:.:.,.5.7.5.8.8.5.t.,.M M M y 2 X.6.8.1.1.X.;.X.V I :.o.R } o.:.R 1.' ;.Q I R + + x ' X.;.' >.5.t.5.1.R - :.8.5.8.8.8.6.6.5.5.8.8.6.7.8.6.6.y.6.8.6.8.8.8.6.8.8.8.5.>.5.6.6.1.8.5.+.:.;.1.8.6.6.+.O.X.8.} ' 6.5.+.8.8.>.<.} ! :.o.o.[ ! +.1.1.5.5.:.} Q 7.8.7.t.I : ;.;.x c d } } 1.+.y - 1 : 1 : : % v y o X : E ~ R b v : a b b G T d ^ ) o.o.r b U 5.+.:.+.:.:.7.5.6.,.5.,.:.1.5.7.7.8.5.5.,.6.6.6.6.6.,.6.6.,.6.6.,.6.6.6.5.6.5.5.5.5.1.5.} x 1 - O @ - R 5.1.5.5.5.5.5.7.5.7.7.5.5.5.<.1.5.1.5.5.5.1.5.1.5.5.1.:.;.o.o.+.' U 6.5.1.5.1.5.1.,.5.5.<.o.1.X.5.1.<.1.1.1.:.5.' ' 1.<.5.5.5.:.<.^ ;.5.<.o.o.1.:.1.1.1.:.1.1.$.<.1.V 1 3 : : : : % @ ",
"X.' 1.:.R X.+.+.} M ' :.t.:.:.;.X.{ I y I ' 7.5.:.1.5.X.R ' ;.O.:.1.5.;.o.^ 1 } :.7.} ' R o.;.' I I r ; X.;.X.:.5.1.1.5.1.5.5.1.:.5.:.>.:.} } 1.8.:.+.:.1.1.7.:.:.:.6.5.5.5.>.:.>.1.1.5.5.6.5.5.5.5.5.5.:.;.5.5.5.5.5.1.1.1.+.1.5.:.5.:.:.1.;.I t - @ + @ o o @ ; I 8.,.,.2.2.6.6.6.6.,.1.1.X.+.+.:.[ I 5.5.6.5.1.5.5.6.6.6.8.7.6.7.6.6.5.6.6.5.5.8.5.+.+.1.5.5.5.1.6.6.>.:.+.X.<.8.8.5.;.:.1.t.6.8.5.>.I ' y.;.' y ! 7.5.5.+.:.:.:.R I t.;.' ^ 1.;.! o.o.o.o.I ' r + r } ^ <.<.Q I >.5.5.^ - ' i.>.6.8.5.5.6.5.5.5.5.8.7.6.7.5.5.8.6.8.6.8.6.8.8.5.7.6.7.5.1.t.>.8.t.,.1.+.1.t.8.6.o.' X.6.} ^ 1.:.X.Q <.t.:.' ^ o.;.o.o.:.:.t.1.5.8.6.5.^ 7.7.y.;.3 1 Q I r Q N } :.o.x - O - 1 r : % @ d 8 X X y  .2.4.1.F G  ._ G v y :   , 2 1 - + R o.} 1.+.>.7.6.5.5.>.5.1.:.7.5.8.,.6.6.6.6.6.6.5.6.6.6.6.6.6.6.6.6.6.6.5.6.6.5.7.2.5.7.<.I y 1 X X @ R 7.5.5.5.1.1.5.5.6.6.,.5.5.6.5.6.7.5.5.5.5.5.1.1.1.1.5.5.<.+.+.:.:.' I 6.5.1.5.1.5.5.;.<.7.;.X.1.X.5.5.1.5.1.:.+.X.^ o.6.1.1.5.5.5.X.' :.t.:.X.+.1.1.1.1.1.1.:.1.1.$.F r : 1 : @ X @ % y ",
";.' :.:.I <.1.:.Q } ' I Q o.<.:.<.7.o.M M I I X.o.o.' Q } 1.:.} :.1.7.<.X.:.r ' o.<.:.' +.Q ;.:.M M I r a 5.X.<.5.5.1.1.5.5.5.1.1.1.>.:.5.:.} o.>.:.+.>.1.1.5.:.:.1.6.6.8.8.5.1.:.>.:.1.6.6.5.5.5.5.5.5.5.:.>.7.1.5.5.5.5.1.' :.,.:.6.:.:.+.^ ^ I : - @ @ o @ ; + a ,.6.,.2.8.8.2.5.6.,.>.6.+.! +.X.M X.6.5.5.5.1.5.5.6.6.6.6.6.6.8.6.6.6.6.5.8.8.5.1.1.:.5.6.6.7.5.5.t.8.8.1.+.+.1.8.6.1.:.;.8.5.t.:.V ! 8.5.:.;.x I 7.:.5.} 1.<.:.N I :.+.X.V 7.1.' ! 7.' 5.I ' R + O I ;.;.7.6.;.N I ' [ 2 x t.6.6.5.8.6.5.6.8.8.8.6.6.8.8.6.8.6.8.6.6.5.8.6.5.8.6.8.6.1.+.7.5.7.6.5.7.o.1.5.6.i.1.} 1.X.R } 5.:.+.Q X.:.R ^ ! ! :.:.1.:.:.1.6.y.6.6.:.I :.1.o.M 1 M 1 - I X.I X.' x - + 1 b c y % @ % i , X X k 5.| +.V ~ 7.8.5.4.6.:.O.V } R N x + x X.;.;.:.5.6.6.5.5.1.5.,.:.5.5.6.7.6.7.6.5.6.6.6.6.6.6.6.6.5.5.6.,.7.6.6.5.5.5.5.2.1.1.{ a 2 @ X @ y 5.5.5.1.1.1.1.5.5.,.6.6.6.5.5.5.5.5.5.5.5.7.1.5.1.5.1.1.<.:.;.:.:.5.:.^ ' 7.1.5.5.1.5.X.;.1.X.o.:.X.5.1.1.1.:.o.X.! :.8.>.1.1.>.1.>.Q o.5.<.X.o.1.1.1.:.5.:.:.+.:.$.R 8 % & % o % X @ b } ",
"1.X.+.:.I :.1.>.' } :.:.X.I Q ;.7.:.X.! ! ' ' R ' ^ ' ;.5.1.1.o.+.+.1.5.o.;.x c :.o.:.o.' o.Q :.;.I I r V I 1.6.1.1.5.5.5.1.1.5.7.>.7.>.:.5.5.X.Q } 1.5.1.1.5.:.1.1.6.5.1.>.5.5.5.1.:.+.>.5.5.5.6.5.6.5.5.1.:.:.5.1.5.1.1.1.X.:.6.:.:.>.;.} ! :.U r - @ @ X @ - - - N ,.,.8.2.,.6.6.,.6.+.>.:.U :.Q I 1.1.8.5.5.5.1.6.6.6.6.6.6.8.5.6.6.6.7.8.8.8.5.1.8.:.5.8.5.6.5.6.6.5.8.7.1.;.+.:.5.6.5.:.1.5.8.' ' t.8.7.6.U Q I :.:.t.X.8.p.1.b ^ ^ ;.7.' :.1.o.I t.! 7.^ ^ { r O r 7.5.;.:.t.8.+.I N r 2 >.5.5.6.6.7.8.6.5.5.5.6.6.6.8.8.8.6.6.8.6.y.6.8.8.5.6.8.6.5.X.6.5.5.t.6.t.+.1.t.1.1.} ^ X.5.X.X.8.1.:.X.R ;.} } X.Q ' :.t.1.} } 7.,.8.8.7.^ I } R a r I r r ! ^ Q ' c - 1 r R 1.~ a % X a b , X X V $.%.R F $.8.6.4.1.7.5.3.+.o.7.7.;.I 1 N >.+.>.t.>.6.5.5.>.6.5.:.8.5.6.6.6.6.6.6.5.6.5.6.8.5.6.5.y.,.7.6.6.,.5.6.5.5.5.7.5.{ x 3 : X X @ } 1.5.1.1.1.1.1.5.5.,.6.6.5.6.5.5.5.5.5.5.5.5.5.1.1.1.5.5.5.:.+.1.1.7.6.+.R 6.5.5.>.5.5.:.X.X.:.5.:.+.1.<.:.:.+.+.X.+.5.5.:.6.1.5.X.} ^ 1.1.' X.:.1.1.:.1.1.:.:.<.+.T 8 , , % @ X   2 T O.E ",
"<.1.o.;.R +.+.+.! ' :.:.:.;.' Q ;.,.<.! ' ! 7.;.+.1.<.1.1.:.1.:.} o.;.7.<.X.T : o.:.:.:.{ <.X.R 1.X.X.r I N } 1.5.1.5.1.5.1.1.1.5.1.1.:.1.1.:.5.+.! +.5.5.1.5.1.1.5.>.5.5.5.5.6.5.6.5.>.+.:.1.5.5.6.5.5.5.5.;.X.1.5.5.:.:.1.:.} 7.>.} 1.>.' ' 8.} t + O @ X @ O - O 2 } 8.8.,.8.5.2.6.6.:.+.+.Q ' c 6.5.:.8.6.5.5.5.6.6.6.7.6.6.6.6.6.6.6.7.8.5.5.5.5.5.:.5.8.6.6.6.5.6.8.6.1.5.1.1.1.1.1.6.5.1.6.[ U 1.5.1.y.:.I ' a I I ' ' i.7.7.I +.} +.5.1.' :.:.I :.^ :.o.M { I O - I 5.,.X.} 1.t.:.+.I - ' y.t.1.8.8.8.8.y.6.6.6.6.,.5.6.6.5.y.6.8.6.8.8.6.6.6.8.6.6.:.6.5.6.6.6.8.[ } } [ o.X.^ ^ ;.1.:.6.1.1.5.I ' } :.5.X.! :.7.1.o.x ' t.5.t.,.} x <.' : x } x x R ' R a 1 - d ^ +.+.+.a : : G d : @ X R O.$.X.}  .&.6.3.1.5.4.1.4.^ t.5.O.5.M + N >.5.5.5.7.5.5.1.5.:.:.6.,.6.7.6.6.6.6.,.7.8.5.5.6.7.6.,.6.7.6.6.6.6.5.7.5.5.5.:.N 1 : @ X @ V 5.2.1.1.1.1.1.1.5.5.6.5.5.5.6.5.5.5.5.5.5.5.5.5.5.8.5.5.1.+.o.:.5.5.1.5.>.' >.5.>.1.1.1.7.;.} :.<.} +.+.:.:.;.:.+.+.7.1.5.5.1.>.7.;.' ' 5.o.} 1.1.;.1.1.1.1.:.5.+.R 0 1 3 % @ X % i { $.{ F ",
":.7.+.+.' ;.;.1.:.:.1.:.1.+.} X.' R V V } +.5.1.o.o.:.:.:.1.1.1.Q o.} :.<.<.' - ! <.:.:.o.' 1.' } t.<.} a ' I :.5.1.5.1.1.5.1.1.:.1.5.,.:.1.1.7.1.X.} :.5.1.5.1.1.5.5.5.5.7.5.1.5.5.5.5.5.>.:.>.1.5.5.5.5.>.>.+.X.:.5.1.>.>.>.' 1.5.o.} :.' } 5.o.V : X @ o @ + + ; O I ,.6.2.5.5.6.6.5.:.:.1.! b V 5.1.5.5.5.1.5.5.6.6.6.7.6.6.8.5.6.6.6.6.6.6.6.5.1.5.:.7.8.8.6.6.6.6.5.7.5.,.5.8.6.1.>.1.8.7.:.N ' 6.8.1.t.:.b R a :.Q I ' 8.1.6.I 1.;.} 1.5.X.X.:.Q X.} X.t.I Q ;.- O r <.:.} Q o.7.<.;.} 1 r ! +.5.t.5.5.8.6.<.+.} } } ;.5.8.6.6.8.8.8.8.6.7.6.8.8.5.8.:.5.5.t.8.1.o.R ' 1.7.5.6.6.1.+.R } 8.>.6.6.' M ! X.;.1.o.o.<.1.8.Q v :.1.7.X.:.N ;.I r X.{ a I I I r 1 + x ;.;.:.;.7.x 8 v W r @ @   } &.{ 7.1.O.+.2.8.5.5.<.2.7. .7.' ^ +.O.y : ' 7.5.5.5.5.5.<.5.5.:.5.5.6.7.6.7.8.5.5.6.5.6.5.5.,.6.6.6.5.6.6.6.6.6.7.5.5.:.! a % - X X x 5.7.$.3.5.1.1.,.5.5.5.5.5.5.5.5.5.5.5.6.5.5.5.5.5.5.>.;.:.X.' :.1.5.5.5.5.5.X.} 5.>.5.1.5.1.} ! ^ X.! o.X.5.:.:.+.+.1.1.1.1.5.1.7.;.:.Q :.+.X.:.:.1.1.+.+.1.1.1.:.I 3 : , % o X : B &.5._ R V ",
"1.6.+.X.Q :.+.>.1.1.1.<.X.[ ;.>.1.:.} I Q } 5.y.:.} :.:.1.1.:.<.Q 1.} } 1.<.;.r y :.7.,.o.' :.1.R ;.5.8.b o.R Q 1.:.d.<.5.5.5.1.:.1.7.1.1.1.1.1.5.:.;.:.1.1.1.:.;.5.:.:.5.8.6.5.5.5.5.5.5.5.1.>.:.>.5.>.>.:.1.1.:.:.>.6.7.:.5.' } 7.1.' ' Q o.:.1.X.1 X   @ @ @ - + - ; } ,.2.,.6.6.6.7.:.1.7.o.r I ^ 6.:.5.8.5.>.5.6.5.6.8.8.8.8.6.6.6.6.6.6.6.5.5.5.6.,.5.8.8.t.6.6.6.6.6.6.5.8.8.7.i.5.:.6.5.R M ;.:.y.t.1.X.R r x t.>.c } t.7.t.I ! o.! :.<.<.1.} ' ^ +.+.5.5.M :.x - O ' X.:.t.+.X.:.:.1.x r ' I ^ +.t.8.:.[ ! Q ^ 1.:.} [ ;.6.7.t.t.5.} :.8.8.8.5.8.1.1.5.8.5.1.;.X.V o.<.1.7.7.6.>.t.X.M ' 7.5.6.o.d ' X.[ t.1.} :.7.1.;.I r 7.' ' 8.} M r I y.N b X.x 1 1 1 ; ' { { :.1.;.d x +.~ 8   X % O.) O.3.<.3. .+.3.3.3.$.2.2._ ' +.1.R :.} 1 1 y.5.6.5.5.5.8.5.:.:.5.8.1.:.6.6.5.6.6.5.5.8.8.6.6.6.,.7.7.6.,.8.6.7.,.5.5.} y r   @   : ^ 1.<.2.5.1.5.5.5.5.5.5.5.5.6.5.5.5.5.5.5.6.7.6.5.;.X.+.o.! } 7.:.5.5.5.5.5.6.>.X.6.5.1.5.1.X.} } ^ :.' 1.t.:.+.:.+.:.>.1.1.1.1.7.<.o.Q ' 1.' <.7.<.<.;.} 1.1.+.:.V 3 % , : @   , ^ %.1. .^ V k ",
"1.5.;.O.' +.:.1.1.1.1.1.o.o.:.<.1.1.:.} M I R } :.o.o.:.:.1.<.:.' :.} } o.:.<.r 1 +.5.1.;.} { 5.1.R :.1.R x <.R ;.5.<.5.1.5.5.1.<.1.1.1.1.1.1.7.5.>.>.:.:.1.:.o.} ' +.o.+.+.o.X.+.:.1.5.1.5.5.7.6.1.:.>.>.>.:.} ' +.:.:.1.5.:.+.! :.<.o.:.^ ' :.1.1.d   X @ @ : + + ; - t ,.2.6.5.5.7.5.<.;.<.o.x R ' ;.1.7.6.1.:.5.6.7.6.8.6.5.8.8.6.6.6.6.6.6.5.5.5.5.5.5.6.8.6.6.6.6.6.6.6.6.8.8.8.5.7.1.>.' ^ ' ,.:.:.1.8.' I x N 1.:.[ ! 5.t.5.M ' :.;.R t.:.;.:.O.R +.^ 5.7.;.M X.r O r <.1.7.5.o.;.:.1.I : 1.:.} ^ Q ^ o.5.7.6.:.' X.6.:.[ ,.8.5.:.+.X.' ;.8.1.8.8.8.1.1.8.6.+.X.} V I 5.t.>.t.5.8.5.:.o.I I [ ;.>.I R ' <.:.;.Q <.5.:.o.o.I d R :.5.! a 1 ;.7.a I c r r - - R } { :.;.:.X.: G <.^ 8 X   d _ X.1.2.2.5.%...1.2.$.&.1.2. .+.5.;.! :.<.Q r 1.6.6.8.5.1.:.1.:.:.5.8.;.+.6.5.6.5.5.6.7.8.5.5.7.6.6.6.6.6.6.5.,.8.5.8.:.c r - - O : E 1.1.1.2.1.5.1.5.5.5.5.5.6.5.5.5.5.5.7.5.5.5.,.:.>.:.1.6.:.} :.7.5.7.5.5.5.5.5.>.o.5.1.5.1.} X.;.>.' X.X.:.o.+.:.:.:.:.1.1.1.1.1.:.:.o.R o.} } :.;.;.:.1.1.>.+.:.N r 1 : @ X % i ) 2.3.O.) F v y ",
"1.1.1.+.} O.:.1.:.:.1.1.:.:.1.1.:.<.:.:.' +.' I R ! ' } o.5.5.;.o.o.X.o.o.:.:.r 1 ! 5.5.1.;.R } 1.;.Q 8.:.x } o.I X.y.1.5.1.1.1.1.:.1.5.1.1.1.1.1.7.:.:.+.Q Q ' ^ } 1.5.8.6.5.1.X.X.X.+.>.5.1.1.5.6.t.5.t.8.5.+.' ' X.+.1.5.>.1.} } 1.:.:.} X.+.<.2.I % X o u 1 ; ; + ;   Y u.,.2.,.t.1.<.;.;.I x ' ' R X.} } } X.5.6.7.8.8.6.6.8.5.6.6.6.6.6.6.6.5.6.7.6.6.6.6.6.7.6.6.6.6.6.8.5.8.8.5.7.6.' ' ;.X.7.8.>.5.>.Q I I N t.:.X.I >.5.:.I ' 1.1.' I X.5.X.;.' X.^ :.5.7.! a x ; + ! 7.1.5.+.:.o.+.Q - ! +.;.5.1.:.:.>.5.1.8.u.} } 8.5.;.;.5.X.:.i.:.X.1.t.:.8.5.5.1.1.X.:.1.:.t.R N 1.1.t.5.7.6.5.} 1.5.Q Q R x ! Q } 1.' ' Q o.;.t.} Q 2 r x R o.a c 7.R ; a - 1 - + x { { +.y.1.5.X.@ ) $.~ ,   X F } 1.4.2.7.2.5.&.:.2.$.7.2.7.O.+.8.} ' 1.:.1.a >.8.1.6.5.1.} X.1.:.5.1.X.:.t.6.6.5.6.5.5.5.5.5.,.6.6.6.6.5.6.6.6.5.5.8.} a r - %   v 1.7.5.1.2.1.1.1.5.5.5.5.5.5.5.5.5.5.6.5.6.5.5.+.:.5.:.5.6.+.:.1.:.5.>.7.5.5.5.5.1.} 5.5.+.1.} :.1.8.X.X.X.;.:.1.1.1.1.>.1.1.>.1.5.1.:.} R +.+.1.o.:.1.:.:.1.<.o.d 1 1 - -   : i } 1.2.<.| ~ b y 8 ",
"1.1.1.1.;.X.5.1.:.1.1.1.:.:.1.1.1.1.1.:.' X.<.:.' ! I V ! +.:.+.1.o.o.:.o.1.o.V a M 1.1.:.5.Q M O.8.Q ' 1.^ x <.X.I 1.1.1.1.1.1.1.:.,.1.1.5.1.5.:.:.X.' ' ' +.5.5.:.:.>.5.5.5.7.8.1.+.X.X.+.1.5.5.5.6.8.6.6.7.,.+.[ ' ! } 1.7.5.1.' 1.:.+.X.:.X.1.7.} , X @ I B ; ; - - O ; ,.,.8.2.2.+.:.;.' y ! I x y M ^ ' ' ' :.8.8.6.5.5.5.5.6.5.8.6.6.6.y.5.7.5.6.7.8.8.6.7.6.6.6.6.6.6.6.8.5.7.t.>.[ o.>.:.} 7.t.:.1.X.I ! :.! y.:.:.Q 1.:.1.' } :.1.y.Q ! } X.' ! o.} o.t.7.6.I r - + r 5.5.5.:.1.:.:.o.2 a <.o.^ 5.8.5.5.5.6.6.1.8.+.X.5.1.X.X.;.5.5.t.>.} ;.1.7.7.+.^ o.:.7.8.o.6.6.x I 7.7.5.8.6.5.:.:.6.6.+.! x x N M } ' R N I Q ^ c R ;.R x r a - I :.a ; - r r - 1 R +.:.5.6.5.5.R : +.$.T 1 - @ N $.7.2.3.4.2.4.&.%.1.$.4.2.7.%.X.5.R o.t.1.;.x :.8.5.8.X.^ o.8.7.:.5.} ^ :.1.5.7.5.6.6.5.5.5.5.8.6.5.6.7.6.8.5.1.1.7.X.I r - @ X 3 X.+.1.5.1.7.5.5.5.5.5.5.5.5.5.5.5.6.5.5.6.5.5.5.:.:.1.1.1.1.+.,.5.1.8.o.:.5.>.5.1.1.} :.>.:.;.o.1.<.7.+.^ X.<.1.1.1.>.>.:.:.:.5.1.5.5.:.I Q ! ;.1.:.:.5.1.,.:.! a r - - + + @ F O.$.7.%.O.) N i y 8 ",
"1.1.1.5.1.} 7.1.1.1.1.:.,.1.>.1.5.1.1.1.o.:.:.;.;.<.X.I R I I I ' o.<.5.;.<.} } R y ;.1.5.7.+.U X.:.:.U X.:.c X.1.Q ' 1.1.5.5.7.5.1.<.:.1.1.1.1.6.X.Q ' +.7.5.;.5.>.1.1.1.6.5.1.X.:.1.5.1.:.:.+.+.>.6.8.6.5.5.7.:.o.} X.} X.1.5.7.;.;.1.X.X.1.X.1.4.1.8 X - R o.t 2 - - + O c ,.,.,.+.>.1.;.U N X.N I } ' >.8.5.+.+.5.7.5.5.1.1.5.6.8.5.6.6.8.,.8.5.6.8.6.6.6.6.6.6.6.6.6.6.6.8.8.7.7.,.o.' 5.5.:.X.7.8.1.7.[ I X.X.I 7.7.:.[ :.:.1.} o.} 5.5.8.Q ;.:.:.} I ' } >.8.1.1.M ; - + Q 7.5.>.:.1.1.1.x - :.:.X.} X.<.5.6.6.6.6.1.5.1.+.1.:.' :.6.5.:.1.5.+.} +.} } X.6.8.1.+.8.8.8.6.N I 1.7.,.1.:.o.;.:.:.:.t.:.I o.Q R o.! ' ' +.X.:.<.7.{ :.Q 1 - ; a + 1 I R r - V +.1.7.8.1.6.8.V r <.<.b % % - ~ 2.2.2.8.7.2.2.1.O.O.1.1.<.3.1.X.:.Q :.7.:.<.x +.6.y.;.} >.8.5.+.:.:.} o.8.5.6.6.5.6.5.5.5.1.5.8.6.6.5.,.7.5.5.5.y.<.T a 2 - O @ R 1.1.1.5.5.1.5.5.5.5.5.5.5.5.5.5.5.5.,.5.5.5.5.5.7.:.+.5.5.+.:.,.1.1.1.+.' :.>.>.5.5.' X.:.:.X.:.X.1.1.;.' 1.5.1.1.1.1.>.1.1.1.1.1.:.;.' s R +.<.:.1.5.<.<.:.I r ; 1 - - - 1 ^ 5.&.2.1.$.) N i 3 r , ",
"5.5.:.<.1.o.:.:.7.1.1.1.1.1.1.1.1.<.<.1.<.,.:.1.7.} } o.6.+.} ^ I M I ' :.o.^ o.X.r ' >.5.1.+.[ R :.1.>.R 5.! M :.1.V +.5.1.5.5.1.7.>.:.:.5.5.1.X.^ >.t.1.:.5.8.:.5.1.+.>.1.1.+.>.1.1.5.5.6.7.1.X.} [ 1.1.,.7.6.7.:.o.+.} +.:.7.<.t.X.t.O.} 6.o.1.1.6.b + @ Q 5.U t + - ; -   ] ,.2.>.,.:.X.c I { ! I X.o.X.:.8.1.:.5.6.8.6.5.5.5.y.7.8.6.6.5.7.5.6.6.6.6.7.6.5.6.6.6.6.8.6.6.8.5.8.5.} [ d.:.:.7.} ,.1.y.1.I I ' I ! :.5.5.X.[ :.7.X.o.X.5.8.8.} { :.X.:.I M ' 8.5.5.d.:.I - @ t 5.6.t.1.5.1.:.I O ' 1.s.+.o.>.8.8.6.6.5.1.6.1.;.>.7.:.' :.1.6.7.6.+.M ! :.8.1.5.:.5.1.6.8.6.5.7.x V :.8.5.o.I ' 7.5.t.7.X.' +.1.R } 7.;.5.:.:.;.;.5.;.5.T O 2 - + a a { M + a :.5.7.1.5.1.5.1.x a 7.5.x @ - r 4.8.7.7.4.7.6.7.1...^ +.} ) _ } U Q } t.1.>.1.d X.t.t.} 1.+.X.1.>.t.+.+.5.1.1.5.7.6.6.5.6.5.1.5.6.5.8.5.6.5.5.7.5.t.~ a r : - @ b 5.5.5.1.1.5.,.1.5.5.5.5.5.5.5.5.6.5.5.:.1.7.5.5.5.6.1.o.5.;.:.5.1.1.5.:.:.U X.1.>.7.5.' 1.6.} :.1.' 7.:.+.:.1.1.:.1.1.5.1.1.1.5.:.:.' ! I a } 7.+.5.1.;.<.;.I 1 + + + - - x } &.+.6.O.O.| V d y 8 3 : ",
"1.1.1.1.1.:.' :.>.1.1.1.1.<.>.1.1.1.1.1.1.1.1.1.1.<.' :.:.:.1.5.5.' ! Q R R x ' :.x N :.5.5.:.+.' } 1.1.} Q :.x ;.1.;.' 5.:.:.1.1.5.1.1.:.1.1.:.' :.5.6.6.1.>.5.5.5.5.1.>.+.} +.5.5.6.5.6.6.7.5.8.5.:.X.' } :.1.6.1.o.+.+.[ >.5.:.5.X.:.:.X.7.X.1.1.<.R - + I t.] U 2 ; +     s X.X.+.6.X.} x I 7.! :.[ ' } Q 1.:.+.:.;.>.5.6.8.8.5.,.8.y.6.5.8.6.8.8.8.8.5.5.8.6.6.6.7.7.5.8.6.5.X.R I } ' :.5.1.} 1.:.8.:.I ! ' M ! X.6.5.o.} 1.5.} } X.1.8.t.<.} o.o.;.! :.I ;.5.5.8.y.1.c @ - Q 6.6.t.5.7.5.} + M 1.8.8.;.:.1.6.8.8.5.5.6.7.5.8.5.1.1.^ ^ X.o.X.:.8.+.o.s.+.1.:.5.5.6.5.6.1.1.X.x b } ;.^ ' 5.6.6.8.5.+.} ' 8.+.I :.:.1.1.X.X.Q ' ! Q r + ; 1 + Q ;.I + - x 1.:.8.5.1.8.6.X.a R 8.<.x % + 1 } 7.5.7.7.5.7.8.5.! } 8.5.5.5.<.' I +.} :.:.5.x } >.U } ;.+.+.5.7.5.X.5.7.5.5.8.6.5.5.5.8.:.1.8.5.5.8.5.5.8.6.,.5.+.x r 1 - - r o.5.5.5.1.5.5.,.5.5.5.5.7.5.7.5.6.,.5.8.,.:.7.5.5.5.7.1.+.+.+.5.7.1.1.1.>.7.:.Q 1.:.5.5.X.5.X.:.1.:.+.1.:.+.1.1.1.:.1.1.1.5.1.1.1.1.X.I d 1 ' 1.:.1.1.:.:.' I 1 - + + - - M <.5.5.1.1.o.} T d 8 y y , % ",
"1.,.1.:.5.1.} +.5.1.1.1.1.:.<.1.1.1.1.1.1.1.1.1.1.1.} ' :.7.1.7.5.;.X.5.:.:.R N I y x ;.5.1.1.:.o.' ;.:.1.I o.R d 5.p.} o.8.:.;.1.<.1.1.o.5.:.! +.1.5.5.6.1.>.5.5.1.5.5.1.:.[ } 5.7.6.6.5.5.1.1.5.5.5.5.' } ' ' :.8.5.+.1.X.' 1.:.+.1.;.+.+.1.:.X.<.:.R : - c 7.] ,.c ; - - O ; M U X.,.8.:.x ' <.Q 6.:.' Q ' ! ! :.1.7.5.1.5.6.8.6.>.,.>.:.+.;.<.1.5.5.t.5.8.5.1.7.t.5.+.+.8.+.N U 1.6.6.8.o.[ [ I ' ' ! [ I X.' R ' ] 7.5.} ! 1.+.Q } Q :.7.8.8.+.' +.o.+.X.' +.5.8.5.5.6.+.r + r <.7.7.y.5.<.:.a r 7.t.8.1.:.:.t.7.7.8.,.7.t.5.5.1.1.:.! 1.5.8.8.8.8.t.^ +.:.^ :.5.7.t.5.5.:.o.;.:.b y } 1.! 7.y.5.1.1.+.X.! 1.1.' N X.;.7.<.b x ' ' I + - a r - ^ ;.r ; r M 8.1.8.5.5.5.8.^ 3 1.8.;.a - - - M 1.8.6.1.:.5.8.+.O.5.8.6.6.6.6.X.' :.:.7.+.>.N } M I 1.<.5.5.1.5.+.+.5.6.6.1.6.5.5.6.6.6.1.1.6.5.7.,.5.5.5.7.5.>.M r r + - ; ' 5.5.,.5.5.5.5.5.5.5.6.,.6.6.6.,.5.5.6.6.1.>.6.5.5.5.8.:.+.:.5.5.7.5.1.1.5.1.s.Q +.5.8.' <.X.:.1.5.1.O.1.+.1.5.1.1.1.5.5.5.1.1.5.5.:.! ' x b 1.1.7.<.:.,.X.a - - - - - - Q :.1.1.:.1.1.X.T v r 8 y , , % ",
"1.1.1.1.<.7.;.X.1.5.5.1.1.1.1.,.,.1.1.1.1.1.5.1.1.1.o.' ;.1.1.5.:.<.X.X.7.:.} ' I r r o.6.:.1.X.+.X.o.7.1.1.R } x o.7.:.{ <.1.:.:.1.1.:.X.:.[ ' >.5.5.5.5.5.1.5.1.5.1.5.5.5.:.:.+.+.1.5.8.6.8.8.8.6.1.:.<.8.1.X.' X.1.+.} } Q ' } X.>.o.} ^ 5.<.+.<.1.^ 1 @ y >.;.;.;.2 ; - O + r 1 : r c N I ,.;.^ 1.7.7.+.X.+.X.1.:.;.X.X.:.5.5.5.o.' X.+.;.:.+.+.+.o.X.:.1.8.8.5.1.:.1.;.R M } 5.6.y.8.5.[ ^ X.' :.1.[ x I I R 7.o.I 5.7.' I ;.<.} :.' <.1.>.t.1.} X.} 5.' o.+.:.y.7.8.8.5.R ; + I 7.:.7.5.5.<.M 1 :.7.7.t.,.o.7.t.1.1.+.1.t.5.5.1.X.X.:.6.6.8.8.8.5.6.;.Q ^ +.t.8.5.5.8.1.1.1.s.5.7.R a x ! 7.5.t.5.t.1.+.' X.:.y.I M 5.:.! } R I x ; r I ^ a c a a - b I I 8.5.5.5.5.5.6.Q 2 o.5.' 1 - - - 3 :.7.5.:.1.5.8.+.+.8.6.8.5.>.1.} } X.+.5.:.7.V y U 1.5.5.8.5.5.5.} >.6.5.7.6.5.5.5.6.5.5.:.5.7.5.7.6.8.8.5.8.7.} t 1 r + - M <.7.,.5.5.5.5.5.5.5.5.7.6.,.,.6.6.5.5.7.6.1.+.6.1.5.5.t.o.} +.X.:.:.5.5.<.1.5.>.+.' :.:.! :.X.5.5.5.:.X.;.X.1.5.1.1.5.6.5.5.5.5.:.;.! R I y R 1.1.,.:.7.^ r 1 - - - + r ' 1.7.1.,.1.5.;.I x y 2 8 8 : : % ",
"1.1.,.5.1.1.1.+.:.1.5.1.>.1.1.1.1.1.1.1.,.5.1.1.1.1.<.' ;.1.<.1.1.<.o.<.:.+.I ' { c 1 V +.+.1.+.} 5.' 5.1.1.;.^ ' M t.5.+.[ 5.5.+.1.1.5.<.^ N <.5.5.5.6.6.5.5.5.1.5.1.5.1.5.5.1.1.:.:.1.5.>.:.+.+.+.+.+.5.5.8.8.<.X.} ' Q } +.Q o.:.^ +.o.R 1.:.<.+.5.X.r + r y.;.>.,.U ; ; ; + + r s a r @ r U ! ' 5.y.6.>.+.' U ' +.5.5.1.7.5.1.:.+.;.5.t.t.t.8.6.5.1.:.:.+.:.5.:.+.1.' I +.8.,.7.t.,.5.+.+.1.7.' { X.! M x Q :.y.:.I ^ 5.} ' 1.5.^ ! Q +.:.:.5.t.>.o.^ :.' } +.} X.;.1.8.5.5.a + ; Q X.} o.;.;.R ; I 1.,.7.6.o.:.5.<.+.} X.+.X.:.X.} 5.8.8.8.8.5.5.5.t.,.Q x R } 5.8.5.1.1.5.5.1.8.8.y.o.y 1 I :.t.8.5.:.+.:.^ 5.5.7.T Q ' ! b 1 1 ; r [ :.! a X.a - x } ' I 8.5.5.7.5.5.1.I y I 5.R ; - + r - I 8.+.8.5.5.5.+.1.5.7.8.5.:.:.' } :.7.1.:.1.x 1 +.6.1.8.8.5.t.;.+.8.5.5.5.6.5.5.6.5.5.1.1.6.6.6.5.5.7.,.7.7.<.M 2 2 - - a :.1.5.5.5.,.5.5.6.5.7.,.6.5.6.6.5.5.5.5.5.6.>.:.7.5.6.5.8.} ' :.+.o.o.1.5.1.1.1.7.X.:.' ^ ' +.1.5.:.5.5.X.} 1.8.1.>.:.<.:.5.5.:.} } +.:.+.' r R :.:.:.:.I r - - - O ; b ;.<.7.1.<.;.{ I I M y r 2 8 , % @ @ ",
"1.1.1.:.5.:.5.;.;.:.1.7.1.>.1.1.1.1.1.,.1.1.5.1.,.1.7.' +.5.1.1.t.1.:.o.' ' ' } <.;.1 x +.+.X.^ Q +.' } 1.1.7.' ^ s X.t.1.' :.5.1.:.:.:.5.Q Q ;.:.>.1.1.5.5.1.5.1.1.5.5.1.5.1.>.5.1.>.1.:.1.1.>.:.1.5.5.6.8.5.5.1.;.' Q I R :.' I 7.5.Q X.^ +.1.<.;.5.:.y + 1 <.;.o.6.2.t ; + O O a ] ;.I s r - ; Q :.5.t.t.:.' ' >.>.1.1.5.5.1.>.5.7.5.5.5.5.5.5.8.8.t.s.6.6.+.Q } ^ R ^ :.6.1.1.5.5.>.' 1.1.5.7.' ' ' I a M X.6.1.7.U M +.Q ' } } ! ! R ' :.1.;.:.5.:.} X.' } } o.Q } X.+.1.5.R - + x ;.;.X.o.} ' a r +.:.:.7.:.' } :.} ;.;.X.^ I I I R X.6.7.5.5.1.>.} ' [ [ [ ' ^ 1.t.1.:.8.5.1.8.8.t.{ ' ' a y R ;.1.5.+.:.Q <.5.<.! x r + - 1 a + I <.<.x R ;.r - ' X.;.I 8.5.5.6.7.5.1.x I ! o.M - - - r I y 1.:.8.8.5.:.+.8.5.5.8.5.:.+.' R } :.} } ' x Q 1.5.5.5.7.8.5.o.:.t.5.8.5.6.6.6.5.5.1.1.1.8.5.5.6.5.5.5.8.<.! y 1 1 O r [ 1.7.5.8.5.6.5.5.6.6.5.6.,.7.5.5.6.5.5.5.5.6.1.:.6.5.6.1.+.o.1.6.6.1.o.:.5.1.5.1.t.[ 1.' N X.1.1.1.>.6.8.} M +.5.5.1.:.;.+.,.>.X.} :.5.1.:.! a ! ' 1.;.I ; ; O O O 1 I 7.<.<.:.:.{ I M M N x 8 2 2 2 : @ @ @ ",
"1.1.5.1.1.1.5.:.:.:.,.1.5.<.1.1.1.1.1.5.1.5.1.1.5.1.5.o.X.7.:.<.1.1.7.:.[ 1.;.R :.7.a a Q :.5.5.;.' +.^ o.:.:.1.;.x c 5.7.+.' :.7.:.1.>.:.' 5.:.1.1.5.1.5.5.5.5.1.1.5.5.1.7.5.1.1.5.>.5.1.1.5.5.6.5.6.6.5.6.5.>.+.o.<.1.:.^ R ' Q I <.5.' ^ ' 5.:.:.<.5.I O + ' ,.' u.,.] 2 + - O : U ,.M :.} ' r r x R +.1.8.' V :.5.7.6.5.1.1.1.8.6.5.5.8.t.8.8.8.8.6.t.6.5.X.' 1.<.1.5.5.6.8.:.t.5.X.1.6.1.t.7.Q R R x I } :.8.1.6.} I :.I I R } } ;.} } ;.1.1.+.:.1.:.X.' } ' 1.X.5.5.1.:.! { x O ; U 7.1.1.{ Q I - ^ o.:.:.;.} Q X.:.6.7.X.:.1.X.Q Q ^ } X.[ Q Q ^ ^ :.1.>.1.7.X.R X.t.+.7.1.1.5.8.o.} 8.7.<.} b d a c I ' ^ ! I r : : ; s Q ;.I a ;.;.:.a <.I - x R ' <.I 6.6.6.5.8.1.:.x ! ;.Q M : - - a 8.a ! t.5.6.5.+.>.5.5.6.8.1.:.} ;.} 1.5.' ^ } r ' o.t.7.1.5.6.;.:.5.8.5.5.5.6.5.8.5.>.>.:.1.8.5.6.5.6.6.5.7.X.c 1 r - O c :.1.8.6.8.7.5.6.6.7.6.6.6.5.5.5.6.5.5.5.7.5.6.1.:.5.5.7.:.+.>.t.5.5.5.1.1.1.5.5.1.1.o.+.:.b :.<.5.5.5.8.1.' a b ^ 1.t.:.1.:.} :.1.:.5.:.5.<.I I 1.^ ^ x - 1 - - O r Q :.<.<.7.:.I x I I I c a r 1 1 : % @ X @ ",
"<.:.:.1.1.1.1.1.:.<.1.1.5.1.1.,.1.,.5.:.1.1.1.5.1.1.1.,.} 7.:.1.1.1.1.:.o.6.;.R o.1.M I X.X.y.5.<.:.o.} ' :.;.1.:.! a o.6.5.} o.>.7.1.:.+.[ 7.1.5.1.1.1.1.5.1.1.5.5.5.5.5.5.5.1.:.:.:.1.5.5.5.7.6.5.5.5.5.6.6.1.:.1.1.1.<.;.{ ^ I c R ;.:.^ R o.:.:.;.5.I O + I :.Y 0.8.,.x + - O O r U x 7.:.1.I ' x - - ; - 2 3 ^ 1.7.6.6.5.1.5.1.>.:.1.5.6.8.t.7.5.t.1.:.X.1.1.8.1.5.5.6.6.6.t.>.+.1.5.t.5.5.} b V ' x ' :.} t.5.:.:.R } o.! V } :.' ;.<.X.X.8.5.X.X.8.5.^ ^ ' X.>.X.6.5.5.} ;.' - + @ I 7.1.5.o.' @ I :.:.X.:.:.o.^ >.6.:.t.+.:.5.;.[ +.t.8.7.>.:.5.5.5.5.7.:.1.5.X.Q Q :.1.6.6.1.o.' 7.y.t.t.8.t.:.' I a r r - 2 r s M o.R 8.R 1 ' <.7.b I ' 1 y ;.R I :.I 8.5.5.8.8.8.R r <.' Q V ; - - r ;.R r X.8.6.1.:.5.5.5.8.6.1.X.X.5.} X.:.o.1.;.s ! :.;.1.5.t.5.X.1.8.5.5.5.5.8.1.5.1.5.1.:.5.6.5.5.6.6.5.7.;.I r - ; + r X.1.5.5.6.6.6.7.6.6.,.6.5.5.,.6.5.5.5.6.5.5.6.6.1.:.5.5.,.:.>.6.7.5.7.1.5.1.1.1.1.7.7.+.:.} V ;.5.5.5.6.:.;.1.} I r x +.y.;.' +.5.5.7.1.:.:.:.x ! :.I r 1 - - - O - [ 7.:.<.;.I r M I M I M a r 1 - : % @ @ X X ",
":.:.5.1.1.1.1.:.:.,.:.,.:.5.<.5.5.1.1.5.,.5.1.5.5.1.1.1.} :.,.1.1.1.1.:.[ t.:.} X.:.R x 7.[ X.1.>.8.;.<.[ ,.1.1.:.1.c s ' :.:.^ ' ;.:.5.} } 5.5.5.5.5.1.1.1.1.5.5.7.5.5.5.5.5.5.1.1.5.1.5.6.6.5.6.6.5.6.7.6.8.5.1.1.1.8.7.1.o.o.X.:.b I Q ;.' ^ ;.7.;.1.;.; O a ,.! ,.2.6.] t - - O O r I 7.1.:.' 7.' X.' R ^ ' X.1.1.7.6.6.5.5.6.1.>.:.:.1.5.6.6.8.8.:.+.5.6.6.>.6.5.7.5.6.6.5.8.X.+.5.8.5.:.} ' Q X.I a o.1.X.:.1.;.:.Q ^ :.<.o.Q } ' o.o.} +.:.:.} X.5.7.1.^ I o.t.} 1.8.8.8.;.:.I ; @ ; I :.7.:.o.a y 1.;.;.} ' ' Q R o.1.1.5.+.:.t.1.+.5.5.5.1.1.5.8.1.5.6.7.1.5.t.:.Q R 8.1.1.o.+.6.i.8.6.8.8.7.8.y.t.:.I ; x N R ' ;.} I I a M <.5.' r ! r - M a.;.M { ! 1.5.8.5.8.' x ^ o.' ' M ; + - r 1.:.a M 5.7.+.1.5.8.5.8.5.:.' 1.7.;.' :.5.7.:.a ' 1.5.+.7.6.o.+.1.5.5.5.8.6.5.5.1.:.1.o.o.1.5.7.5.6.6.6.,.Q r 1 - + r ' 5.5.5.5.6.6.6.6.6.7.6.5.5.5.6.6.5.5.6.5.5.5.5.5.1.+.5.1.:.>.6.6.7.5.6.5.1.1.1.5.5.1.1.+.:.' :.' X.5.<.5.<.} :.^ Q x r r x I X.7.1.1.:.:.8.5.X.a ' c r r - O O ; r x ;.;.[ R I c M a r I I x r 1 : - - @ @ O X X ",
"} o.:.1.1.1.:.1.1.1.1.5.5.:.5.:.5.1.1.5.1.1.1.,.1.1.1.:.o.;.1.1.1.1.5.:.} :.1.>.} :.! 2 7.5.Q ,.1.1.:.<.X.} 7.7.1.:.^ a Q N N ! Q 1.1.,.' :.1.5.5.5.1.1.1.5.5.,.1.5.5.5.5.5.5.5.1.>.7.>.>.6.6.5.6.6.5.8.1.1.8.5.<.;.:.7.5.5.:.Q } R o.R R ' o.X.' ;.X.:.:.r O + o.^ +.,.8.,.N - - - + + U 5.;.Q R ;.' :.:.1.;.:.} 1.1.5.6.6.6.5.8.6.7.5.5.5.1.5.8.5.+.:.6.6.6.t.>.:.5.7.6.6.7.8.X.+.5.5.5.:.:.' o.X.X.' a X.8.^ X.1.5.5.Q ' d.;.y.{ V V X.:.<.8.X.5.;.X.>.1.X.Q M o.1.5.<.8.1.t.:.5.:.r + 1 - x :.t.o.R : } 1.5.o.;.[ R R I :.7.:.+.<.8.:.:.1.1.5.8.8.5.8.8.7.5.6.5.1.5.6.1.^ I +.o.} 5.6.6.8.6.t.t.8.y.5.5.<.R a I N ' o.:.;.:.a ; R { 5.b b x - M ! 7.5.M N I 8.5.1.5.>.x I 5.! t.;.x - + + r t.5.;.R 5.5.X.5.5.6.5.7.:.:.' 5.+.:.:.8.t.1.1.a 1.O.1.:.<.:.o.5.5.5.7.8.8.5.5.:.1.>.1.+.:.+.1.8.5.6.>.t.} a r - + O I 1.5.5.5.7.,.7.7.6.6.,.6.6.6.6.5.5.8.5.5.5.5.1.5.5.>.+.8.;.:.5.5.6.5.5.5.5.5.5.5.5.5.,.7.o.} } 1.+.X.1.X.X.^ ' 1.' :.5.+.I r - I ,.7.:.:.5.:.:.I r x 1 1 + - + r I r x I I x ^ ;.I a R [ I c a r 1 - : @ X X X . X ",
"5.1.1.1.1.1.>.1.1.1.1.1.1.1.1.1.1.5.1.1.5.,.1.1.5.1.5.1.:.X.1.,.1.1.1.1.+.X.<.1.X.:.^ r 1.5.} ' 1.:.8.:.+.' X.:.7.;.:.V I 5.' ^ d I :.:.' ;.5.5.5.5.,.5.5.7.5.5.1.5.5.>.>.>.>.5.5.1.1.>.>.1.5.5.6.6.5.5.1.1.5.5.1.1.} +.6.7.>.[ ' ' M I r y I I ^ } ;.:.;.r - O Y ' ' y.2.8.o.t - - - O I ,.;.M +.,.,.5.,.6.>.1.X.6.5.1.5.6.5.7.5.5.5.5.5.5.6.1.;.+.:.5.7.6.5.6.1.5.6.6.7.7.5.1.+.5.5.7.:.,.>.:.5.} Q ' c } :.} o.5.7.s.' N t.1.5.X.Q R +.1.>.:.+.1.8.+.} o.o.o.I R 7.5.:.t.1.7.1.5.1.' - @ 1 - x 5.7.X.r R <.1.<.t.o.o.} ^ R o.:.} X.:.1.6.:.:.5.8.6.6.6.5.7.8.t.5.>.7.8.5.1.^ c R 7.8.7.8.7.i.8.5.8.5.5.s.:.x I I I ;.1.1.7.N r ' ' I I r 2 ; r [ ^ X.} N x r ' :.7.7.c N :.! :.:.:.r + O ; x 7.7.>.6.5.+.;.5.5.5.7.:.+.+.:.1.+.5.5.6.8.5.:.x 5.:.[ 8.1.+.>.t.1.5.6.6.7.5.1.1.6.1.,.,.5.:.,.1.5.6.5.1.V 3 1 - @ a +.7.5.7.5.5.8.5.5.5.6.5.6.6.5.6.6.5.6.5.6.5.6.5.1.5.+.+.5.:.1.5.5.5.5.6.5.6.5.5.5.5.6.6.5.+.R X.5.6.' I } Q +.7.t.[ 1.o.X.+.+.b r s ^ :.1.1.7.:.I r - ; - - - I I I [ } I I { R 1 1 ' O.R V s r 1 : % % @ X X . . X ",
"1.1.:.:.<.1.1.:.1.>.1.1.1.1.1.5.1.1.1.5.1.1.,.5.1.1.1.5.:.} 7.:.1.1.>.1.:.' :.:.X.;.} r +.1.1.' } 1.7.5.1.<.R +.5.1.X.X.y ;.5.:.:.x R M ' 1.>.5.5.5.1.5.7.6.5.5.5.5.5.5.:.;.+.;.o.o.+.5.6.1.5.7.7.5.5.5.6.5.:.1.6.5.:.{ :.7.:.X.R R I b a r r r a r c I c O O + Q [ c ,.8.8.,.D ; - - + a ;.X.U 2.2.5.5.6.2.:.,.X.>.5.1.5.5.6.6.8.6.8.8.8.5.6.1.+.>.6.t.8.8.6.8.1.1.8.8.t.6.5.>.7.5.6.>.>.6.+.5.1.' } R ! t.' ' ' 5.1.5.+.I :.>.1.+.^ ' X.+.:.:.:.o.1.^ R 1.5.+.;.R R ' o.1.7.8.5.8.;.1.I @ : r r r :.<.N a X.5.t.1.1.1.:.} o.V 1.' [ } :.7.:.>.5.6.8.6.6.5.5.1.:.1.5.5.8.t.} ' } Q R o.6.8.8.1.6.t.8.8.8.:.R a I ' 1.5.t.8.^ 3 I :.:.:.M O - r b I x ^ ! Q ' s I c I I t } ' [ 5.5.<.r O O r M 1.5.>.5.1.[ 1.1.5.5.5.o.+.;.5.+.5.5.6.>.7.6.:.s i.:.+.>.1.} 1.6.5.t.6.7.1.1.<.8.,.:.7.6.5.7.5.5.7.5.8.^ r 1 - O 3 } 7.7.8.5.6.6.7.5.5.7.5.6.6.5.6.5.5.6.5.6.5.5.5.1.5.1.:.o.+.1.8.5.5.5.5.7.5.5.5.5.5.6.5.6.1.:.I 1.:.' ;.I Q ' o.1.5.' ' +.<.5.:.1.' s r a } ,.<.I 1 r - - O 1 I ^ I } I I I I a a I s V } T x y 1 1 % % @ X X X X   X ",
"' ' ' ' X.+.<.1.1.1.5.:.1.1.1.1.5.1.1.1.1.1.5.1.5.1.5.1.:.[ :.1.1.1.,.1.1.>.X.;.<.X.X.r X.:.1.<.' :.1.5.:.} Q R :.+.;.1.x M <.1.8.o.' R x 7.7.7.5.5.5.1.5.5.5.5.5.5.5.5.5.7.6.5.5.:.+.X.+.:.:.1.5.5.5.6.6.5.5.5.5.6.1.X.X.>.6.U R o.^ :.^ x c I R a I ' ^ c + O U ] c +.6.,.i.] t ; + - 1 :.] ' ,.8.6.6.5.2.>.:.X.+.5.6.:.1.7.5.8.5.5.6.8.8.5.1.5.6.7.6.6.6.5.8.5.+.5.8.6.6.7.1.5.6.>.:.8.:.>.1.7.Q +.Q ;.t.:.^ ^ 1.:.^ 5.Q >.:.y.:.' X.1.X.8.t.1.1.I R :.8.8.6.o.o.b ' ^ ' :.7.5.8.8.5.5.I - + N a a ;.^ a ;.7.:.t.7.5.8.1.X.' R ;.:.' ! ' 7.:.8.5.t.5.5.6.5.1.:.:.X.1.;.X.! 5.:.t.} I R +.i.8.5.1.+.>.>.o.a ! 5.1.7.7.5.+.a V 1.t.7.y.x O - U :.;.' 5.5.7.6.I U :.N r ' ' +.7.5.7.;.r - O x Q +.1.>.7.:.+.6.8.5.5.5.} :.} :.7.5.5.,.>.6.5.X.M 6.:.6.o.o.+.6.1.5.6.6.1.:.5.8.:.1.5.8.y.8.7.5.1.5.8.;.a - - - @ B 8.5.8.1.5.5.5.6.5.6.6.5.8.5.6.5.6.7.5.5.5.5.5.5.5.5.1.+.X.1.5.8.5.5.5.5.5.6.5.5.5.5.5.5.5.5.} ' <.:.:.1.^ y c V M ' I ;.1.5.5.7.5.7.7.! r 2 x I O 1 O O - ; ' ^ I I r O r r a } :.8.<.} R x r r , % o X   X X X o @ 1 ",
"+.:.1.:.;.o.X.o.;.:.1.1.1.1.<.1.1.1.1.1.1.5.,.1.1.1.1.1.1.X.:.:.>.1.>.>.5.7.o.X.+.o.X.r o.:.1.:.;.' 5.+.1.5.:.' ' } <.5.! a +.1.8.:.' :.Q R ' :.1.1.1.1.5.5.5.5.5.5.5.5.5.6.6.5.5.7.6.5.1.:.' ! +.8.6.5.6.6.5.5.1.5.:.X.+.' ! Q ! ' ^ ;.:.' x c ! ;.^ ^ X.I - + 2 c x U 6.5.2.$.Y 2 ; 1 O M ^ :.8.,.8.6.6.,.>.5.+.+.>.>.:.+.:.5.t.5.6.8.6.5.1.1.5.8.6.t.6.8.6.6.1.:.5.8.8.6.5.5.7.5.1.5.5.;.1.8.:.' R X.1.1.8.X.[ :.6.X.>.:.o.:.1.5.Q +.5.1.:.6.1.:.o.+.+.1.1.6.' ^ R X.t.;.1.:.} :.1.1.7.1.r O r ;.x a } } <.:.:.5.1.:.X.X.^ o.o.o.1.:.1.' +.' 5.t.5.6.8.8.8.7.>.o.U I ' 1.5.:.1.7.7.1.^ I U Q X.+.+.X.+.d N <.:.:.1.' ;.R x 1.t.1.5.R + @ V >.:.:.' 5.7.5.8.' a X.N M I ' 7.t.7.5.;.r - O I ' +.1.>.>.+.>.6.7.5.1.+.} } ! +.5.t.t.>.:.5.5.[ c 8.>.8.X.' 1.6.5.5.5.1.>.5.5.;.:.,.5.5.5.y.5.1.5.6.,.N 1 - @ O a +.7.<.8.1.5.5.5.5.6.5.6.5.5.6.5.6.5.6.5.5.6.6.5.5.5.5.1.} X.5.1.8.1.5.5.5.5.6.5.5.5.5.5.5.8.1.' } 5.5.} } :.o.;.>.! x I 1.5.1.1.1.1.5.>.7.o.N r 1 ; O + O O 1 r - - 1 - r I } :.<.1.<. .^ b y 8 , % @ @ X X o X i 8 3 E ",
"t.5.1.>.5.6.7.1.+.;.1.1.1.1.:.:.1.5.1.1.1.,.1.5.5.,.1.5.5.X.X.:.>.1.1.1.5.7.:.' V Q ^ r } <.:.1.5.X.^ :.>.5.1.} :.! } 1.t.c R <.5.8.X.^ 7.1.! ! ,.7.5.1.5.5.5.5.5.5.5.5.5.6.5.5.5.7.5.6.6.5.+.X.X.X.+.5.5.5.7.6.7.5.o.X.[ I I I R ' R V I ^ X.I R ;.7.{ I x - + O I ,.:.^ ,.u.$.>.c - - O ; U 6.,.2.6.6.6.6.>.>.>.[ ^ } ;.:.:.5.5.5.6.8.6.5.1.1.6.8.8.8.6.y.6.,.1.5.1.5.8.8.1.5.8.6.5.6.:.+.5.7.:.^ V +.+.8.6.1.[ +.8.o.7.5.' +.:.1.R X.7.8.+.:.<.1.:.X.o.1.1.5.! ! R R 1.o.:.p.<.} } ^ :.y.5.: O x :.a 2 ' ' ! } ! ^ ;.1.;.N } ;.^ Q o.:.R ' x V <.t.i.t.6.5.1.X.' ' } +.:.1.5.+.5.:.+.:.t.:.Q I I 1.d.s y ;.1.t.' +.:.s.c ^ 7.8.8.;.r @ x 1.y.8.1.' 5.8.5.8.1.M c M ^ N 1.t.5.y.7.X.r - + ^ X.;.1.5.:.o.8.5.5.5.:.' ;.Q +.8.1.6.7.:.>.7.7.! M 8.>.7.X.' t.7.6.5.1.>.6.1.o.7.,.1.5.5.8.8.6.5.8.5.! 3 @ - @ 2 } 2.1.1.4.1.5.5.5.6.,.6.6.6.6.5.6.6.6.5.7.5.5.8.8.5.8.5.:.} >.5.5.1.1.1.5.5.1.8.5.5.5.5.5.5.1.+.X.8.:.} } +.;.X.;.} :.5.V X.7.>.5.7.6.7.y.7.} s 1 - + - - + O O O - r I ' ;.:.7.:.:.5.} Q I y 2 2 , % o o o X o d E 8 _ 1.",
"+.7.,.5.1.1.1.1.5.1.1.1.1.1.1.+.:.5.1.1.1.5.1.1.1.1.5.,.1.;.{ :.5.5.1.5.7.,.5.;.R I x r ;.,.;.5.1.1.' ^ 5.1.5.:.<.o.} o.1.' M o.1.1.7.' } :.,.X.Q X.>.1.5.5.5.7.5.5.5.5.5.7.6.7.6.5.5.5.6.>.>.6.6.>.+.X.+.1.5.6.7.1.o.o.o.o.[ ! Q } Q I b M Q Q I ^ <.;.;.I + O   t } 5.;.' >.,.,.] 2 - ; - I ,.,.5.2.8.6.5.>.6.X.} :.;.1.<.1.5.7.7.8.6.5.5.1.1.6.8.8.t.5.8.6.5.1.5.1.5.6.8.5.5.6.6.6.>.} 1.7.>.1.V ' ;.>.y.8.1.o.[ >.1.5.1.X.:.1.:.' X.6.1.1.:.X.1.:.X.>.1.y.1.} o.! ' ;.X.' :.:.:.5.+.' } y.X.1 + ! :.x r I o.1.1.1.1.1.} Q ' Q R V M N ' X.X.Q U R } ' ' ' } } +.5.>.+.+.+.;.+.5.8.8.:.8.t.8.:.^ ! I s ' :.1.} 5.i.6.} a <.t.t.p.Q @ a } 7.7.8.:.! 1.6.+.6.8.Q x I I } ^ X.1.:.5.' 1 - - ' I ' } 1.} } ^ ' ' ' Q I +.^ +.1.8.5.:.>.7.7.1.' M 1.5.+.' +.5.1.>.>.1.5.5.,.1.5.7.7.7.5.8.6.7.5.8.o.x 1 -   % F 5.5.5.2.2.1.5.5.5.6.6.6.5.5.6.6.5.5.6.6.5.5.5.5.5.5.5.1.+.} 1.1.:.:.:.<.8.7.5.5.5.5.5.5.5.5.1.o.Q } ' o.;.5.+.R ! ;.:.8.M :.:.5.5.>.7.1.<.U r @ - + + - O - 1 ; r I ;.:.<.7.7.5.7.5.:.Q V v r : , % @ o X o X 8 W i F 1.$.",
"' :.5.1.1.5.1.1.1.5.1.1.:.:.1.:.,.7.:.5.5.1.1.1.5.<.5.1.1.5.' :.5.5.5.5.7.7.1.<.X.X.y x 5.1.:.1.1.>.5.Q +.7.1.;.<.:.1.:.X.o.c } ;.1.5.1.} +.7.5.5.Q ' >.>.5.5.5.5.6.5.5.5.6.6.6.5.6.6.6.5.>.:.5.8.6.6.8.1.o.o.:.<.5.:.} ;.1.' o.;.:.} 1.>.' ' o.a I X.! a r - + ;   M :.,.+.^ >.X.o.x - - - x ,.,.2.6.8.6.5.5.:.[ 5.1.1.1.1.5.1.5.6.6.7.5.5.5.7.8.8.8.8.8.8.8.7.5.5.6.1.5.6.6.6.5.6.6.+.+.5.6.6.+.U +.:.6.6.t.,.;.X.X.5.5.7.:.+.X.1.' :.t.1.5.5.} X.1.+.5.:.8.5.:.;.[ ' ' } ' o.o.+.5.t.+.+.' 7.x   x o.;.I r N i.<.8.7.8.:.+.:.1.<.X.I x M R } 5.1.! 5.i.s.8.7.6.5.>.6.:.1.:.' ' t.5.+.8.t.8.8.t.7.Q : Q y.o.' :.5.1.t.M Q 5.1.:.N : 2 ! :.>.:.<.+.! } 5.1.6.1.[ I y :.:.<.<.;.:.:.' 1 ; r :.! X.o.+.I ^ <.5.1.;.{ R M I :.} X.;.>.7.7.1.7.' M 7.1.! X.o.X.X.;.5.5.>.X.;.:.;.5.8.6.8.5.7.1.5.<.I r % @ @ d o.5.2.6.5.1.6.2.5.7.5.6.6.6.5.6.5.6.7.5.5.5.5.7.1.1.1.1.:.{ ^ 1.<.8.8.5.1.8.6.5.5.5.5.6.7.5.1.' ' I [ 1.5.1.' d r a x s ' Q ^ 7.7.5.5.7.;.I r ; + - O O + r a a c ' ,.;.,.7.7.7.:.,.;.' I c s 8 : % % o X X X , W d V O.2.1.",
"[ Q } 1.1.1.5.1.1.1.1.5.>.+.>.:.:.5.,.5.5.1.1.5.1.5.5.1.1.1.I X.1.1.5.1.8.1.7.5.{ X.y x 7.1.,.5.5.1.5.:.^ >.:.1.1.;.1.5.X.' R R o.+.1.5.+.X.:.1.1.5.} ' +.1.5.5.5.5.5.5.5.6.5.5.6.6.5.6.5.>.:.,.1.5.8.6.6.8.1.+.o.:.+.} 5.5.I ' ' Q R >.1.:.^ o.:.Q a c R x - - c ; - Y >.,.! U U >.! t - @ 2 ] ,.5.2.6.6.,.[ +.>.+.:.5.1.5.8.:.+.5.5.5.5.5.6.8.8.8.8.8.8.6.8.5.1.5.6.>.5.8.8.t.5.8.6.+.1.6.6.t.[ ' o.X.6.5.6.7.<.:.' :.8.5.>.} ' 1.Q 8.t.5.1.p.;.X.5.+.t.8.1.1.7.>.:.+.} ^ ' 5.6.:.5.6.8.1.:.X.R 1 - o.<.1.' r a X.8.6.1.+.t.1.:.:.{ :.[ I x R ^ 6.5.R :.8.t.7.7.5.+.:.[ :.:.X.+.o.:.8.:.1.s.8.t.<.M r { t.5.1.5.1.7.:.r ;.:.' x a - I 1.+.+.1.>.;.' M } 5.7.>.Q I M :.5.1.:.;.[ ' I 1 - r <.' :.1.;.^ <.5.8.7.:.+.o.! [ ' X.^ ! X.5.:.;.5.! x 6.' I :.[ ' ! o.1.;.! ! Q Q :.5.5.8.8.6.5.7.5.{ a 1 - X 3 { 7.5.5.2.5.2.6.5.5.5.5.6.6.6.6.5.8.5.6.6.5.5.5.5.1.1.1.:.;.^ ^ >.>.8.5.6.5.5.5.6.5.1.5.8.8.5.;.I ! ' 1.5.X.V I X.:.:.;.^ r Q V 5.7.5.>.X.x ; O - O - r 1 1 M R ! 1.t.:.7.,.7.7.,.,.:.' I M v r 2 : % X o X o : W B p _ 4.%.1.",
"1.;.' } :.7.5.1.1.5.1.1.1.:.:.:.:.:.5.1.1.1.1.1.1.1.5.1.1.<.' ' 1.:.1.5.7.1.5.1.;.! a b 5.5.:.7.1.1.5.1.} R ;.:.:.;.:.:.6.} ' y X.X.;.:.1.o.:.7.1.5.>.:.X.X.>.7.6.,.,.5.7.5.6.6.t.6.6.5.5.5.>.5.5.8.8.5.5.5.1.:.;.' Q } } X.^ ;.:.1.} +.5.5.+.^ ;.X.x b o.I - t U t O r [ [ ^ Q Y ] ,.M - 1 + c +.,.6.2.u.>.! 5.,.+.1.6.6.6.6.5.5.>.1.5.5.7.6.6.8.8.8.8.5.y.8.5.5.6.8.1.5.8.6.6.1.t.7.:.5.6.6.7.} } } { 5.,.1.5.1.:.X.+.1.7.1.' } X.o.5.t.5.7.t.5.:.1.6.t.6.1.1.7.1.1.} :.^ X.;.8.7.1.5.5.5.1.1.:.x - } 1.7.5.} M 3 N y.1.>.5.:.' ' } ' ^ X.' V N <.t.} I ' } o.1.:.} :.X.' +.8.t.6.} ^ :.6.6.t.:.b I ' ' y.5.>.' <.y.V I +.I V o.x r :.5.5.t.y.7.5.5.U I [ ;.[ ! ;.! X.:.<.;.5.5.<.b - r r 5.X.o.8.} o.>.5.5.7.1.1.:.+.1.o.' X.R ' o.1.<.1.R x ' I +.5.X.I M I R R o.:.X.+.<.:.7.7.6.6.7.6.o.M 1 : @ : ^ 7.<.7.7.5.2.7.5.6.5.6.6.7.,.6.6.6.7.6.6.y.5.5.5.5.t.>.7.5.1.[ } >.5.8.5.6.7.6.8.5.8.8.6.6.+.o.Q ' ^ ;.:.X.Q } :.5.1.1.1.7.I x x ;.7.;.Q t 1 - - + - M b 1 a ^ ;.<.7.1.,.7.,.,.;.,.!.' I M x a r 1 - % X @ o = V ) i ) 1.&.1.<.",
"5.:.o.Q +.:.:.1.1.1.1.1.1.:.:.;.:.:.>.1.5.1.1.5.1.1.5.5.5.1.X.} 1.+.X.5.5.8.5.} [ x r I ;.5.7.1.1.1.<.1.<.' o.8.X.+.+.5.5.1.:.t I ! I I ! I N ' +.5.8.7.>.:.+.+.>.t.5.7.5.6.5.7.6.5.6.5.5.5.5.5.5.5.8.5.6.>.8.5.' } :.R x ^ { 7.5.+.:.:.+.6.y.+.R M ' I I I - a ,.M @ - ] >.[ ] x x ,.U ; ; ; t +.,.5.,.6.] o.6.>.+.6.6.6.6.6.u.8.5.1.1.8.8.7.6.5.8.6.6.5.8.8.5.5.6.6.5.5.8.6.t.5.8.>.>.6.t.t.>.o.:.R { >.7.t.>.o.5.:.O.:.1.1.! ' ' X.5.t.7.t.8.5.8.<.+.1.8.5.>.5.1.:.X.:.X.X.} t.t.5.>.1.6.8.1.7.^ - I 5.8.5.t.7.^ ' 1.:.:.+.O.<.o.Q R } <.:.y.} b :.t.5.;.} ' N x ' 8.5.! +.d.5.y.u.X.' 8.s.X.y V 1.o.! 8.5.:.:.t.+.a I I o.5.<.O R :.5.o.^ O.6.5.5.:.X.o.! M ' y.o.o.t.1.:.t.7.;.M - - r <.' M } b X.5.t.5.6.:.1.+.' } 5.8.1.} Q ' :.1.>.N I x ^ :.^ I Q ^ R R 8.1.X.<.8.X.5.8.8.7.2.6.+.I a 1 - O c 1.4.1.4.7.7.2.2.6.5.6.5.6.6.6.6.6.6.6.,.7.:.:.,.8.5.6.t.5.7.>.X.+.8.1.6.5.6.6.5.5.5.1.8.1.X.! } X.:.^ X.^ ' :.5.6.5.5.>.1.7.1.x r ~ ' I r ; ; ; O 1 R ;.M - a ;.7.<.:.5.7.,.<.,.,.;.;.I c M x y 3 : - @   o   i %.d v &.%.&.1.1.",
":.1.:.o.^ } 5.<.1.1.1.1.1.<.:.+.X.+.1.1.1.5.1.1.1.5.1.7.1.1.+.X.:.:.;.+.1.o.:.' ! c r U ! :.1.<.1.1.1.1.1.;.' 1.7.:.+.:.>.1.7.R N 1.7.:.5.1.,.! ' ' +.1.1.6.1.[ ! [ >.1.5.1.>.:.>.5.5.5.5.6.5.7.5.6.6.6.5.5.6.o.! ' V Q } } X.~ ' X.:.5.+.[ +.1.Q M :.:.! x + x >.+.t ; a 5.,.>.! r M U t - 1 + ] 6.,.,.o.} 1.5.o.[ 8.6.8.6.6.6.8.8.5.:.5.6.6.6.8.6.8.6.8.6.8.6.5.5.7.6.6.6.6.6.5.t.5.1.7.5.8.' o.! ! :.+.7.t.7.:.:.+.;.+.7.5.! R R o.1.t.8.t.6.1.:.+.X.:.5.8.5.5.8.1.:.X.5.o.;.>.8.5.5.5.5.5.1.7.' - I 5.8.i.1.5.>.+.} +.:.;.:.;.X.X.:.8.8.t.8.8.X.R R +.1.t.t.t.:.' 5.5.X.;.5.s.8.8.t.X.X.I x T :.5.X.' 5.5.8.<.5.x I X.+.8.;.M 2 :.;.} o.:.} [ ' :.+.>.:.x ! ' 1.;.R X.X.Q } ;.^ r + ; - R ! I Q Q :.1.7.t.:.;.8.} Q <.7.7.5.>.+.^ ' :.,.V r M ' I ' X.1.5.+.} ^ } 1.8.8.t.8.8.7.2.2.1.E i 3 1 @ y } 1.<.7.2.7.2.7.2.6.6.6.5.6.6.6.6.6.,.7.6.7.:.:.;.;.1.5.7.5.8.+.:.:.8.5.6.6.5.5.5.5.5.1.X.' ^ +.:.o.o.I R } 5.5.5.5.1.5.5.:.8.<.{ r M r 1 1 - - - a ^ 5.;.d ; x ;.1.1.1.5.<.,.7.7.!.;.Q I x x a 1 : % @ @ % X d  .E ,  .1.&.2.O.O.",
"' } ' } } ' ' :.1.<.1.1.1.1.<.:.} X.:.1.1.1.1.1.1.1.1.5.1.1.+.X.} 5.:.+.+.+.1.;.[ x r { { :.:.:.1.<.1.1.:.5.o.} 8.<.5.:.>.,.5.:.a ' 5.<.<.7.t.o.[ 5.:.} X.;.5.5.[ M ! :.5.X.+.6.5.5.6.5.5.5.5.6.7.7.5.6.5.8.>.' } 5.;.X.' o.:.8.t.X.Q ^ >.>.Q I ^ <.[ 1.:.c + a $.,.X.; + V 6.,.6.} r s c t ; ; a ,.;.} ^ 1.6.6.+.R 6.6.8.8.6.6.8.t.5.>.:.1.t.6.6.8.6.6.6.8.6.5.6.6.8.6.6.6.5.5.1.5.:.>.7.:.X.N 1.V ' 5.o.8.5.5.1.:.} 5.;.6.7.' V M 1.5.8.8.t.1.1.1.5.1.+.+.1.5.5.8.+.1.X.5.:.' :.5.6.t.8.6.6.6.7.' ; N :.:.>.t.i.:.} o.:.+.o.[ ! ' ;.5.7.8.1.d.6.8.p.} d V X.1.6.t.X.+.X.} +.7.6.>.:.^ y r N X.5.8.t.} } t.5.1.>.{ : } t.5.t.;.2 x X.;.t.d.5.:.:.} } X.:.X.I :.:.:.X.I { 5.1.5.<.^ r + - r 5.5.t.o.:.5.,.5.5.o.1.+.I o.t.5.8.;.:.' ' <.5.t.x 2 I R X.d.5.1.:.>.:.X.+.o.1.8.5.6.5.5.4.5.} d 8 3   1 :.<.2.1.1.2.5.7.2.7.5.6.5.6.6.6.,.7.7.6.5.6.7.t.7.,.+.+.>.5.5.5.X.:.:.5.1.5.5.5.1.5.5.+.' ' O.1.6.+.;.} d } 7.1.:.<.5.5.5.1.1.7.7.Q 1 - - - - O ; M } 5.<.;.a - M 5.<.5.1.1.<.7.,.,.,.Q I x a a r - @ @ @ % & &  .%.d z 3.O.%.) ) } ",
"R X.} :.:.} ' } X.>.>.<.5.1.>.>.;.X.o.<.5.1.1.1.1.1.1.7.1.5.:.o.X.1.1.5.} Q X.' ' y M } +.1.+.1.+.+.:.:.1.1.1.X.o.1.5.1.1.:.1.6.N y o.1.1.1.1.1.! ' 1.5.1.+.+.:.:.:.' } X.+.>.8.7.5.5.5.5.5.6.5.6.7.5.5.6.5.+.} 1.t.+.5.<.1.:.7.1.y.1.:.' ! I I X.<.:.:.5.I @ 2 U ,.,.U + r } 5.,.,.;.x I 2 ; - - N ,.Y $.8.6.6.1.V 6.>.2.5.6.u.t.6.:.5.1.>.6.6.5.8.8.6.8.8.7.8.8.6.6.6.7.7.5.:.X.+.X.+.;.+.' Q 5.R ^ 1.:.1.5.5.;.1.' 7.:.1.t.:.R I 6.<.8.8.8.1.1.:.1.<.+.:.5.5.8.6.+.5.X.6.7.' Q :.1.1.6.8.8.8.7.} : x 1.1.1.} } o.1.:.:.:.;.+.+.+.5.5.5.8.t.1.6.y.5.s.:.! M c I ' ! Q } X.;.Q Q M a d V ;.7.5.8.8.5.^ } t.5.:.} x a } t.1.:.s y } 6.s.t.1.7.8.7.1.' N R ' 5.' t.:.} 1.:.1.1.X.I x 1 - ; 2 ,.7.;.^ o.5.7.7.:.X.+.R ' 8.8.:.:.} :.;.:.8.5.1.a 1 I X.t.:.:.+.:.+.X.5.t.1.+.1.5.5.<.5.7.X.M r 2 @ % ~ 2.1.2.3.1.6.2.7.6.5.6.6.5.6.6.7.5.6.6.6.6.5.5.5.8.8.5.:.+.5.5.+.;.O.1.1.5.5.:.:.:.+.X.} ' :.5.5.5.X.1.' R :.5.1.>.1.5.5.1.>.,.o.R x - - - + - r R :.5.5.5.;.a ; b 5.:.5.<.<.<.,.7.,.' I r a r r 1 - X - O @ , E F B 0 R ) ) ) _ O.<.",
"I V X.5.1.:.:.;.Q X.+.:.1.5.1.1.:.+.X.} 1.1.,.,.5.,.1.1.5.1.:.X.:.:.1.7.R Q 1.+.R r X.' O.:.1.1.1.1.:.1.1.1.5.:.' ,.5.>.5.7.1.1.I 1 I ' 8.X.:.+.>.R X.1.y.8.:.} } :.;.X.' +.7.6.6.5.5.5.6.8.5.6.5.6.5.5.7.;.+.1.1.>.o.>.<.1.5.6.1.7.8.8.X.^ X.X.M M :.5.8.R @ r t o.,.8.r + a ;.5.:.,.] 2 t ; ; - 1 D ,.,.8.6.2.6.^ 5.>.,.6.8.6.5.>.>.6.7.1.5.6.8.8.6.y.8.6.6.6.6.8.6.7.t.8.>.+.:.5.5.1.>.! Q ;.1.Q [ :.7.:.8.5.:.8.{ :.:.' o.X.R N 1.5.5.5.t.} } X.1.8.6.5.:.7.5.7.+.>.X.:.6.+.R 1.5.>.1.5.5.8.t.;.- M 8.:.o.X.X.+.1.1.[ [ +.+.:.1.5.8.6.8.8.8.8.8.8.6.t.8.t.>.R M b a t y a r b I ^ 6.7.6.t.6.5.1.:.' 1.t.:.;.! M 5.Q 7.7.Q - ^ o.X.<.5.y.8.1.8.5.>.Q I t.8.+.+.:.R y.5.' R b c I r + ; - } 1.' } <.t.1.1.1.' ^ Q 8.:.:.+.:.X.:.:.;.o.} ' 1 y o.o.7.:.+.+.;.>.5.5.7.t.8.6.1.1.3.2.+.R r 3 % @ V <.1.2.5.5.7.5.7.5.5.7.6.5.7.6.6.,.5.5.5.5.6.6.6.7.5.6.6.5.,.;.5.X.:.X.:.5.5.:.+.:.+.} X.:.5.1.5.6.>.:.:.! X.o.:.:.5.7.5.1.5.1.:.x 1 1 - - + - b X.1.1.<.5.7.;.x - b :.<.7.<.7.7.,.,.<.I I r r r 1 - O + + O : T 3.} s F o.O.O.$.<.1.1.",
"' x V :.o.1.1.5.:.^ ' +.+.X.;.+.,.<.+.} +.>.5.5.7.7.1.5.1.5.1.:.^ X.;.' M :.;.:.d N :.^ } 8.5.:.:.1.1.1.1.5.5.>.X.X.6.5.1.:.7.' ' y I ' X.X.1.:.1.} [ X.o.1.7.:.' } +.o.' [ :.,.1.8.8.5.5.5.6.5.5.6.6.5.7.:.:.5.1.1.:.5.1.>.8.6.1.8.7.;.;.5.5.<.;.Q R ! X.;.V V x t $.8.R 1 ; U >.>.,.i.x r t - - - 2 U ,.,.>.,.:.] 6.6.6.,.5.6.8.:.>.5.6.6.5.5.8.8.8.8.8.6.8.8.6.6.8.8.6.5.>.>.5.6.5.1.1.+.} o.X.Q +.1.6.:.5.1.+.8.+.:.5.} X.o.} I X.} 5.8.! ! :.:.8.8.5.6.1.1.5.8.1.:.+.:.8.+.X.:.8.5.5.5.6.t.7.1.r y +.X.1.5.+.+.+.o.[ [ X.X.X.} o.:.:.>.5.1.1.5.t.t.6.8.7.,.:.>.7.>.>.6.7.8.} o.+.8.6.6.6.6.8.8.} ' 5.8.>.+.s [ d.' ;.} y I 5.1.1.+.5.5.1.7.<.} I x Q 7.5.o.O.X.;.X.c I ! M X.I 1 O 1 ; o.+.I o.<.:.<.:.' R ^ R +.} :.5.1.' ' ' X.' ' a s o.' } :.;.:.+.:.5.6.5.7.7.4.8.6.2.1.<.^ s , 2 % s +.5.5.2.5.3.5.5.5.5.6.7.5.7.6.5.6.6.7.5.6.6.5.6.5.5.6.6.5.6.5.,.X.+.<.:.5.:.1.5.+.X.} :.1.5.5.5.t.7.:.+.^ X.+.:.:.:.5.7.7.5.:.X.c ; 1 - - ; 2 N o.5.5.<.1.5.7.+.x : M 1.5.1.,.,.,.7.7.X.I a r r r - - O + O - T +.$.V 8 +.1.1.&.1.$.<.1.",
":.' I I :.<.1.8.+.} ^ ' :.:.+.:.>.1.X.' } :.1.>.>.:.5.5.5.1.5.:.Q X.! ^ ' } { V y +.1.} ^ ;.1.5.1.1.5.5.5.5.5.1.>.' :.7.t.5.:.} >.X.M :.' } 1.5.:.>.X.1.o.:.7.t.1.5.1.:.+.[ ' X.1.5.,.8.8.5.5.6.6.5.6.5.>.:.1.>.5.1.:.7.5.1.t.7.7.t.<.' :.5.5.<.O.X.<.;.Q U I a a t s >.:.s @ s :.' ,.,.Y ; ; ; ; + 7 x } 2.+.+.+.} 6.5.6.8.8.5.>.;.5.6.7.5.5.5.8.8.5.8.6.8.8.8.6.6.7.t.5.:.1.7.8.6.5.1.1.' +.+.+.' :.:.1.1.:.8.+.5.+.1.5.:.o.1.;.I [ ^ R X.' <.1.;.6.t.6.8.7.:.1.t.5.o.X.5.5.+.:.} 5.8.8.1.6.6.5.t.a - } <.8.5.1.8.5.1.6.5.6.7.6.5.5.6.1.1.1.<.;.:.:.>.>.,.>.:.5.7.8.7.5.7.6.1.X.1.5.5.i.6.7.t.5.8.Q :.5.5.:.I x t.>.5.! y 3 1.5.7.6.5.:.1.5.o.' X.Q } ! :.X.:.Q ' I x a R R X.X.^ 1 + a - :.:.! +.X.' o.X.M I R N X.X.' ^ ' I Q ' X.} X.r ^ 5.7.' I } ' :.,.5.5.5.7.7.7.8.8.2.<.^ b r : X 3 } 5.7.5.1.2.7.5.5.7.6.6.6.6.6.5.6.6.6.,.y.6.5.5.5.5.6.5.6.5.6.5.5.^ :.>.1.7.1.>.:.;.+.:.1.5.5.7.5.8.:.+.' ' :.[ ;.1.8.1.5.5.:.I 2 r - ; - + + N 1.7.<.5.1.5.5.7.+.x 2 d 7.<.5.:.,.7.<.;.Q I a r 1 - - O - + - M ;.7.O.r N $.1.<.1.1.1.$.1.",
":.:.X.c I } :.o.' 1.5.} ' 1.8.:.o.:.+.o.:.<.:.1.5.1.5.5.1.5.1.5.R R } :.;.8.I + ! 5.<.o.} X.5.1.1.1.1.5.5.7.5.5.1.+.^ 1.5.t.' ;.5.s.M } 7.' +.y.1.:.} :.:.} :.6.1.X.6.5.5.1.X.' ' 5.7.5.5.6.5.6.7.6.5.5.:.,.1.>.5.>.:.1.5.7.5.5.6.5.+.X.s.8.5.1.X.' 5.8.t.:.Q Q Y ^ Q s X.X.@ @ ' :.,.I I 1 ; + - ; 2 ; - ] 6.,.X.] ,.6.2.5.>.+.+.5.5.>.>.7.t.t.8.6.7.8.6.8.6.6.6.6.8.6.6.,.5.5.7.6.7.5.5.o.:.} } Q 1.;.1.5.:.t.t.:.X.5.5.1.>.1.} V ' ! I ;.8.t.5.:.5.t.6.8.6.>.<.8.6.+.} 6.8.o.5.o.o.7.8.8.8.5.6.6.N - } y.5.:.7.6.1.5.5.>.7.5.1.5.8.8.t.t.t.t.8.6.,.:.;.:.5.t.t.5.6.6.6.5.5.+.:.:.+.:.8.8.5.t.5.1.^ 1.8.t.^ a ;.7.a.o.r 1 b ' o.5.8.8.5.<.} X.i.{ 6.6.R s.1.6.I d M ' t.R 5.<.7.U : - c ; ;.;.{ 5.[ ! ^ M I :.;.I 8.8.5.6.5.:.t.t.t.5.o.V 5.t.6.' ! N R o.;.1.t.7.7.5.5.5.7.5.^ v a 3 X - Q 7.1.7.2.7.6.6.6.6.5.5.6.6.6.6.6.6.5.6.5.6.7.7.6.6.6.5.6.5.7.5.8.5.} +.1.5.5.1.+.X.+.,.5.7.5.5.6.6.5.;.;.' :.o.;.y.7.7.1.5.[ y - ; + 1 + - N I ' t.,.:.5.,.1.5.7.;.x 3 r 1.1.5.1.2.5.+.' V x a r 1 - - + O + c ;.7.6.R 3 +.7.1.1.1.1.1.&.<.",
"o.;.+.' ! Q o.! X.7.<.:.} X.:.1.+.+.;.o.o.+.;.<.5.5.5.1.1.1.1.5.X.^ 5.:.:.<.y t 5.;.5.5.;.' X.5.5.1.5.1.5.7.5.5.5.5.[ :.:.6.' :.5.5.' b 7.:.[ >.5.5.;.X.5.;.X.:.5.5.1.:.5.6.1.>.X.~ 1.5.5.5.8.5.6.5.6.6.5.5.5.5.6.7.1.>.,.,.1.5.6.1.+.1.7.8.1.:.1.:.1.:.t.5.+.8.:.;.:.' x ' I + r U U I ^ I 1 2 ; - r ] x > I ;.+.X.5.,.2.5.$.>.t.6.6.6.5.:.:.5.8.8.8.5.8.6.y.6.6.8.6.6.6.6.5.6.t.8.5.1.:.X.;.} +.Q :.:.1.5.o.1.s.:.X.5.5.5.1.<.' R I [ >.7.5.6.8.t.t.6.6.6.t.5.;.5.6.:.R +.7.:.7.>.' X.1.5.6.6.8.1.R - ' :.:.5.8.1.8.8.5.1.8.5.6.8.8.5.8.8.6.8.8.t.8.5.6.8.8.7.6.t.6.t.i.5.+.1.1.+.1.:.1.t.5.8.t.} ;.:.t.1.M Q ^ ;.! a : r o.:.:.;.<.7.5.o.+.<.^ X.s.X.} } ^ a M ! X.' } X.+.:.7.Q - - I r I ' ^ :.:.<.X.I :.:.[ X.1.8.8.5.X.1.7.7.8.8.I ^ 7.<.5.:.7.o.:.1.;.X.o.<.:.;.:.:.1.X.b 3 1 : % V 1.1.2.2.7.2.2.2.5.6.8.y.6.6.6.6.6.5.6.5.6.5.5.6.6.5.5.6.5.7.7.7.6.5.:.[ :.>.>.o.+.>.5.5.5.5.5.6.5.t.1.:.{ ' 7.o.1.5.:.7.;.I r ; - : + - a ' 8.Q ! 5.1.5.7.1.5.1.5.:.v 3 % ^ 1.1.1.1.<.^ I b a a 1 - - + O - a ' 5.5.} d b $.$.1.1.1.1.1.<.1.",
"X.;.} Q { R ' ' +.X.5.7.1.X.' :.1.+.:.:.} +.:.:.1.5.5.1.1.1.1.1.p.I ;.<.1.R 1 ' 1.8.:.1.6.X.' +.1.5.5.5.5.5.1.5.5.5.1.' >.1.^ 1.5.6.:.x :.5.>.} 1.7.1.} :.5.:.+.:.5.1.:.1.<.+.1.1.5.} ;.6.5.5.5.6.7.5.5.5.5.5.6.6.6.7.5.5.6.1.5.6.5.1.5.5.5.5.1.1.8.1.1.7.5.:.>.y.:.1.X.[ x ' 1 + 1 U ;.:.U r x 2 - 1 U 6.! r x Q U ,.,.;.U t c [ t.+.^ U U U ' :.6.8.8.6.8.8.6.6.6.8.8.8.8.6.6.8.8.6.1.+.:.o.' :.! 5.1.1.1.O.o.5.1.X.X.1.5.t.1.R ! M ' 5.1.5.+.8.t.6.6.t.6.5.6.o.5.7.1.x I o.:.5.:.+.+.1.7.5.6.8.5.[ @ V 1.5.8.5.5.8.8.5.5.6.1.8.8.8.5.8.8.8.8.6.6.6.5.5.5.8.t.t.6.t.t.>.X.1.6.5.1.8.1.6.5.s.6.+.Q 1.5.t.V b 1.' a + t ; I 5.t.5.5.1.5.5.:.;.:.} 6.5.1.V c ^ M R <.o.I ' ;.} X.7.! - - Q - - ' :.:.<.X.M [ X.;.' ;.7.t.>.7.>.8.5.6.t.i.c +.:.:.1.1.>.1.<.1.:.:.X.R ^ o.1.1.>.R r 2 : @ d X.2.7.1.3.5.5.2.3.5.5.6.6.y.6.6.6.6.6.5.6.6.5.6.6.5.:.>.6.6.6.5.6.5.t.o.} X.>.:.:.>.1.6.6.6.5.5.8.6.5.5.<.! o.1.<.5.5.7.} a 1 - - + O - r ' <.8.^ R 1.1.:.1.5.5.5.8.+.b , X V 3.1.1.&.{ I M x a r r - - + + 1 ' 5.<.;.^ y R 3.3.1.1.3.1.1.1.1.",
"<.<.1.<.;.' R ^ +.;.} ;.5.8.X.} :.o.+.<.1.' ' +.+.5.5.8.X.1.1.5.+.o.} 5.' r Q ! t.7.1.<.>.>.! X.:.1.5.5.5.5.5.5.5.5.5.:.o.:.} 8.1.5.5.^ I 8.1.>.} :.1.o.X.<.7.5.:.5.5.1.+.+.X.o.>.5.1.} X.5.5.5.5.5.5.7.5.6.7.5.6.6.6.6.5.8.8.+.;.;.1.5.7.5.6.5.8.1.5.1.1.6.5.X.7.7.7.5.X.I - r + + I ^ ] r a s s - O I ,.;.U r 2 a t 2 ; ; ; t 2 r a ;.>.t.6.5.5.8.8.8.8.6.6.6.y.6.8.8.6.6.6.t.5.t.1.1.+.1.' :.1.} 5.1.5.1.X.5.6.5.+.1.5.1.1.o.M R I } t.5.1.5.5.8.6.8.6.8.t.t.t.:.1.} ' ' I ' 5.:.:.5.o.8.1.8.7.5.o.@ I 5.8.5.>.5.t.8.1.5.6.8.8.8.8.8.8.8.t.6.8.8.5.5.5.5.t.t.7.t.8.1.' :.5.t.5.1.1.7.:.1.8.5.} +.5.8.^ x ;.1.c ; I I 1 { y.p.7.5.1.1.:.:.o.} y.6.6.+.} +.1.} M } ;.V ! 7.1.;.1.I ; - I + 1 I Q :.' M a Q ' R M I ^ X.X.:.6.6.5.t.8.[ M ;.o.1.5.:.t.:.<.o.5.1.:.<. .} +.:.! a 2 : O a  .2.7.1.5.7.5.5.1.1.5.8.6.6.,.y.6.6.6.5.6.8.6.5.5.5.5.5.>.>.5.6.6.,.<.;.[ I 5.6.1.5.5.6.6.6.6.5.7.6.7.8.:.:.I :.1.:.1.:.^ r O + - O - x ;.X.X.,.7.' I 5.7.1.1.5.1.1.5.:.B , @ 8 1.&.1.+.Q c a a r ; - + - + - ^ 7.5.<.;.V t  .1.1.1.2.1.1.1.1.$.",
"<.5.1.5.<.;.' Q R :.:.o.:.O.5.;.' X.:.:.;.1.^ 1.+.:.:.5.} +.1.1.<.} 1.' a ! +.[ 1.7.1.1.1.>.} X.1.1.1.5.5.5.7.>.:.:.<.:.} ' o.7.1.6.5.o.b +.1.1.X.' :.o.o.o.1.t.5.6.5.6.1.:.X.1.1.:.1.<.:.+.1.8.8.5.5.6.6.5.6.5.7.6.6.5.8.6.6.,.5.:.o.+.1.6.6.1.5.5.5.1.1.7.8.X.1.t.5.1.:.X.x 1 - - r x ; - c x a 1 - 2 Y y.,.;.b ; 1 2 Y o.! ] [ V a } 8.i.7.7.8.7.8.8.5.8.6.y.t.6.6.t.8.6.8.t.t.5.6.} :.1.} 8.:.+.5.5.<.:.:.5.8.8.1.:.X.+.6.<.M ;.^ X.t.5.5.6.5.8.8.8.8.t.6.t.t.;.+.5.:.;.X.I } ,.8.5.1.1.5.5.7.8.} @ R 5.8.5.1.6.8.6.5.6.8.5.8.8.6.8.6.t.t.8.8.8.5.5.5.1.8.t.8.5.:.+.;.6.8.7.5.5.5.8.5.>.+.;.' 5.y.:.b R +.M y x } I s +.t.t.8.5.1.o.:.:.R 1.7.6.1.:.o.5.Q ' Q } ^ I ^ 5.:.;.7.I - @ r - M 1.o.c y ^ ' :.<.1.[ +.:.o.X.X.^ o.8.:.1.s M } ;.:.:.7.o.o.:.+.:.:.<.8.8.} :.{ d r 2 X 3 } <.5.1.2.1.1.1.1.5.5.5.6.6.6.6.6.6.6.6.5.6.6.6.5.5.5.6.6.6.:.>.t.1.1.1.5.X.R 6.6.5.6.6.6.6.6.6.7.5.6.6.5.:.' R 1.:.1.<.I 1 + + O O 2 I :.5.;.{ :.7.X.N 7.1.7.5.1.5.5.1.:.N y @ ,  .3.O.} I x y r : : @ X O @ b 7.1.<.+.O.y x <.1.1.1.3.1.2.3.1.<.",
":.5.1.1.1.:.+.' I } 5.1.o.X.;.:.:.^ } :.5.1.:.' 5.:.X.:.+.1.5.X.:.o.X.x I ;.+.} X.5.1.1.5.5.>.' +.5.1.>.5.5.+.+.;.1.:.:.' V } t.1.5.1.5.Q ^ y.1.7.^ ^ :.;.+.:.7.5.7.6.6.1.7.1.:.:.1.5.:.1.1.+.:.5.8.5.5.5.6.7.6.7.6.8.5.6.6.8.5.t.1.1.1.o.:.1.5.5.1.1.5.5.1.5.;.1.7.,.X.' [ ^ c - O 1 :.t ; 1 x ; 1 - - a ,.;.;.,.! ] | ;.,.,.5.+.:.! a :.>.t.8.8.5.5.8.6.8.6.8.6.6.6.6.8.8.8.6.8.8.5.o.5.8.X.t.X.5.5.1.1.1.8.5.5.;.X.+.' 1.5.+.R :.R X.5.7.6.6.7.8.8.8.8.6.7.:.t.:.o.7.<.I ' ' Q o.y.7.s.1.1.5.7.7.o.1 I 1.5.8.7.t.t.6.5.5.7.5.6.6.6.6.6.6.8.8.8.7.1.5.6.6.t.t.5.>.:.:.5.5.5.5.5.5.1.8.5.7.! ! 5.1.;.c I ' x r ' ^ a a } X.t.t.8.5.1.O.5.} o.6.t.8.1.:.;.1.^ ^ 1.^ X.^ ^ 5.5.6.7.N 1 @ c a x Q c I ' M :.;.5.y.[ :.t.t.1.8.1.+.' V ! 2 N 7.o.+.:.<.X.} } ;.} :.5.<.5.1.} a a 2 @ 1 ~ 4.1.1.&.1.2.5.8.4.6.5.5.6.6.6.6.6.6.6.6.y.5.8.8.5.5.7.5.6.6.5.:.7.5.1.1.6.X.Q 5.7.5.6.6.6.8.6.7.6.6.5.7.>.} ! :.;.<.} c r - - - 1 d } 7.5.<.;.o.:.5.o.N 6.1.5.1.5.5.:.5.1.d , % & R 1.} ) T c a 1 @ @ @ % @ 3 } 3.1.+.X.} - E 7.<.3.1.1.1.2.<.+.:.",
":.1.5.1.1.1.1.;.} I ' t.<.1.:.;.;.+.} } +.<.5.X.} :.o.X.X.:.5.+.o.^ M ! :.;.+.X.' >.1.5.>.>.1.+.[ 5.5.>.8.1.:.>.5.7.5.1.<.' ' ;.5.5.1.5.5.V 8.5.5.<.V ' +.' ' +.>.5.1.8.5.5.1.1.;.1.1.1.1.5.1.+.;.5.8.6.6.5.6.5.6.6.6.8.6.5.8.5.7.:.1.8.5.} ' 1.5.5.5.1.:.+.>.o.:.:.} ^ ' :.,.[ x - + I t I U U t 1 ; O ; Y :.:.+.X.,.,.+.X.+.;.5.:.6.R M 5.t.8.5.6.8.8.8.6.y.8.8.8.5.6.8.8.8.8.5.5.} :.8.6.:.i.+.>.1.1.1.5.y.o.^ :.1.1.>.' X.+.' X.} ' :.5.5.7.8.8.t.8.t.6.7.5.:.o.:.1.+.! } ' o.} :.1.t.:.:.1.5.t.' - R 8.t.8.8.8.5.8.5.6.8.6.8.6.7.6.8.8.8.6.8.5.:.1.1.>.+.+.>.5.:.5.5.>.5.6.5.8.5.t.5.>.U +.5.} ! r } I 1 R ,.:.2 M 1.[ 6.8.8.8.5.5.} } :.5.8.5.7.;.:.' ;.+.Q ' 1.} X.1.:.1.6.Q 1 1 ' r 1 I :.<.1.;.+.:.:.t.} 7.7.t.t.t.t.5.1.:.x a ' } ^ ' } I I R R R } ;.+.+.;.;.x r 1 - % V +.1.1.+.| X.| o. .O.+.:.,.y.6.6.6.y.5.5.6.6.6.6.6.5.6.5.5.,.5.7.5.5.8.5.5.1.+.! >.5.5.5.7.5.5.6.5.6.5.6.5.5.} I :.;.' a 1 1 + + r M +.6.1.1.<.:.o.<.1.o.x 7.1.5.7.,.1.} V b 8 8 8 % p } ) E V d r : O O - @ : ^ 1.1.1.$.$.V 2 O.1.1.1.1.1.5.<.+.O.1.",
"1.:.1.1.1.1.:.1.;.' I :.1.:.:.1.:.o.<.{ Q X.1.5.+.:.:.X.Q R ' ^ d V :.5.+.<.:.>.' +.5.1.1.:.>.:.} :.5.1.5.5.5.5.:.:.1.1.5.o.} ! +.5.5.1.8.I ' 6.;.t.! I o.o.o.+.+.1.6.5.1.8.5.:.<.o.:.5.1.:.5.1.;.;.,.6.5.6.7.6.7.6.8.5.6.6.y.5.8.>.5.8.:.X.Q } ;.1.1.1.1.:.:.X.! ! ;.7.5.7.5.Q ] U - 1 a Y ] I I r r - - s :.,.| ,.$.,.,.,.o.' ^ :.5.s.Q t :.7.8.8.8.8.6.8.5.8.8.8.,.6.8.8.6.t.8.+.' 5.8.5.:.1.o.} +.5.1.1.s.~ ! 5.8.t.1.[ ' :.X.X.1.X.+.>.5.8.6.5.6.6.6.6.6.6.I ! 7.:.+.o.X.+.o.} } ;.:.1.1.o.>.:.a - } 8.8.8.5.5.+.:.>.6.8.7.t.5.5.6.8.8.t.7.8.8.1.;.:.:.} +.6.6.+.>.1.>.6.t.7.6.6.8.:.' ' ^ ^ +.X.! M - } 1.1.7.a I 5.:.5.6.8.8.t.1.' :.:.t.6.t.t.' X.R <.V M :.5.X.X.5.t.t.t.! 1 @ r 1 x } 5.t.1.5.:.+.>.5.R :.[ ' 6.t.1.8.s.>.d } t.;.<.7.7.} ' ' o.:.1.<.8.;.{ d - r @ X v :.o.} }  .+.1.2.8.6.7.5.:.;.;.6.6.6.6.y.6.6.6.6.6.6.y.6.5.>.+.o.:.>.1.5.1.,.+.7.! :.>.6.5.6.5.6.5.6.5.6.5.6.+.Q Q o.R r 1 r 1 - r X.1.6.t.8.:.7.<.:.<.5.;.r 1.5.t.1.} x r a d , 8 0 % y E ~ F v r 3 % @ - @ O B 8.2.1.<.1.<.y F $.1.5.1.&.1.5.<.+.&.1.",
":.o.;.1.5.<.:.1.1.:.V I :.:.<.<.7.<.X.;.{ ^ ;.;.:.X.o.:.' c M x Q 1.1.:.5.1.5.1.' X.5.1.5.1.1.X.+.' ;.8.5.5.,.5.1.:.1.1.1.:.5.} } :.5.5.5.} I 5.:.1.1.! X.[ } :.>.>.:.6.8.1.>.5.1.1.:.1.1.1.1.5.5.:.X.:.5.6.6.6.7.6.8.6.6.6.6.7.8.5.5.5.5.6.+.+.[ :.:.;.+.[ ^ ' o.:.5.8.6.8.t.U o.:.r - + U U I U x r 1 + - Y 5.+.$.>.2.,.8.8.>.] +.5.<.t.M I o.6.6.t.6.6.6.t.8.8.8.5.6.8.8.6.7.5.+.>.7.8.5.;.' } ^ ;.1.1.<.5.^ <.1.8.5.X.1.+.' X.;.+.>.;.>.>.5.,.5.8.6.8.6.:.+.} ^ } o.<.5.o.;.5.+.[ :.X.7.1.:.5.I - M 5.8.8.6.t.t.1.;.+.1.5.5.5.5.5.7.6.8.8.6.t.8.5.1.+.X.o.+.1.:.;.:.<.1.7.6.:.1.<.o.' } ' } s.t.' r t Q 8.1.7.t.a U 6.;.7.t.t.8.8.^ 1.:.>.8.5.+.} M R X.1.' ' <.7.+.X.5.8.t.<.I - - - x ' :.<.1.1.7.} } ' R y V R R M R ^ :.1.M V 5.1.:.7.8.:.;.' o.:.o.' <.;.;.T r 1 + - s ^ +.1.7.2.6.8.4.2.<.2.6.6.6.6.8.6.6.6.y.5.5.6.6.6.6.y.5.6.8.6.5.:.[ [ >.5.8.>.+.t.[ X.:.7.8.5.8.5.6.5.6.5.6.7.1.N c V 1 % : O 1 b o.5.1.5.5.1.1.:.:.:.5.5.;.a <.5.X.I N R o.<.} F 8 , 0 F E E B 8 : % % @ @ X u O.1.&.1.&.<.^ y O.1.1.1.1.O.5.3.:.+.+.o.",
"' Q ^ <.;.{ <.t.8.1.;.I I :.1.:.:.<.<.;.X.O.I ;.7.1.o.X.I r x X.+.+.1.1.1.1.>.7.o.X.1.1.1.5.8.o.X.' ' +.:.>.5.:.X.} 1.1.1.5.1.>.+.X.+.5.1.5.M o.1.5.1.X.>.' ' 5.>.1.:.>.5.5.1.5.5.5.1.1.:.:.5.5.5.6.:.X.>.5.6.6.5.6.7.8.8.6.5.6.8.5.8.t.t.6.X.1.>.' R Q X.+.:.:.<.7.5.5.t.6.t.U :.5.x - - r x U ;.;.a 2 1 O I :.+.;.,.>.2.8.8.,.,.>.:.X.1.1.I I :.t.1.6.8.7.6.5.6.t.6.6.6.t.6.6.:.>.5.5.8.:.+.} } } :.1.8.+.X.:.5.t.5.' } o.X.V R 7.+.7.>.5.:.+.5.6.8.8.8.5.+.<.;.X.} :.>.7.o.o.5.:.:.1.X.1.5.<.Q ; a ;.8.8.8.6.5.8.8.8.1.;.+.1.7.5.5.1.t.8.u.t.6.7.8.8.+.} } } ^ ^ 7.1.7.o.X.} o.<.o.R V ' ;.1.8.<.x @ ! t.>.1.7.8.s ' t.>.5.7.8.t.:.;.8.X.X.} ' } ' ^ ' t.X.o.5.:.5.+.[ t.8.8.:.a - + - N t.y.7.:.:.;.;.N r M ;.5.5.t.8.X.U a R 1 X.y.7.6.7.7.[ ^ } } ' } ' o.;.' x 1 - O r <.1.} 5.4.7.7.8.7.$.+.7.5.6.6.6.6.6.6.6.6.6.6.6.5.6.6.5.6.6.6.6.5.5.:.' [ 5.6.>.5.t.6.' 5.:.6.5.5.5.7.8.8.5.2.6.O.x r 1 @ - @ r R O.1.5.+.1.5.1.<.:.:.:.<.:.:.x I I M ' o.' R M c d y , b E V F d , % o o @ X % R 1.1.1.3.&.1.F V 1.1.&.1.<.$.1.2.O._ o.:.",
"M ;.' V I ~ ! ^ ' ' } o.I x ;.:.:.+.X.I M ! I c I X.I b c t a :.1.1.5.>.1.5.:.8.:.} :.5.1.5.t.:.{ +.' 1.X.' [ X.X.X.+.;.1.1.5.6.>.X.' 7.:.t.! ! 7.,.7.:.>.>.' >.1.1.5.:.:.>.1.1.1.5.1.7.1.1.5.5.6.6.6.6.+.+.5.6.6.6.6.6.6.6.8.t.8.5.5.8.6.6.+.X.[ Q Q +.7.5.<.X.,.8.8.7.6.5.t.R ;.} t - O - t s U ;.I + 1 - ; I } +.,.,.2.8.8.8.6.5.1.:.:.>.+.b I >.1.5.t.6.6.7.1.1.1.8.6.6.8.:.+.:.5.>.7.:.X.:.' :.5.5.8.X.;.1.5.:.o.' +.:.5.X.' 5.' X.>.>.5.7.t.y.6.t.5.:.8.1.1.} :.1.6.8.+.X.8.>.>.1.6.5.5.X.y : } t.,.1.5.6.8.8.8.8.6.1.:.:.5.:.+.t.5.8.6.5.8.8.5.+.:.;.' } ! ! 8.X.o.' >.6.5.o.Q X.} :.1.1.:.x 3 R 1.>.t.5.6.y.a ' 1.:.>.t.8.1.} 1.8.X.! X.X.:.+.+.1.5.' :.t.5.1.+.X.5.6.8.! r ; + 1 x ! [ :.} X.M y a R } :.:.t.5.8.6.7.I r 1 R I ! ! o.X.Q Q ' R I I R } ^ M r 1 O 1 ' <.4.<.<.1.4.8.8.1.<.1.5.6.6.6.6.6.5.6.6.6.6.6.6.5.6.6.6.6.5.8.6.6.5.1.+.X.} ' :.7.7.5.' 1.o.,.y.,.7.5.5.7.6.5.o.T r : - X @ d } 5.1.&.5.+.1.1.1.:.5.:.5.:.:.:.c 1 R 5.:.I M N V R ) ^ F G F F b 8 % % o @ @ X , v E } | $.+.O.d V &.1.1.1.}  .&.1.} X.5.5.",
": s } +.o.;.<.5.:.o.' ' ! M a I ! R ! R I ' ^ R b s M d x I I ! ;.>.,.7.:.1.>.1.5.+.} 8.5.1.6.>.X.;.' I ! +.} +.:.:.5.1.1.1.1.7.1.>.o.+.5.8.>.I 5.1.5.:.X.6.+.' 1.6.7.1.>.:.:.>.5.5.1.5.5.1.:.1.t.7.6.6.5.:.[ :.t.6.6.8.6.6.5.5.5.8.8.7.5.>.X.X.} +.>.1.5.6.7.^ :.5.5.5.7.6.t.^ ;.N : 2 + r Y t r x a + 1 x + ; U >.6.,.6.,.,.q.6.6.>.5.7.5.:.[ c b +.+.,.6.6.t.8.5.>.1.6.t.5.X.+.5.5.6.t.:.o.X.} <.8.1.+.:.8.7.1.' X.8.8.5.t.6.} :.o.} X.:.1.6.8.6.t.8.5.1.6.1.1.[ 1.1.6.7.+.} t.1.5.5.6.5.7.R r I 5.7.7.:.>.7.8.8.8.8.6.8.t.1.;.1.1.1.8.8.8.t.8.8.5.<.<.o.+.<.+.} } 1.8.7.5.[ M ' o.;.X.:.7.' a 1 ' 7.:.6.6.6.5.6.r ' :.X.X.5.5.X.+.1.' ' X.:.>.8.X.} 5.' ;.5.8.8.5.+.;.>.5.5.a r - a r + - r x y 1 1 d :.<.X.t.7.t.t.y.y.5.! 3 I ' } [ [ ! V } o.^ ' :.:.} <.^ a r + r T ;.<.7.7.$.7.8.1.+.+.<.7.6.6.6.6.7.8.5.y.6.6.6.6.6.y.6.6.6.6.8.6.6.6.5.,.>.7.} Q 1.7.5.5.[ } ,.:.t.6.t.5.5.7.4.X.b 3 2 %   1 V O.7.<.1.1.$.+.1.5.1.+.:.X.;.' I x I I ,.1.:.:.+.1.1.<.1.%.F B B R i & @ o @ @ X 0 R b v i y i u i % b  .1.1.} N X.<.o.o.1.1.1.",
"@ - r Q { ;.<.<.:.:.<.:.<.' a y o.:.' M I ! Q ' :.[ ;.} M ! ' [ } 1.t.1.5.:.1.:.1.' M +.5.5.5.:.+.:.' M o.:.+.+.} { +.+.:.:.:.5.5.1.>.[ 5.5.d.R X.7.,.:.X.:.>.' } 5.1.8.6.>.:.:.>.>.+.+.:.+.O.>.8.6.6.7.8.8.:.X.;.1.5.6.6.6.8.6.8.8.5.:.:.1.X.+.>.5.6.1.;.5.+.I X.6.6.1.:.' X.x I I r x 2   ! } t a a 1 - Y a O t ,.0.,.6.6.6.6.6.6.5.1.5.8.6.:.:.U a X.1.7.8.5.8.t.>.:.6.6.:.+.5.6.6.6.t.+.o.' o.<.5.} +.1.5.t.;.} 5.i.6.1.t.1.[ X.+.! o.1.7.6.8.6.t.:.+.1.1.>.5.o.1.t.6.5.:.[ 8.7.5.6.5.y.;.r r :.1.t.t.5.5.1.1.5.8.8.6.8.8.8.5.>.5.>.8.t.5.6.1.;.o.o.X.1.1.o.[ 8.' 1.7.:.U x 1.:.' } ' R ! r r M 5.7.:.y.5.5.1.>.r ! 1.:.' :.} :.1.} } +.+.X.1.7.o.} o.} t.t.t.;.5.+.' 7.y.{ 1 - a { ' y r r 1 a M R R R ^ N I I R ! [ R X.r x x ! ! ^ Q ' ' :.5.o.} :.<.;.Q x 2 - ; R 1.+.} X.1.&.O.o.1.+.&.6.6.6.6.8.6.8.6.5.6.6.6.6.6.6.6.6.6.5.8.8.5.8.6.7.5.>.+.:.' 5.6.6.8.;.I ,.:.:.1.7.5.5.7.} d 1 : X X 8 ! 8.4.5.<.2.1.o.<.1.:.+.o.X.;.1.<.' R ;.R <.6.5.5.1.1.3.$.%._ b y F F < % o X X o X F 7.2.4.<.+.} } F d O.+.$.R b N 1.o.$.5.1.1.1.",
"- O - 1 b } <.;.:.:.<.;.} I M 1 x I 2 a I [ :.' R I a x a r r M x M [ 7.5.1.:.} X.} R ^ 1.1.5.<.+.+.} 1.+.7.7.6.1.+.1.;.+.:.+.:.5.5.1.X.} >.t.! ' 1.5.7.>.X.5.[ [ +.5.6.5.5.:.X.X.1.5.1.5.5.5.5.7.6.6.8.7.5.8.1.X.X.>.5.6.6.1.6.5.<.+.:.1.t.+.1.1.1.8.1.:.1.^ ^ >.5.5.5.1.' ' d U U Q ! I O s ,.s Y ;.I O U [ ; > ] 6.,.8.2.6.6.6.6.6.5.6.t.5.8.7.:.U x ' :.t.7.7.5.7.>.6.>.X.5.5.5.6.6.5.} X.+.+.:.+.;.8.5.5.t.+.<.t.8.8.1.:.1.5.X.>.! +.>.5.t.8.8.6.:.:.5.:.1.6.+.o.7.6.7.5.[ 8.6.8.t.:.' a - I 1.1.t.8.7.,.5.8.6.6.8.8.6.6.6.5.:.X.+.>.8.8.8.t.t.7.:.+.:.o.1.;.6.} 1.;.R ! 7.:.' :.' } I - M ' M 1.t.5.5.6.5.5.7.r I 7.7.' t.X.} +.+.t.1.6.1.8.+.' X.X.f.t.7.:.>.8.} } y.:.r - a ^ X.t.:.! ! X.[ } :.5.s.8.>.o.o.} o.,.7.} s ' N I I Q X.X.5.:.<.1.} :.;.^ x r O - M 1.t.8.7.1.o.^ } ^ X.1.2.8.8.6.6.6.8.6.8.5.y.6.6.y.6.6.6.6.6.8.5.5.8.6.6.7.1.>.:.5.' 5.7.5.7.7.I ;.:.;.:.:.7.:.R d : - @ : d X.6.1.1.<.<.1.1.+.+.1.o.+.>.<.1.7.X.R ,.;.o.1.1.5.1.5.1.2.1. .W i i m i , % o X X o F $.1.3.2.7.3.<. .d 3 <.~ b n ^ O.X.O.1.1.1.3.1.",
"- + - - O 1 I ;.<.;.' c d x x r - r + r - O 1 r r a M I I I a Q ' ^ 2 M 8.1.} ;.5.t.o.! :.X.8.1.X.+.X.1.:.7.6.6.t.:.Q ' :.:.+.<.5.5.>.:.} ' 1.X.M :.t.>.5.} :.+.X.O.X.1.6.5.1.5.:.5.5.6.6.6.7.5.6.8.6.6.6.6.6.6.5.>.>.>.1.5.5.:.X.+.1.>.5.8.:.>.7.:.5.1.1.5.X.5.:.1.+.1.:.1.y.U ;.o.:.+.^ : 1 } M ;.,.] + t ,.U + t ,.,.8.,.8.2.6.8.6.6.,.5.t.8.6.8.5.[ y R 5.1.8.t.6.,.>.+.>.5.>.t.5.5.6.X.:.:.X.o.X.5.7.1.1.1.o.7.t.7.6.o.1.s.1.' } >.o.5.X.d.5.+.+.:.7.8.>.5.1.:.X.:.>.:.:.} 1.5.t.+.R I - y ;.<.1.t.7.6.7.5.6.8.t.8.8.8.7.6.5.1.1.' V <.1.5.8.5.5.1.<.<.;.5.:.t.t.I R :.7.:.;.1.o.' ^ 1 M } a N 7.8.5.1.5.6.8.t.I y 1.7.' :.^ ^ :.6.8.1.y.:.X.R R Q :.d.1.t.t.5.:.' [ t.I O 1 ^ } X.1.5.X.' 1.X.7.;.8.8.t.8.1.1.t.t.7.5.x I I X.V ' ;.o.;.<.5.1.;.<.o.{ M r @   b 1.8.8.t.8.e.8.+.} ) } } O.1.8.7.6.6.6.8.7.6.6.6.6.5.5.6.6.8.8.8.5.5.5.6.5.:.:.6.6.+.+.>.5.t.>.y.} R 1.o.<.;.^ d 1 2 % X : Q 1.4.7. .+.<.5.<.O.+.5.+.;.:.1.1.5.5.I :.t.:.X.:.1.7.1.1.1.1.O.~ b 8 v v < & % X %   < %.$.1.w.2.3.1.4.^ k @ v M ~ 1. . .&.1.5.5.1.1.1.",
"- - - + - + + s ' c 1   @ 1 1 r - r c r x a x ! :.:.:.7.! ! I ^ 5.:.' M b X.} 7.1.7.<.} :.:.X.;.5.+.X.8.>.+.6.>.5.X.+.:.+.5.5.1.:.1.5.7.5.X.+.[ t [ >.6.7.+.:.5.+.;.+.+.1.5.5.5.:.>.5.5.6.5.7.6.6.8.6.6.6.6.6.6.5.5.>.:.>.5.1.X.+.8.5.1.7.5.X.+.6.>.1.5.1.} ^ o.X.+.o.;.+.:.8.R ' 1.1.>.] x O s c ;.6.6.s - } ] r + U q.,.i.2.8.8.6.6.7.:.:.1.5.5.8.t.5.X.x I 1.5.5.6.5.o.5.t.5.5.8.t.6.:.[ +.6.' ' 7.5.6.+.:.:.;.8.u.t.5.>.6.1.1.X.^ 1.5.>.[ X.:.:.>.1.6.5.>.5.5.5.:.8.8.8.1.Q X.5.t.Q X.' - R 5.5.1.1.t.6.6.5.5.8.8.8.t.8.6.5.1.:.5.5.} Q +.1.:.8.5.1.:.+.1.t.>.' I ! 5.7.:.o.} N x V - b o.R N ! 5.8.6.1.5.6.8.8.:.y ;.7.! ' 1.X.+.1.1.+.1.X.:.;.U o.;.:.7.t.8.:.;.:.:.I r - r ;.! X.7.:.' Q 1.:.y.:.8.i.8.7.t.t.7.t.5.} s ' X.;.I X.1.{ ' R } :.:.;.' V y : + x o.t.8.8.7.4.8.6.O.} +.2.6.7.&.o.5.7.6.6.6.7.6.6.6.6.6.6.8.8.6.5.5.7.5.5.5.,.,.1.5.5.} +.t.,.5.5.7.5.Q ;.:.;.R 1 - - X @ 1 } 5.8.6.2.O.o.1.2.1.X.+.8.:.+.+.7.8.1.^ ' 1.t.<.o.:.1.5.1.5.1.:.) B 0 8 d y : ,   X @ % W <.2.&.1.2.1.$.} m b % T +.1.} O.+.1.1.1.1.&.1.5.",
"- - - - - O ; - + - 1 x I ! { Q ' a ' ! <.o.' ^ Q M ^ <.o.' s c :.:.:.X.I c ' y.1.1.1.;.' 8.+.o.:.1.X.:.t.<.;.:.X.Q ' } X.1.5.6.5.5.7.5.5.:.} R V x :.5.1.:.X.8.1.:.5.+.+.:.5.7.>.5.1.5.5.6.6.5.5.6.6.6.6.6.5.8.8.6.,.:.>.5.1.:.X.+.1.X.+.<.+.:.5.1.5.5.:.^ ' :.>.:.8.5.5.:.+.N U 5.,.2.X.! 1 - t :.,.y.] r M ;.M + : +.,.8.2.6.6.t.6.t.5.+.:.6.5.7.5.6.5.} r V +.t.1.1.:.5.t.7.6.7.[ ! ' } X.' ! ' } 1.8.:.o.} :.5.t.8.1.5.:.1.+.5.:.^ +.:.:.o.1.1.5.5.6.5.5.6.5.5.1.t.8.8.5.Q [ >.R X.s.M 1 :.5.5.>.X.5.t.8.6.5.8.8.8.t.8.8.5.5.5.5.1.1.} } X.} t.7.>.:.>.;.' } ' R :.<.5.<.s.Q r x x a :.:.M +.O.1.8.5.5.5.6.t.5.6.x ! 5.' :.8.:.+.:.+.X.<.<.1.R ' 8.6.1.5.5.:.<.;.V x M - 2 I ! x M X.p.' M o.5.6.5.t.t.t.8.5.7.y.:.[ x ' :.' o.! R :.<.;.{ ' ! X.{ I a 1 - r ;.8.5.5.8.1.8.1.&.o.O.1.4.8.8.8.1.1.5.7.7.6.6.6.6.6.6.6.6.5.6.5.5.>.,.:.X.X.>.8.8.5.:.! :.5.7.6.5.1.t.;.Q { x 1 1 - O - M M 8.7.5.2.1.O.<.7.6.1.O.1.1.:.>.:.+.5.} I 7.7.5.:.:.:.1.7.1.1.:.} V s 8 d p , % % X X X m &.3.<.1.$.O.O.} F b y i $.+.+.X...1.1.1.1.1.1.<.1.",
"- O - - - - O - 1 1 a ' 5.5.;.;.<.c M } ;.X.:.<.} ^ ! R } ;.V r I :.X.X.^ I ;.5.<.1.;.:.Q 5.7.+.} :.;.} o.' ! ' N ^ X.1.:.:.1.5.1.1.8.1.5.1.:.R R c ^ y.1.1.} :.8.1.8.1.+.+.>.1.>.6.7.1.5.7.6.6.6.7.6.6.6.6.8.6.6.8.6.5.5.>.5.1.o.X.:.>.Q X.X.;.8.1.:.:.X.^ +.1.5.+.8.5.6.5.:.^ R ,.5.5.] M I - r ] ;.i.6.t t ] ] a O x 6.,.8.6.6.6.6.t.6.:.:.>.5.6.6.6.1.5.^ I x } <.<.1.1.1.t.:.X.+.:.X.} 1.X.:.t.t.5.:.:.} ;.5.t.6.1.1.1.:.7.o.7.1.! } >.8.6.:.:.5.5.5.5.8.6.1.6.1.6.8.8.5.' ' U I 7.t.y x :.>.1.5.+.5.8.8.8.8.8.8.8.6.t.t.t.5.5.t.5.1.} +.X.U ' ;.;.[ } :.X.X.^ Q t.5.;.o.R N ^ } y 1.1.:.Q +.+.1.8.6.5.5.5.5.7.1.N s t.:.5.:.:.o.:.;.o.1.5.I I 1.5.7.>.+.:.:.} x M o.o.r + Q d.;.x R R I { 5.7.+.>.t.s.8.6.1.1.5.o.Q r ' R M } X.Q ! ' { X.;.:.7.[ x r + r ^ 5.1.1.5.5.7.7.+.+.1.1.5.8.7.4.6.5.1.5.5.5.6.6.6.6.6.6.6.5.7.5.7.5.5.t.5.:.o.>.5.:.X.[ I U :.t.5.5.5.5.,.I 1 1 O - - r T { V p.6.4.2.+.O.2.4.2.<.| 1.+.:.5.1.+.:.! :.t.5.1.;.:.5.5.8.5.1.o.V a , y n i , &   X X i 3.$.O.1.O._ O.$.R d ^ d B $.2.}  .1.%.2.1.3.&.1.1.1.",
"^ x - - O - - ; ; - - x { :.:.<.X.;.x I :.:.:.:.o.X.' X.Q ! I M x ^ { :.:.! X.5.5.:.O.+.X.+.8.<.X.:.o.M R 1.{ I y R R ' ' X.:.:.5.5.7.5.8.5.5.' } I ' ' 7.7.} ' 7.1.:.5.1.>.>.:.:.5.5.5.5.1.5.5.8.5.5.8.6.7.5.6.6.7.8.8.7.5.>.:.1.5.:.5.:.o.' o.5.1.5.8.:.' +.1.5.:.8.7.6.1.8.8.[ [ ,.,.;.M ^ 1 + t c +.6.U - N ,.! 1 ; Y 2.8.6.6.6.5.6.6.5.>.>.5.6.6.6.8.8.} X.+.R I <.t.:.;.<.:.1.t.t.<.X.^ } 7.8.7.8.1.:.R ' X.X.+.X.+.>.5.:.:.o.+.:.} 1.5.s.1.5.7.5.1.5.5.6.1.8.5.8.8.6.6.o.X.R :.t.o.3 Q 8.5.6.8.1.5.5.8.8.8.8.8.5.1.1.5.5.1.5.7.8.5.X.! :.:.I Q ! ' :.8.:.' X.X.+.X.V c M ,.o.x I y.:.Q X.1.:.+.6.6.6.5.5.1.8.1.^ r <.5.+.+.<.+.;.;.1.:.o.I :.t.7.6.7.1.o.' R ' o.7.x 1 r a s M x :.c x Q ' 1.:.6.t.t.6.t.1.' I a a b I x } o.Q ' c M X.:.<.7.X.b 1 ; - I <.y.5.5.6.5.5.+.1.5.6.>.<.1.2.3.2.1.5.2.5.8.8.5.6.7.7.6.6.6.8.8.8.6.7.+.;.:.+.+.:.:.1.8.7.} Q { 5.5.1.:.I 1 - - O r I X.} N ^ 5.1.1.<.&.5.5.2.1.+.+.1.<.5.>.5.;.c U y.1.7.,.;.1.7.7.7.<.X.V y 1 3 i i , & $ X X X F 2.1.&.1.$.1.O.m F ) 3.y E 5.o.} 5.1.2.5.1.1.1.1.1.o.",
"7.} a - - - - + O - - O r ! :.;.:.;.:.r ' <.<.O.1.1.} } R R R I M M I <.7.X.^ :.:.X.5.1.+.} 8.1.:.:.I d ;.' ! r M ;.+.1.1.:.X.' O.t.1.;.5.:.1.;.' ! ^ ' 1.1.' I o.7.:.1.:.>.6.5.:.:.1.6.>.>.>.6.8.8.5.6.t.7.6.6.6.7.8.8.8.5.1.t.6.8.5.+.1.' ! +.5.X.:.8.5.X.+.+.5.:.5.7.5.1.8.5.t.Q +.;.! 2 c t - t t d I c + N t.,.a @ t ,.,.6.5.6.6.5.6.6.>.>.>.5.6.8.1.8.+.} y.5.Q c o.:.' } :.t.t.8.8.' ' X.5.6.8.5.O.Q N R >.:.5.1.+.7.} :.! } t.t.' 1.1.s.8.8.5.5.5.6.5.8.1.8.1.6.t.t.8.X.} ^ 8.i.V 1 +.8.t.t.t.7.:.5.6.t.8.8.t.s.5.1.:.+.+.1.5.1.X.Q b a R } t.U U R ^ ' Q ' ' d M ! ' 7.7.! r 6.5.+.M :.:.5.1.5.6.6.7.6.t.:.7.7.r N :.:.o.5.1.<.:.t.' M M ' ' ^ X.^ Q a x ;.o.X.a 1 - M ;.X.d 1 x I :.I a I U +.6.t.1.! a 2 x a y +.1.! R 7.Q R I x I :.<.;.x 1 - - r 7.a.5.8.5.5.5.1.1.6.5.1.>.1.1.1.1.1.6.7.7.6.6.8.8.6.8.6.6.6.6.8.6.5.5.1.,.5.8.7.5.5.t.t.5.5.:.X.r a V I r - 1 ; + 1 a ,.;.) M } 3.5.5.<.<.<.5.5.1.&.5.1.<.5.5.5.N r :.t.,.y.;.:.7.7.5.5.;.I y 1 1 y M , : %   X o X < ^ ) } ^  .E d R p.2.} 8 O.o.~ &.1.3.1.1.1.1.1.1.<.E ",
",.X.1 ; O - O - - - - - + ; r I ' ;.;.I x ;.:.;.1.<.<.:.} b M I b a a I X.' ! ! X.X.5.1.1.X.+.8.:.<.Q a Q } I a X.:.O.:.+.:.<.:.} X.} :.1.:.5.+.} ' I ' ' ;.1.:.' +.+.>.5.5.5.6.5.:.1.>.>.6.1.5.8.5.8.8.5.8.5.8.6.6.6.6.6.6.8.6.6.6.6.1.:.:.' X.5.8.8.X.:.+.<.6.:.:.:.>.1.5.6.6.6.[ M } R ^ U I O 1 :.;.[ I r ; U N U a - U ,.6.6.6.6.6.7.1.:.:.X.6.8.7.8.5.5.^ 8.5.>.:.V Q N X.8.t.5.8.1.! :.:.o.5.:.:.} ' } 1.>.5.6.y.:.M ^ } >.1.1.6.1.' 6.8.8.6.5.1.1.5.8.8.>.6.6.5.8.5.5.X.X.^ t.5.3 x 6.8.8.8.8.6.5.1.5.6.8.8.8.8.8.5.5.5.:.X.1.1.;.:.:.' I X.' ' <.X.R I V M I I :.<.5.5.1.a R :.>.^ } 5.1.X.1.8.8.8.1.5.5.1.6.8.I r ;.1.:.1.>.+.:.Q N M ' >.>.5.1.:.c c ;.7.' y x y 1 ' <.O.;.y 2 x x s c x 1 2 c V R ! ' } 1.N X.:.[ ' ! I X.X.{ ' I M M r - - : 1 } <.5.8.5.7.5.>.1.6.t.7.7.5.+.:.1.1.<.6.8.8.8.8.5.5.5.8.8.6.8.7.6.5.5.1.1.8.8.5.5.5.5.5.:.:.:.;.' I I a - ; - ; - ; R d u ^ ^ r 1.3.5.1.&.+.5.7.7.:.1.7.6.t.5.6.' ! } ! i.5.6.5.,.8.7.5.;.I a 1 : 2 v y : % X X X X X   @ @ @ @ @ @ : a b R N 3 T V R <.5.1.&.:.<.+.O._ I R ",
";.' - - - O r x r - O + - - ; 1 r a I { 1 ^ y.:.+.;.1.<.7.{ r M X.X.x 1 I O.;.<.' <.;.:.1.X.{ <.;.+.I R ' Q x ' 5.1.7.:.:.+.:.1.1.:.} } +.<.1.' } Q N } I } t.7.X.X.X.:.1.5.1.6.1.1.6.>.:.1.5.1.1.6.8.5.5.5.8.5.6.,.,.5.5.5.6.6.6.8.8.5.:.o.o.' u.8.8.8.8.R ' y.5.:.>.:.:.5.6.5.1.[ N >.' :.:.M 1 - I ' X.7.I ; ^ ] U V - t ] ,.6.6.6.5.7.:.o.8.5.1.t.8.6.i.8.' +.1.>.5.:.^ x ' :.5.8.8.t.' 1.y.} I ' X.5.>.X.5.>.1.t.0.+.! :.5.t.t.6.1.8.o.o.i.5.6.5.1.1.6.t.8.5.8.8.6.t.6.6.X.X.^ d.o.1 ' 8.t.6.8.8.8.8.1.5.t.8.8.t.8.5.:.+.X.} ' o.:.<.<.5.5.o.:.7.;.' ' ;.o.o.;.I <.:.X.o.} I x :.7.+.} 1.8.t.+.+.7.1.1.o.o.:.y.t.t.+.3 ' :.5.1.} +.' N X.' >.t.8.t.t.+.U 7.<.:.a x <.x s o.<.;.7.x N ' } ;.:.o.! ' 1.5.y.6.t.d.' I 6.[ ' ! { I c ;.I r - r 1 1 ; - 1 R } t.8.<.1.o.}  .+.5.:.1.:.+.} ! ^ Q ! ^ o.+.5.8.6.1.8.8.5.5.5.8.5.8.5.5.7.8.5.5.5.7.8.1.+.X.+.1.5.;.M 1 - - - 1 + M <.+.0 i b B 2.7.6.1.+.1.1.1.1.;.5.t.5.6.>.+.! 6.5.' 1.7.7.7.7.5.7.:.I a : 1 r a s 8 & @ X % X @ X X X   X : : @ X X @ r v d { ^ V ^ +.+.1.O.R ^ F M ' 1.",
"r r - - - - Q :.{ M 1 - - + + ; + + + 1 - a ~ <.:.o.X.1.1.7.;.1 a X.~ a r ;.X.7.M X.5.:.:.:.} ;.;.Q ' Q 1.V b :.1.1.5.1.1.;.+.:.<.5.5.:.;.' N Q 7.;.I [ ! I :.<.o.:.1.>.:.1.>.6.5.1.5.>.>.>.:.[ ' +.1.1.1.1.1.8.8.7.7.6.8.8.6.5.6.6.8.7.5.:.:.X.+.8.5.>.:.} ^ :.8.5.1.6.>.:.5.t.} +.1.X.' 1.N c Y r ; Q ;.7.:.; N u.] X.c - t } u.6.6.6.5.>.:.6.1.X.:.:.+.+.:.X.} t.:.8.1.1.' } Q ' :.>.' ' :.N Q :.8.5.y.>.' 6.:.5.6.+.:.t.8.t.7.y.6.>.6.8.} 6.8.8.6.5.6.8.t.8.6.8.8.8.t.5.6.+.X.R t.:.3 ;.8.t.6.8.8.8.6.5.5.6.t.8.8.1.5.1.5.5.:.1.:.} +.X.o.X.7.:.} 7.:.' o.5.;.} } :.+.X.:.5.r x ^ ^ R 5.8.8.y.5.:.8.5.5.:.+.X.<.8.t.y.d N :.1.+.1.6.' } ' ^ t.t.:.7.;.N :.5.' M x o.7.r M ;.<.5.5.M R ' ;.t.7.t.:.o.+.t.t.8.8.y.x ! >.' 1.1.;.I a r a R R ' r + + 1 M I I ' ^ ' } Q R } } X.} } X.o.X.} +.;.+.1.X.} O.+.:.1.6.8.5.6.6.5.8.5.6.8.8.6.6.7.5.8.8.6.5.t.5.+.! y : - + - r r ; ;.{ 5.} i 8 ^ 4.5.:.o.:.1.5.>.+.1.7.y.6.t.o.' ;.7.8.o.:.7.,.y.5.,.<.T a 1 % r s a r , @ @ @ X X X X   X @ 3 ^ } R M 3 % a i M +.2.} ^ | ) ! X.^ M y ^ 1.1.",
"} r + - O r I ^ :.,.' c 1 - 1 ; - - - - O O ; s R ;.:.X.;.:.:.! 1 r r - r I Q ;.I Q 1.1.5.5.o.o.5.R } } Q x o.;.:.:.:.1.5.1.1.1.1.1.1.1.1.<.X.! o.X.M R o.N o.;.o.;.5.7.5.1.o.:.>.5.t.6.5.1.:.X.X.:.+.} X.+.<.:.:.;.:.>.7.6.5.6.8.8.6.6.7.1.>.:.V +.Q V Q ' } :.o.1.6.1.1.>.>.X.X.5.>.! x I I ' :.r O I :.:.,.x > >.,.,.;.t + a o.1.8.t.,.5.8.8.5.X.X.1.6.5.1.<.! ^ t.1.1.>.:.8.5.+.{ Q c x s I :.1.t.6.6.1.[ 8.>.1.+.X.5.8.t.t.6.6.t.8.o.>.X.1.8.8.8.6.6.8.t.8.6.t.8.6.t.7.t.>.+.I t.} r :.y.t.t.8.8.8.7.8.5.5.8.t.7.5.5.1.5.5.;.' :.<.o.<.X.} :.:.} } } } Q ' } ^ :.:.R ' ' 1 R Q o.I I t.1.t.u.8.:.6.5.8.8.6.5.:.:.1.d.' a ;.5.:.8.} X.7.I +.6.t.t.7.R +.6.1.a I 7.{ ;.1 I :.<.t.7.M I :.<.7.5.7.:.o.<.1.5.p.8.' a ' } [ :.[ I x I ^ R I ! x ; - ; N { Q o.:.5.+.:.X.:.5.:.1.1.:.:.<.X.X.1.6.8.6.6.1.1.1.:.1.6.6.8.5.6.y.5.8.6.6.8.8.6.6.8.6.7.7.8.5.X.V r 1 - + x X.M + a ;.6.o.+.v r  .2.<.( X.5.5.5.>.+.8.7.5.8.;.' :.6.5.5.:.1.5.>.8.1.,.~ a 1 1 3 a y r 2 % @   % 3 o   X X X   , ^ ^ { o.T @ 2 r } 2.O.} X.| } <.O.d v +.O.o.1.",
"Q x O O ; a r r 1 y I ' N r 1 r ; ; - + O - O O 1 d R :.;.} { R x a R I ^ I a r r x ;.:.5.7.;.X.<.^ ' V x ' o.;.} +.+.:.1.1.5.1.1.5.5.5.6.5.1.' } 1.X.M ' Q I X.[ } :.5.8.:.' X.X.X.:.:.:.X.' ' +.X.' ^ } ;.1.1.5.5.5.6.t.6.5.6.8.7.7.6.6.8.5.+.R I X.:.<.d.X.8.:.+.} } +.X.O.R ! R M I I ;.7.' X.Q - r >.,.,.x O c ,.} i.! $ ; d ! :.t.1.1.8.5.8.>.5.t.7.7.t.t.+.Q 1.y.8.5.>.8.8.t.5.} Q +.5.5.5.i.6.8.8.8.X.1.<.X.} 5.i.s.s.5.8.t.t.t.>.:.:.} 5.7.6.8.8.8.8.8.8.8.8.t.t.6.t.>.:.! ,.I y 7.i.8.8.8.6.8.8.t.5.5.7.8.8.6.8.5.8.t.t.} ' 7.} } :.:.I R ^ R ! o.X.M d Q ' Q I X.x v :.X.^ { X.1.1.u.8.8.+.8.6.5.8.8.6.y.+.X.1.} r R :.1.} ;.p.;.V :.6.t.6.! ! 6.>.x s X.[ U I 1 I :.1.t.:.x M :.5.>.5.6.5.+.:.} 1.1.<.a I } 1.7.1.+.;.! { { { I x 1 - + x <.} } 5.5.8.8.8.1.5.5.1.t.8.8.8.5.+.:.8.6.5.5.5.1.6.t.6.6.6.8.6.5.8.8.5.8.6.6.6.6.6.8.8.6.7.7.5.R a 1 ; - r ! 1.5.r @ Q } 5.$.O.v i $.1.X.} 1.w.7.:.+.1.8.y.7.+.^ +.6.5.7.5.:.1.1.5.,.:.Q x r 1 r 2 r 1 : % X X 1 E } 0 @ X X o X   1 X.5. .o.r r r ^ +.} } :.5.1.~ 8 d <.$.+.+.1.",
"r a O O ; ^ :.;.} ' N a a r 1 r r r - - O O + + + O - x ' X.;.{ ' a I X.M I a a R } ^ ;.>.7.7.:.:.x x r I X.' X.} +.X.+.1.1.1.5.5.5.1.5.5.5.5.:.+.,.5.M ^ R M ^ Q ' ! } +.} ^ X.[ X.X.X.} o.' X.6.5.1.1.5.5.1.5.6.8.6.6.5.5.7.6.8.6.6.6.5.6.8.;.' I o.1.1.5.5.;.;.' I ;.5.o.x a M ' 1.+.X.7.7.7.' :.2 : o.,.8.N t ! U ;.,.,.c @ x M X.:.7.1.t.5.t.5.5.6.5.t.:.:.X.M o.o.5.o.' +.' ' X.+.+.8.6.6.6.8.5.6.8.8.X.1.' X.8.t.8.8.8.t.t.8.8.t.t.8.1.Q :.8.6.8.8.8.8.t.8.8.8.8.t.8.8.5.;.I M r s 6.t.t.8.8.t.6.8.t.8.6.6.8.8.t.t.8.6.8.7.8.} X.1.Q X.;.} } ;.1.R Q I M V V I ;.:.:.M } ' X.I 1.:.:.5.8.8.8.:.5.5.1.1.<.>.:.1.o.! ' a r o.X.} 5.t.} } 5.6.7.:.Q >.:.I r N X.,.+.x ; R 1.7.7.o.V x +.,.7.5.5.>.+.>.;.+.1.! y } y.7.:.+.6.7.;.X.;.;.I a r ; r [ 7.X.o.5.7.7.8.8.>.+.1.:.:.1.6.5.6.5.:.7.5.1.+.<.1.,.>.>.7.5.5.6.8.5.6.8.5.6.6.5.8.5.8.8.7.7.X.M 1 - @ r c o.7.5.o.1 a :.+.^ 5.} k n +. .} 2.6.8.1.} :.8.5.5.:.' +.6.5.5.6.6.+.:.;.<.;.} I r r r 1 1 - % % @ @ y ) 1.1.^ i % X X X O X r ~ +.$.b 3 : B } O.{ R a r : : ) +.<.o.X.1.",
"- - O - r } :.:.:.1.1.1.:.:.' ^ Q Q M s ; +   O O - @ O - a I } <.;.r c r X.:.! V ' ' I 1.o.7.:.s 1 b ^ 5.o.5.:.5.5.:.+.5.t.7.1.1.7.5.5.5.1.5.5.:.:.7.I ! } x Q [ X.;.1.7.:.;.1.:.:.6.5.1.:.Q } 5.8.5.1.5.7.1.5.5.6.6.6.6.6.6.7.6.6.6.6.8.6.1.5.o.' :.7.7.:.;.:.5.8.' 7.<.x a N x x x x b I ' t.X.o.' 1 M u.i.Y s 6.Y ;.,.8.} 2 1 a ;.1.:.5.y.6.8.:.1.t.t.t.1.+.X.[ Q I N x U o.5.8.5.:.1.t.7.7.6.8.8.8.s.8.+.' R 1.f.s.8.8.8.8.t.8.8.8.8.8.8.X.' 7.6.8.8.t.t.u.y.8.5.7.6.t.6.[ I a ' x s 8.8.t.t.6.t.8.8.y.8.8.8.8.t.6.5.,.:.;.X.+.:.' } I R Q I I R R 2 ; M 1.t.o.} Q :.M X.o.:.[ } a.:.:.+.7.s.8.:.5.5.:.5.X.+.1.6.t.6.:.N @ R o.7.6.1.' ' <.t.8.U X.7.' r ! :.7.t.6.a r ' t.6.>.} ' Q >.+.5.8.6.:.>.+.t.;.:.d I X.+.1.>.1.u.y.X.:.7.X.x y : 1 I ;.:.' } o.5.5.5.+.:.1.1.6.5.8.8.8.6.1.+.t.t.8.1.:.:.;.o.>.6.5.8.6.5.8.8.6.8.8.6.7.7.5.8.5.,.X.y + @ O r ^ 6.y.5.:.N - Q 8.:.) o.<.d u } | $.8.8.6.1.^ 5.6.8.:.Q :.,.5.5.1.5.1.+.1.1.;.} I a a r r - : 1 - X % N X.5.3.2.2.V @   @ X O     3 V R 3 -   1 y , X   @ 3 @ : { +.+.O.+.1.",
"O ; O + ; Q ;.<.:.:.1.:.:.:.<.1.<.;.X.X.X.! V x 1 - O O O @ + ; r I r - I ^ X.' ' I N ! ,.:.[ r x x ;.} <.5.<.o.:.1.5.+.X.1.5.5.7.5.5.5.5.6.6.5.7.} 1.^ U I N ' :.[ +.:.6.6.1.7.:.+.5.5.7.:.X.o.X.5.5.5.5.5.8.5.5.7.6.6.6.6.6.6.6.8.6.7.6.8.8.5.:.+.1.:.5.5.>.:.:.1.' V r r x I Q +.;.1.:.^ R I o.o.>.2 ; :.8.U t 8.;.! $.6.8.U O x I 1.! :.8.7.7.5.8.5.:.;.:.o.Q I x :.5.+.:.5.8.8.8.1.:.8.6.6.8.8.8.8.8.8.X.I Q ' :.8.s.5.8.8.8.6.8.t.8.8.5.8.^ X.6.8.6.t.8.8.5.t.t.t.8.+.Q ^ X.' 5.' r :.t.y.8.t.8.t.8.8.8.t.t.8.8.t.8.6.5.5.5.5.:.Q x ' :.+.} ' R N ~ :.:.X.:.<.5.Q ' c <.;.X.' t.t.8.<.X.+.5.6.+.t.8.+.6.1.8.t.t.5.5.5.+.t a :.7.t.o.^ :.5.:.' X.5.' r [ >.t.5.5.:.y x ;.t.5.+.} ' ! X.t.:.1.6.t.>.<.;.X.b a :.<.;.>.t.y.8.8.;.7.} b r + - M ' ;.^ ' X.} :.+.1.:.:.1.6.6.8.1.6.8.8.5.+.5.5.8.t.7.;.X.} X.:.5.8.8.5.5.5.5.5.5.y.5.7.8.5.X.c 1 - - - N ;.5.t.1.1.{ : r :.5.1.1.^ O.d , { &.7.7.4.6.<.o.7.7.+.} :.5.5.5.5.1.5.1.1.7.1.;.I a a a r 1 - - - @ r F $.4.1.1.2.3.B y a @ X X X O   @ @ @ % @ @ - % i R } { 2 : ^ 1.5.O.' T ",
"+ O + O r ^ { ;.;.} } ' ' [ X.;.<.<.:.:.:.:.<.<.X.~ a ; + + - - - - - r x I V a Q o.;.5.7.t.x x } Q ' ' 5.<.:.:.:.+.:.5.1.:.1.t.8.6.6.6.5.5.6.5.t.:.6.! ' r o.X.:.:.^ X.7.5.>.5.>.+.+.6.6.X.6.6.o.:.5.5.7.6.5.7.6.6.6.6.6.7.6.6.6.6.7.5.7.5.5.8.>.} t.5.X.+.t.+.R I s x I [ 7.7.:.5.6.6.1.5.,.X.N N [ y O U !.U s 5.8.Y Y ,.8.,.r - ' ' ;.' ,.t.8.7.1.} +.[ ! ^ X.} ' X.7.1.+.} } :.X.} } 5.8.6.t.t.8.t.7.1.X.>.o.+.:.X.:.8.8.8.t.t.8.t.8.t.8.t.:.^ :.t.8.8.8.8.1.1.:.} ! I } y.:.R 5.o.1 ;.5.7.t.8.t.8.8.t.8.y.t.6.t.6.8.5.1.1.5.8.y.+.d V b M I ' :.;.1.:.5.t.:.} ' Q 1 :.5.o.X.1.6.:.1.1.1.:.X.+.+.p.t.o.5.8.1.5.t.t.5.:.;.I 2 } 1.:.' { { ;.' a } R x +.:.>.5.5.>.' r x :.5.>.[ [ [ } M 5.5.t.t.t.t.X.^ } s I ' } :.t.8.1.t.5.+.:.M 3 : 1 I O.;.1.{ :.<.X.7.:.1.8.5.:.8.5.5.1.1.5.6.5.+.8.t.t.1.5.:.>.1.+.} 1.5.7.,.5.5.7.5.7.7.y.7.X.a r ; + + a ' 6.7.6.5.7.7.N   V 1.1.1.2.} ! N i } 3.2.6.8.5.&.5.5.X.' ,.5.8.5.5.5.5.5.8.5.5.X.R d r r r r - - - - a { 1.1.$.1.2.2.1.b G 1.F , X @ @ X O @ - : - % : 1 d Q  .+.x @ 3 a u 3 @ - ",
"x O + O r X.<.7.1.8.5.5.:.' ! ' { X.X.X.X.! R ^ ;.;.X.R x 1 + + + ; - - - 1 a r 3 1 M ! ' R a ' :.X.' Q ^ 7.;.1.6.1.+.+.:.:.o.:.5.:.>.1.5.6.6.5.6.7.5.R Q V X.1.X.1.:.[ } 5.5.+.8.6.:.1.6.X.7.6.5.1.:.>.6.t.6.7.5.6.6.6.6.6.6.8.6.6.5.7.8.6.5.8.:.[ 8.o.Q I I s 2 N } 5.:.7.t.>.:.,.6.6.8.8.t.5.7.' r r O r U x c i.5.5.I } i.8.! + a I x M R o.o.I [ X.b ^ 5.;.5.;.I x :.y.[ ! ' :.1.:.' 5.6.5.8.t.8.8.t.X.:.s.1.5.5.X.} +.8.8.t.t.8.6.8.t.t.5.t.X.:.8.8.8.8.1.1.:.^ M ^ 6.8.5.1.' t.<.1 ' 8.y.6.t.8.8.8.8.8.6.8.t.6.t.t.t.8.8.t.1.5.o.^ 5.1.5.7.t.5.:.+.5.6.8.5.;.^ Q r 5.:.! >.7.} 1.' :.5.8.1.+.' 1.:.:.5.>.5.1.:.>.5.:.' ! r y ' R ! :.:.;.x I I y [ ;.5.5.7.7.1.! 1 x 1.1.:.+.o.Q 8.^ V 7.t.7.1.<.' X.R r ! ' ;.1.X.>.t.5.:.X.I r - O c } } ;.+.} :.X.Q o.X.' X.1.1.5.8.5.5.:.:.>.5.:.1.:.5.5.1.5.7.6.:.! 5.1.' I c x t r r r r c r - O - ; I 1.<.,.6.6.t.t.:.r r +.1.<.:.1.o.F d y } 7.2.6.5.1.1.8.:.} 1.y.:.5.5.5.5.5.6.8.5.:.R x 2 r r 1 1 - - O I ;.5.2.1.<.3.1.3. .F +.&.1.) y 1 X   O X @ % % @ @ @ O - 1 s 3 X   @ X @ O @ ",
"I O O O 1 ^ <.5.,.1.:.1.:.X.:.1.1.:.:.:.;.:.o.} { ^ ;.O.;.X.I r O : + : a ' 1.:.} R c M d y Q X.5.1.X.X.Q X.5.1.1.5.:.:.5.:.X.X.:.1.1.1.1.1.5.1.<.5.' ^ M :.} <.:.1.>.X.I ' 5.:.6.t.>.:.1.X.5.6.6.1.5.1.:.;.1.1.>.1.5.5.6.6.6.6.8.6.5.5.1.:.X.} [ Q +.:.;.M U ^ ;.t.X.6.:.6.6.5.:.:.5.7.7.5.5.7.5.X.x ' x + > M c 6.5.,.] D 8.8.:.a O r 1 : 1 - I o.[ Q +.' +.} o.} ' x d U [ +.5.1.5.5.X.5.6.5.8.s.8.t.:.X.8.t.1.1.5.:.X.X.+.1.5.8.8.6.t.8.5.5.7.t.+.;.t.6.5.+.' ! } 1.6.8.7.8.6.! t.1.r ! 6.t.t.6.8.8.t.8.8.u.8.8.8.8.8.6.8.t.8.5.8.} 5.1.5.5.1.1.7.5.:.8.8.s.5.7.! M x O.R :.6.5.:.6.X.o.<.8.5.5.X.5.X.} o.t.7.t.<.1.<.X.X.:.R - ! ! } ! X.' R Q s X.:.:.1.5.7.5.:.' : M t.+.+.5.+.R 8.6.R ' t.1.o.:.1.X.x M { :.+.o.:.;.' ' o.' y 1 + a ' :.<.+.T } X.+.o.5.:.o.;.X.+.7.1.5.6.7.5.1.1.:.5.+.:.5.1.5.>.t.8.} ! M t r r 1 r 1 ; ; - - - - 2 M ;.8.5.5.7.5.1.t.:.! 1 M 5.<.1.1.1.<.} a y O.2.3.5.:.:.1.:.} ,.5.5.5.y.6.5.6.6.5.6.:.Q a r 1 1 ; - - - 1 I :.7.5.<.1.3.<.1.O.G ~ 7.%.O.1.^ R V n r : : : - - - % @ @ O X @ - O @ @ y x M ",
"a O O O O 1 X.;.7.7.1.<.:.' 1.1.1.<.<.<.5.:.:.<.:.;.;.7.<.5.<.^ ; - + x ;.7.:.7.<.^ } ;.+.:.' R ' } +.1.5.' :.o.8.6.1.5.1.1.;.X.+.>.1.1.1.1.1.5.;.o.' x R :.X.+.;.X.+.:.:.' [ :.5.5.5.>.1.[ 5.5.5.5.8.6.+.X.1.t.6.:.:.5.6.6.6.7.8.1.} } ' X.:.5.7.o.1.+.I R t.d.1.t.X.:.o.7.t.5.+.5.5.t.,.t.5.t.7.U ' :.X.; t ! t U 6.6.,.c >.u.o.I - r I R ! N 3 r s >.<.X.' ' X.1.} I Q } 5.8.8.1.+.5.+.:.5.5.7.t.t.5.X.1.6.7.6.5.5.8.:.:.:.o.X.6.i.7.1.1.1.;.1.t.} b I V Q Q X.1.t.8.8.u.8.t.t.^ 8.y.a Y 8.8.8.t.6.y.8.8.8.8.t.8.t.t.8.8.t.8.8.8.1.X.6.1.5.8.7.5.5.t.1.y.5.t.5. .;.o.c I :.d.t.>.5.5.+.;.1.5.6.>.+.8.8.+.! +.s.t.y.5.R ^ <.;.5.1 d ;.o.! ;.x :.a Q >.+.1.5.5.8.1.5.' - ^ i.} :.y.1.' 1.5.,.M >.} o.5.1.N I +.! R ' ^ ! N N R T d % - r o. .<.<.^ ^ 1.5.5.X.p.6.:.+.5.I X.t.8.5.8.6.5.1.' 5.+.+.:.8.1.y.t.y.^ a r r r r 1 r 1 - 1 + O ; x X.y.5.1.:.5.7.5.7.7.;.1 t } 1.1.1.2.5.5.5.b b 8.1.<.5.X.5.:.' >.5.6.8.6.6.,.5.6.5.6.5.' x t r 1 1 r 1 O 1 ' ;.:.5.,.2.<.2.2.1.O.n +.5.$.$.1.5.1.1.+.+.:.y 1 1 : - @ - 1 r a I a r - - y ^ <.",
"1 O O O O O - c I I ' :.:.X.1.1.1.5.5.1.5.>.>.5.5.>.+.6.1.7.5.>.M -   r :.:.7.;.X.Q ! ;.:.<.:.o.o.X.^ ' ' I :.>.>.:.5.7.1.1.:.:.:.1.1.1.5.5.1.5.:.' +.I V 8.+.:.<.:.5.1.:.1.X.^ X.8.5.8.5.} ;.7.1.7.5.5.1.1.1.1.5.7.t.1.:.:.:.+.+.+.:.1.;.5.7.8.X.V ^ ' X.1.t.8.:.t.o.o.[ 5.t.5.o.1.7.1.t.1.8.1.' 1.X.:.6.r ; U M a ] 1.6.X.! 5.] ! d + N :.' :.1.Q a a X.o.Q ! :.o.I R ;.o.t.7.:.>.7.5.1.1.8.7.5.8.8.+.o.8.5.5.8.1.>.5.:.:.8.+.' X.5.5.1.:.1.:.o.' ' o.u.1.:.8.u.t.t.8.8.t.t.t.6.^ t.t.a Q 8.t.8.y.6.t.8.8.8.8.t.8.y.6.8.t.8.8.t.6.[ :.5.6.5.8.8.5.5.8.5.8.y.8.5.} 6.5.y M 1.s.s.6.5.1.+.1.1.1.8.:.:.>.1.7.>.+.>.6.y.:.X.+.:.} +.M : ' R 1.o.M r ^ } ' <.t.7.7.5.:.6.' - [ t.+.:.8.5.^ :.5.7.' x } :.:.} x N ' +.:.5.6.t.:.' ! i 3 @ , ^ 8.&._  .^ } 3.5.5.:.8.1.t.} 5.+.[ :.6.6.6.6.6.5.} 5.:.1.:.t.7.7.5.^ y x Q +.:.+.o.[ N 1 + - x ' :.5.5.5.5.5.5.1.5.5.5.M - R 5.5.5.5.5.5.5.1.I 1 [ 1.1.5.:.+.} 7.1.7.6.5.7.5.6.6.6.6.5.X.I r r 1 r 1 r - a [ 1.1.1.5.1.1.2.5.1.7.N E 1.1.1.1.%.1.1.&.1.<.<.R R  .1 1 R ' +.:.8.1.5.! a x 1 - r ",
"+ + + O O + O r I I r r a I :.t.8.7.1.5.5.5.5.6.6.5.:.6.5.5.5.5.+.t + + I 5.:.X.:.X.:.5.5.<.1.:.+.t.5.X.' ^ :.<.:.:.:.1.5.5.>.1.5.5.1.1.5.7.5.>.:.^ :.U M 8.;.:.+.;.1.5.>.+.} Q Q } X.1.1.+.o.8.:.7.5.5.8.6.5.1.6.6.1.t.X.} :.1.1.1.7.>.:.1.} R M I :.t.1.1.6.8.:.1.;.o.' 5.8.1.o.1.1.8.1.d.5.[ +.t.5.} 6.U - N ] ;.s r 2 t s ] ' I I 1 1 ' o.' <.5.X.^ x r a ^ o.;.M +.7.} 1.1.;.<.8.5.;.1.5.8.t.t.>.} 5.5.8.t.5.1.1.+.:.s.t.8.1.:.+.} :.1.} } o.8.<.5.s.t.t.8.8.6.8.t.t.t.8.t.6.^ 8.t.s Q 6.8.t.8.8.8.6.y.t.8.6.t.8.6.8.8.8.u.s.:.' 6.5.7.5.8.8.6.8.8.5.8.8.7.' >.6.[ r X.8.5.6.6.8.6.<.8.:.>.1.[ +.:.6.5.t.6.X.<.o.X.8.:.5.' o.I r x X.;.^ c a <.o.I 5.t.7.t.1.:.t.Q   X.7.[ 6.i.8.' } 8.+.+.} V } I x 1 ;.:.6.y.1.6.1.5.} d 3 @ , R 3.O.o.%.&.E | 1.:.+.+.1.+.8.o.X.X.>.>.8.6.6.8.6.1.[ ,.7.5.o.;.t.8.' x ! X.;.t.8.:.1.Q a + r Q 7.t.5.1.5.5.5.5.5.5.5.t.X.1 r :.7.5.5.5.5.5.6.:.d c R ' t.o.} :.:.1.1.5.6.5.5.5.5.6.6.7.X.M r r r ; ; - ; a } >.1.5.5.>.>.1.2.1.1.| d <.1.1.1.2.$.1.$.<.1.1.1.<.:.+.: 1 ! 1.:.1.<.;.:.[ ^ 5.' I y ",
"O + O + O O + r ;.<.:.:.! x y M +.5.5.7.7.5.5.5.5.5.>.6.>.5.5.:.t.R 1 O 1 Q :.7.t.:.:.5.7.7.t.1.+.1.5.5.:.;.X.X.5.6.:.1.5.5.1.:.5.5.1.:.5.6.7.5.:.o.:.R R X.:.1.;.:.X.+.' ' +.1.} I } ^ ^ ' Q 7.>.5.1.5.5.5.5.5.1.5.1.+.X.:.7.6.<.:.:.} ^ ' :.X.} ;.} <.,.6.6.t.<.1.:.;.+.5.6.5.o.7.5.1.5.7.X.o.t.7.6.[ :.1.1 r t U M ^ o.X.! a r x a I 1 : X.^ } ;.} 1.<.V a a x Q I 7.5.:.X.<.5.5.6.8.1.:.:.;.:.X.Q ' 5.6.8.8.8.:.:.X.1.8.:.5.:.} Q V R } } <.8.t.5.t.s.u.8.8.t.8.8.8.t.8.8.t.5.' 8.t.d ! 6.t.8.8.8.8.8.8.8.t.t.6.t.8.8.8.6.t.t.' >.t.8.5.5.6.6.8.8.8.5.8.t.o.[ :.X.[ a 7.8.8.8.8.8.5.:.8.1.5.+.' +.+.5.1.6.6.y.' ;.1.8.1.X.' } ' I : } ' a c ^ t.;.! 1.6.6.8.7.>.t.I + ! o.;.t.t.5.' ' o.;.8.} N a R x M o.:.,.5.5.5.1.6.U 1 @ : F 1.3.} +.8.1.) 1.1.+.X.1.1.5.;.:.;.} :.5.6.8.6.8.6.5.o.:.5.5.:.:.:.M x ' <.>.6.5.5.:.I 1 - M ;.7.5.6.5.6.6.1.5.5.6.7.8.>.a 1 ' 6.6.5.5.5.5.6.7.5.x V >.U ! ' ;.:.5.1.5.6.5.5.5.5.6.6.8.:.V r r r r 1 - 1 y } 6.:.>.5.5.1.1.2.1.2.1.b ^ 7.1.1.3.1.1.1.%.+.1.3.2.5.<.} 3 @ 8 o.<.5.5.7.:.} ' 1.:.<.:.",
"O O O O r s - + r { :.1.1.:.} :.5.7.>.1.5.5.5.5.1.5.:.7.5.>.5.1.5.;.x 1 + a :.5.:.5.1.5.5.7.7.1.+.>.6.>.+.5.:.} :.6.5.5.5.6.1.>.1.5.1.1.>.5.5.8.:.>.1.' ' o.+.:.[ X.' X.1.1.+.:.1.1.X.1.1.' N o.>.6.5.7.5.5.6.5.6.:.X.1.>.6.8.1.X.' ^ ^ ' ;.+.R o.1.R 5.:.:.6.6.5.<.<.:.1.5.6.5.o.t.t.:.:.^ +.8.6.8.5.} :.8.c @ ; U >.5.i.6.,.} s ! :.X.I - I X.Q R ' o.;.<.;.} I x a d V } ' ' X.+.X.Q c s x x M ^ +.:.+.>.:.1.+.I N M } :.5.1.+.X.X.O.;.1.1.t.t.t.1.t.t.t.8.8.8.8.t.8.8.8.8.8.5.' 8.6.a Q 5.8.8.t.8.t.8.u.8.8.t.t.6.t.8.8.8.6.:.X.t.8.t.6.6.7.8.8.8.8.5.s.' X.t.Q ' :.x 5.y.5.8.5.1.1.8.8.5.5.:.:.:.+.1.d.t.>.o.! R o.} Q ^ X.Q ' ' x 2 r x :.' 7.X.o.7.6.t.6.7.1.1.N r a I 7.t.t.1.' Q 1.+.' X.:.:.! 1 N +.;.X.7.5.1.u.+.a - , R 1.&.1...2.2.O.} 1.5.5.} :.o.X.' Q ' o.} 7.t.7.t.8.7.8.:.:.7.:.} I a N X.1.7.:.7.:.} b 3 x [ 8.y.7.7.t.5.1.5.6.5.5.8.8.5.Q ; M 5.5.1.1.1.5.6.5.:.' y I 8.^ y I 1.1.5.1.5.5.5.5.7.6.7.5.;.R x a r r - - - y } t.7.;.:.>.5.5.5.5.1.7.O.N 1.5.1.1.1.1.1.5.$.&.1.1.1.1.3.5.V - X M :.<.<.:.:.} 1.8.7.1.:.",
"O O O O x ,.M - O M :.7.1.o.' :.:.1.7.7.1.1.5.5.7.7.:.,.1.1.5.6.:.7.' x - + I :.1.:.5.5.,.5.5.5.1.:.5.7.:.:.7.o.^ +.6.5.7.5.5.>.:.:.1.1.1.1.1.5.>.5.7.' R 1.X.:.X.+.[ X.5.+.[ :.1.5.;.} :.s.:.+.:.5.5.5.6.7.5.5.>.:.5.+.>.:.' } ;.:.' ' } 1.,.' :.1.I :.1.7.6.7.5.1.1.<.5.5.5.1.o.t.i.t.! X.6.5.8.t.6.[ o.i.] @ t ] >.,.2.8.6.+.M ^ :.X.<.2 r 1.<.' 1.1.8.8.7.7.>.:.;.' I x x x a c I I R } 5.t.:.+.:.X.:.5.t.5.:.X.+.^ X.o.:.:.1.5.6.5.+.1.:.:.8.7.:.u.t.t.8.8.8.8.8.8.8.8.8.t.1.[ 6.7.s ! 1.t.t.6.t.6.t.8.8.t.6.t.6.8.6.u.8.>.X.6.8.t.6.6.5.5.8.t.8.8.5.} R } ' X.5.+.b 5.1.5.8.5.+.:.y.t.6.+.1.6.>.:.;.t.5.>.;.X.o.:.! R R a I I X.Q ; + a ' +.7.' :.8.8.6.8.7.1.:.N R r x ' +.5.^ ^ U U ! ;.t.<.t.! I M c T { <.t.7.7.Q r - b 1.8.1.%.1.3.6.+. .O.3.8.+.t.5.<.:.Q b Q ' 5.8.7.8.6.6.7.:.:.:.' x x U 5.7.6.5.+.' b - s o.5.5.7.t.7.5.5.5.6.6.1.5.1.7.6.;.a 1 } 7.>.5.5.1.5.5.:.X.' - M { R +.I ' ;.1.1.1.6.5.5.7.7.5.;.Q x a a r r - - r ' t.1.1.>.>.1.5.5.5.1.1.1.~ ' :.5.1.<.1.1.1.2.$.<.1.3.1.1.1.1.+.8 @ O Q :.o.5.o.X.7.:.1.,.7.",
"+ + O - R 7.;.I O - N ;.1.;.' o.1.1.1.1.5.5.5.5.5.5.:.:.6.1.1.>.1.<.X.R a + 1 [ 7.,.6.5.5.7.5.6.<.1.5.5.1.+.5.+.:.} 5.5.5.6.6.5.1.1.5.5.7.5.:.1.5.7.1.} ' o.X.[ +.X.+.' :.1.5.:.1.1.5.o.} <.8.:.} 1.5.5.6.5.5.5.1.5.8.<.X.:.;.1.o.+.^ } 5.[ ' [ 5.X.I ' ;.;.6.7.5.1.+.1.5.5.7.:.1.u.6.X.X.7.6.5.6.6.6.+.} 6.5.2 t 6.,.8.2.i.6.] o.I 1.o.5.:.3 V 1.:.! o.8.7.5.5.7.+.:.8.6.6.6.7.;.! X.8.t.1.1.:.} 1.5.5.:.:.+.X.;.} <.:.^ } :.:.:.1.5.6.5.:.;.:.1.1.1.y.8.8.8.t.t.t.8.u.u.s.8.8.7.X.8.1.y ' 7.t.8.t.8.t.8.t.8.8.8.6.5.,.,.5.1.>.1.7.5.8.t.5.>.5.5.8.8.8.} ^ ' ' ;.t.:.^ I 5.1.5.5.1.+.1.8.6.+.+.5.:.1.1.+.+.X.} ^ } } o.o.' o.' X.o.! c x I r 2 ! 5.} ;.6.1.t.6.7.7.;.M ' N 1 s y y a M I U ,.5.1.:.<.M X.5.o.Q I I ' :.7.x + r O.4.5.3.<.2.5.3.| $.+.6.>.:.8.t.8.8.<.! I } +.6.7.6.8.t.7.:.I x s U :.:.:.1.o.R a 1 M ' 5.5.8.6.6.7.5.8.5.5.6.6.7.8.7.7.:.x 1 3 :.1.5.8.:.} } +.:.1.! 1 x ' 1.6.:.R R +.>.5.5.5.7.y.7.1.Q x x a r r + O r } 1.,.+.:.:.>.5.5.1.5.5.<.~ s :.1.1.5.1.2.1.5.5.+.1.5.<.5.2.2.<.5.^ r - - a R :.! :.<.,.:.1.1.",
"1 - + + } :.<.:.a O O R 7.1.:.;.1.1.1.1.<.1.5.5.5.5.>.:.>.X.+.+.o.} ' N Q r   a 5.,.5.5.6.5.6.5.1.1.5.5.5.;.1.1.1.+.+.<.>.5.6.8.5.5.5.6.8.6.5.>.1.1.:.o.' } Q I +.X.X.Q ' } :.:.1.:.<.t.:.} >.7.o.} 7.7.:.>.,.:.1.5.1.^ ' 5.s.8.+.^ ^ o.Q Q X.5.} I I } ' R :.7.8.:.;.8.5.8.7.:.8.+.^ [ 6.8.5.t.t.6.t.X.^ +.5.M r ,.6.,.6.>.] ' 8.I ] :.1.!.V 1 ' 7.:.M +.5.<.5.6.:.:.5.7.6.6.t.s.1.} } :.7.7.1.X.' 5.t.6.i.1.} 1.!.1.o.X.5.:.+.o.:.7.8.t.1.1.u.5.:.5.t.8.t.8.8.t.8.u.8.8.u.8.t.5.X.t.} 1 } i.t.t.6.5.6.t.t.8.8.8.t.i.,.u.o.^ 1.t.5.6.8.t.6.6.s.8.7.1.} R ^ ^ 1.t.5.7.R [ t.6.;.8.1.:.8.t.:.} >.1.>.1.X.' +.o.+.:.5.1.} } R V ' 7.y.' : <.p.;.r 1 ! +.o.8.5.t.1.7.<.! a X.' ' ' I M ' 7.X.' :.8.y.:.! s 1.5.;.5.y.! M I Q 1 O I s.1.&.w.$.1.4.3.} &.&.5.:.6.t.8.8.t.t.t.X.[ :.+.6.y.6.} b r x ^ ;.7.8.y.7.! t @ a V 6.y.t.7.8.5.5.5.5.5.6.6.5.5.5.y.:.5.I ; x d +.X.' ' ' <.5.5.;.' I 1 R y.y.5.7.:.U M 1.1.1.5.<.<.;.I x x x r 1 - O - M 7.t.1.:.>.1.5.7.5.5.>.:.X.r I 5.<.5.<.1.5.5.7.1.| 1.1.1.3.1.2.1.1.1.! a ; + - y I ^ X.1.5.t.7.",
"- - + + ^ 5.<.5.X.x O r ' :.<.:.1.:.1.1.>.1.5.1.:.,.+.[ Q } +.+.1.7.7.' ' I ; O I 6.5.7.6.6.5.6.1.1.1.5.8.5.:.1.;.:.+.1.>.>.6.8.5.5.7.5.7.5.5.:.t.7.+.:.! U X.X.+.7.:.:.+.' ' ;.+.o.o.1.7.+.} 5.5.} +.5.5.5.5.5.5.X.! } 5.8.8.5.1.! ' :.5.5.:.1.X.' b I ^ { } 1.1.:.} ' ^ :.5.+.} o.>.6.6.5.>.5.t.' ' U V N V s   t U U D U ] ' ,.+.I ' y.5.5.a a [ 8.' N +.t.8.:.+.5.6.7.6.t.5.8.t.8.+.' 1.5.t.8.X.5.t.6.8.:.1.<.1.o.:.5.:.;.o.X.>.8.6.8.8.5.5.6.:.+.5.8.8.t.t.8.u.8.u.t.u.8.t.1.X.t.[ ; ! <.1.t.8.t.t.8.6.t.t.t.8.6.i.1.} :.6.>.5.6.8.6.t.8.t.t.8.' d M ' 8.8.5.1.t.M O.t.8.+.8.1.1.t.1.^ ' +.X.:.<.;.X.:.X.+.7.1.t.<.:.! ;.! { Q a x 5.5.7.o.y : N ;.6.6.5.7.5.X.;.V N I :.1.^ ^ Q X.:.:.;.5.6.X.d ^ 1.Q O.<.1.:.:.! r - 2 ' _ | X.+.$.7.t.2.} 3.1.5.5.8.t.8.8.6.5.5.:.N X.+.+.Q c c I o.<.;.5.5.' I a r c ' +.o.5.5.7.8.5.5.5.6.5.5.7.6.6.5.5.5.:.I 1 b [ c { } ;.5.+.o.} X.o.} I 2 ' :.+.+.+.+.X.s b >.8.5.<.Q v a x x r - - O 1 x I o.X.o.>.+.>.7.5.1.>.:.X.:.c ;.1.5.5.5.5.5.1.5.1.X.3.1.1.1.1.2.3.1.1.2.;.I a - 1 + - - 2 r a I ",
"O O + O ^ 1.1.1.:.X.t O r } 1.:.:.>.:.1.>.5.1.;.+.+.X.! ;.1.5.1.1.,.1.} ' <.a O 1 [ p.7.8.5.8.5.5.5.>.1.8.5.' ;.:.6.:.>.5.1.5.5.7.6.6.6.5.1.5.1.7.5.X.8.I ^ 6.1.X.1.1.:.:.1.:.>.;.:.:.o.:.:.} ;.t.:.X.:.8.7.6.7.+.R +.8.:.>.t.:.} [ } } ' } [ X.' o.R I ! ^ ! N x I b M I I I V N o.X.' ' } X.' ^ a r x I I +.[ a ; o.1.[ o.,.} +.;.o.a 6.1.p.o.- N 5.y.+.I :.8.+.} 8.8.8.8.t.7.5.8.8.8.5.{ X.:.6.1.1.8.i.8.1.5.+.^ +.:.8.5.X.:.5.8.6.5.5.5.t.5.6.:.+.>.t.6.u.t.u.8.t.t.t.t.t.t.1.;.7.+.t ' ;.1.>.1.1.1.6.8.8.8.6.8.8.:.X.:.u.8.5.7.8.8.t.8.8.6.1.X.^ ' ' 7.u.8.5.5.:.d o.8.8.7.8.5.5.5.} X.:.1.1.7.1.:.X.} +.5.8.1.1.5.:.o.7.+.a y ! ' ^ t.5.:.[ x O ! <.5.7.5.7.5.1.^ R a ! :.X.;.{ ! :.<.} 5.7.' d 5.' ! t.8.1.5.t.} - - I 8.1.2.3.+.R | 1.+.O.w.8.8.8.4.8.8.8.7.5.6.:.X.t x a I X.1.y.t.5.{ c y 1 r M ;.8.8.5.} 1.t.8.8.8.5.6.6.6.5.5.5.5.5.5.5.' 2 x ;.o.M ' X.X.+.^ ! X.5.1.;.s r ' [ ;.5.6.7.y.X.T ' 1.^ M d x a a a ; - + 1 c M I 7.;.^ 1.:.6.5.1.:.+.:.7.} I 8.5.5.5.7.5.5.5.1.o.X.5.1.1.1.1.&.2.&.1.1.1.5.+.~ R a r r 1 + - + ",
"O r - O I :.7.5.1.<.' r O x ;.<.:.:.>.1.1.1.:.+.:.5.:.[ 7.1.:.1.7.5.1.7.{ ;.R +   r ;.8.8.5.7.5.5.5.>.1.1.+.! +.1.6.,.:.5.7.5.,.7.5.5.6.5.1.8.1.;.6.' 1.N :.7.5.X.5.1.+.+.5.:.7.5.1.5.1.1.1.:.+.:.5.1.' o.1.6.:.[ +.t.5.6.t.5.+.! :.} } R ' :.:.o.7.} ^ :.t.;.' ^ X.;.5.;.} } } 1.1.<.:.+.} R x : c o.1.;.^ >.>.U . [ ,.>.} 2.8.<.} :.s ! 7.t.p.M r ;.<.<.' V ' X.1.1.5.6.t.8.6.5.8.u.6.t.1.} X.<.5.1.6.8.5.5.1.' >.5.6.s.8.>.7.8.6.7.5.5.1.8.t.6.+.6.>.6.6.u.8.8.u.8.8.t.t.t.0.5.1.t.o.y o.t.d.8.1.>.>.5.8.8.8.t.5.+.+.5.8.5.6.t.5.5.6.6.1.1.:.Q V ^ +.+.8.8.i.8.5.' d o.1.>.5.7.1.:.} Q 5.5.5.5.:.5.6.;.>.6.:.1.5.+.+.} 8.7.! M x } :.^ 8.s.} I ;.r a X.;.1.1.7.1.;.' U c o.! I R R R Q } :.;.X.N I o.N X.o.+.7.6.1.R - - R } $.7.4.7.%.<.&.} O.7.2.6.7.8.8.t.t.t.7.7.+.Q x I [ X.! I x r r r : r I o.t.8.6.8.5.' +.6.5.t.8.5.5.1.<.6.6.5.5.5.5.[ y a [ ;.{ M O.<.:.:.;.:.1.;.;.^ ; I [ 7.5.8.1.1.5.1.5.V M x r a s a r ; - + 1 I X.I R 7.:.R +.} >.1.+.:.5.5.7.N [ 1.7.,.7.,.1.5.y.;.[ :.1.:.1.<.1.1.1.1.5.5.1.$.5.6.1.^ ' } ' ' ' I ",
"O r b O t ;.5.<.7.1.:.Q - @ N ;.1.:.<.1.1.1.:.:.1.7.>.+.1.1.>.:.,.7.7.7.;.' [ + + + M ;.8.5.8.8.1.6.7.:.X.+.X.X.1.7.6.5.>.5.8.5.6.5.8.6.7.7.5.+.} X.R Q I t.1.1.+.>.8.:.X.1.7.>.5.<.1.1.1.8.6.1.;.o.1.o.I ;.t.;.X.5.8.5.5.>.:.>.[ +.:.5.} :.8.5.1.t.1.Q +.1.>.+.;.o.! } :.:.} :.:.o.X.1.:.} o.R ! 5.i.1.5.' X.5.U O c ,.X.>.s.t.t.X.^ Q I 1.t.t.:.y r ;.X.<.} V ' >.>.1.t.8.:.1.8.8.5.t.8.5.8.1.+.:.+.5.s.1.;.:.5.t.6.5.1.t.8.t.8.6.8.6.5.5.5.t.8.:.t.5.1.8.u.t.t.8.t.t.t.t.s.s.1.5.t.' a :.t.8.8.8.i.t.6.>.8.8.:.X.+.8.8.1.8.8.t.5.+.1.5.6.t.:.R Q +.:.1.7.6.8.t.u.Q c :.7.5.:.;.+.' R [ 5.7.5.1.>.5.+.^ ' 8.8.>.8.1.' :.7.^ I X.U 5.:.+.8.t.Q ! Q R + I 5.;.o.7.:.' } U M ;.7.;.~ I R I T ' Q R a R ;.} t.1.5.7.t.7.M O r :.5.O.+.1.2.<.$.1.W  .$.+.3.7.8.8.8.8.t.8.+.I M ;.:.! r : 1 ; r b M M ' t.t.8.8.6.5.8.U :.t.6.8.5.5.5.+.X.:.1.:.<.<.;.s r ! ' ' o.R } ;.1.<.5.1.1.+.o.! ; X.5.7.5.5.6.8.1.1.{ M M 3 1 y x r r - O 1 ! ' ,.I ! 7.5.' ;.X.X.+.:.7.1.1.o.x 1.1.7.5.,.5.5.7.5.X.+.:.1.1.<.$.1.1.1.1.1.1.1.5.5.+.} ;.:.1.:.1.1.1.",
"O ; ! - - Q 5.:.7.5.7.:.b O 1 ^ 1.:.>.1.5.>.:.>.1.5.1.1.5.5.<.:.1.5.1.5.1.' X.2 - O 1 N 1.6.5.5.5.6.;.Q ^ 1.1.+.:.1.t.7.1.1.6.6.5.5.5.5.5.1.:.;.X.' N I ' 6.5.1.1.} 8.1.o.:.7.5.5.1.1.5.1.1.>.7.1.' X.1.+.b X.I :.:.5.7.6.6.5.5.X.:.5.t.;.1.7.7.6.7.1.Q 1.t.t.X.} ' Q :.1.d.} } X.:.6.+.Q ! o.! 1.1.8.6.<.} 5.:.N - @ U X.[ 8.5.7.+.' } I Q +.5.5.' ; r +.1.1.' } X.} ' +.+.o.1.5.6.8.5.5.t.6.5.1.+.X.+.1.^ ! >.5.1.t.s.8.8.8.t.t.8.6.8.8.8.8.8.6.5.u.8.5.6.6.t.t.t.t.t.t.8.8.d.1.<.6.' y 1.6.t.t.s.5.+.8.t.X.} ;.:.s.8.t.8.8.5.5.6.:.1.d.t.6.^ I X.5.1.8.6.t.t.u.8.I Q 1.t.6.:.8.+.[ } +.o.' ! ' X.X.[ 5.+.X.1.8.t.<.X.:.b M 8.o.' t.>.+.6.;.} :.X.' r ; o.5.7.1.;.x ' I ' ^ t.7.y.:.<.5.' :.7.N r ^ 1.5.s.6.1.:.6.5.x   a 5.5.4.<.%.$.1.1.) F O.2.1.t.8.5.8.8.t.:.:.b a ! I r 2 d R I I ' ;.' ^ ' 7.t.t.6.1.5.6.R 1.t.5.1.8.6.5.1.;.+.+.1.5.;.M 2 I o.X.;.7.! o.7.1.5.7.:.' } } M ; Q t.5.5.t.1.8.1.} c d , 3 r a a r - - 1 Q :.} 5.I ! 7.:.' ;.+.! :.5.5.1.1.I x 1.1.8.5.,.5.7.1.+.+.:.:.:.o.+.5.5.1.1.1.1.5.5.1.:.+.:.8.1.+.1.1.;.o.",
"+ r } a O a :.1.7.5.5.5.X.a + a X.<.o.1.5.>.>.1.5.5.5.1.5.5.:.:.:.>.>.:.7.' ' - + r - 2 ^ 1.6.t.:.' ' X.:.:.1.:.o.+.6.7.6.5.5.8.5.6.5.6.<.;.:.:.8.R M ;.R 5.1.:.5.^ 5.8.:.:.5.5.5.5.5.5.5.5.,.5.1.' ^ +.:.R Q [ >.5.5.7.6.6.5.6.:.>.6.6.,.5.5.5.6.6.7.! :.:.:.[ X.} ' 8.7.5.^ ' <.1.o.} o.o.' ^ t.5.7.8.:.X.:.1.N s a 2 ;.o.5.y.8.:.:.1.' R ' ;.6.5.I : Q :.5.} ^ 8.5.X.} ' ' +.:.:.5.8.t.8.8.8.t.8.:.} } o.7.7.6.5.1.5.8.t.8.t.t.8.8.8.t.t.8.6.6.8.i.8.5.6.6.8.8.8.t.t.t.8.t.8.:.7.t.! a 7.8.8.6.5.5.5.1.+.} +.8.t.8.t.u.8.5.1.5.5.7.t.8.1.} Q } 5.5.5.t.6.7.t.t.5.N +.>.8.6.6.5.+.X.o.8.6.5.t.t.:.X.:.1.8.1.[ } :.+.I I ! 5.t.} :.7.;.:.:.X.<.:.t.1.I r r :.<.1.;.2 R R } I o.7.1.5.7.:.X.:.;.x R ;.} 7.7.t.1.:.7.o.r   x 6.5.2.8.1. .%.3.+.1.1.&.6.4.1.y.t.<.:.! a 1 y r 2 M ' X.[ +.1.+.} ' X.X.o.1.7.5.6.8.1.} 8.t.5.;.8.8.1.6.1.6.o.X.<.' 1 N 1.:.<.7.8.I X.5.:.o.{ O.;.R s x 2 a [ y.5.7.6.>.! N x r 3 T B d 1 - @ - I 5.;.X.:.M R 7.;.' [ ' } :.7.>.5.>.s I 5.5.7.5.5.5.5.+.X.5.7.o.} X.+.1.1.1.1.1.5.5.5.+.X.X.1.:.1.5.<.o.o.o.",
"- R X.I a : ! 7.:.1.5.:.1.X.a + a ;.1.:.1.1.>.1.1.1.1.5.5.1.:.:.5.} Q +.} ' I   - [ I @ y X.+.Q R ' +.:.o.[ +.>.+.o.5.1.8.6.>.7.6.5.5.:.X.+.7.6.X.x ^ :.! 1.t.1.8.+.:.5.5.1.5.5.1.5.5.5.5.:.o.+.:.o.o.^ [ :.d N 5.5.5.6.6.6.5.t.:.>.6.6.1.5.5.5.6.t.5.^ :.+.o.[ +.{ } 5.5.' X.1.t.<.:.X.;.X.' ;.8.8.1.8.5.<.o.:.c +.U O M :.1.7.y.o.>.o.:.' I Q >.>.1.1 N :.} 1.' ;.d.5.:.:.>.1.:.O.[ ' ^ +.;.+.o.+.1.:.I Q 1.s.t.t.6.1.5.8.8.8.8.t.8.8.6.t.8.6.t.6.t.8.6.6.6.t.t.t.8.t.t.t.i.8.:.7.X.N x 8.8.5.5.7.1.:.:.:.6.8.8.t.t.t.8.8.6.1.t.7.:.8.1.^ ^ +.5.5.1.8.7.6.6.t.t.1.R 8.5.i.t.>.1.^ X.1.:.8.t.t.1.} } 1.+.+.1.5.X.[ x x ' y.8.+.:.} 7.o.8.o.>.1.5.7.7.^ I   N 7.7.' r ' M I M b ' ' ;.1.;.5.O.b I { ;.<.1.1.t.8.1.:.I 1 O N 7.t.8.2.3.w.d.w...+.3. .} 2.;.:.[ I s O O O r ! :.;.' :.6.5.5.:.+.:.:.5.;.^ 5.y.:.8.1.:.6.8.8.o.5.8.1.5.1.1.:.:.' r a 1.1.1.5.5.t.R :.1.;.o.1.X.c b ' ' b 1 r ' 7.,.+.U x y - a F ) v r : - O : } <.' 5.1.I ! ;.! X.:.o.;.+.5.:.5.:.a [ 5.5.,.8.7.1.;.:.1.1.o.Q R X.1.<.5.5.1.5.6.1.1.1.:.X.1.5.5.:.;.:.7.} ",
"r ;.:.5.} y r ! 5.1.y.1.7.1.^ r + V :.1.1.>.>.1.5.1.1.1.5.1.<.;.' X.;.+.<.y.I + - ' :.b - x Q } >.1.1.>.5.1.+.1.:.X.>.5.6.7.1.1.5.6.5.+.o.1.t.' V } +.} Q } 1.1.:.>.+.5.8.5.6.1.5.5.5.5.5.1.,.5.t.5.<.} X.1.o.x :.5.5.5.6.6.5.6.:.>.7.6.5.5.5.5.7.6.5.' :.:.X.+.+.Q +.5.5.' 8.1.;.1.7.8.:.T ' 5.5.8.1.8.1.} ^ X.M o.;.M - ' 1.;.8.1.1.:.1.:.} +.X.1.y.V - ' } 1.} ! t.1.>.1.6.8.6.7.6.6.8.1.+.X.X.o.o.o.^ I ! o.>.:.:.+.>.t.t.t.t.8.t.8.6.8.8.8.t.8.t.8.8.u.8.t.t.8.u.8.t.6.t.s.;.X.' M N i.7.,.:.:.+.:.8.8.1.8.t.6.t.t.t.8.:.' +.5.1.} ' Q } 5.:.;.t.8.6.6.6.t.6.o.^ t.8.t.1.+.X.} :.1.8.t.8.6.>.;.:.>.5.8.t.u.' x U o.:.1.1.' o.' +.' 1.} :.1.t.8.5.} X.I 1 ' <.I c { s } Q ^ V M ^ Q R Q R s Q Q R 5.:.1.7.8.5.} a ; O ! 1.7.4.6.5.1.3.1.O.e.8.2.} N x a 1 - ; a M } :.X.;.;.:.1.:.>.5.<.1.8.5.8.5.:.^ o.t.8.+.5.5.5.t.+.:.6.5.5.1.5.:.:.d r +.5.:.5.8.5.7.c :.1.X.;.[ I I O.<.;.! M 1 r X.1.R y 1 1 c ~ R b 8 , @ O 1 : I ;.' 1.:.I I ! R { o.[ } +.5.1.7.X.r >.6.5.5.y.,.:.o.<.5.:.} ;.o.X.+.5.1.5.5.5.1.<.:.1.5.+.+.1.:.+.<.1.o.' ",
"Q 5.X.;.:.;.r - I ,.:.7.1.<.<.' 1 + M >.1.>.1.1.1.1.1.1.<.5.7.! } 1.;.X.' :.;.- ; { :.:.a + R 5.5.6.5.5.7.7.5.<.;.[ :.5.1.>.5.>.5.7.5.} ;.1.' Q o.:.7.+.X.' o.;.+.<.X.5.5.5.5.5.7.5.5.5.8.8.8.5.7.1.1.;.[ X.>.,.! 5.6.7.5.6.5.8.:.5.6.6.5.6.t.8.6.8.5.' 5.1.+.[ :.^ } :.:.' 8.1.1.1.7.8.} Q 7.5.5.t.t.;.' X.5.<.] ! ;.X.1 a } :.X.:.+.6.1.t.X.1.X.:.7.;.r r 5.<.' I 5.1.>.7.6.t.8.t.8.8.6.1.7.8.8.8.8.8.;.^ ' 5.8.1.5.6.5.6.8.t.s.8.u.i.6.t.t.t.8.t.8.t.8.6.i.6.t.t.8.u.8.t.t.>.Q ' X.I I 5.X.X.+.5.7.t.5.>.6.8.7.t.t.8.8.5.:.o.1.} I ! [ ^ ' :.:.;.t.t.t.6.6.6.7.} :.8.5.>.1.+.:.>.5.5.p.t.5.:.:.5.1.1.t.8.8.Q a I 1.' ^ } R [ ;.5.! U Q :.+.8.8.7.y.X.:.:.a 2 :.a Q ^ Q 5.:.;.+.b I ^ X.X.Q s :.[ [ :.X.1.5.y.6.X.x   O } 7.7.7.1.$.o.} X.1.5.5.T r 1 - - 1 c { <.1.o.+.<.5.5.8.1.:.:.:.1.5.8.t.7.8.5.:.^ ! ' } 8.5.5.8.1.1.5.6.1.5.:.;.V 3 +.;.:.5.1.5.y.:.x ;.:.{ I x ' 5.t.5.;.:.;.a r c { y a x d +.V N i , : @ 1 o.c ; I o.{ ' I x ' ' :.5.>.>.>.5.1.6.' r 1.7.7.1.1.:.;.X.} X.<.<.5.;.o.1.5.1.5.5.1.+.+.1.5.5.:.X.X.1.:.<.:.' Q ",
";.7.1.<.o.1.:.s O I 5.:.7.6.,.1.! - - ! <.1.1.1.1.1.1.:.1.5.:.} :.1.<.:.' M Q 1 - ' :.' I r 1 } y.5.6.t.7.6.6.1.:.} } 5.5.1.1.5.5.>.5.} ;.! I +.8.;.5.:.1.1.} t.6.7.o.t.5.5.8.5.6.5.6.5.6.8.5.5.7.5.>.6.:.X.:.5.+.+.5.8.8.6.6.6.5.:.6.6.8.7.6.6.6.t.8.' 6.X.;.1.X.R o.:.R +.6.1.8.6.8.t.R +.8.1.1.>.+.X.+.5.5.5.R o.1.7.I + ' 7.+.} :.1.1.7.5.} +.+.t.5.Q y c 7.5.' [ 1.5.6.8.t.t.t.t.8.8.5.5.8.5.5.8.t.s.I :.+.5.1.5.t.t.t.t.t.t.t.t.t.8.t.8.t.u.8.u.8.u.8.t.u.8.u.u.8.6.u.8.+.O.' M r a I } 5.8.5.8.8.5.1.5.8.8.t.t.u.t.u.5.:.5.! ^ X.' X.8.5.+.1.t.8.8.5.7.5.X.! } 5.X.} ' ^ [ ^ } 5.5.5.:.1.t.1.8.7.t.o.R R ' :.5.X.:.o.+.} 5.7.^ ! U 6.! 1.5.t.8.+.+.X.X.; x x M ' Q :.1.6.:.} ;.8.' ;.N a ' :.t.5.} X.5.7.<.<.r O r X.! R v y 2 3 r 3 3 2 - % y b Q x ' 1.6.1.:.>.6.t.6.8.5.1.6.X.+.1.5.8.t.8.5.5.1.;.I y M 5.t.5.7.1.} t.+.1.+.o.I - r :.+.<.>.5.5.8.X.^ +.R d I :.t.5.7.8.6.7.5.! c x r s { o.N T b d , 1 % - I +.Q 1 r :.:.7.' x <.o.:.:.1.8.,.1.5.5.U r <.5.7.5.:.;.} X.<.<.1.t.:.7.X.,.:.5.7.1.5.1.1.1.1.,.} ' ' ' } :.[ a N ",
";.:.<.<.5.{ [ } M - M ,.7.:.5.5.:.I - - ' ;.+.:.;.:.:.:.;.:.:.o.:.:.;.:.1.X.R r - x [ ! ^ ' - r :.7.7.1.t.5.7.6.5.:.} :.1.1.5.1.5.7.>.' V U 1.;.7.o.1.+.1.1.} 1.t.6.:.:.t.1.5.6.6.5.6.6.5.8.8.5.8.5.1.6.5.:.:.>.1.Q ;.8.5.8.6.8.5.:.6.6.6.t.8.8.8.6.7.^ 6.;.5.5.X.! :.' :.1.6.7.5.5.6.R R 5.<.;.^ ' :.8.5.5.8.8.R X.5.:.;.a r <.6.>.X.o.5.8.1.+.X.1.:.7.:.' 3 ^ t.1.X.+.1.5.8.d.5.1.8.8.5.:.1.p.t.5.t.t.t.' X.5.+.;.8.t.8.8.8.t.t.p.t.t.t.t.8.t.8.u.8.u.t.0.t.8.u.t.t.8.8.:.} o.5.;.+.I ^ Q } 5.5.5.t.8.1.5.8.t.t.t.t.s.8.8.6.1.:.+.1.} ^ 1.8.5.:.1.8.6.5.5.1.:.X.I :.1.1.[ :.;.1.+.:.5.1.:.:.1.8.8.7.;.^ R :.o.[ 8.>.:.>.+.+.1.7.1.X.' +.>.:.:.:.7.s.X.+.+.>.Q O x X.<.' 5.1.+.1.>.X.6.o.' r ^ +.} <.5.5.X.5.<.y.:.r + : a s x N R ~ M 3 1 : 1 x } 1.8.X.Q :.t.8.6.t.t.y.8.5.7.5.8.8.X.X.:.8.8.6.5.1.:.:.1.1.1.X.Q 1.t.5.1.} } ! o.1.R 1 : r y.:.1.:.7.t.>.' I M V o.:.:.:.1.t.7.>.5.:.' N r a X.5.M r V d 3 : @ % 1 - R 5.x 1 Q 5.t.! a <.:.:.<.1.7.5.1.1.7.! 1 ;.y.:.} X.{ } o.<.1.>.+.1.:.} >.>.:.5.1.,.7.7.1.:.o.} :.X.+.+.! x M ! ",
"R R X.;.1.7.' x M y - N :.5.7.1.7.:.M - 1 ;.:.+.X.X.:.:.{ ! Q ' X.1.8.8.8.t.8.r O r I c c I x - M :.y.,.6.5.7.6.8.5.;.1.5.>.:.5.6.t.' N } 5.:.:.5.} :.+.5.1.} :.t.7.5.+.i.5.5.5.6.6.6.5.8.6.5.6.6.6.5.5.5.>.+.:.5.5.V +.5.8.7.5.:.+.5.7.8.8.6.8.8.8.7.' 7.:.t.8.<.X.} 5.5.1.6.7.y.8.Q I X.<.} ' } 5.s.5.:.5.8.8.R +.1.6.o.R - ! 8.1.+.+.>.6.8.5.' 5.:.5.y.8.V r 7.y.1.} +.1.t.:.+.5.8.8.:.X.+.5.8.t.8.8.t.X.R 5.1.+.:.8.8.8.8.8.t.t.t.t.8.u.t.t.t.8.8.u.t.t.t.t.u.8.8.u.s.:.^ +.<.<.5.R p.1.:.^ X.p.5.:.t.t.t.t.t.8.t.s.u.8.6.1.:.5.:.U 5.8.5.5.>.:.5.5.8.t.8.1.+.! ;.>.:.' :.1.8.5.8.t.8.t.i.;.1.:.R ^ <.5.:.} o.8.+.1.>.:.1.1.t.} Q +.t.1.5.>.:.5.t.! >.>.:.5.r ; 7.1.} y.y.X.:.5.1.^ :.I I <.;.} 1.5.8.p.;.I ! I ; O x } 7.:.o.' I y 3 I N } t.t.7.5.U } 1.t.6.5.7.8.8.8.8.8.:.1.+.[ +.' } 5.1.:.5.5.7.5.5.5.8.X.U I Q :.o.:.1.} +.t 1 ! a ^ t.5.7.5.X.s a M :.7.:.t.7.:.1.7.1.,.5.[ M O - ' 5.} 1 a B 3 1 X X b } x r ^ X.c + ! 7.! x ;.:.:.7.:.1.7.;.R Q N - x I I ! Q } } ;.:.o.' ' o.' } +.>.8.6.7.1.:.1.;.+.1.:.' I I I ! N ;.1.",
"O.M x I I M I I ! Q r   t I M R ! } ' t   a } >.:.1.:.<.:.;.' R b d x M M c b - + r I ! ^ R a ; - I 7.8.5.6.8.5.5.8.<.:.:.>.7.1.[ Q U ' 5.5.<.X.:.} 1.+.1.:.X.+.6.5.6.:.8.5.t.5.7.5.y.8.6.8.8.8.8.6.5.5.5.5.1.1.:.:.} R t.5.6.6.:.X.5.t.8.5.8.8.6.6.1.' 1.>.5.:.5.+.1.7.6.>.>.t.5.X.Q X.^ +.} 6.8.1.5.t.5.1.5.8.! +.1.:.} +.y x 6.+.+.+.>.5.6.t.} +.7.1.1.8.1.s x 1.:.R ' } 1.X.1.6.8.8.+.X.5.+.:.6.1.:.:.:.Q X.+.:.5.7.8.8.t.8.t.t.t.8.u.8.u.8.u.6.u.8.8.t.8.t.t.8.u.8.1.:.5.5.:.+.' s :.;.8.5.+.' ' 8.s.t.t.t.t.8.t.t.u.8.1.1.7.:.} o.s.5.8.8.8.5.5.8.t.t.5.:.o.X.[ :.X.+.>.7.6.5.t.t.8.8.6.' I } :.5.t.7.5.} :.:.:.1.>.5.1.8.t.' ' 7.t.6.+.>.7.>.,.} X.:.5.[ I ; x 1.' :.8.' +.5.:.I M r N ! ! Q ^ I R Q R ' I r + - ! o.} } :.o.c 1 V } 1.6.7.7.5.:.} t.8.7.6.8.6.8.8.6.5.:.+.1.:.:.5.5.X.' +.1.5.6.8.8.t.8.8.8.<.X.^ I M V } ^ M : R 5.Q x } ' R M N I ' >.:.1.i.t.t.>.1.1.>.:.} c x M r y I a : s r 2 @ @ d  .<.5.x : M ' r 2 Q I r ' ! R U N N I I I ! I O r I x ' 5.5.5.7.1.7.1.;.' ! o.;.t.5.1.5.5.:.} ' I c M I ' :.,.7.R ;.<.",
"5.U ! 1.:.<.7.7.y.y.Q - a o.o.' I x d 1 3 + : r x y a a a 2 1 r r s M I V r a I r + R 1.t.>.+.M - r ! t.6.6.6.7.5.8.+.;.1.+.R I [ +.:.} t.1.:.+.:.[ >.;.:.<.o.X.8.1.t.;.1.6.8.8.8.6.8.6.8.7.8.8.8.6.6.5.1.1.5.1.<.5.X.R I t.5.8.1.:.6.6.6.5.8.8.6.8.>.! 1.1.>.:.;.} t.:.t.:.>.8.X.' [ } [ 6.>.8.t.5.5.8.5.1.1.8.^ 5.1.+.X.7.I a :.:.;.:.1.1.5.t.o.N o.;.X.:.1.[ r I :.{ } } R +.5.5.8.6.:.:.t.7.+.X.+.5.8.8.' X.+.1.8.8.5.8.5.5.8.u.u.8.8.0.t.t.t.t.t.t.t.t.t.t.u.8.y.8.1.8.s.5.+.;.8.y Q >.u.t.i.} Q +.s.s.t.t.t.t.p.8.8.6.5.5.1.1.6.+.y.o.6.8.t.t.8.t.t.t.1.5.+.:.X.' :.+.5.1.5.7.t.6.>.+.' U 1.s.s.8.t.:.+.:.1.+.5.<.>.8.5.i.;.~ :.8.8.t.>.>.y.6.' 1.o.1.:.M Q N - I ' ;.5.! X.+.' 1.N ^ ' ' ' o.o.o.;.8.:.:.x 2 - r o.8.t.t.X.r 1 ~ :.8.7.6.5.t.1.} >.t.6.5.6.6.6.8.5.1.:.+.:.8.6.8.8.t.:.{ 5.5.t.8.5.6.5.5.5.6.8.>.6.5.} R I x : : M x x 2 M I ! ;.:.' ;.8.t.t.1.5.7.1.:.1.1.[ x a U N y r ' c s a : : X a } 1.<.+.} I R I c 1 @ : r Q :.} X.X.' O.;.:.5.o.; I T R ' R :.7.t.t.1.} } } ;.5.+.o.' ' I x y x M ^ +.1.7.:.1.5.o.I 5.:.",
"+.x ' >.:.:.,.y.7.5.>.d - I 5.1.y.5.<.5.:.- + O 2 V M I I R ' :.1.1.1.8.5.<.' I 2 + I 7.1.5.,.+.c - y ;.6.7.5.6.t.8.} R Q ! X.5.8.t.1.' 7.5.8.7.7.+.:.:.1.1.+.} 7.5.7.} o.6.1.t.8.5.6.8.8.8.6.8.8.8.6.8.6.5.1.1.5.5.>.o.Q } 5.5.5.>.5.1.8.8.7.8.8.8.1.^ 1.>.:.1.} ' X.:.;.+.5.' R ! +.:.>.6.y.6.5.5.t.t.6.5.5.5.^ 8.1.u.X.<.X.r R 5.1.1.1.1.5.8.;.c } t.>.} >.5.I r X.X.' X.a +.5.t.7.X.;.} +.<.' Q ' } ' ! Q U } X.} +.+.+.1.1.1.8.8.t.u.8.t.t.0.8.8.t.8.t.8.t.8.8.s.8.1.8.t.1.1.1.1.s ^ <.8.8.1.8.1.X.+.8.t.t.8.8.t.8.8.6.6.6.1.1.>.:.8.:.8.8.6.8.6.8.6.6.1.5.+.+.7.U 5.X.5.7.5.1.>.+.[ +.+.7.y.6.5.t.1.' 1.;.;.+.1.+.5.5.8.t.' :.t.6.t.t.5.} 1.5.>.8.' d.' d ' :.I r I ;.<.' ' ^ ! +.y ' 5.,.1.t.7.1.<.5.I Q ! a O M s.8.1.X.c a Q p.t.6.8.d.6.8.X.X.t.7.8.6.t.7.6.6.1.5.t.1.5.8.1.6.5.6.8.+.} 1.7.8.8.t.t.8.1.:.>.5.<.+.+.t.<.y d N ' X.} R :.:.1.o.! o.1.1.5.6.5.6.5.1.1.1.;.M a x x I x s ;.x x r - X 3 ~ $.$.+.O.4.X.:.t.<.X.N 2 : b ' X.;.:.Q ^ ' } o.o.r x Q M ;.;.' ' ' I N x a x a a d a x I I V ! :.1.5.5.<.>.7.>.7.{ x :.1.",
"U N X.1.1.1.5.1.5.1.1.' 1 r X.:.<.7.<.:.b M r + - a ' 7.,.1.7.,.,.1.1.>.5.7.:.Q x - x 7.1.6.:.>.;.x - r +.5.6.t.;.^ ' ' [ +.1.6.7.7.1.+.5.>.:.5.1.:.+.:.1.+.;.' :.>.o.^ ! 1.5.8.8.8.8.8.8.5.6.8.8.6.6.6.5.5.5.5.1.6.7.;.+.' ;.5.5.1.,.>.6.8.y.6.8.8.:.^ 6.1.5.>.5.5.:.o.[ } [ I X.} 1.5.>.8.t.8.8.8.8.8.8.5.5.t.! u.:.s.;.:.7.r r I R ^ } +.:.:.o.:.' :.t.1.,.6.:.x r r y M V ' 1.:.1.1.:.5.o.:.:.+.} 5.7.;.X.} +.t.t.5.6.5.5.+.1.8.8.u.8.t.8.t.8.u.8.u.t.8.8.t.8.u.t.5.5.8.t.8.5.1.:.x +.[ 5.1.8.8.6.6.+.X.1.u.s.8.6.8.t.t.8.6.5.t.:.>.+.1.t.8.6.6.8.8.6.6.1.5.' o.7.Q ! } ;.+.:.+.:.5.6.6.1.6.s.8.8.t.:.X.5.<.;.1.:.+.6.7.t.+.' 5.7.t.t.6.7.X.+.8.5.t.X.7.R ' I :.<.a 1 ^ X.X.X.+.} y I } :.:.6.8.1.7.;.I I X.' r + I t.t.! I ' } +.4.5.6.6.8.8.<.' 5.t.6.6.t.8.6.7.8.8.8.t.1.1.5.5.6.8.8.6.5.+.X.5.8.8.6.1.5.8.8.>.o.^ )  .1.M r ' O.Q +.+.R 5.<.o.} o.:.5.7.t.6.5.7.>.+.<.5.V 1 a ! :.y.M x ;.d a 1 @ - N X.O.$.6.4.4.1.1.1.;.o.<.} a % - a s R ! ;.;.:.' ' r a M a M I x y M M ' ' ' } o.:.1.:.<.:.X.X.>.7.5.,.5.>.1.1.7.1.' I ,.1.",
"Q 7.:.:.1.5.5.5.1.5.:.:.c + M 8.:.7.;.! a 7.;.M x O r } 1.;.:.<.1.7.1.7.1.<.' ! [ t 2 +.6.5.5.>.t.:.s   a :.6.' ' 5.7.t.:.o.:.5.5.6.1.:.6.5.:.5.:.:.:.' :.^ } I } 1.;.:.o.:.1.t.6.8.6.6.6.8.6.8.6.8.6.5.5.5.5.5.8.8.5.5.1.} ! :.8.:.,.8.5.6.6.6.6.7.o.^ 1.1.8.6.8.+.X.} U I } ;.o.8.t.8.:.8.t.6.7.8.s.t.5.1.:.1.U !.>.y.1.:.1.2 r x d a a a a x a R R ! 5.5.5.+.;.:.; ; 2 r Q M ^ 8.p.5.t.1.X.I ' ^ } 1.8.5.>.+.' :.t.t.s.s.s.6.6.8.u.u.u.t.8.t.u.8.u.8.i.8.t.6.5.8.5.o.6.t.8.8.8.1.;.I 8.^ :.6.t.t.6.8.t.:.o.+.5.8.6.8.5.s.8.6.t.8.:.>.1.8.8.8.8.8.8.t.8.t.1.:.Q [ >.R I } ! } :.5.t.t.t.7.:.6.8.8.8.8.+.+.} :.5.:.:.1.t.6.1.R X.8.t.6.t.t.6.X.^ +.,.} ' ' I ! I ' <.{ - c { X.' t.:.r X.:.7.o.>.7.5.;.c R ;.<.c - - [ i.! x } :.5.8.7.5.7.2.2.8.^ 8.t.8.6.6.6.8.8.6.t.8.8.t.1.5.7.8.8.6.6.6.8.5.+.:.5.1.1.:.X.:.5.X.! } } } R 2 R +.^ } } %.v R R ! ' } [ o.:.1.:.1.1.1.5.7.! 1 I 5.7.1.1.b N Q r 1 O @ a }  .1.5.5.7.8.+.+.+.o.:.1.8.' 1 T x a 1 : y a x a r - + 1 x s b I I M ' X.1.7.5.:.:.1.1.:.' :.1.>.<.1.1.>.1.1.>.1.X.' ' :.:.",
":.;.5.1.1.7.5.1.1.<.+.+.' 1 2 } 5.5.>.M ;.1.8.R o.N 1 1 ! <.:.5.7.5.1.6.1.} ' ! ;.V - Q t.5.6.5.5.5.+.x - x ! X.+.8.5.6.7.6.,.:.1.6.>.:.t.8.5.1.1.X.+.+.:.+.[ ! } +.5.1.+.5.8.1.8.6.6.6.6.6.6.8.8.6.6.7.5.5.5.6.6.6.6.8.6.:.^ [ 1.5.1.t.5.5.5.6.6.8.} X.5.1.8.>.:.} } X.+.[ X.X.1.t.7.t.:.6.8.5.8.1.+.X.o.+.X.+.x 6.+.6.1.<.' 1 Q :.1.7.1.1.+.} V I I M s M M x x I x - c N 2 a I o.y.8.;.7.;.a I R ' Q } +.X.X.} o.5.t.s.t.y.8.t.u.8.t.u.8.u.8.u.t.t.t.t.8.t.5.5.6.1.} 8.t.t.8.8.5.^ R 5.} +.t.t.t.8.5.8.t.8.:.X.:.5.8.t.8.8.8.8.1.:.1.5.t.8.t.t.6.8.t.6.5.:.+.R V ^ X.! } X.1.6.t.8.6.7.5.:.6.6.8.5.8.>.X.I :.<.1.y.t.8.+.' U 8.6.6.t.6.:.>.X.o.o.+.[ ^ U ! [ I ' U ' y r ^ R Q o.R N 1.5.7.:.+.X.I x } :.} ' r + r X.I I :.7.1.3.5.1.7.6.4.2.X.| 8.p.8.6.6.8.6.8.8.8.8.8.8.:.5.8.8.8.8.t.8.8.t.>.o.1.6.5.7.+.^ ' +.1.8.:.o.8 N <.&.^ 1.o.X.y M ' o.:.:.<.:.;.o.' X.5.5.5.o.a x 5.t.5.7.7.a I x r - O r ;.:.:.:.+.1.+.O.X.o.} ) 2.<.$.o.r { ;.;.O.} ' ! ' ' ! ! r a ' X.1.1.>.I Q } X.+.<.5.1.:.:.+.5.5.:.:.:.<.<.1.<.1.5.o.^ o.V +.;.",
";.1.+.<.1.1.:.;.+.;.<.:.>.I - x 8.:.:.b t.7.t.1.Q 5.^ @ 1 ' t.1.5.1.7.5.X.^ :.+.<.' 1 d 6.5.6.7.5.7.7.>.x O x y.8.t.s.6.t.6.6.5.1.5.+.+.6.8.t.5.1.! [ t.5.,.' } ' } 1.5.<.:.8.5.7.6.6.6.6.6.6.6.6.8.6.6.5.5.5.6.6.7.8.8.5.,.:.' o.8.5.5.5.6.6.6.6.8.} +.>.X.X.5.1.1.:.7.d.+.5.^ X.1.7.t.1.5.1.+.' } +.1.u.s.i.8.R 5.1.8.:.o.M 2 { <.:.,.1.t.i.6.X.t.5.1.[ :.5.7.1.;.;.T a :.X.; a x Q o.<.~ R M :.7.5.d.d.8.+.' Q } +.:.5.s.s.s.8.8.8.u.8.u.8.u.8.0.t.8.8.t.8.t.8.8.1.+.8.t.s.8.8.1.R ^ 1.:.X.1.t.p.t.t.t.8.t.s.5.;.o.:.8.8.t.y.8.:.:.5.8.t.8.8.8.t.t.t.u.+.[ X.Q ' ' } ' o.8.5.8.6.8.u.u.1.5.t.8.t.8.5.1.:.^ 5.o.1.s.5.+.^ R +.t.5.t.7.7.5.t.7.6.>.+.} U R } I N 7.:.1.' 1 x I 1.X.x ^ d.7.a.;.V c o.d.:.R y a 1 O 1 c I 5.7.7.1.1.1.5.8.7.t.1.R 2.5.e.8.8.8.8.8.8.t.8.8.8.5.1.6.8.8.8.8.8.u.8.6.5.:.:.t.1.6.+.' } } 1.t.t.M d 1.5.1.} 3.o.R v Q :.:.t.p.7.7.5.7.;.} :.1.5.M a ;.t.y.5.,.7.I x r - O 1 ^ <.<.:.&.1.5.O.} } &.+.M +.8.5.<.c I :.O.;.1.t.7.7.t.5.<.M a ;.7.1.7.t.[ ^ :.+.' X.;.+.} X.7.5.o.;.5.5.;.:.1.1.1.1.Q 7.o.Q +.5.",
"5.:.:.:.:.:.:.,.1.5.5.5.7.:.r ; o.1.' I 6.5.:.t.[ ' 1.' 2 1 ! 1.5.1.1.+.} 1.;.+.1.:.c 2 :.7.8.5.6.5.5.7.I M 1 U 5.5.6.8.5.5.6.6.5.5.+.+.8.5.6.5.:.' :.1.7.:.' ' ' :.5.1.5.+.8.5.5.6.7.7.7.6.6.6.8.8.6.6.5.5.5.6.8.8.8.t.6.7.,.;.' +.7.1.6.6.6.6.6.7.Q X.X.X.>.5.6.5.>.>.:.1.X.:.:.1.>.6.+.[ +.>.6.t.t.t.8.6.t.+.} 5.:.5.;.' 3 a :.:.1.1.5.t.t.>.X.6.6.8.5.+.5.5.7.:.} 5.x ^ :.! I 1 r Q Q x V R Q >.5.8.8.8.t.1.o.:.:.o.+.:.1.8.8.8.u.u.t.8.t.8.t.t.t.t.8.t.t.6.8.t.1.<.8.i.t.8.8.:.x Q 8.5.5.X.6.8.t.i.t.u.t.8.8.t.7.} X.:.:.5.8.1.+.1.t.8.8.8.8.t.8.:.} ' X.} ^ 7.1.' ' X.8.7.t.6.5.6.>.>.6.6.t.8.8.1.1.:.} 1.+.1.5.+.:.[ Q 7.5.6.6.>.7.6.d.t.6.+.+.X.x +.t.' X.5.8.' ;.x - a } ' N :.1.o.Q I X.:.X.R a 1 r r r + r M X.5.5.y.+.1.5.4.6.6.6.| O.8.7.8.8.8.8.8.8.8.8.6.8.6.1.5.6.8.8.8.8.8.8.8.5.5.8.X.5.>.>.X.:.:.o.;.:.' 1 R $. .1.! R E ! } V :.7.t.6.5.7.5.8.t.1.+.5.' r Q :.+.:.7.y.,.Q r ; - O I <.1.5.5.3.7.1.<...! o.5.T R <.5.1.^ y :.<.<.5.1.1.:.:.>.1.I r :.8.5.1.;.:.! :.8.1.1.>.:.:.t.:.o.o.:.1.5.1.o.;.7.1.Q V X.:.o.' 5.",
"1.5.1.1.1.1.1.5.1.5.5.5.1.>.N - V 5.c } 1.1.7.1.;.' :.5.! ; 1 R 5.>.[ [ :.7.+.[ :.7.} 2 I 5.t.5.5.8.5.>.R >.Q ; I 8.5.6.7.6.t.5.5.6.;.>.8.8.5.7.+.1.:.7.6.:.+.R X.1.5.5.7.:.5.5.6.5.5.5.5.6.8.6.6.6.6.6.8.6.5.8.6.8.6.6.8.6.7.5.X.Q 5.:.6.6.8.6.8.:.R :.+.8.5.5.5.5.>.+.+.6.} 1.+.;.' ^ [ :.5.6.8.8.t.t.t.t.t.+.+.8.1.1.:.R + I 8.1.8.8.>.>.t.o.:.5.8.5.5.>.:.1.t.5.X.5.;.x o.} 5.' r s Q M I ;.+.X.5.8.1.5.s.7.1.o.+.7.5.5.5.:.1.1.6.8.8.u.s.t.8.8.t.t.t.t.8.t.t.8.5.5.7.d.t.t.7.1.a ! 5.5.t.5.1.s.6.p.8.8.8.t.t.s.s.1.1.8.5.+.+.<.5.6.8.8.8.8.t.5.+.' ' } 5.:.+.8.8.' ^ } 8.;.:.1.7.7.:.:.5.7.8.t.1.1.5.<.+.;.5.+.X.5.6.+.+.+.5.>.>.t.6.>.<.7.8.>.+.! b :.1.' o.7.1.^ R I 2 - 1 r M I x N R { 1.^ r - r a X.I - 2 } ' X.X.7.<.| 8.5.s.3.s.+.O.w.8.5.6.7.6.8.8.8.6.8.8.t.1.5.5.8.8.6.8.8.s.8.8.7.>.7.:.7.>.:.:.} <.O.' Q r M o. .8.<.^ d o. .1.R :.7.1.1.5.5.5.1.5.1.+.o.d a } :.1.:.;.' Q x - ; O a ;.6.7.5.5.1.2.+.$.o.X.+.%.+.R V 1.1. .s V <.:.1.1.1.1.>.>.:.I r ;.1.6.:.+.>.} o.1.7.X.o.5.<.} o.:.1.5.1.,.1.:.:.<.} R Q U <.7.+.1.",
"1.5.1.1.1.1.1.1.1.1.5.7.1.:.[ ; r ! c ;.5.5.7.5.1.:.[ 5.:.! 1 1 ' o.} <.<.:.+.[ :.t.,.r x 1.1.8.5.6.1.} R >.:.I 2 I 5.t.t.1.5.6.6.6.:.5.5.8.5.8.+.7.:.7.6.1.+.Q +.1.1.1.1.+.5.7.6.6.7.5.5.5.6.8.8.t.8.6.t.7.5.5.8.8.8.6.8.6.6.5.7.+.! 7.5.1.8.8.1.:.Q 1.:.t.5.;.1.1.;.:.8.5.:.1.o.X.' X.1.t.8.t.8.t.t.t.t.8.8.X.+.8.1.1.>.M - ' 8.:.:.7.5.6.8.X.:.7.8.6.8.5.X.' o.<.1.X.5.T d o.5.5.+.I r r I 1.5.} } 5.1.5.8.:.:.:.:.7.6.7.t.8.o.^ +.>.:.+.:.5.8.8.8.t.8.t.t.t.8.8.7.5.5.s.8.t.5.5.I ^ 1.t.t.8.! 1.s.6.6.s.s.p.t.t.t.8.1.1.t.8.1.X.X.>.8.t.8.5.:.' ' } X.+.1.;.:.t.5.X.' ' o.+.1.8.t.8.>.:.8.t.t.t.1.1.:.X.} 1.:.o.:.8.1.+.7.1.1.X.+.>.{ ;.7.1.7.;.M Q M :.;.R ^ +.:.+.I ' I a 1 + O + ; M I M r - a Q 5.;.I x - r { o.6.Q X.:.&.6.6.2.8.1._ 5.w.8.8.6.5.8.8.8.8.8.8.5.t.+.:.8.8.8.8.t.6.y.s.6.5.8.s.>.X.X.:.,.<.1.o.+.b x O.$.5.1.+.1.^ 2.} $.^ ;.7.1.1.1.1.1.1.<.} } M 2 X.5.8.t.t.t.[ I ; 1 - 1 Q 8.1.1.1.1.:.+.$.+.| +.1.1.1.<.R E 5.1.N : X.5.>.5.1.1.:.:.+.' y ' +.5.:.;.1.} :.<.X.:.>.X.} :.<.1.1.1.<.1.t.R ' ! ! ' } } ' :.1.} ",
"1.1.1.1.1.5.1.1.5.1.1.5.1.1.+.x - r I 5.7.5.1.5.1.5.} ' 1.1.' - ; Q t.o.+.:.;.o.;.:.7.M 1 o.>.t.6.5.t.! ' 7.7.>.R 2 ' :.5.7.7.:.5.5.:.5.5.5.8.5.:.6.:.5.6.1.+.! o.1.5.5.1.o.+.1.5.6.8.6.6.5.5.6.6.6.8.6.8.6.5.6.8.8.6.8.8.8.8.8.6.6.' ' 8.6.6.6.5.>.! 5.:.1.5.6.1.;.1.7.5.>.X.X.o.t.;.:.8.t.6.t.8.t.t.8.t.8.6.} :.8.5.:.5.d r 1.1.:.+.1.6.6.6.X.>.7.t.6.t.6.>.} ;.5.;.:.+.o.r I 7.t.t.1.} c x t.5.o.5.8.5.1.1.+.5.8.1.:.5.t.5.X.>.6.8.6.6.>.:.:.+.:.:.:.>.>.1.8.5.5.5.1.1.6.5.5.1.X.I ' 1.y.t.s.X.} 1.8.p.8.8.8.8.t.s.u.8.1.5.5.>.5.5.:.;.1.1.5.1.X.+.5.1.:.1.X.1.7.;.} I ' ^ +.1.8.t.6.1.>.t.t.7.:.:.:.1.8.' ^ +.+.8.8.:.:.8.>.:.:.' } o.o.} X.X.I N } M X.+.^ +.5.5.} x I I I r 1 x a r ; + 1 x R <.:.R M M ; + ^ ;.o.5.X.' 1.5.6.8.2.5.' +.8.6.2.8.6.7.6.8.8.8.8.8.7.8.:.;.8.5.6.8.6.6.>.1.>.5.1.+.:.:.5.1.} o.<.7.^ r ) o.5.+.&.1.5.^ o. .1.^ +.1.1.5.5.:.:.;.:.:.;.r I t.5.8.6.5.X.I r 1 ; - I 6.5.6.1.+.} { O.1.+.O.1.7.7.2.O.O.V } +.o.s s 1.>.>.1.:.:.;.o.+.x X.:.:.:.>.:.o.7.+.o.} } :.1.5.5.5.5.1.:.+.' ' :.} } X.} 8.o.<.[ } ",
"1.1.1.1.1.1.1.5.1.1.1.1.7.5.7.! + r { 1.7.7.5.1.1.7.1.R ' } o.N - 2 ;.;.1.1.7.1.:.:.t.' + ! 7.7.6.,.t.U ;.5.1.1.7.I - ! ,.5.5.7.5.5.:.5.5.5.6.5.>.6.5.5.5.>.+.I ^ +.:.1.:.X.} +.:.1.6.6.6.5.5.5.7.6.8.8.8.8.6.6.6.6.8.6.8.6.6.5.6.5.8.I >.y.1.6.8.+.' 7.:.:.1.>.1.<.:.+.:.1.+.8.;.5.1.:.8.t.8.t.t.t.t.t.t.8.6.} 5.8.8.+.1.d x 5.:.1.:.5.7.5.6.X.>.8.t.8.6.6.7.1.1.5.^ X.t.o.Q d X.d.5.5.t.X.a c ' y.:.1.5.1.:.;.7.8.1.:.6.6.+.5.d.8.8.8.5.8.t.u.8.:.:.:.+.+.:.>.1.>.:.:.X.} X.X.[ N d } :.t.t.t.5.5.+.:.s.8.s.s.t.t.8.8.8.u.8.5.5.8.s.1.+.+.1.5.5.1.:.<.8.1.5.:.8.5.+.} Q } } 1.5.5.5.5.5.5.8.7.5.+.:.1.1.t.^ [ :.1.i.1.o.1.8.1.>.t.:.:.:.:.' R ! R ' 5.' } 1.' 1.8.7.:.' ' X.' r x <.7.<.! I ! ;.7.;.x I ;.Q 1 1 +.X.X.} +.} >.1.w.7.w.O.O.s.6.4.8.5.6.5.8.8.t.8.8.8.8.8.5.+.>.5.8.t.8.6.6.s.:.[ +.1.5.5.6.1.' } X.o.s x o.s.O.o.$.8.$.}  .1.1.^ 5.5.5.1.1.+.:.:.t.:.c a :.5.t.t.5.} b r ; ; O r :.7.:.8.5.+.} _ %.1.1.6.6.5.4.3.1.1.R 1.{ 1.' I ;.5.1.1.:.:.;.:.} N 5.>.o.:.:.:.X.X.Q ' [ >.5.:.:.:.1.1.5.:.} ' :.+.o.X.<.:.o.I Q ^ :.",
"1.1.1.1.1.1.1.1.1.5.5.1.1.5.5.+.r 2 ' :.:.1.5.1.1.1.;.} } :.! ;.! - r X.5.<.5.7.:.:.1.:.r x 7.1.6.6.7.N :.8.7.1.1.>.N r I 1.1.t.5.8.:.5.6.7.5.1.>.7.7.1.1.:.+.! X.:.1.6.8.5.;.5.>.1.5.5.6.6.5.6.7.6.6.t.6.6.6.8.8.8.6.8.6.8.y.5.t.5.t.:.[ 5.8.8.8.} X.8.1.7.7.8.^ ^ X.:.8.t.:.5.+.5.5.<.7.8.t.8.t.8.8.t.t.8.6.X.8.t.7.:.X.a x 5.5.1.<.5.7.6.6.X.5.6.8.8.t.6.6.1.<.5.' +.5.X.X.V c <.t.7.1.' I V x R 1.5.8.1.+.1.7.t.7.:.X.} >.i.8.1.8.6.8.8.8.8.8.8.8.t.8.8.8.t.8.t.t.8.8.8.5.5.t.X.M o.+.t.t.8.5.+.8.+.5.:.1.8.s.s.8.t.t.t.5.1.1.>.5.8.6.1.1.:.1.7.5.8.8.1.5.+.t.1.;.+.X.' ' t.t.8.5.8.8.5.t.t.t.:.5.s.1.X.N X.1.6.8.:.:.7.6.6.o.,.7.:.;.X.} ! I N { ' ' 7.5.} y.7.1.;.5.o.' x a } 7.7.5.<.:.:.' Q T { 5.5.R O 3 1.:.8.:.' ' :.X.8.5.5.| 5.w.7.8.8.7.5.8.8.t.8.8.8.8.t.5.5.} 1.1.5.5.1.5.:.^ I I [ :.:.:.:.+.' ' X.c y I R ^ O.1.7.1.) +.5.$.O.} 5.1.1.1.5.1.5.1.y.[ r ' 1.7.<.' I y r r 1 - O M 7.1.5.1.+.+.:.$.1.1.2.8.6.2.7.8.$.1.R +.+.X.1.1.8.7.1.1.1.<.<.:.R R 5.:.X.+.+.+.! U Q X.} +.:.:.5.5.1.1.<.;.' <.:.;.X.' ' ' ^ ^ ' ' ;.",
"1.5.5.1.1.1.1.1.1.5.5.5.5.1.5.^ r - I } +.:.:.:.>.>.[ o.t.X.>.>.1.I - a :.5.7.t.1.+.<.5.N r 5.5.1.1.+.x :.6.5.7.5.7.1.N - r +.7.5.8.:.1.7.7.5.1.1.5.8.1.;.' ' ' <.7.1.1.1.;.^ :.5.5.5.5.5.6.5.7.5.7.5.t.7.7.6.8.8.8.8.8.8.8.7.8.>.t.5.t.o.} 8.5.6.} :.8.1.t.6.o.! >.t.1.t.8.,.>.:.5.1.5.t.t.t.8.t.t.t.0.t.t.>.[ t.6.1.>.! r x 7.8.5.:.1.6.5.5.o.7.6.t.6.5.6.8.1.:.1.' ^ 1.t.X.' 2 U 7.7.8.^ :.' ! N c V +.8.1.1.6.6.5.X.' +.' ! X.+.1.1.1.8.t.5.8.6.8.8.8.8.s.s.t.t.t.t.8.5.8.8.t.} X.X.+.s.i.8.8.1.8.} :.6.8.t.p.t.t.8.s.8.t.1.+.o.+.:.} :.1.+.5.7.5.t.5.5.5.o.t.5.5.+.1.' X.5.8.t.t.t.t.5.t.s.8.X.>.5.' ' I o.5.7.:.X.1.t.6.6.+.1.+.+.1.:.X.+.X.V y [ } 7.5.X.s.5.1.1.t.X.I t R X.;.1.<.1.:.' a ! o.:.t.5.N - M 7.:.:.7.:.! :.+.5.5.^ | 2.8.7.<.1.6.7.6.8.8.t.8.8.8.t.5.5.' 5.o.} } ' ! [ ' } X.:.6.t.8.7.>.+.t.X.2 M 7.t.^ U } R [ X.1.7.:.' } 8.5.5.5.5.8.5.7.5.I s :.o.^ s a r - r r - - - a ;.$.+.O.<.+.1.1.<.1.7.2.7.8.5.3.7.o.R $.} <.2.8.1.<.5.1.5.1.$.:.x o.7.1.;.X.X.I Q X.+.:.5.7.+.} +.5.:.+.+.+.X.Q ! I Q ! ;.8.5.X.:.X.;.",
"1.<.1.1.1.1.1.1.<.1.1.5.:.1.} b M ; y o.:.5.1.1.;.R :.6.;.+.7.6.y.o.x - U 7.5.7.5.;.<.5.;.r Q 5.6.:.+.M >.6.5.5.5.7.1.>.I 2 I ' +.8.+.p.1.5.:.1.1.5.5.5.:.} 1.X.+.:.1.5.1.} } :.1.8.1.5.6.6.5.5.8.6.5.5.7.t.t.8.8.5.5.6.5.6.8.8.6.7.6.8.1.' +.t.6.^ 5.6.t.1.X.Q [ +.8.6.7.t.:.>.8.5.5.6.t.t.8.8.8.8.t.u.7.t.o.5.5.7.:.:.' r r 1.5.1.1.8.i.8.1.X.6.t.6.6.t.6.6.5.5.:.Q ^ 5.5.5.+.;.M [ t.7.' 5.8.{ X.' R a M } :.5.:.:.:.+.' :.:.1.1.5.8.1.1.5.5.6.6.8.p.8.8.8.8.8.u.8.t.8.s.5.s.5.! >.5.' 8.8.t.5.t.5.8.} 8.8.8.8.t.t.t.8.y.8.+.} X.1.t.6.o.o.5.8.5.8.8.8.5.8.o.t.5.1.1.+.X.+.:.i.8.t.8.s.8.t.8.5.1.5.} [ ' } :.1.s.X.X.t.t.6.8.5.5.5.>.<.+.:.+.} 5.N M } 7.:.:.y.1.6.1.t.X.r M I t.o.5.5.;.I b ^ X.:.1.t.:.r O Q 1.o.} o.+.' ' :.8.} X.+.1.$.%.+.$.1.8.8.6.5.6.5.5.1.5.8.5.' 5.} ' } ! +.1.7.:.:.8.6.7.8.>.:.:.:.x a c 7.1.i.:.R ^ Q ^ <.t.:.X.X.7.6.5.5.6.5.5.5.^ r V x a r r 1 ; r r 1 - y I ; ' O.<.5.5.1.$.:.3.5.2.7.6.4.2.1.1.$.o.} +.5.5.1.5.3.2.1.1.1.<.R I 5.5.1.+.} ' 1.X.X.1.5.7.7.5.1.:.1.:.>.X.+.! N R R } :.} :.:.X.:.5.1.",
"7.1.1.:.1.,.1.5.5.1.5.1.8.X.M R ;.2 2 o.1.1.6.5.X.+.7.1.+.>.8.6.1.1.X.a - I 7.,.7.:.;.5.5.d 1 O.5.:.;.I 5.5.5.5.5.5.5.5.1.R r o.' } :.;.:.5.7.8.8.8.8.8.1.+.8.:.+.1.t.1.1.7.1.;.>.5.8.6.5.7.6.6.6.5.>.:.5.6.8.6.6.6.8.t.6.8.7.6.6.6.6.6.6.1.! 5.y.R t.7.} } O.+.;.+.>.5.t.5.:.7.8.5.:.5.t.8.8.8.t.6.u.8.t.8.X.5.8.>.:.7.[ s 1 } } } +.5.1.1.+.^ 6.t.6.8.t.6.8.5.5.5.Q +.7.8.8.5.;.o.y Q +.M X.5.X.8.} ^ I I I M R :.>.6.} 5.t.8.8.7.5.:.X.+.1.5.8.8.8.8.8.8.8.t.u.8.8.t.t.t.8.s.8.! t.8.^ 5.8.t.1.8.5.t.} 1.8.t.s.8.8.8.s.8.:.+.>.5.8.y.8.1.5.8.8.8.8.t.8.1.:.} 8.5.5.1.+.+.5.:.s.8.t.t.5.1.8.5.1.1.1.+.>.X.X.t.:.5.>.:.y.8.8.t.5.>.8.5.:.+.<.+.o.<.:.R x ;.;.o.7.y.t.<.8.} t ' Q ;.+.:.X.M N <.:.:.+.7.7.:.1 1 X.1.+.:.:.o.' R +.X.^ +.&.1.+.O.+.} ) { o.X.X.^ ^ ^ [ [ Q ' V o.o.:.5.1.7.5.>.>.5.t.8.t.7.:.:.t.! y o.I ,.1.t.6.} Q b b o.1.o.' } 6.8.7.5.6.t.8.;.x 1 r r r 1 - 1 r 1 1 % : ^ o.r T 5.8.<.1.1.1.$.2.7.5.2.6.2.1.<.7.1. .O.5.$.1.1.3.1.1.7.$.+.$.r } <.:.X.' +.:.5.:.:.5.5.7.5.:.+.:.<.:.} Q +.} ' o.1.7.1.1.;.:.:.5.5.<.",
":.:.1.1.1.:.1.1.:.5.5.5.' x Q 1.:.r @ } 1.5.6.>.X.5.5.1.>.6.7.,.1.1.:.o.r - ' 7.5.:.X.<.5.R O V ' :.:.N 5.t.5.5.5.5.5.7.:.1.x : X.^ R ;.o.5.1.5.5.1.1.1.:.X.5.1.:.1.7.1.5.5.,.:.>.>.6.8.5.5.6.5.>.>.>.,.5.6.8.6.6.,.:.5.5.5.t.6.6.6.6.t.7.d.X.:.1.' t.:.o.:.1.5.t.8.6.5.6.6.>.6.8.1.+.6.s.8.8.t.6.t.u.8.y.1.o.6.t.>.1.y.X.N a x } 1.1.:.X.:.;.' t.t.5.6.t.8.8.1.8.1.' +.5.8.8.1.;.t.M t 1.! 1.5.' o.;.' ! } ' ^ M } :.7.5.8.7.5.8.8.:.+.o.1.t.6.8.t.t.8.8.p.8.u.8.u.t.t.t.8.t.t.6.! s.t.' 5.8.t.5.8.5.s.>.>.6.8.8.u.p.t.6.>.+.1.8.t.s.8.5.5.8.8.8.8.8.8.8.1.+.{ >.t.5.1.X.X.t.+.8.8.t.8.:.:.5.1.:.o.+.:.6.+.+.:.5.+.1.:.8.5.6.t.8.>.1.+.5.+.;.5.o.o.+.o.! y I } 1.:.5.5.s.R U I X.R o.' N ' 7.5.' :.o.t.5.R + x 1.+.X.7.s.t.>.N R ^ 7.e.8.8.s.6.8.2.O.+.6.6.8.1.1.8.8.1.O.' d } 1.1.d.t.t.:.+.1.1.8.,.t.} 1.1.6.M ' 6.[ Q 7.5.>.5.:.} ^ N ! X.' o.5.t.6.5.5.t.:.^ r 1 : : - r M T x 1 - @ d 1.+.I 1 1.+.o.X.} 4.7.7.2.2.7.6.6.1.1.4.X.} O.$.<.<.1.1.2.1.7.<.$.$.3 X.:.o.:.1.7.1.1.+.:.5.5.5.:.o.;.1.+.^ } +.1.;.} X.:.>.:.7.+.:.+.:.+.' ",
"x M V I ^ X.<.:.' 1.+.Q b V :.8.:.x + I 5.6.5.X.:.7.5.1.5.5.5.5.1.1.;.5.} r 2 :.1.+.X.+.:.^ - Q ' +.} U 8.5.6.5.5.5.5.,.t.1.:.c r ^ I a R o.1.o.O.} ' } ^ Q } } ' [ :.;.:.5.1.>.5.:.>.5.6.6.6.1.:.5.5.t.6.6.8.t.7.+.' ! Q I ^ } :.7.6.t.8.t.<.R 8.' 5.5.5.+.1.5.8.8.5.1.1.t.1.6.7.5.+.6.y.8.8.8.t.t.t.t.t.X.;.t.7.6.6.6.' R ! r 1.8.1.1.>.7.>.} 6.8.t.6.8.8.8.6.5.+.X.' :.8.t.t.X.8.} R ' +.5.t.<.} ;.+.[ ^ M Q 1.} I M ! o.5.8.t.8.5.5.5.7.8.5.5.5.6.8.8.8.8.8.u.t.t.t.t.8.s.t.:.} t.t.+.1.8.8.5.8.6.t.1.5.6.8.t.t.t.8.5.1.8.t.8.8.s.8.8.8.6.8.8.8.8.8.8.5.5.+.:.s.5.:.X.} 8.+.1.8.8.8.1.5.6.1.;.} +.5.t.X.+.5.5.[ +.;.8.6.8.7.1.+.:.5.8.1.5.:.+.:.:.Q 5.:.I x R :.:.5.i.a I Q I } ^ T ^ <.:.1.X.8.:.5.5.M + I +.} } ;.<.+.+.V T +.6.5.7.8.5.2.6.+.+.>.5.1.5.1.1.5.1.1.7.5.^ Q 1.;.7.:.:.;.1.6.6.t.1.+.6.6.6.I I 7.6.X.Q 5.1.1.:.:.:.5.:.I V ' 2.6.7.7.8.6.+.V s 1 : 1 c } O.1.X.x : - + R 6.6.R 3 N O.$.X.! $.5.2.2.7.6.3.2.1.1.$.{ o.1.1.3.1.1.2.1.5.1.1.$.O.x R o.:.5.1.1.5.>.+.>.5.5.:.;.X.X.o.o.} 7.:.:.;.:.o.:.:.;.' ^ } ' } } 1.",
"; - - O % r b I I R V b o.7.X.8.:.I + I 6.>.5.} 6.1.5.5.,.,.7.8.1.5.1.<.1.' ; a +.X.o.o.:.;.1 M 5.8.! M 6.6.6.6.5.5.5.6.1.5.8.t.3 r <.:.5.I M X.:.1.1.1.5.5.1.:.X.:.' ^ ' X.^ Q 1.t.1.7.6.7.6.>.,.t.6.6.6.6.6.6.5.5.t.8.+.' ' ^ U I I U ;.:.t.} +.X.8.5.1.:.s.8.8.5.8.5.6.5.5.8.5.6.:.6.t.8.8.6.t.8.i.6.t.^ 5.5.5.6.6.5.I ' o.x :.5.<.5.5.5.>.+.6.6.t.t.t.8.8.8.7.[ :.;.+.t.8.t.} 7.+.5.x } 5.1.7.5.1.t.N ^ :.R 1.f.7.I U +.' ' X.X.5.s.7.+.+.+.:.1.1.1.5.6.8.u.8.0.8.t.8.t.s.s.} :.8.8.,.:.6.6.6.8.8.8.5.1.1.6.u.8.6.1.8.t.s.t.6.8.8.8.u.t.1.8.s.t.8.8.:.8.:.:.:.s.5.:.;.+.t.:.} 1.8.t.8.t.t.8.6.5.5.t.8.X.:.t.>.X.o.:.5.t.8.t.8.:.:.1.+.+.8.;.6.} y.X.I ' } I a a X.:.' r c X.V ' R X.d.8.1.1.1.5.8.1.1.t ; ! X.X.+.X.>.;.o.N G 5.8.t.6.5.1.o.>.6.5.<.5.:.1.7.1.1.8.s.1.5.8.V ' :.:.1.1.5.6.t.8.1.' 1.t.7.;.1 :.1.5.' ! 1.>.:.5.t.5.1.t.6.N b p.6.5.8.5.X.x d 3 : r ^ 5.6.1.7.Q r % r r ' 6.<.~ R y X.w.<.} o.<.7.7.2.2.7.1.1.1.+.} 2.8.4.2.1.2.2.2.5.2.<.O. .v R ;.5.t.1.1.6.1.1.7.1.:.o.X.;.:.1.+.>.5.' X.^ ^ ! Q I I d I X.+.7.5.:.",
"@ X @ @ @ O X @ 1 1 2 ' :.+.+.o.;.^ + a 6.>.>.X.6.7.5.5.6.6.5.6.5.1.5.5.1.1.I + I :.:.o.;.:.r a :.>.! N >.8.5.6.7.5.5.6.8.5.5.5.R - a o.1.X.;.;.:.7.t.7.7.6.<.:.o.5.:.5.6.5.:.} [ >.X.X.>.1.5.:.7.t.6.6.5.7.5.6.>.5.6.>.+.7.8.8.5.>.X.' R I c N r ! 5.1.1.5.6.8.8.5.8.8.6.1.1.t.7.1.5.8.t.t.8.t.t.8.s.5.>.' 6.5.5.5.7.8.M } } d } X.} o.>.1.+.:.t.6.5.t.t.6.8.t.5.' 1.8.X.t.t.t.:.+.} p.+.c <.t.7.t.1.o.} X.5.} Q +.7.y.X.1.7.1.;.o.+.1.:.:.5.1.1.5.7.1.1.5.8.s.u.8.t.t.t.8.t.t.^ 5.5.s.7.+.5.7.6.6.u.u.5.>.8.5.8.5.+.5.u.t.8.t.u.u.8.6.8.5.+.6.8.8.5.1.1.y.+.1.>.8.:.:.<.:.t.t.} 5.8.8.1.8.8.6.5.5.6.t.7.+.5.:.5.>.+.:.5.t.7.1.:.+.6.t.8.5.:.+.} ^ +.' 1.R ' R ! ' R b 1 2 R ' I b ;.8.7.t.5.1.t.5.i.5.X.1 r <.1.:.5.5.5.:.+.R ^ 5.1.1.| +.5.7.5.1.:.+.+.+.1.8.5.5.1.8.8.8.8.R Q 7.1.s.8.6.7.6.>.} +.8.6.i.M U 5.O.5.X.Q :.5.1.:.1.5.t.5.7.Q a 2.7.<.X.T y : @ , T +.p.8.4.<. .x 1 @ V x { 7.{ X.1.b d o.<.$.3.1.5.2.2.7.5.1.<.5.$.<.6.7.7.1.2.7.2.5.5.&.X.} } R b c M R ! ' ' ' X.+.R I R ' } ' I R R N M T V ' X.+.:.+.o.1.1.1.1.:.1.",
"O   O @ @ @ X O X @ X : r b ' <.<.;.- r 5.5.:.:.5.>.5.5.5.5.5.5.5.1.5.5.5.:.<.x 1 ^ 5.:.<.;.I ; ' ;.' R :.>.6.6.5.7.6.5.5.6.5.t.X.M r 1 ^ +.5.7.:.+.:.1.7.5.5.5.1.1.<.5.6.6.6.5.:.5.o.' X.X.+.[ :.:.7.t.>.1.,.5.:.7.,.>.5.t.8.8.6.6.7.>.<.1.o.} V b ' +.X.1.t.8.8.8.7.8.t.6.>.5.t.6.8.5.6.t.1.>.8.8.s.+.' ^ 6.5.>.>.5.:.x [ } x } >.1.1.8.>.X.>.>.5.6.6.5.8.8.6.1.~ 8.t.;.<.t.t.1.} o.s.5.+.I d.1.p.X.o.1.[ ^ :.^ R } 5.5.;.>.t.s.t.1.+.Q ' 8.s.s.t.s.s.t.6.5.8.u.u.i.t.8.t.t.5.^ s.8.t.6.' >.+.X.5.8.} +.o.8.6.6.o.5.u.t.t.t.t.u.6.1.1.6.1.1.8.5.1.:.o.s.t.+.1.X.1.+.5.1.:.t.t.X.5.8.8.5.8.6.5.1.5.6.6.>.' 5.7.6.5.+.:.6.1.>.:.1.5.8.6.5.1.{ o.} } O.;.y.' :.:.! :.5.Q r r a b b ;.;.X.5.7.7.1.7.5.y.7.Q - a 1.1.8.5.7.8.;.X.+.} :.5.:.1.<.6.8.8.8.5.+.:.1.1.5.5.1.1.:.1.1.5.o.' 5.1.d.5.8.1.:.+.:.:.t.t.! x t.;.+.1.:.+.1.1.5.5.7.6.8.8.5.' r ^ ! M d 3 r @ 1 R 2.1.1.5.1.$.^ r - y  .x +.5.~ } 4.+.3 , ^ 1.5.4.7.<.1.1.$.&.1.1.%.2.7.2.7.5.1.2.7.>.O.' }  .+.1.1.:.} ' ' ~ N x a N I ! ^ ! R ' ' ' X.' +.X.' >.6.7.:.o.<.1.1.1.1.1.5.",
"  X X X X X   X   X       X % r M Q r 1 5.<.<.5.6.7.5.5.5.5.5.5.5.5.5.5.5.1.1.5.a 1 ' 1.:.,.! + ! ;.R ' 5.X.:.5.6.8.8.5.8.5.5.8.;.I } r - r r x M T X.;.1.5.5.5.1.:.1.7.5.6.6.5.5.t.8.5.;.1.:.X.+.:.1.} ! o.;.1.+.8.+.5.t.8.6.6.6.t.t.7.:.1.7.y.6.[ } 1.:.;.:.1.1.1.1.5.8.7.5.:.5.1.6.7.6.6.t.t.8.7.5.X.! Q 5.1.1.5.5.R I :.X.I I 1.6.6.t.t.:.6.8.5.1.8.5.7.:.X.+.! 5.5.1.X.7.8.5.} X.p.5.8.^ ^ 5.;.7.:.} } +.:.:.R ' :.t.<.} :.7.5.5.1.:.X.+.1.5.8.8.8.t.t.8.8.8.8.t.t.t.s.8.:.} 7.6.t.i.V +.1.1.[ ^ } 1.} t.t.' ;.u.t.t.t.p.s.t.1.>.8.t.t.6.5.5.1.1.8.8.5.1.1.X.1.<.t.5.+.t.t.X.:.6.6.6.1.8.6.1.t.t.7.+.+.8.8.1.5.1.:.5.>.5.5.8.6.6.6.5.:.+.:.+.1.:.+.:.X.8.} Q X.:.b N x N N x 1.:.^ :.5.8.8.>.:.5.1.! + r ;.1.t.7.7.8.} +.t.' R 1.5.8.5.5.5.8.5.+.;.8.t.6.7.5.>.1.>.>.+.} Q a 1.:.t.>.1.:.+.>.:.1.7.>.c ^ <.1.5.>.5.5.5.5.5.6.6.6.,.7.5.[ x b d , 8 : r ^ ^ m 2.<.1.O.O. .m : % R $.i O.O.T 1.7.8.X.y 1 { 5.1.1.1.1.5.3.5.1.&.+.7.4.5.5.7.4.1.O.{ { } O.5.1.6.5.5.6.6.o.! Q ' } :.:.1.1.:.+.:.,.:.:.:.1.' } 5.5.:.+.+.1.5.5.5.5.5.1.",
"    X X X X       X   X X   X @ O - + - X.:.5.5.5.5.5.5.5.6.5.5.5.5.5.5.5.1.1.5.} x 2 ^ 5.<.o.- Q 8.I Q 5.<.} +.8.5.1.8.8.5.5.5.:.V :.o.r d ^ ! V d y c ' o.5.7.1.:.>.5.5.6.8.6.1.:.1.6.1.5.:.X.X.X.+.<.1.7.5.7.X.5.O.6.t.t.t.8.t.6.8.6.6.5.>.1.7.>.[ X.t.y.7.1.5.1.:.+.X.X.} ^ Q } 5.5.t.t.t.8.8.1.1.>.' ' 8.1.1.6.:.x o.i.} ^ c :.6.6.8.t.:.6.8.t.5.+.+.+.1.:.;.} :.5.5.:.5.t.6.' +.t.6.8.1.b X.1.t.5.' o.i.7.:.1.' } ;.7.:.+.X.1.i.t.u.1.:.1.5.5.7.t.s.t.6.8.s.s.8.6.8.5.1.R >.t.t.8.7.V 1.t.t.^ ' } ' ' } +.U ' X.1.1.1.1.1.+.:.5.>.:.X.[ } +.+.:.t.8.:.8.6.+.7.5.t.8.:.8.8.+.+.8.1.1.1.1.>.>.8.t.6.+.8.8.5.1.>.5.+.7.1.8.8.8.5.6.6.7.:.1.:.} <.1.:.^ ' <.o.U } Q d I M 7.:.V [ 5.} >.1.5.8.5.5.>.1.R O x :.5.7.5.7.+.X.1.t.:.M :.i.t.t.t.6.5.+.1.t.8.8.8.8.7.5.6.t.5.>.:.o.I I :.1.+.:.:.5.:.X.:.:.I V ;.:.1.7.5.5.7.8.8.8.6.6.6.t.7.7.;.! T y @ & 8 ) $.3.R 1.3.2.&.%.! y @ 8 <.+.i 8.B N 8.w.6.s.} b % s +.3.O.O.1.7.2.1.} 1.7.1.5.4.1.} } $.&.+.+.1.2.1.5.5.6.5.+.X.} ^ ' o.1.7.6.:.X.+.:.7.<.X.1.o.! ;.5.:.+.;.1.5.5.1.1.5.1.5.",
"  X X                           O + + + r I :.5.6.6.6.5.5.5.5.6.6.6.5.7.5.1.t.>.1.o.t r ! 1.:.1 V t.I X.:.5.1.} :.5.5.5.8.5.6.5.7.M :.8.I : ' 5.5.6.X.N x c ! ;.1.>.1.6.6.5.5.5.1.:.5.7.5.5.5.6.] Q } X.5.t.8.s.+.1.+.1.+.:.5.8.6.t.6.t.1.1.1.>.5.t.7.X.} 8.8.s.s.s.s.8.5.1.>.+.N M Q ^ ! ^ } X.:.5.u.5.' ;.1.1.t.s.:.M 5.8.:.X.a 1.7.t.5.5.[ 7.6.8.1.} :.8.7.5.5.' 5.t.1.5.1.8.7.' :.t.8.8.6.1.R 5.5.7.>.} 5.s.5.8.+.1.^ X.6.:.+.5.1.7.8.5.1.5.5.8.8.5.8.t.s.y.8.5.:.1.1.:.+.y ' 8.8.8.1.V 1.8.X.Q +.1.! V I X.:.5.:.X.o.} } ' ! +.5.+.:.:.1.8.s.8.6.s.5.>.1.5.:.5.8.t.t.>.6.t.:.+.8.1.5.u.8.1.5.6.t.i.o.s.8.5.5.1.5.X.5.5.t.8.5.1.1.6.>.>.>.5.:.:.5.+.Q ^ +.o.Q 1.I r I ! 7.;.X.I t.X.+.>.6.6.6.8.s.1.a O r >.t.>.t.5.} 1.8.6.7.I } i.8.8.y.>.o.5.y.t.6.8.8.t.6.5.5.>.>.5.i.o.;.x N Q X.+.;.:.:.>.6.:.a X.5.>.+.>.t.6.8.8.8.6.6.6.6.5.5.8.{ b y @ % b { 1.4.8.m { 2.8.5.+.B : X V 2.) y G d y d ! 2.1.$.2.^ i % s } 7.8.7.1.$.o.+.+.5.7.+.} X.1.w.7.1.<.7.2.2.6.:.:.X.X.} ^ X.5.:.o.o.o.' [ >.7.1.o.o.1.' Q :.7.+.+.:.5.1.1.1.1.5.1.5.",
"                                O O O O   + r b ^ :.5.5.5.5.6.5.6.5.5.5.5.6.5.7.7.,.;.a 2 R 1.r x :.Q t.:.1.5.1.X.:.8.5.8.5.8.>.5.Q R ' { x 1 ' 8.5.8.6.o.I r r I ' 1.7.8.5.5.>.>.:.1.1.5.5.:.t.;.X.o.} X.:.;.:.' ' ' <.+.:.5.8.t.6.6.t.8.t.t.1.:.5.t.>.} 1.t.8.8.8.t.8.t.8.8.t.1.:.6.8.1.+.+.o.! N R ! M ! ! ^ [ X.M b 8.6.+.X.a :.7.6.>.6.X.t.8.1.:.5.t.t.8.6.5.} 8.5.1.+.5.5.5.^ :.t.8.5.5.8.:.Q +.t.5.+.<.s.t.t.5.8.5.' R +.} +.^ <.o.X.5.u.t.t.t.8.5.:.:.+.o.5.8.8.t.s.1.! X.1.t.8.' ! 5.:.+.8.t.:.' R Q :.5.5.6.5.8.7.8.8.>.5.t.6.5.t.8.t.6.5.8.8.6.1.>.6.5.5.t.8.t.>.8.8.:.+.t.6.8.t.t.6.6.t.8.s.X.d.8.1.8.5.t.+.8.8.8.t.8.5.5.:.:.8.:.1.:.>.6.+.X.X.5.:.' } a M R o.1.:.7.V :.1.1.:.t.5.5.8.d.I - - + a +.6.t.>.;.8.8.t.8.;.^ y.t.8.,.>.+.6.s.6.t.8.6.5.:.>.1.5.5.5.1.o.o.' N y x ! :.>.5.5.t.U R 6.8.5.5.5.6.8.8.6.5.8.8.6.7.7.7.' x 1 : : M { $.7.4.7.R 3.1.&.$. .0 @ : O.2.} u ^ $.O.T y b } 2.6.8.<.T y y V  .$.1.1.o.1. .} X.X.O.5.7.5.+.5.5.4.1.+.:.:.+.+.o.o.+.5.7.:.} X.o.X.+.5.1.o.;.7.:.' :.+.:.O.:.1.1.1.1.5.1.5.5.5.",
"                                                $ t U ;.6.5.5.5.6.6.5.6.6.5.6.6.7.5.7.X.r r Q x r :.R d.1.o.1.1.:.o.:.t.t.1.7.5.' ! T 1.:.' x r :.d.1.y.6.5.X.N Q a y ! 6.7.5.t.7.1.:.8.6.5.5.} x U ' +.1.:.+.:.:.;.:.6.5.5.5.8.u.8.8.8.6.8.6.t.1.o.7.7.o.} t.t.8.6.8.t.t.6.y.8.5.6.t.t.7.7.8.1.1.8.d.8.} p.7.1.5.8.R x 7.8.:.o.y ^ X.1.y.8.>.+.+.t.5.8.8.t.5.8.1.X.t.5.<.X.X.1.t.' +.1.5.6.6.5.8.{ M 5.i.8.} ' } [ :.;.;.+.' X.R ' Q ' } o.8.d.t.t.5.X.R Q } >.8.t.8.t.y.s.X.:.:.+.s.} } 8.} :.u.6.1.} >.8.R ^ ' <.1.t.s.8.8.8.5.5.i.6.t.t.8.s.1.8.8.8.t.:.5.t.5.5.8.s.t.5.8.t.1.} 8.8.t.8.t.8.8.s.i.1.5.6.5.5.u.5.t.:.t.8.t.s.8.t.1.X.>.i.5.+.>.5.:.+.1.+.+.5.X.M x ' ! ' +.X.5.:.' 1.5.5.5.6.t.i.I 1 I a - - 1 ,.8.X.t.t.t.t.8.8.^ :.t.>.5.,.1.6.t.6.6.5.1.5.5.5.5.5.,.:.+.' { o.;.! a V 5.1.t.6.5.M :.t.5.6.5.t.8.8.8.5.8.5.t.:.' R x r 1 + 3 V +.O.4.8.1.8.~ O.6.6.8.R , @ B 2.O.G 2 %.<. .<.| y M X.X.$.7.1.} F 2 : s V O.1.+.^ +.1.2.8.<.7.<.5.2.6.6.+. .:.8.X.R { X.+.;.:.1.[ X.>.:.1.>.o.:.7.5.X.;.>.+.+.:.1.1.1.5.5.1.1.1.5.5.",
"                                                  . @ t U +.,.5.6.6.2.2.5.5.5.5.7.5.1.7.' ; 1 ; ; } } t.5.7.1.1.1.1.1.1.5.t.1.' X.5.' :.<.1.:.I a X.y.8.6.5.1.I :.7.' I M ! :.5.8.5.<.5.X.' [ +.:.>.7.1.1.1.:.1.8.1.1.6.8.8.t.8.8.6.8.6.8.t.6.8.t.1.} 1.5.[ 1.7.8.t.8.8.6.t.6.o.5.8.5.5.6.8.1.+.8.t.p.1.Q 8.8.>.6.t.V ' } 8.t.5.r I 8.>.1.8.+.+.1.8.t.8.8.t.5.8.1.+.8.8.X.} >.t.6.Q ' 8.8.6.8.5.5.:.^ M ! } R ^ X.+.:.^ ^ X.:.1.:.} 5.1.X.X.+.+.:.>.;.+.:.5.8.:.1.5.8.8.8.s.} 1.5.X.:.} 8.+.} 8.i.8.X.>.y.s.>.X.V X.8.t.u.s.s.8.6.7.1.t.u.t.t.8.5.8.t.t.8.1.5.8.1.t.8.s.8.5.5.t.1.} 8.8.s.8.t.8.8.t.t.>.1.1.5.s.t.8.8.1.s.8.8.t.5.8.<.:.7.t.+.X.5.>.1.:.:.>.X.+.I ; x 5.:.R } 6.5.5.Q t.y.1.o.<.:.d a ' 5.:.x ; + I :.' t.8.t.7.7.5.^ X.:.>.6.7.5.8.6.6.8.6.7.5.8.8.6.>.>.5.8.+.o.:.1.1.[ t X.t.5.6.I ^ 1.5.6.6.5.6.8.8.t.8.6.+.Q x t 1 2 - r I ^ +.&.5.t.7.6.%.R Q O.X.O.d % 2 O.} ^ } s } 1.$.o.<.R y E O.{ V d b !  .{ d d 2 v u i R V v v V R +.2.1.+.O...1.1.{ } X.+.+.;.1.5.:.X.;.:.:.7.5.:.>.1.1.o.1.:.+.1.>.1.5.5.5.5.1.1.5.1.1.",
"X                                                   + @ ; 2 I :.,.6.6.6.6.5.5.5.7.5.7.<.5.I r O + 1 c ;.8.1.+.:.5.1.:.5.:.5.:.' 1.8.;.;.y.:.:.:.N y +.1.5.8.y.^ Q ,.1.8.1.! N I X.:.8.X.R ;.5.:.6.:.:.1.+.5.5.5.t.8.5.8.8.t.8.5.8.8.8.5.8.8.i.8.7.t.t.^ ;.} 1.8.8.6.6.8.t.1.+.:.6.t.8.5.6.6.:.5.t.8.s.:.I t.8.5.y.>.I t.+.t.1.;.2 I Q +.1.[ +.6.6.1.8.8.t.t.8.5.+.:.t.} } 8.t.8.O.' ^ 6.6.5.6.8.6.5.1.M ' 8.5.<.6.>.5.t.8.} X.Q M :.:.i.t.X.[ +.+.} +.5.t.t.8.7.5.7.t.t.t.s.X.8.5.} 1.} X.+.5.t.o.^ 5.t.8.s.+.5.5.X.:.t.t.t.t.t.8.d.s.5.8.8.6.+.6.t.p.t.1.+.8.t.5.s.t.s.t.8.5.s.5.X.8.t.s.t.t.t.t.8.1.+.5.5.6.t.t.t.8.8.d.8.6.5.1.7.1.5.8.1.X.' :.X.} ' ' :.! ! x - V 1.t.o.^ :.6.8.Q i.t.t.5.I t b 5.t.7.:.6.x - R :.} 8.8.t.5.8.6.} ^ :.7.8.6.7.8.t.7.8.6.5.6.6.1.5.t.t.7.:.>.:.7.7.7.8.^ x 5.8.X.r ;.t.7.t.6.8.7.8.8.5.+.I a r 1 ; r @ M X.5.1.1.%.2.8.5.1.O.5.<.1.<.V 2 : 3 ^ R 5.1.y ^ } R } ^ } T x i a E ^ T N d V b V M V I R R N M y y , y I V V ^ X.^ M V ' o.X.:.<.:.X.:.t.:.1.8.6.1.1.1.5.1.1.7.1.:.>.1.5.5.5.6.5.5.1.1.1.7.",
"X X                                             . . O O O   + 3 D >.,.>.5.5.5.5.5.5.5.<.;.I r + - ; y a I o.7.:.:.>.:.>.5.1.} ;.8.5.:.[ 6.5.t.1.t.b a 1.1.t.6.5.R :.8.1.5.6.5.X.M M b a ' 8.8.O.1.6.8.+.X.<.:.+.+.+.+.;.+.X.1.5.1.1.+.+.+.X.1.5.5.t.5.5.X.R ;.8.6.6.8.6.1.+.+.5.6.6.6.5.8.5.+.8.t.t.t.;.V 5.5.8.d.I R t.>.o.5.} x ' :.Q 1.' >.6.8.5.1.7.t.8.t.8.+.1.;.' 1.t.8.8.' 1.X.+.6.8.5.6.5.5.6.5.O.X.s.o.<.:.1.1.7.5.8.5.R R R X.+.X.} 5.t.+.1.1.1.5.8.6.8.t.8.t.t.>.+.t.+.} :.^ ' 8.X.+.X.8.t.t.t.t.1.:.1.5.+.1.t.u.8.t.s.8.8.5.+.6.1.+.8.y.t.8.:.:.8.5.:.s.t.s.s.t.5.s.5.+.t.8.i.u.u.t.t.8.:.+.7.8.8.u.t.t.7.8.t.5.5.:.+.:.5.6.8.:.' [ :.:.:.+.:.8.' X.R t s 8.!.+.+.1.o.5.^ 5.7.:.N 2 V 7.t.5.6.t.6.} @ I y.o.+.t.5.t.5.t.;.Q :.6.5.1.5.8.8.8.5.5.6.8.6.t.t.t.6.6.7.>.5.t.t.t.u.y.M o.:.y I 6.7.6.5.5.5.t.5.X.V a 1 1 r x a r k 6.6.7.5.<.1.6.5.1.) +.4.1.2.1.b % @ 1 b  .O.} i M { +.2.d.) E } } } +.1.2.1.R v r { +.+.&.+.o.~ ~ } 2.+.V 3 i B V V R R Q +.1.:.1.X.} X.+.o.:.>.+.X.} +.+.+.X.X.+.X.X.;.>.1.7.6.5.7.5.5.1.5.5.",
"X . X . . . .     .                                             + 2 M [ :.1.5.6.1.5.7.7.c 2 I a O x ;.<.R c s ! 1.7.:.:.7.;.^ >.t.5.1.} 1.5.1.6.5.+.M b } X.:.t.o.' 7.5.8.t.8.5.5.5.} I I ^ X.5.6.7.5.>.1.1.1.+.:.1.5.5.1.;.+.+.+.:.:.:.} } X.X.X.;.>.>.+.c ' 5.8.8.5.1.:.8.8.1.t.t.5.8.6.>.5.5.8.t.8.:.Q t.8.t.8.I 1.5.t.+.! :.Q ' t.;.R 1.<.1.t.y.5.5.8.t.8.t.+.:.[ X.t.8.8.8.} 8.;.O.5.8.1.+.1.1.:.:.8.} :.8.:.:.5.5.5.:.8.5.d.o.X.R } :.X.X.1.8.t.t.6.6.t.6.t.t.i.t.8.X.1.5.[ ^ I ! <.:.I :.t.t.u.s.t.t.1.:.6.8.s.1.5.t.p.t.s.s.8.6.s.t.1.6.t.t.8.8.:.6.8.:.+.t.u.s.i.s.5.p.8.1.t.8.s.s.t.t.8.6.1.+.6.8.8.s.8.6.6.8.8.8.8.5.:.:.6.1.5.+.X.1.8.5.6.5.8.u.X.^ I Q 2 ' 1.;.7.6.5.' c >.;.r a ' :.:.5.t.8.s.t.t.3 I 5.:.! 8.7.t.5.8.>.Q X.6.,.:.5.8.8.8.8.8.8.t.8.t.6.t.t.t.6.6.7.6.t.8.t.6.' x R r } 7.5.t.7.5.;.Q c r 2 r d Q ' :.} a X.6.8.8.:.1.8.7.8.1.E 7.8.8.2.1.d @ @ @ : ^ <.1.d V 1.5.1.2.X.+.1.<.5.1.4.1.} { +.G b } 1.2.&.1.} Q X._ R R y V B N { 1.5.^ ' :.+.+.R ' :.;.O.;.:.X.} +.:.>.:.+.:.+.+.+.:.>.5.6.8.5.5.5.7.5.5.>.",
"X X X . o .   .     . .                                         .     ; M ;.5.8.1.1.1.' 1 U 7.[ 2 b ' <.y.5.! r a } 8.7.1.! ^ 5.8.8.1.' } t.5.7.5.8.} x Q ! X.' >.} :.y.s.5.5.t.6.:.8.:.;.:.M M X.7.>.5.5.1.1.1.5.1.5.5.:.+.{ } +.1.:.[ +.7.t.5.>.:.^ X.[ ' N >.5.1.+.1.t.t.1.t.6.5.8.u.:.+.y.6.8.t.1.+.Q 8.t.5.+.~ p.8.1.;.I 6.Q ' <.} ' ! t.t.t.8.5.5.6.t.7.5.X.[ } 5.u.8.8.8.} t.5.1.+.6.6.5.t.8.5.5.5.8.I +.>.1.t.5.8.1.8.s.1.' +.5.8.8.1.Q ' X.1.t.d.u.5.1.:.7.u.8.5.} 8.X.' R y ' :.Q [ 7.t.8.8.8.t.8.p.+.+.t.8.s.1.1.8.8.s.8.6.u.8.8.1.t.6.8.8.8.8.1.5.8.5.t.8.8.8.s.5.8.t.5.u.8.s.u.t.t.8.5.1.+.6.d.8.8.8.5.5.8.8.t.8.5.:.X.>.7.8.6.1.5.5.5.u.+.6.8.:.R N >.- ! 1.' 7.1.7.t.! a 2 b :.t.5.+.:.7.d.t.t.1.2 : 1.8.^ 1.t.6.8.8.8.! U 6.1.>.8.8.8.8.8.8.8.t.t.t.t.6.7.6.i.6.t.t.i.t.7.f.:.t ' x ;.y.7.} I a 2 1 1 2 x ' 1.t.:.:.a I 8.8.8.5.+.6.4.1.6.} d O.1.d.1.) 1 , b y % c X.<.d M 7.4.2.! | 5.s.4.7.<.Q ^ +.$.1.6.1.B V %.1.1. .Q R o.6.X.b } E N M ~ o.7.' 1.1.5.} } 8.5.7.5.1.X.1.8.5.1.:.>.6.>.>.5.5.5.5.5.5.1.5.5.5.7.5.o.",
"X X X o o o + + o . . .   .                                         .     1 M } 1.1.:.M y <.,.;.1 a } ' :.7.1.:.! x I X.R ' X.8.8.t.5.+.^ 7.5.5.5.>.8.[ M ' ,.' :.:.' +.t.6.6.8.6.1.1.>.:.t.t.X.I ! +.+.5.8.5.5.5.6.6.:.+.+.:.:.7.+.+.+.1.5.6.7.5.>.7.5.6.8.X.Q :.:.8.8.8.t.8.8.8.t.8.8.o.1.+.1.1.1.5.X.^ 1.5.d.Q +.t.8.t.o.:.>.' ' 1.5.1.c o.6.8.p.8.t.t.5.5.5.^ +.o.:.u.5.6.:.} t.8.:.6.5.5.1.6.y.:.1.t.t.5.} +.:.5.8.1.1.6.<.1.7.X.+.s.X.5.:.+.1.8.5.1.5.>.5.6.8.8.u.5.:.1.Q N ' x M ' ;.7.5.5.s.t.t.t.8.8.+.1.8.t.t.8.8.8.8.8.t.u.u.t.8.8.8.5.8.t.5.5.1.t.6.8.t.s.s.t.d.o.8.8.8.8.t.s.s.t.t.s.6.+.+.6.s.8.s.s.s.y.8.6.5.1.>.X.>.i.8.8.1.6.6.5.6.7.:.5.:.X.d [ 6.N r } ' :.1.8.:.M 1 t +.5.5.8.7.:.o.1.5.t.I 2 r Q t.:.X.t.5.5.t.:.>.! +.t.8.8.8.i.8.8.8.t.8.8.t.t.t.8.8.8.8.7.8.t.y.t.6.6.I N x R M x r : 2 r r M } 1.7.8.1.5.^ x X.1.y.6.:.5.4.5.1.:.X.X.V T o.+.b @ : T R : - , i 2 3 d V ^ V 1.w.8.o.) } O.5.%.<.2.5.1.1.R ^ 6.5.} R <.<.7.+.i +.<.1.4.O.R Q ' R o.:.1.{ 1.5.1.1.:.1.5.5.7.,.1.1.1.5.5.5.7.6.6.7.5.5.8.1.5.5.:.X.",
"  X @ @ @ @ @ + . o + + .                                                   O 1 b } +.r ' 5.5.+.2 1 ' ' ' +.5.7.1.;.x 1 V <.X.1.t.s.t.8.' :.5.8.8.5.8.6.! a o.:.+.1.:.' [ :.8.6.5.1.8.u.1.:.1.t.t.1.o.R R o.u.i.5.8.8.:.:.:.1.5.5.+.1.8.7.t.t.1.>.>.6.t.6.6.t.^ ' t.8.t.5.5.5.7.7.5.6.t.o.X.X.6.5.8.5.:.X.+.+.8.I 5.8.8.:.:.>.X.I ' t.t.t.R } +.>.t.8.8.y.>.1.5.X.8.o.>.t.1.1.} R 8.s.;.1.8.5.5.u.s.+.5.s.8.s.>.} X.:.+.1.} o.5.s.d.+.X.5.8.1.s.1.1.5.8.t.8.6.+.>.1.8.1.' +.+.d x R I Q } 8.t.7.5.t.t.t.t.8.5.} +.t.s.u.t.8.t.8.s.u.8.t.t.8.t.t.6.8.8.5.8.5.t.5.t.u.t.t.t.s.+.0.t.8.t.t.t.t.t.t.8.5.<.:.5.8.8.u.s.8.t.5.+.X.>.5.1.1.8.u.5.5.5.6.o.1.+.+.1.:.o.d +.t.7.r r X.<.N U r r I 1.} :.:.8.5.t.8.:.} ' r - I M +.1.X.t.6.6.t.5.y.+.' i.t.8.8.5.8.8.8.8.8.6.6.7.6.8.8.8.8.t.s.s.y.8.t.5.N 1 r y 2 - - 3 x ' :.t.t.6.7.:.5.;.c [ :.1.t.5.5.2.7.7.5.1.5.7.4. .R V , @ : d ^ N d : M d y V d % X b ! ^ } X.X.6.8.7.2.$.1.7.7.7.T ! _ o.| 5.1.2.5.d N $.<.5.8.4.' X.+.I ' ;.} 1.1.:.1.1.5.5.7.6.1.5.1.5.1.5.6.6.6.5.7.5.5.5.8.7.>.>.;.",
"X + @ o @ o @ $ $ $ @ $ o + $ .                                                 O 1 r - ,.7.7.o.- a N 1.X.[ >.5.:.o.X.X.y M } ;.+.1.:.:.;.5.7.1.5.5.7.7.7.N a ;.1.;.7.:.o.! R I Q 5.8.t.6.8.>.1.t.8.6.t.:.^ Q ' :.1.+.X.5.8.1.5.<.:.5.5.8.t.5.:.>.5.1.>.5.5.+.[ } 1.1.t.;.+.:.1.5.5.8.1.} 1.5.8.5.6.5.:.o.o.o.' } t.1.X.' 5.6.+.c } 8.8.t.' :.>.} :.6.5.8.5.8.5.+.u.>.>.6.8.t.>.' 1.t.:.} 8.7.5.8.u.+.5.s.8.t.t.1.[ } +.+.X.o.:.:.y.8.1.+.8.5.1.8.5.6.8.6.t.u.t.1.5.8.[ R :.X.M ! +.+.+.' 6.t.t.5.8.t.t.8.u.t.X.X.7.u.u.t.t.u.u.t.u.t.8.t.t.s.t.8.8.8.5.t.6.u.6.8.u.t.t.8.t.+.t.8.t.t.t.t.t.s.8.6.6.7.5.5.t.u.u.s.u.t.8.1.+.<.1.6.1.5.i.1.6.6.8.o.7.5.1.5.' I } ' 7.t.' - r x @ 1 1 I I t.1.+.X.8.t.t.s.s.d.V a :.' o.X.1.8.8.6.t.6.8.8.7.' 1.s.6.8.6.8.8.8.8.t.t.t.t.8.t.t.8.8.7.8.7.5.:.;.I t r - r y b Q X.5.7.8.5.5.5.8.<.1.I I >.1.7.5.1.1.5.7.4.2.1.3.5.6.2.} M r : B R t.2.<._ M 2 T 8.1.{ b : : : x F O.5.1.5.2.7.5.1.5.5.X.N ~ 1.<.$.1.2.1.O.3 V +.6.6.7.1.! y.} R I N :.1.1.1.5.5.5.5.6.6.5.5.5.5.1.5.5.5.1.5.5.5.5.1.>.+.' ' ",
"o @ @ : : @ $ $ ; > 7 y 7 > $ @ @ .                                                 O O x R 1.>.1 ' I I ,.+.:.>.+.t.6.X.} ' d ! +.1.1.>.+.X.o.5.:.:.;.;.' M x r ! t.1.1.7.1.:.} ' Q ' 1.7.5.5.1.5.8.8.t.5.5.>.+.^ U ' :.5.1.8.5.:.8.8.5.+.o.' ^ } :.5.>.:.>.X.:.+.^ X.1.:.1.:.>.5.5.1.O.o.5.5.8.t.5.1.+.1.1.:.I 5.t.5.X.+.5.8.5.M ;.8.t.8.X.X.t.1.} +.t.8.8.5.} >.8.8.+.>.y.t.:.5.8.+.:.:.:.5.5.6.6.o.8.8.t.t.t.y.t.' Q } ^ +.:.5.d.8.:.1.1.5.8.1.X.:.6.6.t.s.t.t.1.:.I M Q } +.1.+.+.:.' 5.8.t.8.6.8.t.u.t.s.1.+.1.s.u.t.u.t.t.t.t.t.t.8.t.s.t.8.8.8.8.s.8.t.6.t.t.t.t.t.t.;.t.u.8.8.u.u.s.t.8.6.6.t.8.t.t.i.8.u.s.t.6.7.8.1.+.5.8.8.t.5.6.8.6.:.7.5.;.} M M +.o.o.1.+.1 r x V ' X.I N :.!.1.} X.s.8.t.t.>.r R d.:.Q :.8.8.t.8.8.8.t.6.t.>.' t.5.8.8.8.5.5.8.8.t.8.6.7.8.t.8.t.7.:.! c r 1 r r r I X.:.7.6.5.1.7.8.8.y.7.1.5.R M :.7.7.6.5.1.1.1.7.8.2.1.6.2.8.1.+.b X y 6.O.o.4.7.d.+., r ' X.^ ^ R v 2 k r 3 , a V ! +.t.4.<.6.1.v F W 1.1.5.2.+.1.F N b | 8.1.t.' ^ :.:.{ I ' ' o.7.5.5.5.5.5.5.5.1.1.1.5.5.6.5.5.6.8.5.1.} [ } ' [ ",
"X @ : @ : p V E ^ ( o.| +.E y $ 3 @ + .                                           O O   O + a N 2 5.:.d ! 1.! ] 1.6.:.+.} O.^ T V ' :.:.+.' ^ c N V ! R N I :.b y } y.5.:.:.>.o.8.6.X.Q } 6.t.5.5.8.1.7.y.t.5.8.t.} U ! } >.:.:.;.7.+.} :.1.1.1.5.t.t.t.t.t.8.6.5.+.[ t.5.8.8.t.8.8.5.X.6.6.5.6.t.8.5.1.y.X.I R 8.t.5.:.5.7.t.t.V o.1.y.1.+.X.>.i.8.X.X.5.6.>.} 6.6.8.5.>.8.6.:.t.t.X.:.7.1.1.1.1.1.} 6.s.8.s.8.i.s.:.I ^ Q ^ Q ^ } +.1.:.:.5.d.} 7.5.7.t.t.t.i.8.X.^ I I >.:.[ >.+.X.6.+.:.6.t.8.6.t.u.t.t.s.5.:.5.t.s.s.8.s.t.s.t.u.s.8.t.s.t.t.u.8.t.t.8.t.5.u.t.t.u.t.t.<.s.t.t.8.t.t.s.8.8.8.8.8.s.s.t.t.t.u.s.t.8.8.8.8.5.5.t.t.8.6.6.u.1.} X.} o.R N ' R ' } 7.o.d 5.t.5.,.:.t.U V X.t.5.R 5.7.s.y.M y 8.7.7.1.o.d.8.i.8.6.t.t.t.8.6.' >.t.7.8.8.8.8.8.8.6.t.t.t.t.:.X.^ c 1 ; r a N c r x :.1.1.1.1.8.t.8.8.6.6.5.5.X.x Q 7.t.t.6.>.>.5.5.1.5.1.1.8.6.8.+.} y - R 1.<.+.^ 7.1.+.V r y v } 1.<.O.R R } X.~ F d , : c X.5.5.&.R 5.^ $.3.1.6.5. .%.s.^ a T :.:.:.! :.[ X.Q :.1.} ' +.+.5.7.1.5.5.5.1.5.5.5.5.5.5.1.1.X.} } :.1.:.1.",
"3 d F ^ [ o.>.1.>.$.$.o.o.E t ; s u d d $                                               O       : I +.} x +.( U :.5.X.5.;.;.X.:.^ b ' ' M N ! o.<.5.1.' +.<.5.1.! b R 8.7.t.X.>.6.5.6.5.X.' +.1.5.5.6.t.5.6.t.t.8.1.1.1.X.' +.' :.:.} o.:.1.1.:.>.7.t.t.t.6.5.5.5.8.} } 1.7.8.t.t.5.1.+.5.8.8.6.8.5.7.;.} ' N :.5.p.+.5.:.1.>.+.a { 7.5.:.+.+.:.s.t.t.^ R X.1.X.6.u.8.6.5.8.6.:.t.t.1.1.1.6.;.1.5.+.' 5.t.t.8.t.8.6.7.} X.:.5.+.:.} R ' ! } 5.:.:.7.5.>.5.t.t.t.t.Q N ^ o.y.6.1.>.o.:.t.>.>.8.i.s.8.8.t.t.u.s.6.5.6.6.u.i.s.s.s.y.t.t.s.t.u.t.t.t.s.s.s.s.8.8.6.t.u.8.t.t.t.1.t.u.t.u.t.t.t.u.u.8.8.8.s.s.t.t.t.s.t.t.t.p.8.8.5.>.5.5.1.5.<.o.! Q X.o.<.N ' <.X.' ;.} I ! 7.1.:.7.8.6.' } ;.X.} I Q :.t.} r ' t.i.5.1.:.d.6.6.7.8.8.8.t.6.8.X.+.t.8.8.8.5.8.t.8.5.5.[ ^ x r 2 1 a M ' :.1.:.I t ! 7.7.t.8.6.6.6.8.8.6.y.1.5.x R ;.;.7.7.7.:.5.5.1.2.6.7.7.8.4.1.1.:.r 3 $.8.;.+.+.<.8.5.V ^ O.} 2.+.1.5.^ R ! 8.5.5.5.+.R d 3 ^ 8.+.R 7.) o.1.5.:.5.} 1.7.2.1.^ Q I I M ' ! [ ! X.1.:.1.X.X.+.;.1.5.>.1.:.5.1.>.6.:.>.:.X.O.;.1.5.1.1.5.",
";.<.^ 7.,.,.:.,.5.5.6.1.X.a : 1 y ! 8.8.>.E 7 +     @ . o                                       $ + > Q D c o.} >.1.} 6.1.o.o.1.:.o.a 3 ' i.7.1.' X.} { :.;.:.1.1.:.M I d.;.' X.1.5.5.5.5.1.' I } 5.5.5.8.6.>.;.X.' } 1.:.+.X.R R I >.f.6.5.+.+.:.:.} :.6.8.t.s.7.<.o.I R 5.5.p.1.d.+.:.1.1.1.1.,.<.7.} >.:.I 7.+.+.' +.' } +.' d ' 5.5.1.1.:.+.8.s.s.8.Q ^ 1.+.>.>.5.t.8.>.6.:.i.t.:.>.+.5.+.1.8.<.X.:.t.t.6.p.8.8.5.+.o.1.8.1.1.1.X.;.<.' ' ~ 5.5.:.8.t.5.i.5.x ' 8.[ >.u.t.8.7.;.8.t.1.:.<.6.8.8.5.8.s.t.u.6.5.1.8.t.t.u.t.u.s.u.8.s.t.u.t.u.u.u.0.t.t.u.8.8.t.t.t.t.t.8.5.t.t.t.t.8.u.8.s.s.u.8.8.s.s.u.t.t.5.s.d.s.8.1.:.o.X.+.o.' R R R Q o.:.1.X.b o.:.8.1.} ' ;.;.8.1.5.8.8.t.X.X.1.+.8.+.y Q 1.N x 1.t.1.5.8.} 1.8.t.8.i.t.8.8.1.5.1.o.t.t.y.u.d.t.5.;.I s 2 1 x d Q X.1.8.s.t.t.' ! x X.7.6.8.6.8.6.8.6.t.6.1.5.! x X.8.X.5.8.5.5.8.6.5.5.5.5.6.8.6.1.1.' 1 x 5.t.:.1.:.1.8.6.I U :.5.1.<.7.>.o.:.' :.6.8.6.6.5.5.d 1 } +.' +.;.<.7.5.1.1.} 1.5.1.5.8.5.t.R M c I M s I R I R ' ^ I x c d M } X.o.:.7.t.:.o.o.X.1.5.1.5.1.5.5.",
" .{ ^ ,.7.,.7.,.>.1.5.5.' - : V E +...1.>.>.$.^ c 3 . .   o                                           @ 2 1 s } ,.$.| >.<.:.;.<.o.5.o.V ! 5.,.:.:.' ' 1.1.:.:.1.7.8.:.I R :.1.:.5.1.5.6.5.5.8.7.} } :.5.8.+.+.:.:.+.;.:.:.5.8.1.X.I R ^ >.6.t.5.5.7.:.:.1.+.5.:.8.1.1.:.R ' 5.7.8.1.X.+.5.8.5.5.1.:.' Q t.:.o.7.[ I ' 1.5.1.p.:.' } } s.>.:.1.5.+.:.1.5.5.' R ^ 5.t.t.6.6.8.5.+.d.8.+.5.} X.+.} 8.5.:.+.8.8.t.s.8.8.6.5.X.+.5.6.5.8.5.+.8.:.' o.1.:.1.6.5.1.1.I I 6.} +.+.1.i.6.8.;.t.s.1.+.X.+.6.6.5.t.s.t.u.u.8.>.t.s.u.t.u.u.u.t.u.u.u.t.u.t.8.s.u.t.u.u.8.8.8.s.t.t.s.8.5.t.t.t.u.u.t.u.u.8.8.8.t.s.t.s.s.8.6.6.5.5.1.1.5.5.7.y.1.X.! ' o.+.t.:.,.I X.:.y.:.^ X.>.! <.8.8.t.8.t.u.1.' 6.1.>.} t.;.R 3 y } ;.1.t.t.X.1.d.t.t.8.8.8.8.t.y.1.^ <.o.X.! I d y 2 t r r I 5.8.s.5.6.8.8.6.:.Q I U 5.7.8.7.8.6.8.6.6.6.t.>.;.x X.;.t.X.5.5.1.6.8.8.6.5.1.5.6.8.7.+.;.M : N 5.7.1.5.:.:.>.7.Q V 5.1.<.+.5.+.1.7.+.o.6.7.8.5.1.6.:.d 3 Q } <.5.X.5.+.;.} :.5.5.5.5.6.7.8.o.^ I ' X.' ;.1.<.;.;.+.X.! Q I I Q I R I Q Q Q I I } } ' ' } } } } ",
";.5.^ [ ;.,.,.7.5.6.,.:.U : U 6.] X.>.,.6.>.$.2.1.$.b n $ .                                     +   O . @   @ u U ( ' } } 5.t.7.:.<.5.1.R R :.7.+.} } 1.>.5.8.5.5.1.t.X.M ^ s.1.6.5.5.6.6.6.5.1.5.<.} } } } >.7.1.1.1.5.5.8.t.1.t.6.+.1.[ ' X.:.>.1.5.t.t.1.+.} 1.7.7.s.5.V } :.5.o.+.1.8.8.8.8.t.t.I +.+.;.:.o.} ' 5.8.u.>.s.X.X.8.} 5.5.X.5.s.<.1.t.t.t.8.! V ^ } 6.t.6.5.7.+.8.8.1.8.:.} 1.o.8.5.8.:.6.1.8.8.6.8.6.8.<.' +.1.8.t.5.:.:.:.^ 5.5.t.^ X.<.N d ' X.:.X.6.1.+.t.6.8.} 8.s.8.X.+.:.8.s.8.8.8.t.u.u.6.+.8.8.t.u.s.t.t.t.8.s.u.u.u.t.t.u.t.s.t.t.t.t.t.u.t.t.t.t.8.t.8.u.8.u.u.8.t.t.s.8.t.p.t.u.8.1.X.+.1.6.6.6.5.6.t.8.:.o.} :.:.} 5.o.! U 1.o.+.Q U >.6.' 8.8.8.t.8.s.t.1.! 8.X.^ 6.5.s.! 1 Q Q x x a r a M I I R I U V b x s y @ r 1 3 a x I ^ } :.b I y.8.8.+.5.5.5.8.1.' } x :.t.6.8.8.6.6.6.8.6.6.7.6.I Q 8.:.8.+.5.1.1.8.8.6.8.7.6.5.:.1.1.<.o.r 1 I :.7.1.1.+.+.;.1.Q M 5.1.:.+.+.} 6.6.>.+.8.1.5.1.6.1.5.X.r y R ' o.' 5.;.:.} 7.5.5.6.6.6.6.t.' ' ' } ' o.1.7.5.1.1.1.5.>.:.;.+.5.' N V X.;.<.' ' <.<.1.1.:.:.;.:.",
" .<.;.} X.;.,.7.5.>.5.1.U > o.5.] D ,.5.2.6.6.,.1.2.o.| o.D 2   .     X                             + . . O + + > s I } } ! ! ;.;.:.8.8.8.X.a ! ;.{ +.5.1.7.5.5.1.:.} X.+.V ' t.1.5.5.6.6.6.t.t.8.8.8.;.Q Q +.t.t.5.1.5.8.8.8.5.1.5.1.>.1.:.;.:.X.X.+.o.1.8.:.' X.+.1.1.5.:.N ^ :.5.7.5.8.8.8.8.1.} y Q R } } 1.:.o.1.8.t.5.t.+.1.t.1.' +.1.5.6.1.t.8.t.s.y.:.:.+.1.>.7.8.8.>.} 6.8.1.8.8.} 1.>.5.5.8.5.8.6.:.5.6.s.6.8.8.^ +.+.8.8.7.5.X.:.} p.5.X.R V M M U X.' >.+.8.5.:.t.t.6.' 8.s.t.X.+.1.6.s.s.t.s.8.t.8.8.1.8.5.8.8.t.t.s.t.0.s.t.u.t.u.u.t.u.t.s.u.t.t.s.t.t.t.t.t.8.t.u.u.8.u.u.8.u.t.t.t.8.8.8.8.1.>.1.8.8.s.s.8.8.t.s.8.1.:.:.1.1.;.6.' I 7.+.8.} o.:.:.[ Q 8.s.t.s.8.u.t.8.Q +.} +.1.y.8.a M 5.d.5.1.+.^ x I M M M c N V I I I s I X.<.7.8.u.t.8.i.R N :.5.6.o.6.6.8.6.8.} N x U 6.,.8.8.8.6.y.5.8.6.t.6.^ M :.1.:.7.:.:.1.5.6.8.8.6.7.6.7.+.+.5.1.' 1 a ! :.t.7.5.>.1.6.1.' x :.5.1.:.O.X.7.8.,.} 1.6.5.1.8.5.5.1.N V X.o.} ' } :.:.:.7.8.8.5.5.6.8.1.} ' Q :.o.o.1.1.1.1.5.1.5.>.7.:.;.8.1.R I R ^ ' Q b R ' [ ;.:.1.1.1.",
"%.O.O.:.:.,.,.;.X.X.+.5.I ; +.+.6.U ,.2.2.6.6.,.5.5.$.U >.2.D 2 y : .                           . O   O O O . O O @ 2 s ' :.' :.X.} } :.8.7.;.R b } 8.5.6.5.5.6.8.1.X.<.1.;.I [ 5.5.5.5.5.6.6.7.7.6.6.8.+.X.o.+.5.t.8.8.8.8.8.8.5.t.5.>.5.5.8.8.6.5.>.:.X.Q ^ [ ,.:.:.X.:.+.:.I +.:.>.5.5.8.:.} { ! ^ X.5.8.5.6.+.:.1.5.8.8.8.X.1.8.8.' Q :.:.8.t.6.s.s.t.5.s.8.' 5.>.:.X.X.} ^ t.t.5.t.t.5.+.1.1.1.8.8.:.s.8.5.8.p.8.8.8.X.[ +.8.8.8.8.o.;.^ } M U X.} X.1.:.X.! Q :.d.t.:.7.7.>.+.t.t.u.1.:.t.1.8.p.t.t.t.t.8.u.u.8.u.u.8.8.u.s.t.u.t.u.u.u.t.t.u.t.t.s.t.t.s.t.t.8.s.t.t.t.t.0.t.t.t.t.u.t.t.t.t.t.t.6.5.5.8.8.s.u.u.t.t.t.t.t.:.+.5.1.1.:.} ^ N +.p.5.5.5.8.8.7.1.^ +.8.t.t.t.s.5.+.V X.1.7.t.7.Q r ' 7.t.8.u.1.X.1.t.6.8.5.t.6.8.t.t.;.' t.8.s.8.t.6.5.7.+.V +.>.+.} 1.8.u.t.8.:.b r M 7.6.8.5.6.8.8.6.8.6.8.t.+.M +.5.5.:.8.+.>.5.8.8.8.8.6.5.1.6.1.1.8.5.Q - M } >.5.5.8.5.5.8.1.:.x ;.8.5.:.5.>.>.t.1.X.+.8.5.5.5.5.8.1.a N ! 5.5.' o.7.X.5.1.6.5.8.8.5.1.1.' } X.5.} +.1.5.1.1.1.:.1.<.7.<.} ' ' M I N I R ' b I V N I ' ' ' ' ",
"$. .+.:.,.6.7.,.:.+.X.X.V - X.>.,.o.X.2.,.6.6.6.5.2.2.+.^ >.$.t 2.} V t @ .           O                 O       . . O + - x X.1.7.1.} ^ ' :.1.6.I b +.5.5.5.5.6.t.o.o.1.5.1.o.R +.5.5.6.5.8.6.8.8.8.8.6.:.o.7.+.X.:.8.t.6.8.8.8.t.t.5.:.1.8.8.t.y.8.6.8.8.8.1.} X.1.8.5.:.' :.} I X.+.+.:.X.:.1.5.{ 1.+.1.i.t.t.t.5.t.8.8.8.5.' 8.5.y.7.Q :.8.5.8.8.8.8.s.1.8.8.:.' X.5.:.1.+.+.6.t.5.8.s.6.>.1.1.5.5.8.} t.s.8.8.5.8.t.6.8.R X.:.+.} 1.:.N r N X.1.:.:.8.6.>.+.7.+.! 7.t.:.+.>.} :.8.s.t.1.5.t.6.s.s.s.t.8.7.8.u.u.6.t.8.t.u.u.u.t.t.u.s.8.t.s.u.t.0.u.t.u.u.t.t.u.u.t.u.u.t.0.u.t.t.u.u.t.u.8.t.u.8.8.5.5.6.t.s.8.8.8.8.6.t.t.6.:.1.8.5.o.1.:.+.Q :.6.8.8.5.6.8.5.1.+.5.5.8.u.5.:.1.:.I o.y.1.s.^ - a :.p.8.t.5.:.1.8.6.8.5.7.6.t.t.5.5.Q t.t.t.t.t.t.6.8.5.R ' 6.1.>.1.6.8.t.t.6.R 3 { <.6.y.y.8.8.6.6.8.6.8.6.6.U ' 7.5.5.:.8.+.1.7.8.8.6.8.8.5.1.6.1.5.8.X.N + ' ' :.5.5.5.6.6.5.:.6.! ' 5.1.5.t.5.:.5.+.} :.5.5.5.5.8.5.:.r M ;.' o.o.<.{ ! 1.:.:.5.6.5.6.1.+.X.>.>.6.X.>.7.6.:.+.1.1.,.} Q R R } X.} ;.5.5.+.' X.o.;.[ N N I N ' ",
"&.+.O.1.:.:.,.1.5.7.5.>.x ; ^ ,.8.;.Y 8.6.6.6.6.6.,.,.2.} ! >.V I 6.8.$.U a - O O     O         O       . O         O O O O 1 x } 5.8.5.o.' ' R I ' b ' 5.8.5.8.:.1.8.8.5.5.5.+.R +.8.5.5.6.8.6.8.6.8.6.+.X.5.6.8.+.} :.8.6.6.8.8.8.8.8.<.1.t.t.8.8.t.t.t.8.5.5.1.1.1.1.1.1.;.5.^ M 1.>.1.:.5.8.+.^ 1.1.5.8.8.t.t.5.t.t.5.8.8.} s.8.8.u.} } 8.6.6.8.8.8.8.1.t.t.5.X.:.:.<.6.+.} +.5.1.8.s.5.8.5.;.:.>.8.;.7.t.8.8.8.8.t.t.8.Q +.1.1.1.1.:.c R ' :.^ >.t.6.5.8.:.5.+.X.+.1.t.1.8.X.:.t.s.t.1.5.t.6.8.i.u.t.t.8.8.s.t.5.t.t.8.t.t.p.u.u.t.u.s.u.t.u.t.u.t.u.t.u.u.u.u.t.u.t.u.8.u.t.u.t.t.u.u.t.u.u.u.t.t.8.8.t.t.u.t.t.u.t.t.t.8.t.8.t.8.:.>.+.} ' 1.6.1.5.8.6.8.t.5.1.X.5.6.X.+.1.:.1.5.^ x ! +.Q ^ r R 8.u.t.t.1.:.1.5.5.6.5.7.8.5.t.t.} 1.8.8.t.t.t.8.t.8.Q R 7.i.>.} y.8.8.8.5.V x X.7.5.8.8.6.5.8.8.8.t.y.5.8.! V 5.i.6.t.1.6.+.>.t.8.8.8.6.6.5.1.5.8.1.X.O.a t :.X.>.6.5.1.5.5.6.1.6.' ! 5.6.6.6.5.>.5.:.+.:.1.5.5.6.6.;.:.I r I Q Q :.;.} 1.6.6.8.6.5.5.1.7.' 8.:.o.1.X.1.1.1.6.;.' ' X.X.} ;.:.5.5.+.1.5.:.;.' o.<.o.' ' ! ' 7.o.",
"2.2.1.>.,.1.5.,.,.:.>.+.r c | X.,.,.] 6.6.6.8.,.2.2.,.2.1.U ] 5.r ] 6.5.6.+.! x -     O         O         .               O O O : M ' 8.t.t.7.:.' U R c R o.:.+.:.1.5.8.5.6.5.1.+.d X.i.y.5.8.8.8.t.6.5.:.+.1.6.7.8.>.o.X.+.1.8.t.8.t.t.5.:.8.u.8.t.t.8.8.t.8.>.5.i.t.1.1.1.o.:.t.Q R 8.X.5.:.5.+.X.1.1.5.8.8.8.5.:.t.7.8.} +.+.u.8.8.u.1.R 1.8.7.8.8.8.1.5.s.8.7.+.>.X.+.t.5.X.1.5.+.5.5.8.8.5.' } :.:.+.+.8.t.t.t.6.8.t.:.>.5.t.5.y.7.<.I 1.o.Q Q X.+.+.:.5.:.,.X.5.+.+.s.1.t.X.5.s.t.t.8.5.8.8.1.s.u.t.t.t.t.s.8.1.u.t.8.t.s.u.t.t.u.u.8.0.t.t.u.t.u.t.u.t.u.t.u.u.t.u.t.s.u.u.t.u.u.t.u.u.u.u.u.u.s.t.8.t.s.u.t.s.t.t.y.t.8.8.8.t.t.:.:.M ^ 1.5.8.8.8.t.8.8.8.5.:.:.8.+.[ 5.8.t.5.5.d.+.N M Q ' 3 +.s.8.y.+.+.8.;.1.>.>.1.6.5.t.8.' } 8.8.t.t.t.t.t.8.} ! 5.t.1.:.+.5.8.t.:.d 2 ;.t.7.8.8.5.6.6.8.8.6.8.8.6.>.M +.8.6.6.6.>.:.} 5.6.8.8.8.6.1.5.6.6.8.X.+.} 1 x :.^ >.5.7.8.5.5.8.1.5.X.! 5.8.t.5.7.7.5.5.:.:.5.5.6.5.1.+.o.R M r a Q 5.o.+.7.1.5.8.8.5.6.8.>.R :.' +.:.X.5.8.>.} x I ! :.7.7.7.1.5.o.} 1.5.1.7.' ' ' ' o.7.1.} :.t.",
"O.+.O.1.:.1.1.1.,.7.,.Q r { :.;.:.5.[ :.6.6.6.,.6.,.5.5.6.$.] 1.:.x ,.+.,.2.6.1.] n t @ + - O O O O       .             O   O O O O 1 M } <.5.a.t.+.X.,.U M +.' o.6.5.6.6.8.8.6.5.X.x } 7.6.6.6.8.8.8.t.8.X.X.6.5.6.t.5.:.:.+.1.6.t.8.t.t.1.5.5.8.t.8.8.8.8.8.8.5.8.8.t.s.8.8.:.+.X.M o.p.6.1.<.' ;.:.1.5.5.8.8.5.:.t.5.:.I ' ;.8.s.s.8.5.R ' 5.5.1.6.5.+.5.t.t.8.} t.1.X.5.5.:.7.8.:.5.1.:.:.5.} } 1.;.X.+.t.8.t.t.6.1.5.+.+.X.8.8.t.7.! +.t.o.Q } ;.+.+.:.:.1.1.^ t.5.:.y.1.5.X.7.t.t.8.8.8.8.t.1.t.u.t.t.8.s.s.8.8.s.8.t.t.t.u.t.u.t.t.0.8.u.t.u.u.t.u.s.u.s.t.u.t.t.s.8.u.u.t.u.t.t.u.s.s.s.u.u.s.t.u.t.t.s.t.t.s.u.t.s.t.s.t.8.t.u.>.o.I >.t.5.t.t.t.t.6.t.t.8.} } :.1.1.1.1.t.8.7.6.i.X.! 8.R x ,.5.t.1.:.8.t.:.5.5.5.1.:.8.5.o.Q 5.6.8.8.t.t.t.5.:.M ;.t.7.:.:.8.+.t.:.b V X.<.t.8.8.6.6.6.t.5.8.5.6.t.6.U ' 6.t.5.t.5.:.' ^ :.1.5.8.5.7.7.5.8.8.1.,.;.c + + x I ' +.:.:.5.5.1.7.t.} I 1.6.7.5.8.6.5.6.1.1.6.6.8.1.+.:.+.} 1.;.I a V ^ ;.7.7.1.:.5.5.t.1.! ' ;.' ' ! X.:.} ! R } +.+.+.+.>.t.1.7.;.1.5.1.o.} M ! :.5.1.1.5.:.:.:.",
"_ O.+.:.:.;.:.:.7.;.} r r ;.5.5.;.} U ;.5.5.6.5.,.6.,.8.,.,.[ >.6.U M ,.6.2.,.,.8.8.>.U t 1 O O O O . .                   O   O O O O O ; M ' :.y.:.:.[ ;.I U >.+.5.6.6.5.5.8.8.6.6.o.y } 7.8.8.8.8.8.6.t.5.:.5.:.:.:.7.8.1.:.:.:.1.5.t.8.t.<.:.5.8.8.8.8.8.5.t.7.8.t.8.t.t.5.t.1.X.:.b } 5.:.1.} t.>.7.8.8.8.1.>.:.5.8.} c ' 5.s.6.8.8.5.:.} 1.7.5.6.1.+.8.t.t.8.} 8.5.:.6.1.5.8.8.1.5.8.6.1.1.o.o.:.o.<.:.5.8.p.t.8.5.>.>.t.1.+.:.1.X.V 1.:.{ X.} 5.6.1.1.X.:.+.} t.8.1.8.:.:.} 1.8.t.s.8.s.8.8.5.8.p.t.t.t.t.p.s.8.t.8.t.s.t.8.u.t.u.t.s.s.u.u.t.u.u.u.8.u.8.u.t.u.s.u.u.t.t.u.t.u.0.t.t.t.8.t.t.u.s.t.u.t.u.s.u.s.8.6.t.8.s.t.t.8.:.} } 1.t.:.t.t.t.t.t.t.6.8.7.Q } 7.t.5.i.5.X.8.5.t.t.:.X.8.M ' X.1.' ' :.1.+.} +.1.5.8.8.1.:.^ t.5.8.8.8.8.8.8.5.} a <.8.>.+.5.>.o.o.x I 8.X.1.1.8.6.6.8.8.8.5.8.7.t.6.+.I 5.6.t.6.5.X.+.X.X.8.5.1.5.8.8.5.8.6.1.5.8.} 2 ; M M a a 1 s ' 5.,.:.t.t.! R } ,.5.6.6.5.5.5.1.1.8.8.1.;.:.+.X.:.5.5.1.Q M M V M I ! o.>.t.7.} I I x c a 2 x N x ! 1.5.1.1.5.1.:.1.1.:.+.5.X.X.' ^ R ' ;.:.5.5.5.:.:.7.",
"^ <.2.7.7.7.1.,.,.;.I - x ,.<.y.,.:.U ;.1.5.5.5.6.6.,.,.,.6.o.o.+.,.s U ,.,.2.,.,.,.+.M I I c t - + . +   O         .         O     O O O + 1 d ! 8.,.,.:.6.b M ,.5.8.t.t.8.6.6.t.t.8.;.x ' 8.6.8.8.6.t.7.t.+.:.6.5.7.5.7.6.t.1.;.;.1.8.7.s.:.X.1.1.6.6.t.8.t.8.5.5.8.8.8.8.s.8.t.>.X.^ M ' :.o.;.5.' X.<.:.+.X.:.1.8.1.^ r R t.s.u.8.8.:.6.X.+.i.t.t.1.:.8.8.t.s.X.1.:.8.7.+.t.8.8.1.>.7.s.6.o.o.5.1.[ 1.:.:.t.s.u.t.6.1.6.t.s.1.:.} V 1.6.;.5.>.:.1.1.t.5.} :.o.:.5.5.6.1.1.:.:.6.5.8.s.u.s.t.8.8.8.p.t.t.s.t.t.8.t.8.u.t.s.t.u.u.u.t.u.t.8.s.t.u.u.t.0.t.t.u.u.t.t.t.u.8.t.u.t.u.u.u.u.8.t.u.t.u.8.8.8.t.8.t.i.8.t.1.+.1.t.8.t.t.1.} ' X.t.5.t.8.6.t.t.t.5.>.:.+.R 5.t.>.1.t.:.5.t.8.7.6.<.;.[ d :.t.:.' 5.5.1.5.>.>.+.} X.o.^ V :.+.:.5.8.8.7.7.7.5.;.R o.! ^ I 5.o.1.^ x 6.8.[ :.6.8.8.8.8.6.6.t.8.6.t.o.I o.6.t.6.5.>.+.:.+.:.8.t.1.1.t.6.1.5.5.1.7.:.a - r ,.7.7.1.' s ; t R ;.1.7.! ,.R +.7.5.7.5.5.5.1.5.8.8.o.o.8.+.X.1.5.t.:.Q ' 5.<.} U M N N ' ! a x R R ! I I [ [ I x ^ o.X.+.:.1.+.o.1.' ' ' ^ +.:.:.+.+.<.X.+.:.:.+.7.:.",
"V 2.1.7.7.5.5.8.,.,.a 1 Q ;.7.5.:.,.] U ;.8.1.:.6.6.,.,.2.5.,.[ ,.7.^ - U 5.6.+.6.>.U ^ X.! :.:.Q x 2 +         O     O   O   O   O           + 1 x Y >.5.>.X.V M >.8.6.i.6.8.6.t.5.8.t.} s X.1.i.6.6.8.8.8.>.+.5.8.t.6.8.8.8.5.t.1.X.+.1.1.5.+.y.1.5.8.8.8.8.6.6.6.6.8.8.t.8.t.8.1.1.1.} N :.:.1.X.Q :.8.5.1.5.t.8.8.8.I d X.5.y.8.8.5.5.5.+.} 6.t.t.5.8.8.t.t.8.1.:.:.t.5.' 5.8.1.1.1.5.8.5.5.<.1.>.+.o.:.:.t.8.s.t.8.5.8.t.6.7.X.>.Q 8.5.8.+.+.t.1.:.5.:.1.:.1.t.:.8.t.1.t.+.5.t.t.t.8.u.8.t.p.p.p.8.p.p.t.p.t.p.p.s.u.u.t.u.u.t.u.t.t.s.u.u.u.t.t.t.s.t.u.u.t.u.0.u.u.s.u.t.u.t.s.8.u.u.u.8.8.t.u.t.u.t.t.t.t.t.t.u.8.1.6.5.8.6.X.} :.5.t.7.6.6.t.7.t.7.X.+.t.8.I ;.8.5.5.6.+.t.t.t.t.1.5.:.d ' >.7.5.1.8.7.1.6.t.8.5.1.5.' x ' 1.o.o.X.X.+.5.5.5.5.I s ' ' X.' [ 5.' a 1.8.5.' 5.5.8.6.8.6.6.6.7.8.7.:.M I 7.8.8.y.5.1.:.>.:.7.8.t.t.7.1.1.1.>.:.5.t.N 2 r r 7.:.7.7.7.,.^ M y r x N R 1.o.X.;.1.7.8.6.6.8.6.8.>.>.5.5.[ >.1.5.7.' R R Q Q ! Q I R ^ ! ^ M ! I I a r Q [ 1.1.' I X.o.X.' } ' R ! I ' ^ :.:.+.;.:.' >.1.+.:.>.1.5.1.",
"a X.:.:.,.,.6.6.7.Q 1 I 7.' ;.:.5.:.{ ' Q ;.7.t.>.1.5.5.>.>.,.^ X.M 1 M x t X.d.+.U U >.+.' t.:.8.6.| N t O     @ .   O           O   O O   O O O O ; s U ,.X.X.5.N 5.8.6.6.6.8.t.6.5.8.8.Q I } 8.7.t.8.8.t.8.;.>.t.8.8.t.8.t.8.t.t.1.X.1.5.7.;.t.1.1.1.8.t.8.t.8.6.6.8.8.8.8.t.8.5.5.+.t.^ b +.1.X.X.1.8.t.5.8.s.8.6.6.a I y.1.6.8.6.6.8.t.5.} 1.8.5.5.8.8.p.s.t.7.:.5.8.>.[ :.+.8.5.8.8.8.6.8.5.5.1.:.1.>.:.1.s.8.t.u.5.s.6.1.1.:.:.R 8.:.:.Q t.t.1.:.7.1.:.>.8.8.O.8.t.1.8.X.5.t.8.t.t.t.u.t.t.t.t.t.t.8.p.p.t.p.p.t.t.u.t.u.u.u.0.t.u.t.u.s.u.u.u.8.u.t.u.t.u.t.u.u.u.t.u.u.u.t.u.t.t.t.t.t.t.t.t.t.t.t.t.t.t.t.t.u.t.t.:.1.1.! ^ ' 5.7.7.t.6.5.t.t.5.>.>.>.:.5.^ :.1.<.:.:.5.5.8.8.8.1.>.I d 8.d.;.5.t.t.5.1.1.8.t.8.t.1.X.+.5.8.7.8.5.} } X.:.1.X.d R :.>.>.1.[ N 1 I 7.6.+.X.5.8.8.8.8.8.8.8.t.5.5.I s ;.5.+.;.X.' >.X.+.5.8.5.8.8.5.:.1.8.5.7.5.x 2 ^ ! a 5.>.6.7.6.t.7.1.1.I - O 2 a ! ! { 1.7.5.8.8.8.8.>.X.X.:.[ ' U M b x r x Q :.+.:.7.7.,.5.8.6.+.5.y.t.:.I +.} } ;.7.} I ' } } ' I I M I } o.} ;.o.;.1.X.1.,.:.:.1.5.5.1.",
"I I ;.7.y.:.7.,.;.r a ;.:.:.} ' <.:.o.{ ! Q ' 1.5.5.1.5.5.6.5.1.a a ' :.1.' s x a 1 r s c U 7.:.>.X.$.X.c 7 u ;           O                   O O   O - > x I X.+.} N X.8.t.6.8.t.8.8.8.5.} ;.' o.1.t.6.5.5.8.:.:.5.8.t.8.8.8.8.8.8.8.5.1.5.5.+.7.8.7.>.1.5.t.8.8.8.8.8.8.8.8.8.8.8.8.i.8.p.R ^ 5.+.X.8.8.6.8.t.t.8.8.5.y { 6.>.8.6.6.6.8.8.t.X.o.8.5.8.8.t.t.u.t.6.X.1.5.+.X.+.} 8.6.8.8.2.6.8.5.8.:.+.t.7.:.;.8.t.s.t.7.t.:.1.t.8.X.N X.' [ >.5.;.>.<.8.5.o.6.t.t.>.8.t.8.t.+.5.t.t.t.u.t.8.u.p.p.p.p.p.p.w.p.p.p.t.t.u.t.u.u.8.s.t.p.t.u.u.8.8.s.u.s.t.u.t.u.t.u.s.8.t.u.u.t.t.u.t.u.s.t.t.t.t.t.u.t.u.t.u.u.t.y.t.t.t.t.a.o.^ R R X.>.1.5.5.6.6.t.6.5.5.1.t.t.;.I } } :.7.5.8.:.y.t.+.V r 1 Q 1.} <.7.5.t.6.6.8.8.t.t.+.} :.5.1.5.8.8.t.6.:.+.:.' V ^ 8.7.6.5.} s I Q I y.8.' 1.5.5.5.8.6.6.8.6.6.5.Q I ' 5.6.6.5.[ +.5.' ' 5.t.5.1.1.>.6.8.5.t.1.M 1 I 6.X.x 5.,.5.8.5.6.1.1.t.1.R r I I a a d x a d d x x c a a b a a M Q } Q ^ I ^ 5.:.1.5.1.:.:.5.7.>.:.5.5.:.1.[ ^ 7.5.1.:.:.' I ' :.6.;.' I ' :.:.} <.1.1.1.O.>.5.1.>.1.5.5.1.",
":.! Q [ 6.,.y.;.r a ;.,.5.8.y.} ' ' X.;.;.o.' ' [ :.5.1.6.1.+.M r ^ 7.:.>.6.+.; d X.+.' r - M ' 6.2.>.$.Q U ] ! c 7 ;           O             O   O + O O ; + t U ] X.M X.t.t.t.t.5.8.8.5.[ y.o.+.} t.t.t.5.6.5.:.;.5.8.8.t.6.t.t.8.8.7.5.1.5.+.5.8.8.8.5.1.1.7.7.6.8.8.8.t.t.8.t.t.t.7.8.+.+.V o.:.:.5.8.8.8.8.8.8.y.! a 5.5.5.8.7.5.t.t.t.s.1.} 5.5.8.5.t.t.t.8.8.+.1.5.>.1.1.X.5.5.5.8.7.6.6.6.8.1.:.8.7.;.:.5.8.i.t.t.6.6.8.i.s.' d M ' 7.d.5.1.1.1.1.:.+.t.t.t.8.5.s.s.8.:.6.t.t.t.t.u.t.u.t.p.t.p.p.t.t.p.w.t.p.u.t.u.u.t.t.u.u.t.u.t.t.u.t.t.u.0.t.u.s.t.t.0.u.u.t.t.0.u.8.u.u.u.t.t.8.u.u.u.t.u.u.t.u.t.8.t.t.t.t.t.1.X.Q X.5.+.:.} o.:.X.X.1.1.5.6.t.5.R } :.' V M ;.t.6.d.:.c 3 x Q Q 1.o.' :.,.6.t.t.8.5.1.8.;.} 5.8.5.5.6.t.8.i.6.;.5.' I [ u.6.t.f.' M X.o.' I 5.X.N +.5.1.6.6.6.6.6.6.8.} U ^ :.8.5.5.6.>.:.6.+.[ :.8.;.+.1.6.8.y.t.+.y a o.5.7.} a 7.5.5.6.6.6.5.5.7.8.X.s ,.7.1.1.X.R I ' } X.} X.1.+.5.1.7.+.:.<.o.<.I x ' o.1.+.' ;.1.7.5.X.<.5.5.5.;.:.I 7.6.1.5.8.;.' X.' X.+.' ' :.5.7.X.:.5.1.:.+.1.5.5.5.5.5.1.1.",
"t.7.X.U } 7.;.s r } 5.8.,.5.1.1.;.' ! ;.X.7.:.o.' ^ ^ [ } R c N ! ' 5.5.t.5.} a +.6.>.6.1.M s a M / 2.6.! ' >...$.o.R s :     X O   O           O O O   O O O O ; t ! U x X.8.6.t.6.8.6.5.' 6.1.} Q } >.8.5.t.6.5.+.+.1.6.8.8.8.t.t.t.8.8.1.t.5.1.8.8.8.t.5.;.1.1.5.5.t.t.8.8.8.8.6.t.1.7.o.5.+.V Q 1.8.6.t.8.8.8.8.7.x b 8.7.8.8.1.8.t.t.t.t.5.^ } +.8.8.8.t.t.6.t.1.1.6.5.6.5.+.+.7.5.6.6.8.6.5.8.5.1.8.8.:.5.6.8.u.8.6.8.t.t.t.s.! y ! t.y.8.s.t.t.t.6.+.:.t.t.t.5.X.s.t.8.1.t.t.t.t.u.t.u.t.p.p.p.p.p.p.p.t.p.s.8.s.8.u.t.u.u.t.u.u.t.u.u.t.u.s.t.t.u.t.t.t.p.u.s.8.s.t.t.u.s.t.u.t.0.s.s.s.u.t.u.u.u.u.s.u.t.t.t.t.t.1.! ' X.+.5.<.>.:.8.t.6.5.' ' +.X.[ [ o.t.d.t.X.^ V } } ^ s c ' t.7.[ 1.<.o.;.:.5.6.t.8.8.1.X.' 5.t.8.8.6.6.7.8.t.:.} ! I ^ 7.i.t.6.+.R 1.1.' I b 8.' Q o.t.8.8.8.8.8.8.8.5.Q o.' 1.8.6.5.7.>.1.5.o.:.+.X.o.:.5.5.8.y.X.a y ;.7.1.5.X.x 7.5.5.5.5.5.1.1.5.7.:.M Q y.1.5.7.:.o.;.1.1.+.1.8.1.1.+.5.6.+.:.;.;.N I 1.} } ;.:.5.5.5.1.Q ;.7.<.<.:.:.U 1.1.7.5.1.X.o.5.5.7.:.+.1.} :.>.:.1.8.1.>.+.5.1.7.1.5.5.1.5.",
"5.+.<.:.! I r r ;.7.y.7.:.y.,.,.5.1.^ R ' ' :.1.:.:.Q y 3 x { X.:.' :.7.7.5.I N 5.5.>.1.X.I :.:.U s s E N ] ,.X.[ >.0.,.] b : +     O O   .     O O       O O   O O + r d a ' y.5.8.t.y.8.^ 6.5.[ ' o.' >.;.>.5.6.:.+.>.5.1.5.5.8.t.8.t.5.5.6.5.>.5.6.6.8.8.5.1.7.5.5.8.6.y.u.8.6.1.1.8.+.} 5.1.+.x U t.t.8.7.t.8.t.1.r } t.y.8.t.:.8.t.t.d.8.1.^ } o.t.8.t.8.8.t.y.>.} 5.5.d.8.1.<.5.o.1.8.8.5.1.8.5.1.8.8.8.5.8.t.8.t.5.8.6.s.y.7.d ! :.6.s.8.t.8.8.8.6.>.6.u.t.t.1.' 5.8.6.8.s.8.t.u.u.s.t.t.p.t.a.p.p.t.p.t.t.t.p.p.t.s.t.t.t.u.u.0.t.t.t.u.t.u.t.u.t.u.u.0.u.t.t.u.t.8.s.u.t.u.t.u.t.s.p.8.t.u.t.t.s.s.u.t.t.t.5.t.+.U +.o.o.s.X.} o.:.1.} 5.t.1.! } 5.8.t.t.s.t.5.+.5.R s 3 x X.+.5.8.5.! <.:.X.:.1.o.6.8.8.8.1.} ;.1.t.t.5.5.t.t.:.} o.' x ! 1.5.7.y.X.Q 1.t.1.} a I d.:.5.5.6.u.6.8.u.6.u.8.} [ ^ 1.6.1.5.6.5.o.1.5.X.;.} X.:.7.7.7.:.{ t x ;.6.5.5.6.} s t.5.6.5.6.6.5.7.1.6.;.c x 6.6.6.5.5.:.X.o.+.1.5.5.>.>.6.7.>.X.1.5.:.V V 7.:.} ' o.1.1.:.} ^ o.o.o.} :.+.N 1.:.;.1.5.+.:.7.8.:.X.1.7.;.>.:.,.1.5.1.>.>.1.1.5.5.5.1.5.5.",
"+.:.8.:.I 1 1 ;.,.,.,.,.7.5.:.1.1.:.' } I N R I V I ^ ;.:.x [ :.>.+.;.5.5.5.I } 6.5.5.5.I Q 6.6.,.6.U > @ } | 0.>.$.2.6.6.0.} u ; @   . + +     O O O O O O O O O O O O - - r ' t.5.1.t.8.+.8.:.7.>.:.>.+.6.:.7.+.>.+.X.6.5.5.5.8.8.8.8.8.8.6.5.:.:.5.8.t.8.6.1.6.6.5.7.1.,.6.6.5.1.6.u.1.o.6.6.s.} r i.+.t.t.t.t.t.} r :.t.s.8.8.+.8.s.6.y.8.+.^ Q } 1.6.t.s.u.t.6.5.o.1.>.i.5.8.1.+.} 8.8.8.5.1.8.5.1.1.5.t.5.1.7.1.8.5.7.s.8.u.^ ^ 1.1.s.d.d.t.8.t.8.:.1.s.t.8.t.6.+.>.5.1.6.8.t.t.t.t.t.u.t.t.p.p.8.t.p.t.p.p.t.p.p.0.u.t.u.u.t.u.s.t.s.u.t.u.u.u.t.t.u.u.s.t.u.u.t.u.u.t.0.u.u.u.t.t.t.i.t.u.t.s.u.6.t.t.u.8.5.:.' I ! :.:.:.s.+.~ 1.8.1.+.1.5.X.1.t.t.s.t.8.s.8.+.5.6.} y ^ 8.5.1.5.6.8.} 8.1.X.1.1.X.} 6.p.X.{ 1.1.1.5.8.7.8.1.' } ' ' } N 5.1.t.s.+.R 1.t.5.1.o.s I y.X.6.7.5.t.t.t.8.6.6.+.} ^ >.1.1.y.8.+.1.:.1.o.+.7.X.} :.:.t.6.I 1 I >.t.5.5.5.8.[ a 6.7.5.6.5.7.6.5.5.6.} I N >.8.6.1.1.1.+.+.>.1.5.5.5.5.7.6.1.:.5.1.' ^ V 7.:.;.} } >.5.1.+.:.7.1.1.:.:.X.N } } +.:.1.+.8.8.:.X.:.8.5.1.>.>.>.1.1.1.>.1.,.5.5.1.1.5.1.1.",
"5.1.R t - x I Q ' ;.y.7.5.,.1.1.5.1.;.:.X.! :.} o.o.:.7.X.N o.5.1.5.} 5.5.5.! 6.7.:.5.5.c [ 7.7.2.2.2.>.c s a V } +.| 6.8.6.8.] Q V u ; O . O     O O   O O O O O O O O O O + 1 d ' 5.t.5.[ +.;.t.1.+.:.+.:.t.7.t.:.o.1.>.>.5.6.8.8.8.8.8.t.8.6.5.>.1.6.8.8.8.1.6.t.6.7.5.>.5.6.5.6.8.8.1.+.1.5.>.+.! M 7.>.t.t.t.7.x x 5.t.s.8.8.+.6.t.u.8.+.:.<.' o.+.+.6.8.s.8.5.6.1.+.>.7.7.8.' +.:.1.8.8.6.5.8.1.1.1.1.8.8.1.8.6.1.1.1.t.y.1.R +.8.1.1.t.t.u.8.8.8.} >.s.t.5.t.t.>.8.5.:.5.8.8.8.8.8.u.t.s.p.t.p.p.t.p.p.p.t.w.t.p.8.s.u.t.u.t.u.8.u.t.u.t.u.t.p.t.u.8.s.8.u.t.u.u.t.u.t.s.u.t.p.t.u.t.t.s.u.t.t.t.s.t.t.8.5.8.} ' X.+.+.7.;.1.:.} ' :.s.:.o.o.8.i.t.s.s.t.y.8.5.:.8.' s ' 8.y.t.8.t.8.8.X.5.:.1.t.6.5.X.} I Q 1.+.+.+.X.X.+.' :.:.>.' X.I ' t.6.5.^ R 1.t.t.7.:.;.b V 5.X.t.5.8.t.t.7.5.i.5.^ 1.+.>.6.8.6.6.5.5.X.} ^ 5.t.;.R V x a 2 1 I :.8.7.5.6.8.8.+.a :.6.5.6.7.7.5.6.6.5.o.^ x +.8.5.1.1.5.1.1.5.7.5.6.5.5.5.5.5.5.5.:.^ } Q 7.:.1.X.X.1.5.1.:.1.8.8.7.6.1.o.I } +.1.<.;.o.1.1.;.;.5.5.5.5.5.5.5.5.5.1.1.5.5.1.5.,.5.1.1.5.",
"R r 1 y a I 1.[ ;.' ' } ,.7.7.<.<.5.<.;.1.! 7.<.:.;.X.X.:.I ' 5.5.5.' 5.>.1.+.6.>.,.:.5.N } 1.7.,.>.u.o.D >.} t 2 7 a $.s.4.8.,.U >.2.[ c ; O .   O O O O O O   O O   O   O O   O + r R +.^ } X.5.6.6.+.t.:.} d.5.8.6.5.8.>.5.7.8.8.8.8.8.8.8.8.8.7.5.1.5.8.t.6.6.6.6.6.8.8.8.8.6.6.u.5.1.5.+.5.8.:.6.I N 7.1.1.5.^ : I 5.8.s.8.5.:.o.5.8.} X.t.8.X.o.t.:.5.6.6.8.8.u.6.X.t.8.5.t.} :.1.1.6.8.u.8.5.+.5.5.8.8.5.5.8.5.:.:.:.s.t.b ' s.5.1.1.s.s.t.s.t.t.} 1.8.8.8.t.u.+.t.t.:.1.:.5.8.8.8.t.t.s.p.t.w.p.t.w.p.p.t.p.p.t.s.s.8.p.t.u.t.u.t.u.t.u.t.u.t.0.t.u.u.u.t.u.u.t.u.u.t.t.t.u.t.0.t.s.t.t.t.t.s.i.t.6.6.t.t.+.o.:.+.+.5.s.:.1.+.;.} X.X.' X.6.t.5.s.d.8.t.8.7.5.8.+.b :.t.8.d.t.t.s.8.6.+.8.1.5.5.5.5.+.5.1.1.u.8.8.t.+.' [ [ :.+.X.o.Q I o.t.f.! Q 8.t.5.t.7.8.1.I V +.O.t.1.6.8.t.t.t.7.^ M I ! 8.s.>.y.6.:.>.R 5.7.X.N N R ;.1.R 2 ' :.t.8.8.t.5.6.7.5.s ' 5.5.6.5.6.6.7.5.,.o.R r [ 7.5.1.1.1.5.5.6.6.5.6.5.5.5.5.5.5.5.} <.^ +.7.:.1.O.X.1.1.1.;.5.8.7.5.5.8.} ! o.X.1.1.:.;.o.} 1.8.5.1.1.5.1.5.5.5.5.5.1.5.5.5.1.5.1.5.5.1.",
"i a T 1.' V t.X.,.,.;.X.} ;.:.1.1.1.5.1.1.' 5.1.<.;.:.' ' { } ;.7.7.[ :.5.1.;.1.>.5.1.5.I } t.7.8.8.6.E ^ 6.2.2.o.U s t n ] >.2.U ^ 6.5.,.] U t @ O O       O O O O   O O O O   O O O O 3 a x R ,.6.5.5.;.8.X.Q 7.7.7.6.,.5.5.6.8.8.8.8.8.t.8.8.8.8.8.5.5.8.8.8.6.6.6.5.t.6.8.8.8.8.t.5.6.8.1.6.5.8.6.5.M ' 5.7.1.I : ^ 6.6.u.t.1.1.:.8.:.' 5.8.5.1.} 8.8.8.8.8.8.8.s.8.+.i.t.8.5.X.5.t.1.5.6.s.8.5.+.5.5.t.8.t.8.8.t.:.8.1.:.I } 5.t.t.8.O.Q 1.7.5.>.:.} 5.t.8.t.s.u.:.6.7.5.>.} t.8.8.t.t.t.t.t.p.p.8.a.p.p.8.p.p.p.t.t.t.8.s.t.u.t.p.u.u.t.u.t.u.t.u.0.u.s.s.u.u.s.t.t.u.t.u.8.s.s.u.u.s.t.t.t.u.s.t.8.t.5.+.X.+.[ [ } } 1.+.' <.Q ' X.X.' 8.8.t.8.s.u.8.8.1.5.8.5.o.a X.6.8.u.s.t.u.u.8.1.:.8.:.1.5.8.5.o.8.1.+.p.8.8.t.8.:.} :.:.:.:.' ' R :.>.R [ i.8.8.t.5.t.t.5.' M ' :.t.6.t.t.t.7.t.} I U I R ! +.t.7.<.{ R N ^ R I ' :.:.8.} s ! 5.8.6.8.8.6.6.8.6.t.c ' 5.8.6.5.6.5.7.8.:.+.^ I ' 5.5.5.5.1.5.7.6.6.6.6.5.5.7.5.5.,.1.} +.' >.1.,.1.:.o.1.5.5.:.8.6.7.8.7.8.' X.,.;.1.1.:.o.,.;.,.8.1.5.,.5.5.5.,.5.1.5.5.1.5.1.5.1.5.5.1.5.",
"^ | 1.7.;.Q { o.,.y.,.:.;.;.[ ;.1.1.>.1.:.;.+.+.+.' ^ M I Q ! R o.>.[ X.5.5.+.7.5.>.5.5.} X.5.1.,.0.1.N $.>.2.6.u.2.5.| d : 2 V s b 8.,.6.6.6.X.t : ; O   O O O O   O     O     O     O   - - r N X.6.,.+.:.1.] V :.6.5.7.5.5.6.8.8.8.5.5.7.8.8.6.6.8.8.6.5.8.8.6.t.8.7.t.8.8.6.8.t.8.6.8.8.1.5.t.7.8.i.t.I } p.X.:.y } 7.5.t.t.>.1.6.+.+.<.t.s.5.8.X.1.8.p.d.t.5.5.5.1.X.8.t.t.5.+.1.5.t.5.5.8.8.8.1.5.5.s.d.s.8.t.8.;.8.+.M ' 8.t.t.8.i.:.! X.6.8.8.+.X.+.5.6.8.u.t.:.t.5.:.6.+.8.8.8.t.t.t.s.t.p.p.t.w.p.p.t.a.8.p.t.p.t.p.t.u.t.u.t.u.t.s.8.p.p.u.t.t.s.8.8.t.t.t.t.u.t.t.u.p.s.8.s.u.8.u.s.u.t.8.t.t.1.o.+.X.} ' ' ! ' X.X.' X.X.:.t.8.^ 1.p.8.s.8.t.s.1.:.5.t.:.M +.5.s.t.t.s.u.u.u.8.} o.1.:.t.5.1.+.6.s.+.+.8.t.5.1.:.X.' ;.} t.X.! } ' R U o.>.6.8.6.5.8.8.8.7.} M ! :.6.t.t.i.t.7.5.R +.[ X.8.' I R ! } R I b R 5.+.:.>.;.R s X.t.5.8.7.6.8.6.t.8.8.6.M ' 8.8.5.7.5.6.7.1.+.:.' ! ' 7.5.5.1.1.6.6.5.5.6.6.5.5.5.7.5.7.1.o.R +.>.>.1.1.1.:.1.1.5.+.8.5.5.5.8.1.' :.1.:.1.,.:.:.,.5.5.5.7.1.7.5.5.5.5.5.1.1.1.5.,.5.1.5.1.5.5.,.",
"1.+.&.1.1.X.M :.X.,.7.5.<.<.<.[ I X.1.+.<.o.R ' o.:.:.} o.5.;.} Q X.[ ' :.:.+.5.>.>.:.:.} I :.;.$.1.[ M ,.u.6.6.2.6.5.,.o.:.[ a 7 - t Y $.6.u.t.] U } M r ; O +   O   O O     O   O O     O O O   2 I } 1.X.>.,.^ ' 6.5.8.8.7.7.6.6.5.1.5.8.8.t.8.8.t.8.8.8.8.8.t.6.8.8.6.8.8.8.6.8.6.6.8.6.5.6.t.8.8.t.t.5.M I X.y.b } 8.5.:.+.5.5.:.} ^ 7.t.p.8.t.+.o.s.t.s.s.u.t.>.+.:.6.6.t.1.1.1.5.8.8.t.8.8.8.8.5.6.d.t.s.5.1.8.1.} y I 7.i.t.s.t.8.5.6.^ :.i.1.>.6.5.1.1.1.8.i.5.6.t.8.7.8.>.8.t.t.s.p.t.p.p.t.t.t.p.p.p.p.t.p.p.p.p.8.p.p.8.p.t.p.t.s.8.p.8.p.t.p.p.t.p.p.t.t.p.8.p.t.p.p.8.p.t.p.u.t.t.8.8.8.t.5.:.:.X.+.+.+.o.:.1.1.6.>.+.+.u.u.d.8.+.5.t.6.t.t.8.5.1.1.:.b } 8.t.t.t.t.t.t.u.s.8.8.5.Q 5.8.1.1.y.6.t.+.1.8.1.o.>.8.5.1.1.:.{ ' :.' ! U >.>.8.t.8.8.8.8.6.8.8.o.a } 1.1.d.6.t.t.5.X.' X.1.:.7.t.t.:.{ 1.x s X.t.8.X.+.;.Q M X.5.8.7.8.t.8.8.8.8.8.6.6.x I :.:.+.;.:.,.>.:.:.1.R ' ! 1.6.1.5.5.6.6.6.5.6.5.8.1.6.1.5.,.o.o.U 1.1.1.5.5.5.5.5.6.+.:.6.5.8.5.5.;.^ t.+.+.:.:.1.5.5.5.5.5.5.5.5.5.5.5.5.5.5.5.1.5.5.1.5.1.1.5.1.5.",
"1.1.1.1.7.1.V X.;.;.<.<.5.5.<.X.} } X.1.} +.} { +.:.X.X.5.5.t.7.o.' } [ } Q N V V Q ' X.' x ' +.] ' b 5.6.6.6.8.6.6.,.6.5.] } +.$.! M t 2 c ] 5.t.U ! ,.;.N t : O   O     O O O O     O O O   O O   @ 2 c U [ 5.>.X.[ >.1.:.>.:.1.1.:.+.:.8.t.8.t.t.8.8.8.8.t.8.6.8.8.8.6.t.8.6.5.5.5.6.s.8.6.6.u.t.s.s.t.t.:.x M :.a ! 5.+.o.>.5.8.y.1.+.6.8.t.8.s.;.' 8.s.8.t.8.8.t.>.+.O.5.s.+.1.s.7.5.8.t.y.t.t.8.5.8.s.f.5.X.>.5.b v I t.t.p.8.7.8.u.8.8.1.X.:.5.6.8.t.t.u.8.6.t.:.6.t.8.6.u.7.1.t.p.t.t.t.t.p.p.w.p.t.t.p.w.p.t.p.t.p.p.p.p.s.p.t.p.w.p.s.p.t.p.p.t.p.p.p.t.p.w.p.s.p.t.p.p.t.p.p.t.u.u.t.t.8.8.5.:.+.:.:.+.5.+.1.t.;.7.t.8.:.:.8.s.s.t.8.:.1.6.t.8.8.5.1.1.I Q 8.u.t.t.t.s.s.s.8.8.y.7.<.1.8.+.7.t.1.t.5.} 1.;.:.t.t.t.8.1.t.+.N ;.} I o.1.i.5.t.t.8.8.8.6.y.7.7.} y { 5.:.t.6.6.6.t.Q ' +.t.>.5.7.t.:.:.;.o.r O.i.1.1.:.Q c ;.7.t.8.8.8.8.8.8.8.6.t.6.6.M 1 ' } +.;.:.X.^ ^ } } I ' } ;.6.5.5.,.6.5.5.6.7.6.6.5.6.1.5.+.X.' [ 6.6.5.6.7.5.5.6.5.+.+.5.8.8.5.7.o.+.5.:.:.1.8.8.5.5.5.6.5.7.5.5.5.5.5.5.5.5.1.5.,.1.5.1.5.5.1.5.1.",
"1.5.1.5.1.8.Q ' 1.+.1.5.1.1.1.} 1.5.:.{ :.1.1.[ :.:.} :.1.+.>.5.t.o.R I I M x ! :.7.5.t.5.R ' :.5.' I t.8.6.8.6.6.6.5.5.u.| U ,.2.8.8.>.U 2 - t ,.6.,.,.6.i.5.] c 1   O + + .   O O O   O O   O   O + O O O r I :.8.} X.' ' ;.:.6.8.6.5.;.>.5.5.5.8.8.8.8.8.6.8.8.8.8.8.8.t.u.8.6.5.8.8.8.7.8.s.u.u.u.t.t.6.5.+.I 3 - I :.7.t.5.s.8.t.+.<.t.8.t.8.6.+.^ 1.5.8.8.8.8.t.8.5.} +.t.+.1.8.5.5.6.8.s.i.t.t.5.7.s.5.1.7.o.c a ' 5.t.1.6.8.5.6.t.t.8.8.5.} :.1.6.t.t.s.t.8.t.+.6.8.8.8.t.8.5.8.t.p.t.s.8.p.p.t.p.p.p.p.p.p.w.p.p.t.t.w.p.p.t.p.p.t.p.p.p.t.p.p.t.p.p.8.w.t.p.p.8.p.w.t.t.t.p.t.p.p.t.s.t.8.1.1.>.+.:.1.5.1.1.8.8.6.5.s.8.:.1.8.s.i.s.t.o.X.:.>.+.1.1.5.R R 8.8.t.t.u.t.s.s.s.t.t.8.1.:.X.' 1.t.t.5.5.^ Q 1.5.8.8.t.7.1.t.1.} x ^ V 8.s.5.5.7.t.8.8.8.8.8.t.5.8.X.N t.;.+.7.8.8.8.1.I X.5.t.5.5.6.>.X.+.+.5.^ r 7.5.>.Q a :.7.6.6.6.8.t.8.8.8.8.8.8.8.6.;.a 6.t.5.6.t.1.+.+.t.8.Q X.X.} 1.1.5.6.6.6.5.6.6.5.5.6.6.5.1.} ;.^ :.7.6.5.6.5.5.5.5.:.+.:.5.8.7.5.5.Q 1.:.7.5.1.1.5.5.6.5.5.5.5.6.6.5.5.6.5.1.<.5.<.5.1.5.5.5.1.5.1.5.",
"&.+.1.1.1.5.^ ^ 1.:.;.1.5.1.5.X.;.1.5.1.X.:.8.:.+.' :.:.1.8.1.:.+.X.^ M ' X.} :.1.1.1.5.1.} :.' } I :.5.6.8.6.8.6.6.5.5.,.+.U 6.6.8.,.6.t.,.] D s c ] 8.,.2.6.0.8.;.U a ; + O   O O O   O   O     O   O O     + r I ' ] ' ;.7.t.8.8.8.8.8.5.5.5.6.5.5.8.8.8.8.8.8.8.t.8.8.t.8.t.t.t.5.5.8.8.t.t.8.s.s.t.t.7.[ ,.t.+.x b :.7.5.8.8.s.t.+.5.t.8.t.8.>.6.+.5.8.s.u.t.8.8.8.8.+.+.+.+.5.6.8.6.6.s.s.8.8.6.5.8.t.5.:.! d b M } 5.t.t.8.8.8.6.t.t.t.8.t.>.+.5.t.t.s.t.t.8.8.X.1.8.8.8.8.8.8.5.8.t.s.t.p.p.t.w.p.p.8.t.t.t.t.p.t.p.p.p.w.t.p.t.p.t.p.t.t.p.t.p.p.t.p.p.p.p.t.p.p.p.p.p.p.p.t.p.t.s.s.8.t.t.8.t.1.+.+.5.1.1.6.p.8.6.5.t.1.1.8.t.t.s.s.5.1.t.t.5.>.1.X.x x 1.t.t.i.t.t.s.8.u.s.s.t.:.+.o.+.:.5.1.8.1.+.' o.1.8.8.5.t.:.X.o.N M I R 5.s.t.8.t.8.8.8.8.8.8.8.t.8.8.! ! s.:.1.8.t.8.t.U ! 1.t.1.:.6.6.5.+.5.7.:.>.a X.6.! M 1.t.t.6.6.t.t.6.6.8.8.8.8.8.6.5.1.U ^ 6.6.6.6.7.5.:.:.7.o.[ :.X.7.5.6.6.5.7.5.7.5.6.5.8.7.6.:.} 1.^ 7.5.6.7.6.6.5.1.5.o.>.8.5.5.5.5.1.Q >.>.8.6.5.>.1.5.5.5.5.5.5.6.,.6.5.5.5.5.5.5.5.,.5.,.5.<.5.1.5.,.",
":.:.1.1.:.5.Q ' 5.<.:.1.5.5.5.+.O.1.1.5.<.:.+.5.:.:.1.+.X.' Q ^ ' X.' a ' 7.} X.t.6.>.5.t.' :.;.b V 5.5.6.8.6.6.6.6.6.u.6.X.] ,.6.6.i.2.t.8.,.,.>.! t t $.8.6.,.6.8.6.6.} b 7 $ @         O O + O     O O O O O + O O ; c ' :.1.6.8.8.6.t.6.7.6.6.7.6.5.5.6.8.8.t.8.8.t.t.t.8.u.8.t.8.5.8.8.8.8.t.8.t.t.7.+.:.t.6.5.:.r U :.5.6.s.8.6.1.8.6.8.8.5.1.6.:.1.5.s.t.6.6.8.8.8.1.1.o.X.1.8.p.5.8.s.s.8.8.6.6.t.5.+.M s ' ;.:.1.5.5.8.8.s.s.8.t.t.s.u.8.1.1.1.6.s.i.8.8.t.8.X.1.6.8.8.8.8.8.8.8.t.s.8.p.p.p.p.p.t.p.p.p.p.p.p.p.p.p.p.8.p.p.t.w.t.p.8.p.t.p.p.p.t.p.w.p.p.p.p.p.p.p.p.p.t.t.p.t.t.t.s.p.t.t.5.;.X.:.1.+.6.s.s.s.6.5.8.O.1.i.s.s.s.8.5.8.8.8.t.s.s.X.R :.8.d.s.p.s.8.8.8.8.t.>.X.o.1.5.5.8.6.8.7.1.1.+.t.7.5.t.t.1.' R ' ' R ' } 5.y.5.8.8.8.8.t.8.t.t.t.6.6.6.I o.d.5.8.u.8.t.1.a o.u.t.7.6.t.;.:.>.6.5.t.,.c ^ ' M ;.7.6.5.t.6.t.t.7.8.8.8.8.y.8.8.6.6.>.I 5.6.5.5.5.5.5.5.1.} I ' I :.5.5.5.5.5.6.6.6.6.5.8.5.8.:.+.:.^ 6.7.6.6.6.8.6.1.1.O.5.8.5.5.5.5.[ } :.:.5.5.6.6.6.5.5.5.5.5.7.,.7.,.6.5.5.5.5.,.,.5.5.:.,.5.5.5.1.5.",
"+.1.5.1.1.>.I ! 5.1.1.1.:.:.5.:.' o.5.1.5.:.+.5.:.+.^ } ' I ' +.5.;.1.I M Q ' :.7.7.7.1.5.o.:.' N o.>.5.6.6.8.8.6.8.2.8.,.o.>.^ 6.2.6.6.,.,.,.q.0.6.$.N s ! i.,.8.8.6.,.>.,.o.] s t ; - O O + O O   O O O     O O O + O O 1 a I o.8.y.6.8.8.8.8.8.t.8.8.6.5.5.8.8.8.8.t.8.u.s.8.8.t.t.8.1.7.s.8.8.1.1.5.} } t.8.i.t.5.^ a M 1.6.t.s.6.5.s.8.p.+.:.t.t.5.:.5.s.8.t.8.6.t.8.5.5.5.:.1.6.5.5.t.8.s.t.8.8.5.1.I x V ;.X.>.8.t.5.5.5.8.s.t.8.t.s.8.t.s.5.8.5.5.s.8.s.t.t.p.>.6.6.8.8.8.8.8.t.t.e.s.s.p.p.p.p.8.p.t.w.p.t.8.p.p.t.8.p.p.t.p.p.p.p.p.p.w.t.p.t.t.p.p.t.8.p.t.p.p.t.8.p.t.t.p.t.p.t.s.p.s.t.t.5.:.5.5.>.7.8.s.8.t.8.7.t.+.5.s.t.s.t.6.8.t.s.8.t.t.5.Q +.6.t.t.8.t.u.s.8.6.8.X.} +.1.:.:.:.:.1.1.8.t.8.X.t.t.7.:.X.X.+.} +.y.R ' 1.:.6.t.i.8.8.t.t.t.8.t.i.6.6.5.N :.6.5.5.5.5.8.' d 1.u.7.t.t.>.' +.6.7.5.5.7.I I I X.5.6.6.t.6.8.t.6.6.y.8.8.8.6.8.8.,.8.7.' ' 6.6.6.6.t.1.t.1.^ ' o.d ' :.,.:.5.1.5.,.1.5.6.5.6.6.+.5.;.' 6.6.5.5.5.6.5.1.:.+.5.7.5.8.1.5.^ 1.1.1.1.5.5.5.5.6.5.5.6.5.5.6.5.5.6.5.5.5.5.5.5.5.5.5.5.5.,.1.5.1.",
"T } } ^ ^ [ I V 1.1.1.1.:.:.1.5.:.X.1.>.1.1.>.;.+.5.;.Q Q +.1.7.1.:.:.I R d I X.+.5.6.5.6.+.' I o.1.o.;.6.6.6.6.i.8.8.6.] +.,.^ ,.6.6.6.6.6.6.6.6.6.0.,.U t N ,.,.,.,.>.#.,.$.,.] ,.] N r - O O   O O     O     O O O O       + r M X.6.t.7.6.8.8.8.8.7.8.6.6.8.6.6.t.t.u.8.8.s.t.8.t.d.8.1.+.:.>.1.:.:.' 1.8.7.t.s.8.t.! r r N o.t.t.5.s.6.8.X.+.8.8.6.>.1.d.8.t.8.8.7.8.6.1.1.6.8.5.6.y.y.s.t.s.6.} c 3 U :.^ X.7.5.t.t.u.8.1.5.8.t.8.8.s.u.t.s.s.8.8.5.6.s.s.t.u.6.5.u.8.8.8.t.8.u.t.u.t.8.s.t.p.t.p.p.p.8.p.t.t.p.w.p.t.p.p.p.p.t.p.p.8.t.p.p.p.p.t.p.t.t.p.t.p.p.p.p.8.p.p.p.p.t.p.p.p.t.y.t.t.t.:.1.8.+.1.s.t.t.u.p.8.6.5.1.6.t.t.i.8.8.8.u.u.s.y.s.Q ' 8.p.8.s.u.u.s.6.t.t.+.:.+.1.5.5.1.>.:.y.6.1.:.+.+.>.X.X.' X.1.} X.8.t.I :.t.1.,.t.t.t.t.t.8.t.t.8.7.7.>.:.b X.1.:.1.5.5.1.M Q 8.8.8.8.8.;.} 5.6.5.7.t.t.I a } 1.8.8.8.6.8.8.8.8.8.8.8.8.8.8.8.t.5.5.1.:.I 5.5.t.5.t.o.8.1.X.;.+.! Q X.>.+.X.>.>.:.;.:.1.5.6.:.:.6.+.} 5.5.5.5.8.6.5.1.1.:.5.5.1.5.5.o.! 5.:.,.5.5.5.6.6.5.5.5.5.5.6.7.,.6.5.5.7.5.,.5.5.:.5.:.5.,.5.1.5.1.",
"x I ' ' } :.5.I 5.5.1.+.1.6.5.6.5.:.+.1.>.:.5.+.{ 1.8.X.^ 1.8.7.5.:.:.I ' ' X.X.' ^ :.:.5.[ c I :.t.<.o.o.5.6.5.6.>.5.+.^ $.1.( 2.6.6.6.6.6.6.6.8.,.6.0.6.+.t t } $.,.>.>.,.,.>.^ 6.u.6.:.! a ;   O O   O O O O O O   O O     O O O 1 d R } 7.t.8.5.5.8.8.8.6.8.6.8.8.8.8.8.u.8.t.t.t.5.1.+.} 5.8.t.t.5.:.1.6.8.8.8.t.8.1.! ! x 3 } y.5.t.5.5.1.1.:.t.8.1.>.s.t.8.t.6.7.8.5.1.8.8.8.u.t.<.t.t.6.+.V y d Q +.X.+.1.t.1.t.8.7.8.6.5.5.6.8.8.t.t.u.t.t.t.u.8.1.s.s.t.s.8.5.u.t.s.8.t.t.t.u.t.u.s.s.p.t.8.w.t.p.p.p.p.p.t.t.t.p.p.t.w.p.p.t.p.p.p.p.t.t.p.p.t.p.p.t.p.p.8.p.p.p.t.t.p.t.p.t.t.p.p.p.t.8.8.8.8.>.:.s.u.t.t.t.s.t.5.6.8.8.8.t.u.s.8.t.t.s.8.5.} ' 1.8.t.s.s.t.s.t.8.1.1.6.1.:.5.t.8.5.1.:.1.+.X.s.X.+.X.' +.1.7.:.R 5.8.1.Q d.t.t.+.6.t.8.u.s.t.8.u.8.<.} :.! V 1.8.5.t.t.t.1.R >.y.8.6.6.5.;.1.7.5.>.[ I M r Q 5.7.5.5.6.6.8.t.8.t.8.6.7.8.8.8.8.8.8.5.5.,.N X.6.5.8.:.[ 8.5.o.+.:.5.} R X.:.>.t.t.6.5.:.:.>.5.X.>.5.X.X.7.5.5.6.5.6.5.1.>.1.5.7.1.5.8.R } 6.1.:.y.6.5.6.7.6.5.5.5.6.5.5.6.5.6.5.5.,.5.1.5.5.5.,.5.5.5.5.5.1.",
"! ' ;.:.+.1.1.^ X.5.6.1.5.6.5.5.5.1.:.1.8.5.5.1.X.{ :.1.+.+.>.5.7.:.o.} ' ;.:.X.o.[ >.X.+.b U +.5.7.t.7.^ ^ 6.5.+.1.:.,.[ ,.,.^ ,.6.6.6.2.6.8.8.i.6.6.8.8.2.$.; s >.>.,.,.,.2.,.] 1.,.2.u.i.;.! x t -     O     O O O O O O O   O O + O - r x R +.5.8.8.6.6.8.7.t.6.8.t.8.s.t.8.t.8.1.1.:.1.5.d.t.t.u.5.8.1.8.8.5.1.1.:.+.;.,.:.N x 8.8.t.5.5.5.1.:.7.6.8.:.5.i.8.t.6.6.8.5.5.8.y.8.8.8.7.o.I d a I o.I ^ 5.1.y.5.8.5.t.7.8.7.8.t.p.8.8.u.u.t.u.p.t.s.8.s.6.6.s.s.s.t.6.t.u.t.s.u.u.t.u.u.u.u.8.p.p.a.p.p.t.p.t.w.p.p.p.t.p.t.w.t.p.p.p.p.p.p.t.p.t.t.t.t.p.t.t.t.t.p.p.p.p.p.p.p.t.p.p.p.p.p.p.8.8.5.s.1.o.t.u.6.6.8.8.8.2.5.8.t.8.t.t.t.s.t.t.t.t.8.o.^ 5.t.t.t.8.8.s.y.8.5.5.8.5.+.1.8.8.5.5.6.1.1.+.+.^ R ! } 8.5.8.5.1.;.1.t.R X.t.7.7.} :.1.>.1.1.1.1.5.6.5.1.1.M } s.8.t.8.6.6.R } t.t.5.7.8.5.[ :.1.' I I I y 1 V +.1.8.8.6.6.8.y.8.8.8.6.t.t.6.t.7.5.t.5.>.5.' U t.6.5.X.+.8.7.X.:.5.t.;.' ' +.t.t.6.6.6.7.>.+.+.+.7.>.^ ' 5.1.5.5.5.5.1.1.:.1.8.5.6.8.+.! :.1.,.y.5.6.6.6.6.5.5.5.5.5.6.5.5.5.5.5.5.5.5.5.5.,.5.5.,.5.,.5.1.,.",
";.' :.;.' +.<.X.1.+.1.5.5.7.7.1.1.5.1.:.+.7.7.7.5.:.;.:.:.:.1.5.8.:.X.+.' 5.:.+.;.[ X.7.! M [ ' [ >.5.t.1.R ^ } o.6.>.5.X.,.+.! q.6.6.2.8.8.8.6.2.6.i.8.6.,.6.] t x ,.$.8.6.>.,.o.5.2.>.,.,.,.6.;.} ' a ;   O + O O O   O O O O     O @ O O   @ r M ^ >.i.d.y.8.6.8.8.6.8.8.s.i.5.:.:.t.8.1.5.8.s.8.8.5.s.6.1.8.8.8.1.o.} <.;.7.X.r X.t.t.5.1.5.8.t.5.>.5.:.:.t.t.8.8.t.6.5.5.6.8.8.+.V 1 - x ^ 1.d.5.' s.d.8.d.t.1.} ' +.8.s.8.8.s.s.u.u.s.p.t.s.8.s.8.u.s.5.8.t.t.s.6.t.u.t.p.u.t.u.t.u.8.u.u.p.8.p.p.p.t.p.p.t.p.a.8.p.p.t.p.p.t.t.p.w.t.t.p.p.p.w.p.p.t.p.p.w.p.p.8.p.p.t.t.w.t.t.p.t.p.p.p.8.8.s.5.+.6.u.t.t.t.t.6.+.o.5.8.t.8.8.u.u.t.u.8.t.d.:.U 7.t.t.t.s.s.8.s.u.5.5.s.8.X.5.t.t.8.t.t.6.5.1.6.1.' 1.i.1.1.1.t.8.5.8.:.1.x 1.1.7.1.7.8.8.6.5.5.5.t.t.8.7.f.X.d } ;.t.8.5.5.1.x :.7.8.t.6.1.>.^ ' ! Q [ 7.Q Q b [ :.:.8.8.6.t.8.6.t.8.t.t.t.6.t.6.6.5.8.6.>.7.5.N :.t.>.' 1.5.5.} 1.t.s.;.[ [ +.>.t.7.5.5.7.6.6.' ! t.>.' X.6.5.1.5.5.6.5.1.1.5.8.5.6.1.^ :.+.6.1.8.5.6.7.5.5.6.6.5.5.5.5.6.,.7.5.5.5.5.,.<.5.5.<.5.5.5.1.5.5.5.",
":.:.:.:.;.' :.[ t.:.:.5.7.5.1.1.1.5.7.1.:.>.5.5.1.5.>.>.+.:.5.6.>.>.o.} ;.5.+.1.1.<.' V R ! +.:.[ :.o.1.6.:.I ' :.:.6.+.+.>.o.U ,.8.8.6.8.8.6.8.6.6.8.6.y.6.8.,.' a c :.>.,.>.>.} >.5.1.,.,.$.>.>.,.u.,.o.n t 2 - + O   O O O O O O O     O O     O 1 a N X.7.t.t.6.7.7.t.t.7.5.5.5.6.s.8.8.6.8.8.t.5.8.u.8.5.1.8.8.5.1.5.+.1.<.1.x I s.s.5.:.8.5.6.8.5.X.:.;.t.8.8.8.t.8.6.5.5.X.x 2 b ' :.1.t.d.1.X.t.t.8.s.t.s.8.5.8.8.d.p.8.8.p.t.t.t.p.p.t.t.s.8.s.t.s.8.t.t.p.s.7.8.s.8.p.t.t.u.t.s.t.t.p.p.w.w.t.t.8.a.p.t.p.p.p.p.p.p.t.t.p.p.t.t.w.p.p.w.t.p.p.t.p.p.p.p.8.p.p.w.t.p.w.p.t.w.p.p.t.s.t.8.t.s.1.1.s.u.t.s.u.t.t.5.>.5.u.t.8.8.i.t.u.t.t.t.1.U o.t.u.t.t.u.u.8.5.+.>.5.1.:.5.t.t.7.6.t.t.6.8.1.:.' X.5.5.t.5.,.8.8.t.8.+.R I 5.t.6.7.1.8.5.>.1.1.8.8.5.1.6.o.! I 7.1.t.6.t.1.o.I t.6.8.8.7.6.5.! I } 5.6.V x :.b X.5.1.1.8.8.t.8.8.t.t.t.t.t.6.8.8.8.t.5.6.>.5.5.' ^ 8.;.} 8.5.7.} 1.t.1.5.:.+.1.:.8.8.6.5.5.5.8.! } >.1.} X.8.8.6.5.6.5.5.1.1.8.5.8.>.^ X.:.1.1.8.5.6.5.6.6.6.6.6.,.5.6.5.7.6.5.5.6.5.5.:.5.5.5.5.<.:.5.1.,.1.5.",
":.:.<.<.5.:.Q X.8.5.:.:.1.5.5.5.5.1.5.5.5.5.5.7.5.5.:.1.:.X.1.5.5.1.o.! 1.5.1.:.o.} ! I ^ +.:.+.X.:.t.:.:.} +.Q +.:.+.:.,.>.+.I 8.8.6.6.8.8.8.8.8.8.6.8.6.6.6.6.o.] ; U +.[ 6.6.} o.8.t.>.+.} +.>.X.5.5.,.5.I ] } x -   O O   O     O O   O O O O O O O + - r I +.6.t.t.5.t.t.,.5.8.8.s.s.8.7.8.8.6.6.8.u.t.5.1.8.8.5.5.5.6.:.:.5.M a y.s.5.1.6.1.6.8.6.Q :.1.:.8.u.6.i.6.p.:.d 1 c :.s.y.t.1.d.1.:.8.s.p.p.t.t.8.8.6.8.8.8.8.p.t.8.p.t.p.t.p.p.p.t.t.p.p.p.p.s.s.p.t.t.t.p.p.t.p.t.p.t.t.t.p.t.p.t.p.t.p.p.w.p.p.p.8.p.t.w.p.t.p.t.t.p.t.p.p.8.t.7.p.p.7.p.p.t.p.t.p.p.p.t.t.p.p.p.t.p.t.t.s.t.t.8.5.5.8.t.s.t.u.t.u.t.i.8.5.s.t.t.s.t.s.8.d.t.1.R :.t.t.t.t.t.s.1.X.} :.1.} } >.5.t.s.5.5.t.t.8.s.1.} X.o.1.;.7.t.X.1.s.6.6.U R } 1.t.8.8.8.8.t.1.5.t.5.t.>.8.:.I 1.X.8.y.8.8.1.O.^ X.t.5.8.s.8.+.^ Q X.s.t.^ R } { V Q 8.5.<.,.t.t.6.8.t.5.6.t.7.6.6.8.8.t.5.5.5.1.>.:.X.>.' :.1.5.5.X.1.8.5.:.:.;.1.5.7.8.5.1.5.6.+.} +.1.7.} X.8.8.8.5.5.5.1.5.5.7.5.5.I Q ;.5.7.5.7.5.5.6.7.6.,.5.7.6.5.5.6.,.5.6.7.,.5.5.5.5.5.,.5.5.5.5.5.5.5.5.",
";.;.:.;.:.7.[ ;.:.1.1.1.;.:.1.5.1.1.1.5.5.5.5.5.5.1.1.>.1.+.:.5.7.>.:.} 1.6.7.:.:.o.' X.' } +.1.:.:.:.>.[ +.:.:.' +.5.} +.1.+.N ,.6.8.8.6.6.6.8.5.8.5.8.8.8.8.8.:.} :.2 Q >.X.6.o.:.6.1.>.5.+.5.6.:.t.6.6.1.>.U ;.1.' R x : - + O O O O O O   O O   O O O O O   1 a I ;.6.t.7.>.8.y.8.t.t.8.6.8.8.8.8.u.t.t.6.1.8.8.1.8.6.5.>.1.:.' a <.1.1.6.t.5.8.u.1.+.X.:.1.6.1.6.6.7.! y a ^ 0.d.8.t.t.1.5.;.5.t.8.5.8.t.8.8.u.t.8.t.8.t.8.t.p.p.t.p.p.p.t.p.t.p.p.p.p.p.s.p.p.p.8.t.t.p.p.p.t.p.w.p.p.w.p.t.t.p.p.p.t.t.p.p.t.p.s.t.t.p.p.p.t.t.t.p.p.8.a.a.t.7.p.p.p.p.p.p.p.t.p.p.p.t.p.t.p.8.s.p.u.u.t.8.7.5.8.t.i.t.p.t.s.s.u.p.8.5.d.d.s.t.s.6.t.[ ^ b +.t.t.8.s.t.y.8.>.>.1.+.1.:.+.>.:.1.>.+.1.7.6.t.5.+.>.5.:.5.+.X.X.X.+.X.X.X.! X.+.5.t.8.6.8.5.8.5.5.5.5.<.5.:.^ t.<.Q 8.8.8.8.+.X.^ X.6.8.8.:.' ^ X.X.5.t.} ~ :.1.1.I V 5.5.1.X.:.5.8.8.t.6.5.t.8.t.t.t.8.5.5.5.1.1.1.1.:.>.^ 5.5.5.8.1.Q 1.7.t.o.^ 1.5.1.5.5.5.6.5.+.:.;.1.1.X.' 5.7.5.5.5.1.5.5.1.5.5.X.^ ^ 5.5.6.5.5.5.5.5.7.,.7.5.5.5.,.6.6.6.5.,.6.5.5.,.5.,.5.1.,.,.1.1.5.1.,.1.",
"X.X.<.:.:.:.:.<.+.+.5.7.1.:.<.1.1.5.1.5.5.5.5.7.5.5.5.1.1.:.+.1.1.1.8.+.+.1.;.' } o.X.;.:.} ^ :.:.' ^ 5.+.7.5.8.:.X.X.X.+.6.+.N 8.6.6.6.8.6.,.i.8.8.8.8.8.8.6.8.>.;.+.U 1 +.7.;.( +.8.1.>.u.5.5.5.:.,.8.6.u.+.+.^ <.y.t.7.;.Q r + - O O O O O O O       O O O O     O 1 d ! +.5.s.s.t.y.6.5.1.6.5.8.8.u.u.8.t.6.5.7.5.t.8.8.6.8.:.Q r ;.1.1.8.8.6.t.t.:.+.:.8.1.>.} 1.6.' - x 7.8.6.s.s.t.t.5.' +.t.t.1.1.5.8.8.8.8.p.8.s.t.8.p.p.8.p.t.p.t.p.t.t.p.p.t.p.p.p.p.p.p.p.p.p.p.p.t.p.p.p.p.p.8.s.8.p.p.t.p.p.p.p.t.p.t.w.8.p.p.p.t.p.p.p.t.p.t.w.p.p.p.p.7.a.p.t.p.p.t.p.t.t.p.p.t.t.p.p.p.t.t.s.t.t.8.t.s.s.p.t.s.t.p.s.s.8.8.8.8.t.8.s.t.+.' :.' ^ 8.8.7.s.s.8.8.1.1.8.6.1.6.t.t.i.8.6.>.>.1.1.:.+.} } } } } +.5.7.o.X.X.:.+.X.^ ' ' +.8.t.8.8.8.8.8.1.6.1.8.:.^ :.t.! ! d.6.8.6.X.1.' 8.>.} { X.:.8.5.1.6.1.Q +.t.7.t.! x 1.1.8.X.o.7.6.5.t.8.5.5.t.8.8.5.7.+.+.:.:.1.8.5.6.>.X.6.5.5.1.:.^ +.+.;.^ ! 1.:.+.;.1.5.5.:.+.>.:.5.5.+.Q 8.5.5.8.5.>.5.1.;.+.o.' :.} y.5.5.7.6.8.8.5.6.6.6.,.6.5.7.5.,.6.5.7.5.5.5.5.5.<.5.5.5.5.5.5.5.5.5.5.",
"<.X.;.1.,.} ;.5.:.>.o.;.6.5.>.1.5.1.5.7.5.1.5.5.5.5.5.1.5.1.+.:.5.5.5.+.} :.} ^ R ' 1.;.X.;.O.+.:.' X.' +.:.5.7.6.:.' } ,.8.} I ,.6.8.6.8.8.8.8.8.8.8.8.8.8.8.5.:.5.1.:.1 I :.8.R ^ 1.>.:.1.5.>.>.7.:.>.8.:.:.+.X.! 1.7.5.t.t.Q M x a r - O O O O O O O     O     O O     O 1 a R :.1.1.t.8.:.:.1.8.t.u.u.8.d.u.5.5.8.8.8.8.5.5.1.R r ' 7.1.t.5.8.u.8.:.1.t.7.1.y.;.+.b - N 7.5.8.d.d.8.t.t.6.} 5.s.6.1.8.8.8.t.u.8.s.u.p.p.a.8.p.8.p.p.p.w.t.p.p.t.t.t.s.p.p.p.p.p.p.y.p.p.t.s.p.p.s.t.p.p.p.s.p.p.t.w.p.p.p.p.p.s.p.p.s.p.p.p.p.p.p.p.p.p.w.7.7.p.t.5.p.p.p.p.p.p.p.p.p.p.p.s.p.p.p.p.p.u.t.u.u.8.8.t.p.t.s.s.s.s.u.s.t.8.8.8.s.s.+.R 5.8.1.U t.8.8.8.8.>.o.1.6.6.8.6.u.u.8.8.8.8.6.1.5.8.8.5.1.:.5.:.+.1.:.<.:.>.,.5.7.:.' R :.:.:.5.t.8.8.8.7.t.1.8.s.' ^ d.t.5.V ^ 5.5.6.1.:.8.R t.X.} :.8.s.7.8.+.d.^ } t.7.8.>.:.I ;.1.t.,.X.8.7.>.1.:.5.y.8.t.t.5.+.! } <.8.8.5.t.6.:.:.5.<.5.1.1.:.8.8.+.^ Q :.7.>.1.6.8.5.>.>.5.:.1.5.1.! 6.5.t.5.5.5.7.1.} X.} <.:.:.,.6.5.6.7.8.8.5.6.5.5.7.7.,.6.5.6.5.5.6.5.5.6.,.5.5.,.,.5.<.,.5.:.5.,.5.",
"7.:.o.;.:.} +.<.1.>.1.o.X.:.7.5.1.5.1.5.5.5.5.5.5.5.5.5.5.5.:.5.t.:.:.+.+.<.X.o.{ X.7.5.o.:.o.7.1.o.o.^ X.1.5.6.:.5.:.! ,.,.} ] ,.8.,.8.6.8.8.6.6.8.8.6.6.t.8.5.1.5.8.:.' 2 ' 7.' ' :.:.,.6.8.5.5.6.>.5.t.t.5.>.:.! ' 7.6.8.1.:.X.} ' } { N a ; O O O O     O   O O O O O O O O O - r x ! ;.:.1.1.8.t.t.8.8.s.s.8.1.5.t.8.i.:.o.5.' - x :.t.7.1.8.t.8.} o.t.5.1.! y 2 a ! >.u.y.s.s.8.u.s.u.5.o.s.t.1.6.i.s.8.u.t.t.8.s.p.8.p.t.p.p.p.p.t.p.t.p.p.p.p.w.p.p.p.t.t.p.p.p.p.p.p.p.p.p.p.p.p.s.p.p.p.p.p.p.p.p.p.p.t.p.p.p.w.p.p.t.p.p.p.p.p.p.p.8.7.7.t.7.7.p.p.7.p.p.p.p.p.p.p.p.p.p.p.p.p.s.u.t.u.s.s.s.u.t.t.s.t.s.t.8.t.8.t.u.:.X.+.t.t.8.^ o.8.t.u.u.8.1.+.1.8.8.t.u.t.t.t.p.s.8.6.8.5.5.1.+.5.:.1.6.1.t.8.1.} +.:.;.>.1.! ' :.1.1.1.t.8.t.8.8.8.5.5.} } 5.t.t.+.b X.5.7.:.' X.[ I :.1.t.t.i.t.t.1.:.8.V 1.8.8.5.>.6.o.! 1.8.6.+.:.5.>.:.' +.8.1.+.:.1.8.8.5.:.:.7.6.6.t.+.1.+.1.5.5.1.+.8.8.5.5.} ' +.5.t.8.1.:.5.6.1.+.1.1.5.} :.6.6.5.5.5.1.:.X.:.<.1.} 1.6.7.8.5.5.5.5.8.7.5.6.,.6.,.5.6.,.5.6.,.6.5.5.5.<.5.5.5.5.5.5.5.5.5.<.5.",
":.8.,.' :.} :.1.:.1.>.5.>.+.+.1.5.>.1.5.5.5.5.5.5.5.5.5.5.5.5.:.1.+.1.t.5.:.} o.5.1.:.5.+.5.1.5.8.:.^ >.:.8.6.1.t.o.[ +.' X.] >.i.2.8.8.8.6.8.6.6.6.8.6.5.8.7.t.1.1.t.o.o.M a } Q ;.:.+.>.8.5.6.6.5.6.7.5.5.t.6.5.7.! } s.6.y.1.o.:.5.:.1.1.X.X.' x ; O         O     O O           O     O 3 M 1.8.t.8.8.t.u.8.s.5.o.8.5.s.1.} 7.o.- r } ;.o.1.8.1.s.V M R r 1 - a ! :.2.8.d.i.t.8.s.s.t.s.:.X.s.1.1.u.t.t.t.t.u.t.t.t.t.t.p.p.t.t.8.p.t.p.p.p.t.p.p.p.p.p.s.p.t.p.p.s.p.s.p.p.p.p.p.s.p.t.p.s.p.p.p.p.p.p.p.t.s.p.p.p.t.s.p.p.p.p.p.p.p.p.a.p.7.7.8.t.<.a.a.w.t.p.p.p.p.p.p.p.p.s.p.p.s.t.u.t.s.u.s.s.s.i.u.t.s.t.t.t.8.t.8.X.' 6.d.d.d.+.} s.8.u.t.8.1.1.6.8.u.t.t.8.t.t.t.t.8.8.8.d.5.1.+.+.5.1.t.:.1.s.5.+.7.t.t.' :.o.^ +.:.1.5.5.8.8.t.8.8.5.t.X.^ 5.t.5.5.' I >.;.:.:.:.:.V ' X.s.t.t.s.i.8.1.1.M U i.8.8.:.6.6.y.M 1.7.t.>.;.1.t.t.^ R o.+.5.t.t.8.5.8.1.1.6.6.7.t.;.5.+.6.8.5.5.5.1.8.5.8.5.:.+.:.5.1.:.+.1.7.1.+.5.5.5.;.' 8.1.6.5.:.:.:.:.;.d.>.:.7.6.6.8.,.6.5.5.5.6.5.5.6.5.6.6.,.6.7.5.7.5.5.5.5.,.5.5.5.,.5.:.5.5.,.5.5.",
",.1.5.:.[ :.7.:.5.,.1.1.5.>.o.+.1.5.5.7.5.5.5.5.5.7.5.5.5.5.>.1.+.;.7.7.1.+.Q ;.5.;.<.1.1.+.:.;.8.:.} ;.>.5.1.,.6.X.[ :.:.o.U ;.6.6.8.,.8.8.8.8.7.7.8.8.8.8.5.1.<.X.:.5.<.o.3 M +.:.>.1.:.1.6.6.5.8.6.6.7.5.6.6.7.7.1.! 5.8.8.7.:.} t.y.1.1.1.X.5.5.;.! M r : O O   O O       O   O O O O O   + 1 M } 1.8.t.u.u.8.8.6.8.8.8.1.:.5.o.- O - - 1 1 3 r 3 1 2 r d R { o.:.>.5.5.1.u.u.s.s.y.s.t.o.6.8.:.s.8.t.8.t.t.8.u.u.t.t.p.t.p.p.w.p.p.p.t.p.p.p.t.p.p.8.p.p.t.w.p.p.8.p.p.p.u.w.p.p.p.p.p.p.p.p.p.p.p.p.p.p.p.p.p.p.p.p.p.p.p.p.p.w.p.p.p.p.p.a.t.5.<.p.w.a.7.d.t.p.p.w.d.p.p.p.8.p.s.8.t.u.s.t.t.8.p.s.u.u.u.s.t.i.t.8.1.} :.t.s.s.t.8.X.8.8.u.8.8.6.8.8.8.8.8.t.t.t.8.t.8.d.8.8.8.u.8.1.:.:.5.5.8.:.1.5.1.5.t.t.:.o.! ' +.X.5.8.:.s.5.8.t.8.8.8.X.Q :.t.t.6.;.} ' :.} 6.1.} N } X.1.8.t.t.t.6.5.1.R R Q 8.6.,.5.8.t.t.+.I } ' X.' ' } ' ! M o.5.5.1.5.8.8.8.t.+.>.t.6.5.[ X.+.:.5.8.1.o.:.1.7.5.:.<.>.+.>.6.1.5.1.:.:.>.5.7.5.>.' :.6.>.:.:.:.:.:.5.+.' 6.6.5.6.6.7.7.6.5.5.8.8.,.5.5.6.5.7.5.5.5.6.5.5.5.5.5.5.:.5.:.5.5.5.1.5.5.,.",
"5.5.:.:.:.;.<.5.<.5.1.1.1.5.1.+.X.:.5.5.5.7.5.7.5.5.6.1.5.5.:.+.} X.:.+.+.I ' 5.7.:.1.1.1.X.o.} 5.X.;.8.+.5.:.:.5.+.X.+.5.+.V 1.:.5.5.5.8.8.8.8.6.6.8.8.5.:.;.:.>.X.1.>.y.6.R - o.6.1.5.,.1.5.7.6.5.6.6.6.6.8.8.t.1.8.+.U 5.8.8.5.:.>.d.5.8.8.X.+.+.:.1.6.:.} ' y - O O O   O O     O O O           + 2 M ' ;.t.p.s.t.7.7.7.>.1.t.} 1 + r a x M Q R Q X.+.5.6.5.:.' 6.5.1.1.1.8.t.s.s.s.u.s.+.8.+.6.8.t.8.s.t.u.u.t.u.8.w.t.p.p.t.p.p.t.p.p.p.p.s.t.p.t.p.p.p.t.p.p.t.p.p.p.p.p.s.p.p.p.p.p.p.p.s.p.p.p.p.p.p.p.w.p.p.p.p.p.p.p.p.p.p.p.p.p.p.p.p.p.7.5.t.7.a.5.a.p.p.a.a.p.p.p.a.p.8.p.a.p.p.t.s.s.u.s.s.u.p.s.p.t.d.1.[ } 5.d.t.s.s.8.[ 8.t.8.8.8.7.8.p.t.u.u.s.u.s.t.8.t.t.u.5.8.6.8.8.5.5.8.6.5.8.>.5.6.5.6.8.5.:.,.' [ R :.t.7.:.t.7.8.i.8.t.' X.5.t.5.t.+.:.o.R 1.7.>.} [ I 5.+.5.t.5.u.6.y.1.' o.:.U 6.5.+.t.t.t.8.t.+.~ 8.t.7.5.>.y.X.[ t.8.:.:.5.8.8.t.t.} +.5.1.:.o.1.>.+.+.5.,.:.5.5.6.1.:.5.7.5.+.:.5.5.5.:.:.1.6.7.5.8.' X.1.:.:.:.:.+.:.+.} o.:.1.6.6.6.6.5.6.6.6.6.5.5.5.5.5.6.6.5.5.6.,.6.6.7.,.1.1.5.5.1.5.5.,.5.5.<.5.",
"1.5.5.y.5.;.o.:.1.1.5.5.1.5.5.1.<.X.X.5.5.5.5.5.1.1.5.5.8.1.X.:.5.1.:.+.;.M :.8.5.5.:.1.5.+.:.+.;.+.<.5.5.1.5.+.:.X.+.<.>.' V :.+.:.1.5.5.5.5.5.6.7.1.>.+.X.>.7.5.+.+.1.8.6.1.c N 7.8.7.5.7.6.6.5.5.5.6.6.6.6.8.8.y.5.5.V [ 8.t.1.8.1.1.p.8.5.1.8.:.1.1.<.o.+.1.:.{ ! I r ; + O O O O O   O O   O O O     O - a R } 1.8.t.y.5.,.:.M + a [ y.:.o.8.u.t.t.6.u.5.>.:.[ 6.i.8.5.5.8.t.t.u.t.8.t.+.X.1.s.8.u.s.8.t.t.t.u.u.s.p.p.p.t.p.t.t.p.w.t.p.p.w.p.t.p.p.t.p.t.t.p.t.p.p.p.p.p.t.w.t.s.s.p.p.p.p.p.p.p.u.p.p.p.s.p.p.p.p.p.p.p.p.p.p.p.p.p.p.8.p.p.t.5.7.7.t.7.p.p.p.p.w.p.p.p.p.w.p.p.p.p.p.s.8.5.5.8.s.8.t.s.t.s.+.[ >.8.s.u.s.s.t.+.+.s.8.s.5.8.8.8.t.8.8.s.s.s.s.t.s.t.8.6.:.8.8.5.8.1.5.u.t.5.t.1.5.1.6.t.8.5.>.+.+.U I 5.:.1.8.1.5.i.6.t.[ ' :.8.7.t.1.;.;.^ ' t.>.X.o.} } t.} 7.6.5.8.8.1.} o.6.6.I 7.:.} t.u.6.8.5.8.+.{ 1.8.0.>.1.} ! +.5.1.5.t.6.5.6.7.:.>.5.:.:.1.8.6.:.>.6.5.:.5.8.5.1.:.6.t.t.+.} >.:.>.5.5.6.6.6.8.5.+.' 1.1.5.:.X.1.1.:.:.t.:.<.8.6.6.5.6.5.5.6.6.5.5.5.6.5.5.5.,.6.6.,.6.,.5.5.5.1.1.5.:.5.,.5.1.5.5.5.",
"6.6.,.7.5.7.:.X.:.<.1.5.5.1.5.1.5.:.{ ' 1.5.8.5.>.:.5.5.1.;.+.,.7.5.:.} X.' 5.5.1.5.:.:.t.1.>.+.X.O.1.5.5.8.8.5.5.+.5.t.6.:.X.X.:.:.>.5.7.7.5.5.>.:.X.X.;.>.6.8.5.6.1.8.5.5.5.X.r ' 8.t.5.>.6.>.+.5.5.5.6.6.8.8.6.8.8.5.+.' :.s.t.t.6.:.7.u.t.<.5.>.5.5.<.+.1.1.5.8.1.:.1.:.! b r - - + O O             O O O O O - r x I { :.1.7.2 - U :.8.1.1.>.5.t.t.t.5.:.:.:.+.1.8.8.1.1.1.5.8.t.s.s.8.} ' u.8.s.8.8.t.u.t.u.t.u.0.a.t.w.p.t.t.p.p.p.t.p.p.p.p.p.s.p.p.p.p.p.p.p.p.p.t.p.p.s.p.p.p.p.p.p.s.p.p.p.p.p.s.8.p.t.p.s.p.p.p.p.p.p.p.p.p.p.p.p.p.p.p.p.8.<.<.5.8.p.p.p.p.p.p.a.a.7.7.a.p.p.s.8.t.t.8.1.5.8.u.s.s.8.+.X.5.s.t.s.s.u.u.5.+.t.u.s.t.8.t.t.p.t.6.8.8.8.s.s.u.s.t.1.1.:.5.5.1.5.1.5.t.8.8.t.5.5.>.t.u.5.>.>.+.>.U ' +.1.[ :.5.1.5.>.>.^ 1.5.u.1.5.7.} R I } } } :.1.X.5.6.} t.6.u.5.5.} ' >.6.:.Q t.5.>.:.t.8.8.8.6.8.+.+.5.i.6.} :.' ^ X.:.1.6.6.6.1.5.5.5.1.:.:.5.5.7.,.5.7.6.,.5.5.7.1.1.8.8.5.+.o.6.5.5.5.6.7.5.5.5.5.8.} o.X.+.5.:.7.:.:.>.t.1.1.7.6.6.5.5.5.6.5.8.7.5.5.5.5.5.5.6.5.6.6.5.5.5.5.5.5.5.,.5.:.5.,.,.5.<.5.",
",.5.5.:.:.:.;.X.} Q ! } o.o.o.+.;.:.;.! } :.8.8.1.+.5.5.:.:.:.1.5.7.5.:.X.X.1.1.1.5.1.:.7.1.5.} ^ X.1.5.5.8.1.8.8.:.1.8.5.! 5.7.:.+.1.5.6.6.6.1.! R X.5.t.8.8.6.5.6.6.1.5.5.6.5.x y ,.7.t.5.5.>.;.1.5.5.6.8.8.6.8.8.8.| 6.5.^ :.s.8.8.8.+.6.t.1.8.8.5.6.1.o.+.1.1.y.y.5.8.7.t.s.t.:.! N r ; + O   O           O O O     O - ; 1 2 - t 7.5.y.t.1.5.8.t.t.t.5.>.:.+.:.6.:.:.X.1.5.8.8.t.i.s.t.} 1.s.t.s.s.s.u.t.u.t.u.t.t.t.t.t.t.p.t.t.t.p.p.p.t.p.p.p.s.p.p.p.p.p.p.p.p.s.p.p.p.p.p.p.p.p.s.s.8.p.p.p.p.p.p.s.s.s.p.p.p.p.p.p.p.p.p.p.p.p.p.p.d.s.p.p.t.t.<.<.p.p.p.p.p.a.a.w.7.3.8.p.p.s.s.8.8.y.s.8.1.6.s.0.5.' +.6.t.t.s.s.y.8.6.+.8.s.t.y.t.p.7.7.p.t.8.5.1.6.8.t.t.t.t.+.:.1.>.:.1.1.5.8.t.t.8.t.5.1.7.8.6.>.+.+.1.^ Q Q I o.N ! [ ' ' U ! 1.t.8.t.<.5.;.Q R O.R ^ ;.;.6.' 5.+.^ :.>.i.8.o.+.5.t.t.X.' 5.t.8.:.5.t.t.8.8.8.8.} >.1.5.+.>.:.' +.1.6.8.8.6.6.5.:.1.5.5.:.5.5.t.5.>.5.7.1.8.5.5.1.5.t.8.5.5.+.5.6.5.5.5.5.5.5.1.5.5.5.:.+.' t.5.o.>.5.7.7.8.5.6.8.6.6.6.6.5.6.5.5.5.5.6.5.5.5.6.5.,.6.5.5.5.8.5.5.5.5.5.5.5.5.5.5.,.5.",
"Q ^ } ;.;.X.o.o.' ^ R ' ' ! ! R R Q ! ! Q ! X.5.5.:.1.5.7.1.+.:.5.7.>.>.Q +.+.5.1.7.6.:.;.1.:.o.! <.5.:.6.5.8.8.8.>.1.5.5.^ 1.1.5.:.+.1.8.8.:.+.X.+.7.t.6.6.8.8.6.5.t.5.t.5.8.8.' - ' 5.t.8.7.1.5.5.6.5.6.8.t.8.8.8.8.+.t.t.:.[ s.t.8.1.:.+.5.5.8.5.5.5.5.6.1.+.<.1.8.t.5.8.8.t.u.t.s.p.5.;.' V 2 O O O   O O   O O O O O     O O - a t.7.8.8.8.6.5.t.t.t.1.+.' } :.<.1.u.8.t.t.y.t.t.u.t.t.X.d.t.i.p.8.t.t.p.t.p.t.t.t.a.t.t.a.t.p.p.p.p.p.p.p.p.p.p.8.p.p.s.p.p.p.p.p.p.p.p.p.p.p.p.s.w.p.p.p.p.p.p.p.p.p.p.p.p.p.a.p.p.p.p.p.p.p.u.u.t.t.t.d.p.t.p.p.i.5.,.t.p.d.u.t.s.8.7.<.7.a.y.p.s.t.8.t.8.5.6.8.1.:.X.[ 1.t.t.t.t.7.5.>.o.R o.p.t.8.8.s.7.7.7.<.1.1.:.<.1.5.6.6.:.>.} 1.p.5.1.5.5.6.8.t.t.t.t.5.6.6.7.>.X.} o.:.' +.U ;.>.! o.} [ [ c Q 5.5.s.5.} X.' ' ' ' X.:.} X.5.' 1.<.:.5.5.7.:.Q o.8.8.8.' [ 7.6.5.7.+.5.y.8.s.6.d.5.[ Q 1.7.+.1.X.>.7.8.8.6.8.8.8.:.5.8.1.:.5.8.8.5.6.8.6.,.8.6.5.6.8.8.1.1.5.:.5.t.5.5.5.5.5.7.1.5.+.5.1.:.Q } :.>.>.5.6.5.6.5.6.6.6.5.5.6.5.7.7.5.5.5.5.5.6.5.6.,.5.6.5.7.,.6.5.5.5.5.<.5.5.5.1.5.5.5.",
",.:.} ;.,.,.1.1.+.X.} :.1.<.:.;.} [ } o.:.:.o.} o.:.>.1.6.7.>.+.} 5.1.7.V :.:.1.1.5.5.8.X.:.;.:.} >.5.5.5.5.6.8.8.6.5.5.} ' 5.5.6.:.;.5.1.:.X.+.>.5.8.t.t.6.8.8.8.8.8.8.8.8.8.8.1.r M 7.8.t.6.,.5.5.6.6.8.8.8.8.6.8.7.;.8.t.6.+.+.8.6.6.1.1.5.8.5.1.8.8.1.5.1.1.:.:.1.5.t.8.8.t.t.t.t.8.y.t.t.5.:.I r O     O   O - - - 1 + O O + - s t.5.t.8.8.6.5.5.u.s.1.+.X.+.+.8.i.s.u.u.u.8.8.u.t.t.1.:.s.t.t.t.t.t.t.s.p.t.t.t.w.7.w.p.p.p.w.p.p.p.p.p.p.p.p.p.s.p.p.p.p.p.p.w.p.t.i.i.s.p.p.p.p.p.e.w.p.s.p.s.0.s.p.p.a.p.y.a.p.p.p.p.p.u.u.u.u.t.s.t.w.s.t.y.u.d.y.,.8.y.t.u.8.p.t.%.p.a.p.y.a.y.t.s.8.>.1.8.:.X.+.+.:.8.i.s.8.:.+.1.1.1.o.1.p.p.p.t.p.t.p.7.7.7.7.8.7.t.t.t.t.8.1.+.:.1.:.8.1.5.5.8.8.t.t.8.1.7.} o.X.X.1.8.s.:.1.+.7.6.[ 7.7.1.^ +.[ ^ X.:.:.' :.R I [ :.1.>.<.5.' ^ 8.5.5.t.5.X.^ o.1.:.t.:.U +.t.6.5.8.[ +.8.8.8.6.t.t.:.N X.t.>.X.1.t.8.6.8.8.8.8.6.5.5.8.1.1.8.8.6.8.8.6.6.8.8.8.8.8.5.5.1.5.6.1.5.6.5.>.,.>.:.,.5.1.:.1.5.:.+.+.^ :.6.5.5.5.5.7.5.6.5.6.5.5.7.6.5.5.5.5.5.5.5.5.5.7.5.5.6.5.6.5.5.5.,.1.5.,.5.<.<.5.1.5.",
"7.y.;.[ :.5.<.5.7.+.:.:.5.5.7.5.1.1.>.:.^ } +.:.+.X.X.1.t.5.1.:.' :.+.>.' } :.:.1.5.5.t.} :.7.+.:.>.5.8.5.5.6.8.6.6.8.7.' 7.5.6.7.>.1.5.1.+.:.5.5.5.t.t.7.t.6.8.8.8.8.t.8.8.8.5.5.R r 1.t.6.6.5.1.5.8.5.6.8.8.8.7.t.:.1.5.6.t.t.' 5.8.t.8.5.8.t.t.8.8.8.6.5.5.6.5.:.:.5.t.8.t.t.8.t.t.t.t.t.t.t.t.7.1.x O       O I X.:.<.[ a + O + s t.5.6.t.7.t.6.+.7.5.:.1.8.5.>.t.t.8.8.t.t.8.u.t.8.t.{ 8.t.8.8.t.t.t.s.p.p.p.p.p.p.a.w.w.p.p.p.p.p.p.p.p.p.s.p.t.s.w.u.t.p.p.p.p.s.s.i.p.p.p.t.p.p.p.p.p.p.p.p.p.p.p.p.p.p.p.p.a.p.p.a.p.p.t.s.u.i.t.u.p.w.p.w.p.t.i.t.6.5.s.i.8.s.8.5.;.a.a.w.t.p.i.s.t.6.i.t.:.Q ! t.t.t.} +.1.1.5.t.t.t.8.5.+.s.8.p.p.8.t.7.t.8.t.8.p.p.t.t.s.s.s.6.t.t.5.8.:.+.8.8.5.6.5.5.:.} X.X.:.5.1.1.5.5.1.;.;.5.6.+.t.7.X.! :.o.^ } X.X.Q N ^ o.o.7.1.:.t.7.Q ^ 8.1.1.t.X.} o.8.5.1.t.X.I 6.6.t.7.5.[ o.1.8.t.8.8.t.5.+.! +.7.:.;.1.5.6.8.6.6.8.6.7.5.8.:.1.6.8.7.8.6.8.6.6.6.6.8.8.5.5.6.8.6.5.6.6.5.5.5.5.5.8.7.8.6.8.5.1.+.5.>.! :.6.6.6.6.6.7.6.6.6.6.6.6.6.6.7.5.5.5.6.5.5.6.,.,.6.6.5.5.5.5.:.1.1.5.5.,.5.5.5.1.,.",
";.:.;.} ;.<.:.<.5.:.+.5.1.1.8.5.5.5.5.1.:.:.o.} X.+.X.' +.t.>.1.5.5.:.X.} } 6.:.1.1.5.8.Q 5.<.o.>.5.5.5.8.5.5.8.6.8.6.+.! t.6.6.6.:.+.} 5.:.5.8.6.5.6.t.6.6.8.8.6.t.8.8.8.6.8.6.t.:.2 X.t.6.6.5.1.1.8.8.8.6.8.8.6.t.' 5.6.t.t.t.:.} 6.p.s.8.8.8.t.t.8.8.t.8.5.1.8.7.1.1.5.t.t.t.8.t.t.t.8.t.t.t.t.7.d.} - O   O   x y.t.7.' r   - + y t.>.6.8.6.t.t.5.:.' :.5.t.:.:.t.t.t.t.t.8.t.t.8.8.:.^ t.5.6.8.8.t.t.p.p.t.p.y.p.p.a.p.a.p.p.p.p.p.p.p.p.t.p.p.p.p.p.p.s.p.p.s.p.t.p.p.p.p.p.s.p.p.p.a.p.p.w.p.p.p.p.p.p.p.p.p.p.a.a.p.p.y.y.s.s.i.y.i.t.t.w.s.8.p.t.u.8.1.s.s.i.s.7.} <.a.a.a.u.s.8.t.s.s.t.+.:.>.5.7.5.>.} 5.t.t.t.t.t.t.6.5.1.p.p.p.p.p.t.t.t.p.p.t.8.a.t.s.t.5.8.8.u.i.8.t.5.+.X.:.1.+.+.:.>.5.6.8.t.6.5.>.:.<.8.:.5.t.6.X.6.:.[ 7.8.t.X.^ ^ ! a R 5.o.+.5.:.7.t.:.V X.5.>.:.5.+.1.1.8.8.5.8.;.U t.6.6.5.5.:.;.:.8.t.8.7.t.1.+.5.+.+.:.5.6.1.>.6.8.y.t.6.5.6.6.;.,.8.t.5.6.6.8.8.6.8.8.8.6.6.5.6.8.6.5.6.6.6.6.8.6.8.8.8.6.8.8.1.:.5.8.1.' 5.6.8.6.7.6.6.5.7.5.5.6.6.6.5.5.5.5.5.5.5.5.6.6.7.5.5.6.,.7.5.5.5.5.1.,.5.5.5.,.5.5.",
"5.:.1.;.+.+.+.<.1.5.;.5.:.+.5.5.1.5.5.5.5.5.5.5.+.[ X.! U ! :.6.t.1.8.X.' I +.:.:.5.t.5.V >.} :.>.6.5.>.6.5.7.5.5.6.5.X.1.8.1.O.X.+.+.X.+.1.t.6.8.8.6.8.y.6.8.8.t.t.6.8.8.8.6.6.8.6.t ! 7.6.8.8.5.5.6.t.8.6.7.8.6.>.[ :.t.t.t.y.t.} 5.8.t.8.6.8.t.u.8.8.t.6.+.>.6.t.8.5.>.t.8.t.t.t.t.t.t.t.8.6.s.u.6.6.b       O + ;.7.5.x O - + - r <.1.8.8.8.t.t.s.+.' >.5.5.+.6.t.u.u.u.p.u.t.6.p.t.' X.8.5.8.t.8.8.s.s.s.t.w.a.a.w.p.p.p.p.p.p.p.p.p.p.p.p.s.p.p.p.p.p.p.p.p.p.p.a.w.a.w.a.p.p.d.y.y.a.i.p.p.p.t.p.w.p.w.p.p.p.w.p.p.a.p.a.s.s.y.i.i.t.t.8.s.p.t.s.u.u.u.2.8.p.f.p.y.7.7.:.8.p.0.0.s.u.0.1.+.>.u.s.>.+.5.5.t.u.t.t.t.s.u.s.s.8.<.8.p.p.w.t.p.8.p.p.t.w.7.8.t.u.8.5.6.s.u.u.t.5.5.:.o.1.8.8.s.p.8.8.8.8.5.6.8.7.1.X.>.X.+.+.1.:.8.5.:.s.5.1.:.} } V b 6.i.:.;.5.:.8.:.' V X.:.X.o.<.1.5.8.8.t.8.6.+.' 8.8.8.5.5.>.1.;.5.t.8.6.t.5.X.6.t.;.[ :.5.5.6.6.6.6.6.6.5.5.5.:.1.8.8.6.6.6.6.8.6.6.y.5.5.t.7.7.6.8.6.6.8.8.y.5.5.5.5.6.5.6.1.>.1.t.5.6.Q +.:.>.>.1.5.5.6.6.8.8.7.5.6.6.5.5.5.5.,.,.6.5.,.6.5.5.6.5.,.5.5.5.,.5.:.5.,.,.5.5.5.",
",.7.1.>.+.:.+.+.5.7.:.:.1.1.5.5.5.5.5.5.6.5.5.6.5.1.:.+.^ I Q X.;.5.5.:.;.R +.:.^ X.} ' V +.o.;.5.5.6.7.6.6.6.7.5.8.:.' +.} } +.1.1.1.>.} 1.1.5.6.8.8.6.6.8.8.8.6.6.8.8.6.6.8.8.6.u.t I t.6.6.8.8.6.5.8.t.t.6.5.>.o.1.1.t.8.t.s.t.8.+.5.t.t.5.6.8.8.s.u.6.t.1.>.5.8.t.6.5.6.t.u.t.8.8.t.t.t.t.t.8.s.u.8.} :   O O O I 7.Q r + + - + r <.1.8.8.u.s.t.8.5.Q >.5.8.+.6.u.8.t.u.t.t.8.s.t.X.[ 5.8.t.s.s.t.8.t.s.d.p.w.a.w.a.p.p.p.p.p.p.p.p.p.s.p.p.w.p.s.p.p.s.p.p.p.p.p.w.a.w.a.a.s.a.y.y.s.i.i.a.p.a.p.a.a.w.p.p.w.w.p.w.w.p.w.w.u.0.s.0.0.u.8.8.8.e.t.s.u.u.u.6.<.8.8.t.<.y.,.X.<.1.2.8.s.6.+.>.8.t.8.1.:.5.t.t.8.u.s.s.u.t.s.s.s.8.:.w.p.p.t.t.t.t.t.p.p.t.8.8.8.8.8.t.8.s.t.6.5.1.6.6.8.8.t.t.u.t.t.t.t.5.5.8.t.5.+.' +.;.:.X.} 1.>.X.8.s.5.>.o.R :.Q +.p.5.X.+.1.1.8.:.} ' ;.} ! 5.1.7.t.5.t.6.8.s.^ +.8.8.7.7.5.>.7.+.1.8.8.6.t.>.:.1.t.6.o.+.5.>.>.5.6.5.5.6.t.8.1.1.1.8.8.6.8.6.8.6.y.8.6.8.8.6.6.6.6.7.t.5.5.5.5.5.5.5.y.6.5.5.5.5.7.6.1.:.N +.:.>.:.:.+.X.+.:.1.1.5.5.6.6.5.5.5.5.7.6.5.5.7.5.6.6.,.5.7.5.,.5.1.5.1.5.5.5.5.<.,.",
"7.5.1.5.8.8.1.X.^ } [ ! } } } +.:.1.>.5.:.<.1.6.6.1.7.5.,.R M U Q X.+.1.:.o.^ y.X.^ I :.' ' +.1.t.6.6.6.6.1.1.6.8.>.M I o.1.8.8.5.5.6.7.1.1.p.5.6.8.8.8.6.8.6.8.8.8.8.8.8.y.8.8.5.i.M r i.5.6.8.6.6.6.8.1.t.d.5.:.7.8.:.8.t.d.6.y.t.5.o.u.6.t.t.8.u.t.8.y.t.6.t.5.1.6.6.8.t.t.8.t.t.t.t.t.t.t.8.8.s.6.s.:.b O - O + r ^ r - + - - O r ^ 7.5.t.8.s.8.8.8.^ :.8.8.} s.t.d.8.s.u.t.8.u.o.R 5.u.s.u.s.t.p.8.6.s.u.t.7.y.y.7.7.7.3.t.p.8.p.p.p.p.p.p.p.p.t.p.p.p.p.p.p.p.w.a.w.y.a.a.p.s.p.d.u.i.i.y.d.p.p.p.p.w.p.s.d.e.3.e.e.e.w.9.e.q.r.r.q.9.9.u.0.6.s.0.i.i.i.,.<.<.<. .;.y.7.d.d.p.6.| $.+.1.8.s.s.u.1.8.t.5.t.u.s.s.s.s.s.s.s.s.t.:.t.p.8.p.t.t.p.w.8.p.p.8.a.p.1.5.u.6.1.:.5.8.8.8.8.8.t.8.u.t.t.s.t.8.5.t.8.t.>.^ X.:.+.:.X.^ ' Q :.7.:.+.X.I Q ' M X.5.1.^ X.5.8.:.o.:.} t.^ } 5.t.8.8.5.8.8.8.d.Q 1.t.8.8.6.6.>.5.:.:.5.5.t.7.:.5.5.t.6.>.5.6.7.8.5.:.6.6.5.8.8.1.1.5.8.5.6.6.8.6.6.8.6.6.8.8.6.8.5.8.6.6.6.y.6.6.8.6.6.6.6.6.6.6.6.7.t.+.+.>.' 5.5.5.5.7.6.;.[ I :.d.>.5.5.5.5.5.6.5.7.5.5.5.5.7.5.7.,.6.5.5.1.1.1.5.5.1.5.:.5.5.",
"1.,.:.X.X.X.X.o.+.:.:.+.:.1.+.:.:.;.:.+.+.:.o.X.:.:.:.:.' ! +.[ ' Q R R o.+.Q } :.:.1.+.' I } 1.6.7.5.6.6.7.6.:.[ ' I ;.5.7.8.8.8.8.6.8.1.1.8.8.8.8.6.8.8.8.y.8.8.8.8.8.8.8.8.8.5.8.I 1 5.6.6.8.8.6.6.8.t.6.8.:.;.8.t.1.5.8.t.s.p.t.8.! } u.6.6.t.t.8.u.8.u.t.8.8.5.6.6.8.8.t.8.t.t.t.8.8.8.t.t.8.s.6.8.y.o.: + O O - r - + - - - + + ^ 8.1.s.8.8.i.1.2.1.' 8.t.:.8.t.t.t.t.8.u.u.o.[ 8.t.s.u.u.t.u.y.t.8.t.8.1.<.7.w.7.<.<.7.p.p.p.p.p.p.p.p.p.p.s.p.p.p.t.s.p.p.p.a.w.w.a.7.a.p.y.t.p.u.i.s.u.8.s.s.w.w.w.2.9.r.r.m.m.M.~.~.~./.^.~.~.M.z.l.q.q.9.q.q.q.q.i.i.>.>.2.7.t.a.d.a.p.t.5.| o.8.1.8.8.5.5.} :.t.t.t.u.p.s.s.u.s.s.s.s.t.;.t.p.t.p.t.t.8.p.a.p.p.p.p.t.1.+.1.8.6.8.s.s.p.t.6.u.8.u.s.u.u.t.8.8.8.5.8.>.+.1.t.8.5.t.t.u.' ' 1.:.X.I } <.:.} R 6.6.:.Q +.5.1.+.o.o.' ' M X.;.:.8.8.8.8.8.t.1.{ t.5.8.7.8.8.1.5.>.1.5.1.6.1.+.>.5.5.6.>.:.5.5.6.>.>.>.5.8.t.8.1.5.8.8.8.6.y.6.8.6.6.8.6.8.6.8.6.8.8.8.8.6.6.6.6.6.6.6.6.7.8.8.6.5.5.5.[ 1.6.' 7.6.5.6.6.5.6.7.X.^ >.5.5.5.5.5.5.6.5.6.,.7.6.6.,.5.6.6.6.5.5.1.5.5.,.5.5.5.5.5.:.",
";.:.;.:.1.1.5.7.6.5.5.1.5.8.5.5.6.6.6.5.1.6.6.5.>.:.X.Q [ +.+.:.7.} I c } ' s R >.>.1.:.I N } ;.5.>.:.;.o.X.' +.o.} Q 5.8.8.8.8.6.8.8.6.6.5.1.8.t.8.6.8.8.8.8.8.8.8.8.8.y.6.8.8.6.t.U - ;.8.8.8.8.6.8.8.8.1.:.+.+.t.8.7.1.8.s.8.t.8.5.+.' ' :.6.8.t.t.t.t.t.t.t.8.8.5.6.t.0.t.t.8.u.u.8.t.t.8.t.8.p.s.u.y.7.M   O   O O - - O 1 x O O M 7.y.t.y.s.8.1.8.d.} 1.t.>.5.t.t.t.5.t.8.^ } s.s.s.u.p.t.t.t.t.s.<.<.<.O.<.<.<.<.7.w.a.p.p.p.p.p.p.p.p.p.p.p.p.p.p.p.p.p.p.p.p.p.a.a.a.w.p.p.p.e.0.0.s.0.e.r.e.9.r.z.^.).tXyXDXDXvXFXDXFXFXFXHXHXFXDXDXtX|.~.q.-.#.*.*.l.9.#.$.q.u.i.t.y.y.<.3.5.s.6.+.5.t.t.5.X.+.5.d.s.t.i.s.s.s.u.s.s.s.t.+.p.p.p.w.t.t.p.p.t.7.7.7.5.6.5.1.t.t.t.s.s.s.8.8.8.u.s.s.t.t.u.t.8.8.8.t.:.;.5.8.t.5.5.t.p.1.} 5.:.+.I Q o.8.+.' ' 6.t.>.} :.6.+.1.7.+.+.' X.o.X.:.8.8.8.8.7.8.:.} i.5.6.6.5.5.>.5.1.1.6.5.8.:.:.1.1.:.>.1.:.5.7.6.5.5.>.:.8.s.5.8.7.8.8.8.8.6.8.6.6.6.6.8.6.8.6.6.8.6.8.6.y.5.5.6.6.6.6.6.6.6.6.5.8.8.:.:.8.5.[ 5.6.5.6.6.5.5.5.t.+.X.+.8.y.8.5.,.5.5.6.6.,.6.5.5.7.,.7.,.,.5.5.,.1.5.5.1.5.5.<.5.",
":.:.5.5.5.5.5.1.1.5.6.5.7.5.1.5.5.5.6.6.t.5.5.7.6.5.[ +.t.6.t.:.8.5.:.Q ' +.Q Q X.+.+.R x ! } } [ X.+.+.:.1.5.6.>.} [ 7.8.8.6.8.6.8.8.6.8.5.>.8.8.8.6.t.8.5.8.8.6.y.8.8.8.6.8.6.6.t.I - :.8.8.8.8.6.8.8.5.1.7.1.:.t.8.8.1.8.t.t.t.1.5.8.:.5.>.+.5.t.8.t.t.8.t.6.t.8.6.6.8.8.t.t.u.t.t.t.t.t.t.t.s.8.u.8.8.t.X.- O O O O - @ @ M ;.r O r N } 5.y.t.5.8.t.u.5.X.8.5.t.s.i.8.8.1.' :.t.u.s.u.u.t.u.t.t.t.5.:.O.<.<.<.a.a.a.p.p.a.p.p.p.p.p.a.p.p.p.p.p.p.p.t.e.p.p.p.p.p.p.a.y.w.a.p.p.w.e.s.e.e.r.9.l.n.).tXDXFXHXFXFXBXBXCXZXVXxXjXzXsXaXsXjXaXaXvXzX.X X|.M.-.=.@.` *.q.q.8.5.1.y.y.8.5.8.u.8.1.s.s.1.8.8.:.u.8.u.u.s.s.u.s.s.8.p.t.:.8.s.8.p.p.t.p.8.5.7.7.t.p.t.8.t.u.t.8.8.t.s.8.8.8.8.t.s.8.p.s.s.t.8.8.5.1.8.s.8.t.8.t.i.t.X.[ i.:.} +.} X.:.X.X.;.7.1.>.;.5.5.X.5.8.} } <.:.:.:.;.t.8.8.8.8.5.' Q 8.t.8.8.t.5.5.6.>.5.6.6.8.1.5.t.8.6.1.1.5.:.5.6.5.6.6.>.5.8.5.8.8.8.8.8.8.6.6.8.6.6.y.6.6.6.8.6.6.8.6.8.6.6.6.6.6.6.6.6.t.,.6.8.1.:.1.7.5.8.X.5.5.6.6.6.7.6.,.:.:.1.+.5.7.5.7.8.5.6.5.5.6.5.6.5.5.6.5.5.5.1.1.1.1.5.,.5.,.5.,.5.",
"5.y.:.:.1.1.1.5.5.5.5.6.5.5.5.5.5.6.5.5.5.6.t.1.} ! ' 7.5.5.7.5.1.1.8.+.^ Q +.o.X.:.+.N ! 1.1.:.5.8.8.5.5.6.5.8.1.[ :.>.8.6.5.6.8.8.8.8.8.6.>.5.6.t.8.8.8.y.8.8.8.8.8.8.8.8.8.6.8.t.I - :.8.7.8.7.8.6.6.:.1.8.:.:.6.8.8.1.1.8.t.8.1.t.5.6.:.t.>.+.1.8.t.t.t.t.t.8.8.8.8.8.u.8.u.u.8.8.u.u.u.t.t.u.t.8.t.t.t.5.I +   O O O O 1 ' 7.R 1 ; - - b X.s.1.1.u.8.t.} :.5.d.u.u.s.U ! 6.u.t.s.s.t.s.s.t.t.8.t.<.{ ;.<.t.w.a.w.7.p.a.a.p.p.p.p.p.p.p.p.p.s.p.p.p.p.p.p.p.p.p.p.p.w.a.a.p.p.w.e.w.w.w.f.M. XyXvXFXFXAXZXZXNXNXZXZXNXnXNXnXmXbXpX2X2X2X8X7X0X8XaXVXvXFXlXOXM.*.#.*.2.1.5.t.y.<.7.8.d.s.8.1.8.8.6.t.s.1.5.8.t.t.8.s.u.u.s.u.u.t.1.p.p.8.s.8.t.w.7.7.t.t.t.p.t.8.s.p.i.t.t.t.t.8.8.s.s.p.s.s.p.s.i.t.5.8.1.t.s.8.t.8.8.t.8.:.X.5.<.X.8.t.:.:.:.5.<.' :.>.:.} +.:.} 1.5.X.:.1.} 5.5.} 7.8.8.8.8.5.R ^ o.+.1.8.6.8.6.5.:.1.5.7.8.1.8.8.8.8.1.+.:.:.5.6.,.5.6.6.5.6.5.8.8.8.8.8.8.6.6.y.6.8.6.8.y.6.y.6.8.6.y.5.6.6.6.6.6.6.8.6.8.5.t.5.+.o.1.5.5.t.+.5.5.6.6.6.5.5.6.>.1.t.:.:.6.5.6.6.7.,.6.5.,.5.5.6.6.7.,.6.5.5.<.5.5.1.5.5.5.5.5.5.",
":.,.7.:.1.1.5.5.5.5.5.5.5.5.5.5.5.7.6.7.5.5.5.o.' ' o.:.t.7.6.1.5.5.5.6.1.X.Q o.[ :.X.^ ' 5.7.1.1.5.6.5.7.t.6.t.1.} 8.+.1.6.t.8.5.8.8.6.8.8.,.,.6.8.t.8.8.8.8.8.8.8.8.8.8.8.6.y.8.t.I @ :.8.6.8.6.5.6.8.:.6.8.:.1.8.8.8.5.>.t.5.5.5.8.t.8.1.5.s.6.+.5.u.t.t.8.t.8.8.t.t.8.8.u.8.t.u.u.u.8.8.t.u.8.s.i.t.t.t.t.5.r O O O   O d 5.y.<.I I R r ; r b :.s.t.s.8.+.' :.t.t.8.' X.s.6.8.s.s.8.d.t.s.t.t.t.7.X.o.a.a.w.7.7.a.w.p.d.p.p.p.p.p.p.p.p.p.p.t.p.s.p.p.p.w.w.p.p.p.t.a.a.a.p.w.w.w.4.r.^.yXHXHXGXZXZXCXZXNXNXNXnXNXNXNXnXNXNXbX0X7X6X8X1X,X;X1X<X8XjXcXCXCXFXFXOXj.@.-.q.8.p.d.a.y.7.t.i.5.5.1.5.t.2.u.8.+.s.t.u.u.s.u.s.s.s.s.s.5.y.p.p.p.p.p.p.a.p.p.p.t.<.5.t.8.t.8.p.p.t.p.8.t.s.t.t.u.t.8.8.8.6.:.5.s.t.8.p.t.t.8.8.5.+.>.:.+.8.t.:.:.:.o.5.8.} 7.:.} ' 5.8.;.:.+.X.8.:.t.7.5.{ <.8.8.8.5.7.I 6.6.+.} } +.5.5.:.:.5.7.5.7.>.t.8.8.1.5.5.>.5.5.6.5.5.5.6.8.5.5.8.8.5.5.8.8.6.6.6.8.6.8.6.6.6.6.8.6.8.6.6.6.6.6.5.5.y.5.8.8.5.1.+.X.1.>.7.8.1.:.6.6.5.6.6.5.7.5.5.5.8.,.>.y.5.5.5.5.5.5.6.6.6.7.,.5.5.6.5.5.,.5.1.5.,.5.1.:.1.5.,.",
"7.,.5.} ;.:.:.7.,.7.7.5.6.5.6.5.1.5.5.6.5.5.;.} :.1.+.:.5.1.1.5.6.>.5.1.5.>.+.' ! I I 6.' :.7.1.1.1.5.6.7.5.6.5.o.:.>.+.>.6.6.t.6.8.6.8.6.8.6.1.t.6.t.t.8.8.8.8.8.8.6.6.y.8.8.8.t.7.N 1 ,.t.8.6.7.5.5.5.+.5.8.:.1.8.7.6.7.>.:.7.1.6.t.8.8.5.:.t.8.1.:.t.t.t.t.t.t.8.t.8.8.t.t.t.u.0.t.t.t.t.t.u.8.u.t.t.8.u.u.s.' - O - + r ;.7.s.y.t.t.t.1.' d + r I :.y.t.8.X.} 7.[ ^ { s.t.t.t.t.8.s.s.s.s.s.y.8.1.1.7.t.p.p.8.8.p.p.p.p.p.p.p.p.p.p.p.p.p.p.p.i.s.s.w.w.w.w.w.w.p.d.!.!.!.7.3.=.n.(.tXZXZXAXNXNXnXnXNXnXNXNXNXnXNXNXNXnXnXNXbXfXfXwXwXfX9X6X&X*X6X0XgXkXMXjX5XjX X X|.j.l.l.l.2.i.y.y.y.;.;.o.t.t.0.u.8.:.8.s.s.s.u.s.s.s.s.u.8.t.t.u.t.u.s.8.s.u.u.s.t.p.p.p.p.p.p.t.w.p.p.t.p.t.t.u.t.u.8.t.t.8.1.<.t.8.t.t.t.t.i.5.t.>.>.+.5.8.s.8.+.:.1.:.8.5.X.5.:.X.:.:.+.X.[ X.+.5.>.t.t.1.+.8.u.8.t.t.5.R 5.5.u.8.5.} U } +.1.5.6.5.5.5.t.8.8.8.6.8.6.5.5.6.5.6.6.7.6.6.6.8.5.7.6.6.6.8.6.8.6.6.8.6.y.6.6.8.6.6.6.y.6.6.6.6.6.8.5.5.5.5.+.o.5.t.7.6.5.:.5.6.6.7.6.6.6.6.6.6.6.,.6.6.7.5.5.6.5.6.7.,.7.5.5.6.6.5.7.5.5.1.1.5.<.5.5.,.5.,.5.5.",
"7.6.,.:.Q :.;.5.5.1.5.5.1.5.5.5.5.5.5.5.5.:.~ :.1.5.:.:.5.1.1.7.8.5.5.5.7.5.6.:.^ I c 7.5.' 7.t.5.6.6.6.6.6.6.5.} 1.5.X.X.5.5.6.8.8.8.6.6.6.6.,.,.8.8.5.8.8.8.8.8.8.8.y.6.8.8.8.8.7.a x t.6.6.7.6.6.8.t.+.5.8.5.t.7.5.8.6.5.:.,.:.6.t.8.8.t.:.5.s.5.+.X.6.6.8.8.8.8.8.t.t.6.t.t.8.t.t.t.t.t.u.8.t.0.u.t.u.8.u.s.} : 1 1 + Q s.t.8.s.t.s.s.s.t.1.R 2 + 2 R 1.t.7.^ R R :.t.t.t.t.t.t.t.u.s.d.8.u.t.<.1.p.s.s.a.t.p.p.p.p.a.8.p.p.p.p.a.p.p.a.a.p.t.p.s.p.w.w.w.w.w.p.d.p.y.7.a.7.r.).zXHXHXZXZXZXMXNXMXNXnXMXnXNXMXNXnXNXNXNXMXnXNXbXwX7X7X6X6X=X*X*X1X8XdXnXnX8XuXhX%X.XFXFXM.l.q.q.8.,.y.i.6.Y ;.t.8.u.0.8.1.0.s.u.u.u.8.s.t.8.s.y.8.t.t.t.u.u.s.s.u.s.t.t.t.t.w.p.8.t.p.p.p.8.p.p.t.0.t.u.t.s.s.t.s.t.5.7.t.t.t.t.s.t.5.>.X.[ +.s.s.8.8.+.+.s.t.5.:.X.o.:.1.1.5.[ ' +.7.} 5.5.8.u.5.:.8.t.8.t.u.5.R 7.7.t.s.u.1.o.^ R +.6.t.8.1.6.p.8.8.8.6.7.6.5.6.5.7.6.6.t.8.5.5.8.6.6.6.6.6.6.8.6.6.8.6.y.6.8.6.6.6.8.8.6.6.6.6.6.8.5.8.5.5.>.:.1.8.7.6.6.6.5.5.5.6.5.,.7.7.6.6.,.6.7.6.6.6.5.7.,.5.5.5.5.,.5.6.,.5.6.,.5.5.5.5.1.5.,.5.5.5.5.5.<.",
",.,.7.7.' ;.:.:.1.7.1.7.5.1.+.+.+.X.o.+.;.V Q 1.1.5.1.1.1.:.1.1.5.5.1.1.5.5.6.5.o.' y ' 7.X.;.t.8.8.5.5.5.5.5.>.' 6.6.>.[ >.7.5.8.6.6.8.y.6.6.5.X.5.t.8.t.6.t.6.8.8.8.8.8.8.8.8.5.t.y M i.8.6.7.8.8.8.5.;.>.o.} 8.t.t.8.6.5.5.5.;.5.8.8.8.u.6.:.s.t.1.' +.1.5.5.5.6.t.t.8.t.t.t.8.s.u.u.t.t.t.u.t.t.t.t.t.u.8.8.b } :.Q Q I 1.y.8.s.t.t.t.t.6.8.7.<.R y : r Q :.x a 1.8.t.5.s.8.8.t.i.u.t.t.t.s.1.:.p.p.p.p.p.p.p.p.p.w.w.p.p.p.p.p.p.p.p.p.p.p.p.p.p.p.p.w.a.8.a.p.p.a.w.w.r.~.yXHXGXZXZXZXZXNXMXMXMXnXMXNXNXNXNXNXNXMXNXNXMXNXZXbXfXfXfX7X6X6X;X1X1X1X3XdXdXjXcXsXsX.XsX XzXyXz.l.q.q.t.6.;.;.o.<.8.y.8.t.6.u.s.u.u.u.s.s.s.8.d.6.6.t.t.8.8.t.u.s.u.8.t.s.p.p.t.p.t.p.t.p.t.p.p.t.u.u.u.u.s.t.t.t.s.s.t.5.8.7.t.t.7.5.+.' [ +.6.t.s.t.8.5.6.8.y.t.X.R +.5.>.5.;.>.:.:.5.' 7.6.6.8.1.>.t.t.t.t.t.5.U 6.7.8.t.s.6.1.>.+.' X.1.1.5.t.8.6.8.6.5.8.8.6.6.6.6.7.8.6.8.8.8.1.6.6.6.6.t.6.8.8.6.8.6.6.8.6.6.6.y.6.6.8.6.6.6.6.6.y.5.y.1.>.1.8.t.6.8.8.6.5.8.5.6.6.6.6.,.6.6.7.6.5.6.7.7.5.7.5.7.5.6.6.6.5.5.7.5.7.6.6.5.5.,.1.5.5.5.5.5.5.5.,.",
",.7.,.5.1.' y.:.1.:.:.o.' ;.;.:.:.1.1.1.X.} >.+.1.1.8.5.1.+.} } } +.X.X.o.+.+.:.} ! x I [ :.! 7.8.5.5.1.5.5.>.+.' 5.7.7.+.;.6.6.5.8.6.6.6.6.8.,.[ :.7.7.8.8.6.6.y.8.6.8.8.8.8.8.6.y.b d 6.1.5.7.8.8.6.8.1.5.5.+.,.7.t.8.6.6.t.6.1.5.6.6.8.8.i.>.5.t.t.} X.1.5.8.6.5.5.:.:.>.7.t.u.8.8.8.u.t.t.t.t.t.t.t.t.t.s.V I u.1.+.t.' R 7.u.u.t.s.t.t.t.8.t.7.8.6.' r : r + 1 o.8.8.8.8.t.t.t.u.s.s.s.5.1.<.5.d.a.p.p.p.p.p.a.8.t.p.p.p.p.p.p.p.p.w.p.p.p.t.u.a.p.p.a.y.y.t.7.w.w.4.l.OXHXHXAXZXNXZXZXbXNXNXMXMXMXMXnXMXNXNXNXAXNXnXNXMXNXNXNXbXbXfXbXwX6X1X7X8X8X,X2XMXjXjXhXiXoX{.sXjXvXFXOXl.=.q.5.5.;.o.5.t.t.t.t.t.u.s.s.t.u.s.s.s.s.8.1.5.t.t.t.8.t.u.s.s.u.s.8.t.p.t.p.p.p.t.p.p.p.p.p.8.s.s.8.8.s.s.t.8.8.t.1.;.:.1.5.5.' I M :.1.s.8.8.t.5.t.8.t.s.t.+.X.1.5.>.+.+.7.t.:.5.X.1.8.6.6.6.1.8.t.t.t.t.7.R 6.8.8.i.i.1.1.5.5.:.o.} ^ +.8.i.t.8.8.8.8.8.8.6.8.8.6.7.8.8.6.1.1.1.5.6.6.7.6.8.8.8.6.8.6.6.6.6.y.6.6.8.6.6.6.6.6.8.6.5.,.>.1.6.8.7.6.6.6.6.6.6.8.7.,.6.6.6.6.6.7.6.,.y.,.6.6.,.5.,.6.,.6.,.6.5.6.6.,.,.6.5.,.5.<.5.,.:.5.5.:.5.5.",
",.:.:.:.1.' } :.<.:.} ' ' 1.:.:.>.5.:.} } +.X.Q Q ^ U Q ! R V x s I R ! ! ! ! N ! U a ! I ' Q { 8.5.1.:.1.7.8.:.+.1.5.1.5.;.5.8.,.8.8.8.8.8.8.,.:.:.,.5.6.8.6.t.6.8.8.8.y.6.8.8.8.8.^ 3 o.;.:.1.8.t.8.8.5.7.8.1.>.5.8.8.7.t.8.t.5.6.5.5.8.8.t.5.1.8.t.X.5.1.1.8.8.8.6.5.>.+.+.1.t.t.t.u.8.u.t.t.8.u.u.u.u.t.u.+.6.6.:.1.6.8.^ } 6.8.s.s.8.8.8.s.y.t.t.5.:.[ V V Q I V t.t.8.8.t.t.t.t.8.1.:.:.1.7.8.p.p.p.p.p.p.t.8.p.t.t.t.a.p.w.p.t.8.t.t.p.p.p.e.t.s.i.!.y.y.w.e.w.r.V.yXHXAXGXAXNXNXNXMXMXnXNXCXNXMXMXMXNXZXNXAXNXMXMXMXmXMXbXnXnXnXbXbXbXeX8XbXbXfXfX2XNXmXcXkXfX#XJ.kXjXjXmXBXrXV.*.>.r.,.1.5.1.t.t.t.u.i.s.s.t.u.i.s.d.s.6.5.8.8.t.s.t.t.s.s.u.0.s.u.w.t.p.p.t.p.t.p.t.t.8.p.8.s.s.8.s.s.t.1.1.5.5.X.1.f.t.+.;.X.} [ +.:.t.s.t.5.5.t.8.s.t.+.X.>.1.5.>.:.6.8.8.:.t.+.6.t.t.7.8.6.8.u.t.8.8.6.R 6.6.t.t.t.1.1.8.8.<.t.:.' o.+.:.6.8.8.8.8.8.8.8.8.8.8.8.6.1.:.:.1.5.5.7.7.6.6.8.6.6.6.8.8.8.6.8.6.6.8.6.8.8.6.6.6.y.6.6.6.5.5.8.8.5.6.6.6.6.6.5.5.6.,.6.6.7.6.6.,.5.6.6.6.5.5.5.5.6.5.7.5.6.5.7.,.5.5.7.5.5.5.:.5.:.5.5.5.,.5.<.5.",
":.:.:.:.<.;.N ' ' ! I I R ! U U Q ' ' ^ } ' ' X.! ' ;.:.:.:.' ^ X.1.5.6.5.6.7.6.7.5.;.! Q M y ' 5.t.1.5.1.t.8.1.:.5.5.+.5.1.:.8.6.8.8.8.6.8.8.5.5.:.1.>.5.8.t.8.6.8.8.8.8.8.8.6.t.6.;.- ! 5.7.t.8.8.8.t.t.8.5.1.8.5.5.5.6.6.8.6.8.8.7.8.5.8.8.t.1.5.t.:.u.8.5.u.7.t.i.t.t.8.5.1.8.t.t.t.u.t.t.t.u.u.8.8.t.u.t.s.8.6.6.8.8.8.5.! ! u.s.8.s.i.t.t.t.y.t.5.8.:.1.X.R } x M } 5.5.8.t.u.1.:.:.6.p.s.d.8.4.8.7.t.t.p.p.p.p.p.t.t.a.p.8.8.8.t.8.p.p.p.p.s.s.t.i.i.!.y.d.9.r._.FXHXGXAXMXMXNXNXMXMXMXcXbXbXbXMXNXNXMXNXAXNXNXAXNXCXnXbXNXNXNXNXNXNXNXbXbXbXnXnXbX@XnXjXMXkX+X+XY.*X1XjXbXaXaX%Xn.#.2.#.1.+.1.7.t.t.t.s.t.t.t.s.s.8.8.6.8.u.8.6.t.t.8.t.t.u.p.t.8.s.t.p.t.p.8.p.p.t.p.p.p.p.8.p.s.8.6.8.t.6.5.t.5.8.8.1.:.5.1.' } :.' } 8.s.8.1.t.8.8.6.>.X.:.1.5.8.1.6.6.8.5.:.8.+.6.8.t.6.8.8.t.8.t.8.t.6.! 5.7.6.t.8.1.5.8.5.8.8.1.5.t.1.:.+.+.1.u.u.6.8.8.5.7.1.1.>.:.1.5.5.8.8.7.t.8.8.6.5.8.8.8.8.6.6.6.8.y.6.8.6.6.6.6.6.6.6.6.6.8.5.5.8.7.6.6.6.6.6.6.5.6.6.7.6.6.6.6.6.6.6.5.5.8.5.5.7.5.6.,.5.6.5.5.6.5.7.,.6.5.1.,.5.5.5.5.,.<.5.5.5.",
";.;.^ ^ [ ' M I R c x d N ' o.:.5.5.1.5.5.1.7.5.+.X.5.7.:.7.X.} >.7.5.>.1.5.5.6.7.7.8.o.o.' @ M 8.1.8.+.7.8.6.5.+.5.5.:.1.5.+.5.8.6.y.6.8.6.6.5.1.:.>.5.5.6.8.8.8.8.8.y.8.8.8.7.t.7.1.: R t.6.6.8.8.t.t.t.t.6.1.t.8.8.5.6.6.8.t.8.8.8.8.5.5.8.8.1.+.5.>.t.s.5.+.8.i.t.t.t.t.t.t.8.u.t.u.8.u.t.u.u.8.t.t.t.t.8.u.8.5.u.s.8.u.8.o.R } 8.s.t.u.u.t.t.u.t.8.8.8.5.5.;.} I Q I N } y.d.5.+.8.u.s.8.t.a.a.p.t.t.7.t.p.a.p.t.w.p.d.p.<.<.<.t.t.8.8.p.t.t.8.u.d.d.i.d.e.4.m.).HXVXCXZXNXcXMXMXMXnXMXcXkXfXfXfXnXnXNXNXAXAXAXAXNXMXMXMXkXnXNXNXNXNXNXNXbXbXNXbXNXbX+XbXZXMX<X[.0X1XY.1X6X3XbXpX8X'.|.-.*.` 2.1.:.8.t.8.s.s.s.t.8.d.s.5.8.s.s.d.8.t.t.t.t.t.t.t.u.t.t.p.p.t.t.p.p.p.w.8.p.p.t.8.s.u.8.8.8.t.t.1.1.1.:.+.} t.:.:.o.:.5.1.X.5.1.5.5.t.8.8.1.+.+.8.1.5.8.8.8.8.8.5.>.5.:.8.8.t.8.8.t.t.6.6.8.t.6.Q 5.6.6.t.1.1.8.8.8.8.5.5.8.8.8.8.8.>.X.X.1.8.5.1.1.5.8.8.8.1.1.5.8.8.6.8.6.6.8.6.y.6.8.5.8.6.6.6.8.5.6.8.6.8.6.6.6.6.6.6.6.8.5.6.6.6.6.6.6.6.6.y.,.6.6.,.6.,.6.5.6.6.6.5.5.6.5.5.6.5.7.6.6.5.6.6.5.5.5.5.5.5.5.1.1.5.1.5.<.5.5.5.1.",
"} Q I Q ' ' ' x I Q ' X.;.5.8.5.6.5.1.1.1.5.5.5.;.X.>.1.>.7.;.+.o.+.5.6.5.5.7.>.:.1.8.1.;.5.:.c Q 1.5.5.7.1.6.5.;.5.6.1.1.1.:.>.6.6.5.8.6.8.8.6.>.5.>.5.5.5.8.6.8.8.6.6.8.8.8.8.t.1.8.y I 6.t.6.8.t.t.8.8.8.8.1.8.8.8.6.5.6.6.8.8.t.t.8.5.5.8.6.5.5.6.:.:.t.u.5.5.6.t.t.t.t.t.t.u.u.8.u.8.u.t.t.0.u.t.t.t.t.8.t.8.8.u.8.8.t.8.6.1.^ >.s.t.8.u.u.t.t.t.t.6.t.5.8.7.1.} ;.5.<.! ! ^ X.t.s.t.s.s.t.p.p.p.p.p.7.8.p.8.p.a.p.7.<.<.<.t.7.t.7.p.8.8.8.t.i.i.t.i.u.s.*.m.tXHXAXVXMXmXbXcXcXkXMXcXkXcXkXfXdXfXbXnXMXNXMXMXNXNXMXMXnXnXbXbXnXnXbXbXbXbXNXbXbXwXnXbXY.+XwX}.L.,X1X6XU.1X6X[.3XnXdXuXDXrXl.*.*.1.+.7.8.8.s.u.t.t.t.6.1.8.d.s.s.s.s.5.8.t.t.u.u.u.t.p.t.t.t.p.w.p.p.p.p.p.p.t.p.s.t.s.8.u.8.1.6.5.1.1.+.5.5.} X.[ :.7.:.7.+.+.} 1.y.8.t.5.+.:.+.t.1.6.t.t.t.t.t.6.1.>.X.t.t.t.t.8.t.t.5.2.8.t.6.M 5.6.8.t.5.6.t.6.8.7.5.8.t.8.8.8.8.6.5.>.} } +.1.5.6.5.5.8.5.1.6.8.6.8.6.8.8.6.8.6.8.6.8.8.y.6.8.6.6.8.5.y.6.6.6.6.6.6.6.6.8.6.6.7.8.6.6.6.6.5.5.7.6.7.6.7.6.6.7.6.6.6.5.6.6.5.5.5.6.,.,.6.6.,.7.5.5.5.5.5.5.5.1.5.5.,.5.5.5.,.,.5.",
"[ ;.;.:.1.1.5.M V 1.7.5.:.:.1.5.6.5.6.7.,.5.5.5.1.:.>.1.5.5.o.:.5.X.+.7.5.>.5.>.:.5.8.5.:.<.1.:.I I y.1.1.5.5.5.:.5.5.5.1.1.>.+.5.6.6.8.8.6.6.5.5.5.>.,.8.8.8.8.8.8.8.8.8.8.8.t.6.5.t.x x 5.6.t.8.8.t.5.8.6.5.:.5.6.8.8.5.8.8.8.8.t.t.t.8.8.t.6.6.t.t.:.' :.8.d.1.5.s.8.s.t.p.u.t.t.t.t.8.u.0.t.t.t.t.t.u.6.u.0.t.t.t.s.s.t.8.8.5.8.5.u.s.t.t.t.u.u.u.t.8.6.t.8.+.t.} X.5.d.s.5.R V >.u.s.8.t.t.s.t.t.p.y.7.7.p.a.a.7.<.<.<.7.<.<.7.t.7.7.p.t.7.7.y.y.y.d.s.9.m.tXHXAXNXMXkXcXkXcXnXkXMXkXkXkXgXwXwXwXbXbXbXnXnXMXMXMXnXkXkXgXfXwXgXbXbXbXbX6XbX7X6X6XfXbX=XZ.=XG.*X*X1X1X&XL.qX+X+XbXfX8XCXsX|.=.9.&.+.2.w.p.s.u.s.t.6.6.2.u.u.s.s.s.6.>.5.t.t.s.s.u.u.u.0.t.p.p.t.t.p.t.t.p.p.p.p.s.t.8.8.t.t.5.6.5.+.1.1.8.+.1.X.o.1.<.:.t.1.X.+.1.t.8.t.1.1.5.} 8.8.5.t.u.t.8.t.6.5.>.[ 6.t.t.t.t.t.t.5.6.8.t.5.c >.8.8.t.8.8.8.t.5.1.t.t.8.8.t.8.8.5.t.y.+.^ } :.1.6.6.7.6.6.6.6.7.t.6.8.6.6.y.8.6.6.8.6.8.6.8.6.8.8.6.8.6.6.6.6.6.6.6.6.6.5.5.6.6.5.5.6.6.6.6.6.6.7.,.6.6.6.,.6.6.,.6.6.5.6.5.,.8.5.5.7.5.5.5.6.6.5.,.6.5.5.,.5.5.5.5.5.,.,.5.:.5.",
",.,.<.,.1.5.+.Q R :.t.5.:.:.:.1.5.5.5.5.8.5.,.5.5.>.:.,.1.5.} +.8.;.^ X.+.+.:.;.;.5.8.5.+.:.8.5.:.V I 8.t.6.6.7.:.1.5.5.1.5.5.1.7.6.8.8.8.8.8.8.5.6.5.6.6.8.t.8.8.8.6.6.8.8.6.6.6.8.8.N y 1.7.t.8.8.t.8.t.7.:.;.5.8.t.8.8.8.6.8.t.8.t.8.t.6.7.5.6.6.5.t.>.>.5.>.6.5.6.8.t.t.t.t.8.u.t.t.u.u.t.t.t.t.t.t.t.t.u.i.t.t.u.t.s.8.8.8.5.8.t.u.8.8.t.t.8.u.u.8.t.6.8.8.1.5.X.8.u.t.8.t.t.X.^ +.5.s.s.s.t.p.s.t.p.7.5.8.1.<.<.<.p.a.p.a.a.t.<.<.<.p.t.7.t.y.!.y.s.q.m.yXAXmXnXbXgXgXkXkXkXkXkXkXnXgXgXgXbXeXgXbXgXbXnXnXnXMXMXnXgXwXwX8X1X1X3X0XwX9X6X6X1X1X6XwXfX6XF.b.*X1X#X6X<X5XY.oX0X6X<XdXpXgXhX%X(.n.*...8.8.p.p.8.u.+.[ ,.d.d.s.s.8.t.8.6.8.t.t.8.u.8.s.t.t.p.p.p.p.p.t.p.p.p.t.8.p.s.t.t.s.s.8.1.1.X.X.5.t.1.8.5.X.o.1.1.t.y.1.1.t.5.8.8.5.1.6.5.+.1.8.1.8.t.8.8.8.6.:.:.X.5.5.7.8.t.t.t.1.6.8.t.5.Q ,.8.8.8.6.8.8.t.5.5.t.t.8.8.t.6.8.8.8.6.1.1.5.:.+.:.,.t.t.6.7.t.6.6.8.6.6.6.5.6.6.8.6.y.6.8.6.8.8.8.8.6.8.6.6.6.6.6.6.6.6.6.8.5.y.y.6.6.6.6.6.6.6.6.6.6.6.7.6.6.6.6.7.6.6.6.5.5.5.6.5.,.6.,.7.,.6.5.7.5.6.5.5.:.5.5.:.5.5.5.5.5.5.",
";.7.,.<.<.1.^ :.X.! 5.5.5.5.:.5.5.5.5.5.6.5.6.6.5.>.>.:.1.1.X.+.>.:.+.} [ +.o.' ' :.<.7.1.:.5.5.1.1.x N 6.5.6.6.+.<.1.<.5.8.6.5.5.6.6.8.6.6.6.8.6.5.8.6.,.6.8.8.8.t.6.y.8.8.t.6.8.6.8.! r 1.y.8.8.6.7.t.6.:.1.:.5.1.5.6.8.6.8.8.8.t.t.8.t.8.5.6.8.6.,.t.6.1.s.5.+.+.+.+.1.5.5.8.8.t.t.t.u.8.t.t.u.8.t.u.t.t.t.t.t.t.u.t.s.8.i.t.5.8.u.t.t.8.5.t.8.u.s.8.t.8.s.5.X.8.:.1.t.s.t.p.t.t.6.+.X.<.6.t.t.t.t.p.p.7.<.5.<.3.7.y.p.p.a.7.t.t.7.<.7.t.<.p.w.a.a.d.0.m.zXFXmXkXnXwXeXgXgXkXkXkXgXgXeXeXeXeXwXeXeXgXeXwXgXbXgXnXnXgXgXqX0X9X;X=X=X;XQ.+X;X6X1X6X;XwXwXwXH.H.*X,XpX<X1X1X;XJ.0XkX*XdXhXqXdX<X XtXl.#.4.e.p.w.8.>.} | +.X.,.8.s.6.t.8.s.t.6.t.8.u.u.s.s.t.p.t.t.t.p.w.t.p.t.p.p.p.s.y.8.8.8.8.5.1.1.1.:.1.8.8.:.X.1.8.7.8.8.1.6.s.1.8.8.7.6.6.6.8.o.:.>.8.u.8.6.8.5.} +.:.5.7.>.1.7.t.6.1.6.8.t.6.' 5.t.8.7.t.8.8.5.8.t.8.8.t.8.8.8.8.8.8.8.1.>.8.6.6.:.+.:.6.i.8.6.t.6.6.6.6.6.8.6.6.6.6.6.6.6.8.6.5.6.8.8.6.6.6.6.6.5.8.y.5.6.6.6.6.6.6.6.6.6.6.y.5.6.5.5.5.6.6.7.6.6.7.6.,.6.5.5.5.,.6.6.6.6.5.7.5.5.6.5.7.5.:.1.,.5.5.5.<.5.,.5.1.",
":.;.<.,.5.' X.<.6.[ :.8.6.5.5.5.5.5.5.5.5.5.5.5.5.7.1.>.>.1.:.:.5.8.5.7.1.X.o.} ' o.' X.:.:.:.5.t.1.5.2 I 5.5.5.5.1.5.1.1.8.t.1.6.6.8.8.6.8.8.8.8.6.8.6.,.6.6.6.8.8.8.8.8.6.t.8.8.8.6.+.2 1.1.t.7.t.6.5.1.5.7.1.8.t.8.6.7.5.y.8.8.6.t.t.t.6.5.5.8.i.6.t.8.>.8.t.5.t.+.o.s.5.8.5.8.8.8.t.u.8.t.t.u.t.t.t.t.u.t.t.t.t.t.t.u.u.8.8.1.8.s.8.8.8.>.5.u.s.s.8.8.u.6.:.+.u.1.>.u.8.p.0.t.t.t.i.8.X.:.8.p.p.t.p.8.1.1.5.t.p.7.w.w.p.w.a.p.p.a.p.t.7.p.p.w.a.w.e.9.rXFXAXMXnXkXbXkXkXkXkXnXgXgXeXeXeXqXqX>X6X;X=X;X;X;X9XwXeXeXeXeX9X:X:X=X+X&XQ.U.H.P.Q.=X=X;XeXeX6XZ.Q.=X;X;X1X1X1X5XK.].fX8X}.jXhXsX2XJ.xX|.=.-.e.w.<.O.2.s.u.u.u.,.>.' X.i.s.s.u.i.t.8.p.t.8.t.s.s.p.p.p.t.p.p.p.8.p.s.8.s.p.t.5.s.6.1.7.5.1.6.8.t.X.} 1.1.5.t.8.1.6.t.8.7.5.t.8.8.t.8.8.8.+.o.t.s.6.t.5.6.X.1.5.s.t.t.5.:.6.t.>.6.i.8.t.' 5.8.t.8.8.t.8.8.t.8.8.t.8.8.8.t.8.8.8.y.:.5.t.8.8.6.5.>.} } >.5.:.:.>.6.u.8.5.8.y.y.8.8.6.8.6.8.y.8.5.6.6.5.y.8.5.8.6.5.6.6.8.6.5.6.,.6.6.6.5.5.5.6.6.5.y.7.6.6.,.6.6.6.7.6.7.5.5.7.5.5.,.6.5.,.6.5.5.5.,.5.5.5.5.5.,.,.5.<.5.,.5.",
"<.,.<.:.;.{ <.5.5.:.^ :.t.1.5.5.5.5.5.5.5.5.5.6.5.5.5.>.,.5.1.1.>.5.6.6.7.5.:.;.} :.} I I ' +.8.7.5.5.X.a N 1.t.5.5.:.5.1.1.6.8.6.5.6.6.6.6.8.6.8.8.6.6.6.6.6.8.8.8.8.8.8.8.8.8.6.6.t.;.1 :.6.8.5.8.8.8.5.6.6.>.8.t.6.8.6.t.8.8.t.8.t.8.u.6.5.5.t.t.8.s.u.5.5.s.8.t.5.+.>.6.6.8.u.8.8.u.t.u.u.t.8.u.u.t.t.t.t.t.t.u.8.t.u.8.8.8.1.1.6.8.6.t.1.>.u.u.t.u.8.t.6.>.:.u.>.>.u.8.s.8.s.t.8.8.8.s.>.' ' :.7.5.<.<.8.8.p.8.p.8.t.t.a.w.p.s.y.d.a.a.p.p.w.w.w.w.OXFXGXMXnXkXkXkXkXkXkXMXkXgXgXeXeXeXqX9X>X>X=X&XQ.Q.Q.=X9XqX9XqX>X>X=X=X;XXXW.R.R.R.F.S.U.=X>X6X9X>XZ.Y.=X;X6X;X1X1X1X3XK.dX3XL.3XjXhX%X}.vXsX|.-.-.O.:.8.w.s.8.u.u.u.0.,.,.,.8.t.s.8.8.t.t.t.i.p.p.t.p.p.p.t.p.t.a.p.p.p.s.t.8.t.8.5.:.1.1.1.8.5.8.1.X.:.5.5.8.8.6.7.8.t.5.5.8.t.8.t.t.t.t.t.5.^ t.t.s.8.8.6.o.6.5.y.8.t.6.1.1.6.>.t.t.6.5.' 6.8.8.8.t.8.y.8.8.8.t.8.t.6.t.8.8.8.8.6.;.1.t.6.8.6.6.6.7.+.o.1.5.,.+.o.>.6.y.8.8.6.8.8.6.y.5.6.6.8.6.6.6.5.6.6.6.6.6.6.6.8.6.5.8.5.5.6.6.6.6.6.6.7.,.6.,.6.,.6.6.6.6.6.6.7.5.7.,.6.5.5.7.5.6.6.5.6.7.,.5.5.5.,.5.5.,.5.:.5.,.5.1.",
",.7.<.;.^ ' 5.5.5.6.' [ 6.1.5.7.5.7.6.5.5.5.6.,.5.5.5.5.5.7.6.5.:.:.7.6.7.6.t.+.X.1.;.+.} I ' +.8.5.5.6.<.3 M 7.5.1.1.5.>.+.>.6.5.5.7.6.8.8.8.6.6.8.8.6.6.6.8.8.8.8.8.8.8.8.8.8.t.7.t.5.t ' 8.8.8.8.8.8.8.8.t.,.5.t.8.8.6.6.8.8.6.t.8.t.t.8.5.6.t.8.8.t.t.8.1.8.8.8.u.6.o.>.6.8.8.s.u.u.u.8.t.t.8.u.t.t.t.t.t.t.t.t.u.8.u.8.8.8.5.+.:.t.t.7.5.>.8.p.s.8.6.t.6.1.:.y.5.:.8.p.8.u.u.t.8.8.t.t.f.s.1.} +.1.Q 3.!.t.t.p.p.p.t.t.p.w.p.p.y.a.p.p.p.p.w.f.4.).HXHXMXMXkXkXkXkXnXMXnXMXnXnXbXgXgXgXeX>X6X;X;X>XQ.U.H.T.&X:X>X9X:X>X=X;X=X&X&X&X&X&XQ.H.R.R.;X;X6XwXH.R.6X;X6X6X1X<X1X1X,XG.{.,XC.dX%X}.pXpXiXDXV.` *.e.f.s.e.s.0.u.0.i.i.6.i.5.:.5.s.d.8.t.u.s.s.t.t.p.w.t.p.p.8.p.a.w.p.p.8.p.8.:.+.+.+.+.5.u.5.:.X.o.5.6.8.8.:.5.d.8.8.>.8.t.t.u.t.s.8.8.t.t.o.+.8.d.t.s.5.>.t.5.u.8.t.t.t.5.5.:.8.t.5.>.} 6.6.8.8.t.8.8.8.8.t.8.t.6.t.6.8.8.t.8.5.+.>.8.6.t.t.8.t.t.5.:.1.t.t.5.>.o.;.,.8.8.8.8.8.8.6.5.6.8.6.8.8.6.5.5.6.6.6.6.6.6.6.8.6.6.6.6.6.6.,.7.6.6.6.6.7.6.5.y.,.6.6.7.6.6.6.5.5.5.5.6.5.6.5.6.,.5.5.5.5.5.5.5.5.<.5.5.5.5.5.5.5.5.",
"7.,.,.7.X.;.;.;.5.7.,.} ;.6.5.5.5.5.5.5.6.5.5.6.5.5.5.6.6.6.6.5.1.:.5.7.5.:.X.+.^ I X.+.:.5.+.' X.[ 1.:.8.+.a M 8.1.8.1.1.+.:.1.>.,.6.8.8.6.6.8.6.8.8.6.t.6.6.t.i.6.8.8.6.y.8.8.t.7.7.i.I M 5.8.8.8.7.6.6.6.8.,.5.8.8.8.t.8.8.8.8.t.6.8.8.t.5.8.u.t.s.t.t.t.6.6.8.8.8.8.1.1.5.6.8.s.u.8.0.t.t.t.u.t.t.t.u.0.t.t.t.u.u.u.u.t.u.u.8.1.1.t.i.6.6.7.s.s.i.t.8.s.6.1.1.s.8.+.5.s.8.s.8.8.t.t.8.8.t.i.d.t.5.O.7.8.<.a.p.p.p.t.p.t.p.w.p.a.y.y.i.y.p.p.d.4.^.DXHXVXMXbXgXgXkXcXMXMXMXnXnXbXbXgXeXqX9X:X>X9X:X&X;X>X6X&XR.R.&X;XW.W.R.;X=X=X&X&X=X=XR.U.R.+XQ.+X;XeXR.Y.6X1X1X;X;X;X<X*X,Xb.J.8X2XA..X{.iXuXsX'.(.n.j.r.q.u.u.s.i.u.i.u.8.,.8.u.t.1.+.1.8.t.t.8.8.t.p.t.t.t.p.t.t.a.t.8.8.7.5.1.:.1.1.<.+.1.8.8.:.<.:.6.8.t.s.8.6.5.s.8.8.:.8.u.u.t.t.y.8.t.t.t.t.^ t.t.t.t.1.5.8.8.8.t.t.8.t.t.:.o.6.1.5.5.' 7.6.6.6.8.t.8.t.8.t.6.6.t.8.t.t.8.t.8.5.+.5.6.t.8.t.6.t.5.t.t.1.1.6.6.5.>.,.6.8.8.8.8.8.6.6.y.8.6.y.5.8.6.8.5.6.6.y.5.6.6.y.8.5.6.5.5.8.5.6.6.6.6.6.6.,.6.5.6.6.7.,.6.6.6.7.7.,.6.5.6.5.6.7.,.5.6.5.6.5.5.5.:.,.5.,.5.,.5.5.5.:.5.",
":.,.7.;.' 1.5.;.X.:.5.:.} 7.1.5.5.6.5.5.5.5.5.5.5.5.5.7.5.5.6.5.6.>.>.5.;.+.:.Q } <.5.1.:.:.s.t.;.:.! X.:.8.Q 1 +.5.>.1.5.1.>.>.:.5.6.6.6.6.6.8.8.8.6.6.,.8.8.8.8.8.8.8.8.8.8.8.t.6.6.t.;.r :.8.t.8.6.8.8.6.t.5.7.8.t.6.8.8.8.8.8.t.t.t.8.8.6.8.u.u.u.t.t.t.8.1.8.t.t.8.8.6.5.6.8.8.t.u.t.t.t.t.0.t.t.t.8.u.t.t.t.8.8.u.u.t.t.u.t.8.5.6.8.t.6.5.8.8.8.t.s.8.1.1.5.8.u.1.5.s.8.8.5.8.u.8.t.s.p.p.d.a.a.<.<.7.<.p.w.p.p.a.p.t.w.p.p.p.d.y.a.s.s.s.p.l.DXFXCXVXkXkXgXjXgXcXkXMXnXMXnXgXgXeX9X9X:X;X6X;X:X6X>X=X;X>X=XW.R.U.R.F.H.9XT.XX&XW.&X=X&XR.Y.*XU.Y.0XeX[.Y.6X6X8X1X1X1X<X1X}.jXL.{.#XA.{.B.2XjX'.%XzXrXl.-.q.u.u.i.i.8.i.u.i.6.t.t.s.s.1.1.8.8.8.8.t.t.p.t.t.p.t.p.p.8.w.p.8.1.>.:.+.8.6.7.8.5.5.1.:.1.5.8.8.8.8.8.s.5.5.p.6.1.8.t.s.8.8.t.t.8.8.8.t.} 5.8.8.5.5.8.8.8.t.8.t.t.t.t.:.o.5.<.5.1.^ 1.8.8.7.6.8.8.8.t.6.t.8.8.t.8.8.t.8.8.1.+.8.7.t.8.7.8.8.5.8.t.1.:.u.6.6.,.,.6.8.8.8.6.y.8.6.8.6.8.8.5.6.6.6.6.6.6.5.6.6.6.5.5.8.6.8.5.5.6.6.6.7.,.6.7.6.6.5.6.5.6.6.6.7.,.5.5.6.5.7.,.6.,.6.6.5.6.5.5.5.,.5.1.5.5.5.<.5.5.<.,.5.5.",
",.,.5.X.} 1.1.1.1.+.+.1.' :.5.5.6.5.5.6.5.5.5.5.5.5.6.5.1.5.5.>.7.:.X.;.o.+.+.+.6.1.5.>.:.:.:.:.t.5.:.<.} X.R - U 8.5.5.1.1.+.} X.1.5.8.5.5.6.8.6.8.6.8.7.6.t.t.8.8.8.y.6.8.8.8.6.8.t.7.5.r ^ 8.8.8.6.8.8.6.8.6.8.8.8.8.t.7.8.8.8.6.8.t.8.8.6.8.t.t.t.t.t.8.8.1.5.8.s.t.t.8.>.6.t.u.8.u.8.u.t.t.0.u.u.8.u.t.t.t.t.t.t.t.s.8.8.i.8.5.1.5.8.8.5.5.5.5.8.8.d.8.>.5.6.8.s.8.8.6.1.7.5.8.t.8.t.8.u.u.t.s.s.8.7.8.3.5.5.w.a.a.a.8.p.p.p.p.a.a.a.p.p.8.u.tXGXGXMXjXMXgXkXgXkXcXMXnXMXnXnXgXqX5X1X4X4X4X-X:X:X:X:X:X:X-X=X=X=XS.S.P.P.W.T.W.W.=X=X&X=XR.G.K.G.K.gXfX[.[.qX5X<X;X,X*X*X+X,X,X+XN.+XaX@Xx.].A.+XGXuXzX'.j.0.i.i.i.i.i.,.!.t.,.u.d.i.8.t.u.t.8.8.t.p.p.p.p.p.p.7.a.a.7.w.a.w.<.+.1.1.7.5.8.s.6.o.5.5.5.6.8.8.6.5.t.7.>.5.8.5.1.8.t.s.6.5.6.6.8.8.8.8.:.} 8.8.1.8.u.6.t.8.t.s.t.t.t.>.:.1.1.6.>.^ 1.8.t.5.5.6.8.t.t.8.8.t.8.8.8.8.t.t.6.>.:.t.8.y.8.6.8.8.8.8.8.6.,.8.6.y.5.,.6.t.6.6.8.8.6.6.8.8.6.6.6.6.6.6.6.6.6.6.6.5.8.5.8.y.6.7.6.,.6.7.6.6.6.6.6.6.6.y.,.6.6.6.7.6.6.6.5.6.6.5.6.6.5.5.5.5.5.7.5.5.5.5.,.1.1.5.5.5.,.5.5.:.5.",
"5.,.:.' :.1.7.1.5.5.:.:.' Q +.5.5.6.6.,.7.5.7.5.5.5.6.5.5.,.>.>.5.>.} } 5.' } 1.t.1.5.5.5.1.:.:.;.5.6.:.+.1.} r y 1.5.6.5.7.5.+.;.:.:.8.5.1.5.7.1.8.5.8.6.6.6.6.t.6.8.8.8.8.8.8.8.8.6.6.6.M r 7.8.8.8.8.8.8.8.y.8.8.8.8.6.t.8.8.t.t.8.t.8.t.8.t.t.t.t.0.8.t.u.s.5.5.8.8.8.8.8.5.6.8.u.u.u.8.u.t.t.8.u.u.t.t.t.t.t.t.t.t.8.t.p.t.t.t.1.5.8.8.1.o.:.8.t.t.s.5.8.t.8.t.t.s.8.+.1.8.8.8.8.t.t.t.u.t.s.i.p.t.8.p.a.7.+.<.7.7.8.p.w.p.p.a.a.a.p.p.e.*./.FXAXCXbXkXgXgXkXkXgXcXMXMXMXnXnXdX5X1X:X4X:X-X:X:X-X-X:X:X:X-XW.U.U.T.U.P.P.I.I.U.W.=X&X;XW.R.I.[.gXY.<XnX+X{.jXdX*X3X5X3X,X,X1X#XnXfXB.#XbXJ.N.#XfXjXuXsXxXN.l.q.i.l.q.i.,.i.y.>.6.u.u.u.u.8.t.u.t.6.8.p.t.p.t.p.p.p.t.p.t.t.7.7.X.7.p.t.p.8.s.8.1.p.6.t.6.p.t.1.6.t.8.1.8.8.5.5.8.s.t.5.1.6.6.8.8.6.6.8.^ 5.1.7.t.8.8.t.8.t.u.t.t.t.1.>.;.8.1.5.X.<.t.8.t.8.5.6.8.8.8.8.6.t.t.8.8.8.t.6.>.7.t.8.8.8.8.8.8.8.8.8.8.8.8.8.6.6.7.6.8.8.y.6.6.8.8.6.6.8.8.6.6.6.6.8.6.5.8.6.8.6.8.6.,.6.6.8.6.6.,.6.6.,.6.6.5.6.,.6.7.6.,.6.6.,.5.7.6.,.5.5.5.5.,.7.6.5.,.5.5.5.5.,.5.5.5.:.5.5.1.5.5.5.",
"y.:.:.X.5.>.1.1.1.5.1.5.:.' ^ +.5.5.5.5.5.5.5.7.5.5.6.5.5.1.5.5.>.6.6.} 5.x ;.:.6.>.8.6.8.8.5.1.:.+.:.5.1.>.1.} 1 I 5.7.6.t.8.1.:.:.+.1.1.5.1.1.1.1.8.7.6.6.6.8.6.8.8.8.8.8.8.8.8.8.7.t.8.' - :.6.t.6.8.8.8.8.8.8.8.t.6.8.8.8.8.t.6.8.t.t.t.t.t.t.8.u.8.u.t.8.u.8.1.1.8.s.8.s.u.6.6.u.8.u.8.t.t.t.t.8.u.t.t.t.t.t.t.t.t.s.8.0.t.t.y.6.6.5.8.8.1.5.t.t.t.6.8.8.8.t.t.t.6.8.6.6.8.u.t.8.t.t.t.t.u.p.p.p.d.7.8.a.7.p.5.<.3.t.t.e.s.p.a.t.a.p.e.9.l.SXGXMXMXnXfXgXgXkXkXkXkXkXMXnXMXkXwX3X5X1X;X-X:X;X:X-X:X:X4X:X:X=X&X&XeX;XW.W.T.S.S.F.P.=X=X*XY.B.v.L.*X{.kX}.,XhX3XdX5XhXgX8XdXnXnXNXnX$XN.J.2XA.#XjXjXsXVXmXrXl.l.l.,.i.y.!.y.7.>.6.s.u.u.u.8.t.t.u.t.8.t.p.t.p.p.p.7.p.p.t.<.t.a.<.8.s.y.s.s.8.8.8.5.t.8.t.s.t.1.>.8.t.1.6.t.5.t.t.s.8.1.5.8.8.s.p.s.8.t.+.I 8.t.t.8.6.8.u.t.t.8.t.8.:.1.1.5.:.5.;.1.t.8.t.7.8.8.6.8.t.t.8.8.8.y.8.8.t.5.6.6.8.8.8.8.y.8.8.8.8.8.8.8.6.5.8.5.6.6.8.8.8.8.8.6.6.6.6.6.6.6.6.6.6.6.6.6.5.8.8.5.6.6.6.6.6.6.7.5.6.6.6.7.7.,.,.5.5.8.,.6.6.6.7.6.6.7.6.6.6.5.5.5.6.5.5.6.5.5.5.,.5.5.,.5.5.5.5.<.,.5.,.5.",
":.:.X.' 7.5.>.1.1.1.1.1.1.1.o.} o.>.5.5.5.5.5.5.6.6.5.7.5.5.5.6.1.6.6.} 5.R O.5.:.5.6.6.8.8.6.6.5.1.:.:.>.5.+.1.I 1 ' 7.7.6.8.8.5.} 1.:.X.8.:.1.:.+.8.6.6.6.t.6.8.8.8.8.8.8.8.8.6.6.6.6.8.>.; ^ 8.6.6.y.8.8.8.8.8.t.8.7.t.6.8.8.t.6.8.8.t.u.t.t.8.t.8.u.8.t.u.t.8.5.1.5.s.s.8.s.8.8.s.8.u.u.u.t.t.t.u.u.8.t.t.0.8.u.0.s.8.s.u.8.t.t.8.5.6.t.8.u.t.8.t.t.1.8.8.8.8.5.5.5.8.s.s.s.t.t.t.t.t.u.u.t.t.p.t.p.8.5.5.7.p.p.p.8.7.<.w.8.t.y.a.7.d.w.9.).HXAXMXbXbXkXbXbXnXnXnXMXnXkXnXMXnXwX;X;X5X-X:X:X:X-X:X:X:X:X:X:X:X:X>X;X&XW.W.U.F.c.c.b.b.F.F.Z.K.*X[.].B.G.J.J.kXkXjX3XnXMXkXMXnXnXnXfXjXv.L.jX}.`.cXaXsXmXxXCX/.l.l.i.q.i.i.,.8.6.u.d.s.s.u.t.u.u.t.t.t.t.t.p.p.p.7.p.<.7.t.8.8.7.5.a.u.t.t.t.s.6.6.5.8.t.t.t.8.5.:.7.8.1.8.6.5.8.t.t.6.+.5.8.p.8.u.8.8.8.8.^ o.d.6.8.i.8.t.8.t.t.t.5.o.5.8.1.1.5.1.1.t.6.8.7.8.8.8.t.8.8.t.8.8.8.8.t.6.6.t.t.8.8.8.8.6.8.8.8.8.8.8.6.8.8.6.8.8.6.8.8.8.8.8.6.y.6.6.8.6.6.6.6.5.y.6.5.8.5.5.y.6.6.6.6.6.6.6.6.6.6.6.6.6.6.y.,.5.5.6.7.6.6.6.6.6.,.6.6.6.5.5.5.5.6.7.,.5.5.5.5.<.5.5.5.5.,.,.5.5.5.<.5.",
";.:.X.Q :.1.:.1.1.>.5.1.>.1.5.1.X.X.:.5.5.5.5.5.6.6.5.7.6.6.6.7.6.t.:.+.1.:.! t.1.7.5.6.5.7.5.5.5.7.6.>.:.1.8.+.} a 2 +.5.6.t.t.8.5.:.+.+.:.:.7.1.1.6.6.t.7.8.t.8.8.8.8.y.8.8.8.6.6.8.t.t.7.x c 8.6.8.8.8.8.8.8.8.8.8.8.8.8.8.8.6.6.6.6.8.t.8.8.7.8.t.t.t.u.8.u.6.8.6.5.8.d.8.8.t.t.t.u.0.t.t.t.t.t.t.t.t.t.t.u.u.u.0.t.8.u.u.u.t.8.t.1.5.8.5.t.8.1.t.t.1.8.8.5.5.5.6.t.u.u.s.s.u.s.t.t.s.u.u.t.p.p.p.t.d.<.<.t.7.p.p.7.5.8.6.8.w.a.a.a.3.r.m.FXHXCXkXfXgXbXbXbXnXnXnXnXnXnXnXMXMXgX*X1X5X;X:X:X:X:X:X=X:X:X:X:X:X>X:X=X-X=XW.&X&XE.F.c.S.E.[.R.1X{.3XhXdXjXh.N.pXcXdXdXkXMXnXnXnXbXjXnXpXJ.7XnX#XB.mX2X%XZXAXVXDXM.-.r.6.t.i.y.7.t.y.s.p.p.t.t.u.u.8.8.y.u.t.p.p.7.7.t.%.<.7.p.t.1.:.5.5.8.6.s.d.>.>.6.s.d.u.8.t.8.>.6.6.5.>.1.7.t.t.8.6.1.6.8.8.8.8.t.:.t.t.5.! +.d.i.5.t.8.t.t.t.t.1.} t.>.:.6.t.5.1.6.6.8.6.8.8.5.8.t.t.8.8.8.8.t.6.8.t.t.6.6.t.8.8.8.8.8.8.8.8.8.y.t.8.6.8.6.6.8.6.8.6.y.6.6.8.6.8.8.5.6.8.8.8.5.6.5.8.5.8.6.6.6.6.6.5.6.6.6.,.6.6.6.6.6.7.6.6.6.5.6.7.6.6.6.6.7.,.7.6.5.6.7.6.6.5.5.5.5.5.5.7.<.<.5.5.5.1.5.:.,.5.",
"x ;.:.} +.:.5.1.5.1.1.1.>.:.>.5.5.+.} +.,.1.5.5.5.5.5.5.5.7.6.6.8.6.7.1.X.:.' ' 5.5.5.5.6.8.5.5.1.:.5.8.5.:.:.:.;.I : N >.t.6.5.8.t.>.:.} +.:.;.+.8.1.5.5.6.6.6.8.8.8.8.6.6.8.8.t.8.6.6.7.7.I r 6.8.8.6.8.8.8.8.8.8.8.8.8.8.8.t.t.6.6.6.8.8.8.6.1.6.t.8.8.u.u.8.8.6.8.8.5.t.s.8.8.s.s.8.u.8.t.t.t.u.t.t.u.8.u.8.u.8.t.t.t.t.8.u.t.8.8.1.+.:.8.8.t.6.5.1.t.t.8.+.+.8.u.s.s.u.8.s.s.8.s.t.u.t.t.u.p.p.p.s.p.5.7.8.8.p.a.w.p.p.t.t.a.a.w.w.w.4.).HXFXkXfXdXgXnXnXbXbXbXnXnXMXnXnXkXkXqX1X1X:X4X:XoX:X-X-X-X:X:X:X>X>XqX>X-XW.W.W.=X=X:X;X=XT.H.K.b.B.K.kXhXpX{.oXC.CXhX,XdXkXkXMXMXnXnXnXkX7XJ.aXfX7Xx.`.%XaXmXAXVXFX|.=.e.q.t.t.y.t.t.t.y.t.t.7.8.8.6.7.t.t.u.t.p.p.p.t.7.<.7.5.<.7.8.5.5.+.1.>.8.s.+.1.1.5.8.t.u.t.7.5.5.8.6.} +.t.t.8.8.t.t.8.s.8.t.t.t.t.5.8.8.5.Q o.6.5.5.t.8.t.8.7.+.' t.+.7.1.6.7.5.6.7.t.6.5.6.8.8.8.8.t.8.y.8.t.8.6.6.6.6.8.8.8.8.8.6.8.8.8.8.8.8.7.6.t.6.8.8.6.8.6.8.6.8.8.6.8.8.6.6.6.6.5.6.6.5.y.5.8.8.6.6.5.y.8.5.6.5.7.7.6.6.,.7.6.6.6.6.7.6.5.7.,.6.6.6.6.6.5.5.6.5.,.6.5.5.5.5.5.<.,.5.5.5.,.1.5.5.5.5.5.,.",
"[ I I I 7.1.1.1.5.1.5.<.X.;.,.7.8.1.1.:.o.:.1.5.>.6.5.5.5.5.5.6.7.6.8.5.:.<.o.R :.t.>.5.6.8.6.5.1.1.1.5.5.8.5.8.1.} Q 2 R 5.t.y.5.6.5.1.X.} 5.' Q 1.1.7.5.6.6.7.8.y.t.8.u.8.6.y.8.8.t.6.8.i.} 1 ,.6.8.t.>.5.7.6.8.6.8.y.8.8.t.8.6.8.t.5.5.u.6.5.o.8.t.8.8.t.t.t.d.8.6.8.u.t.s.8.8.t.8.u.u.u.8.u.t.t.0.t.t.u.i.t.t.t.t.t.t.t.t.p.u.u.8.t.1.+.t.5.8.s.1.} 1.:.5.:.1.d.t.8.u.y.s.s.s.t.p.p.p.p.s.p.p.p.p.p.8.t.p.w.a.p.p.p.p.p.w.p.a.7.a.w.4.l.BXHXmXjXhXgXnXnXnXbXgXnXgXbXbXbXwXfXwX0X5X1X:XoX:X:X:X-X:X-X-X-X>XqXgXgXqX:XoXoXoXW.W.W.T.U.T.U.G.c.h.B.+XkXjX}.}.N.MX<X{.dXkXgXnXnXnXkXkXMX].A.jXfX{.A.$X$X.XxXZXZXFXOXj.*.6.i.i.i.t.t.w.w.8.7.5.<.7.t.t.t.t.p.p.p.p.p.t.a.7.<.a.5.1.+.1.5.5.+.^ } +.1.1.1.o.+.>.8.t.1.5.6.u.>.5.>.5.6.5.8.s.i.6.t.u.t.t.t.t.:.1.8.7.1.^ V ^ 1.s.8.t.5.:.o.' ' +.s.6.t.5.1.6.6.t.5.5.8.8.8.8.8.8.5.5.u.6.8.8.6.t.t.t.6.6.6.8.8.y.6.6.8.8.t.8.6.8.6.8.8.8.6.y.6.8.6.6.y.8.5.8.5.6.8.6.8.6.6.5.6.5.8.6.6.5.6.y.,.6.6.6.6.6.7.6.7.6.,.7.6.,.6.6.6.7.6.5.5.6.6.8.5.5.5.8.8.5.5.6.6.5.5.5.,.,.5.5.5.1.1.5.5.,.,.",
",.;.U x ! X.,.>.:.:.1.1.} :.7.7.5.5.5.1.:.+.' :.5.6.5.5.5.5.8.y.6.6.7.5.t.;.8.' ^ 1.6.1.5.5.1.5.5.5.1.1.5.6.7.5.7.1.:.s U +.+.>.t.>.6.7.1.:.+.X.I X.1.7.5.5.8.t.8.6.8.6.6.8.6.6.8.6.8.8.6.t.o.1 X.y.8.8.6.>.5.t.6.6.t.6.8.8.t.8.6.t.6.1.5.8.1.1.>.8.t.t.t.t.8.8.8.8.6.6.6.8.8.6.t.t.t.t.8.u.u.u.t.t.t.t.u.8.8.t.t.t.t.t.t.t.t.t.u.t.t.s.8.:.s.1.8.t.<.X.<.t.t.8.8.t.t.6.1.1.5.8.8.p.p.p.t.s.p.t.p.p.p.p.7.t.p.p.p.p.p.p.p.p.w.w.a.a.p.w.*.).ZXZXjXgXgXgXkXgXgXfXgXwXgXeXfXwX0X8X6X9X4X4X4X4X:X;XXX-X&X-X:X>X9XqXqXqXqX5X:X-X-XoX&X&X>X=X;X*X*X+X+XZ.v.L.,X].3XN.uX#X].3X0XdXkXMXgXMXcXMXB.Z.mXmXx.A.GXVX.XA.7XxXxXFX^.=.r.7.y.!.y.8.3.2.8.t.8.w.t.8.7.t.t.t.p.8.t.7.<.7.7.<.<.<.<.X.:.:.:.:.+.X.o.6.8.i.8.1.1.1.5.:.>.1.1.:.u.5.t.:.1.t.7.5.6.8.t.u.t.8.8.5.5.8.7.<.5.:.Q I ^ +.5.1.} U N ' 1.t.t.8.5.>.t.6.5.:.5.t.8.t.8.8.8.5.,.8.8.8.t.6.6.6.6.t.8.8.8.8.6.8.8.t.6.7.6.8.8.8.8.6.8.6.5.6.6.8.6.5.8.8.8.8.5.8.8.6.8.8.6.5.6.8.6.6.6.6.6.6.6.6.6.6.6.,.6.6.6.7.,.6.6.6.6.6.,.5.8.8.6.6.,.8.y.5.7.,.y.,.7.,.7.7.,.5.5.5.,.5.7.1.,.5.7.7.",
"7.7.:.;.} R R Q } ;.<.<.X.<.7.7.5.5.8.5.1.5.' ' I ' o.:.:.7.5.1.5.t.6.5.7.7.5.t.X.Q :.6.5.5.5.5.6.6.5.5.5.5.5.5.>.5.' a ! 5.:.;.1.7.8.:.5.s.1.:.o.1.+.1.8.8.8.8.6.8.8.5.7.8.8.6.8.8.t.7.<.6.8.3 D 8.8.5.6.,.5.t.5.8.s.8.6.8.8.8.t.8.5.6.7.6.5.:.6.8.8.8.t.t.t.8.8.p.8.6.5.6.6.8.8.t.t.t.t.t.u.8.t.t.8.u.0.t.6.t.u.t.t.t.t.t.u.t.t.s.s.t.t.5.5.8.s.:.:.8.t.d.1.1.d.s.t.t.5.1.7.8.w.t.p.t.p.p.p.p.p.t.s.p.8.p.a.s.p.p.p.p.p.p.w.p.a.a.y.w.9.zXZXjXfXgXgXgXfXbXwX0X8X0XwXwXwXwXwX9X6X=X;X9X9XqX:XoX:X-X-X:X>X>X>X9XqXqXgXqXqX5X5X:X=X=X-X;X6X+XG.6XwXwX8XZ.v.x.{.A.2XL.A.dX+X8X0X<XhXjXjXMXv.,XcXhXx.$XpXaXmXmX7X2XiXlXtXr.r.w.a.y.7.5.2.4.p.d.d.p.a.8.w.8.p.p.p.8.7.7.7.7.t.w.<.<.<. .5.1.5.t.i.<.1.u.t.t.t.8.t.5.5.:.1.X.+.8.t.:.+.5.6.6.t.t.6.t.t.u.t.6.5.6.6.8.8.8.8.6.5.:.X.} ^ R U N M ! 6.6.6.8.8.>.8.t.>.:.1.6.t.6.6.5.5.:.>.8.t.t.8.t.8.6.8.y.u.6.6.6.t.6.6.8.t.8.8.8.6.8.6.5.8.6.8.6.6.5.6.8.6.8.6.6.6.6.8.6.8.6.6.6.8.5.6.6.6.y.5.6.6.6.8.5.6.5.6.6.6.6.6.6.6.,.6.6.7.,.7.5.7.7.8.7.1.7.y.,.5.5.7.5.7.5.1.5.1.5.5.1.5.1.5.,.5.5.",
",.,.,.;.X.;.;.^ ! M Q ' <.7.<.t.8.8.8.5.t.} V I t r - 2 r a a r r y s M R ' } ;.1.+.U U 1.y.8.s.t.8.8.8.7.,.7.:.R x ; x X.7.7.<.;.[ 5.8.1.8.d.:.>.8.6.:.<.5.8.8.8.6.6.,.5.8.8.6.8.6.t.6.:.:.t.y s 5.8.t.t.t.6.,.8.8.8.8.8.8.8.8.t.7.7.t.t.>.,.X.6.8.t.t.8.t.8.t.8.8.s.8.6.1.5.t.t.t.u.t.t.t.8.u.u.t.u.u.t.u.t.8.8.t.8.t.t.t.t.t.u.t.s.t.s.8.1.f.+.X.t.t.8.6.5.t.s.6.t.p.8.d.s.t.p.t.p.a.p.p.p.p.p.p.p.p.t.p.a.p.p.p.p.p.p.p.w.p.a.a.t.3.~.FXaXmXaXbXnXfXwXbX3X1X9X0XwXgXbXbXgXbXwX=X*XeXgXqXqX5X:X:X:X>X>X>X>X9X5XgXgXgXqXgXqX5X9X9X0XfX1X+X1X7XbXnXbXfX#XL.B.N.7XL.Z.8X+X8XdX0XdX}.hX#Xj.xXiXC.j.%XmXHXAXZXGXZXiXiXzXV.9.r.y.8.7.6.s.s.a.p.s.s.p.p.p.p.p.p.p.p.t.w.a.p.t.p.5.<.:.{ +.:.1.5.8.o.:.t.8.t.t.s.s.8.5.:.:.X.t.5.t.:.>.s.8.6.i.t.u.t.t.t.8.6.6.t.8.8.8.5.u.6.X.+.u.d.8.7.t.' N U :.+.6.i.u.+.7.7.5.6.5.6.t.8.5.8.5.:.1.i.6.6.8.8.8.6.6.6.6.u.6.t.t.8.5.8.8.1.8.t.6.6.8.y.6.6.6.6.8.y.8.6.y.6.8.6.6.8.6.8.6.6.6.8.5.8.y.6.6.6.5.6.6.6.5.5.6.6.6.6.6.6.6.6.7.6.6.6.6.6.7.8.7.<.[ ;.7.5.:.y.5.5.5.5.5.5.5.1.5.,.1.5.1.5.7.5.,.1.",
",.,.,.;.;.<.:.;.o.:.! c x V M I I I V M M x d x R } :.+.X.} } X.' ' ! R R V c x x d t 1 1 a I N I U Q ^ ' [ X.+.' x + ' 8.6.7.7.5.:.+.:.1.5.5.+.8.8.5.5.1.:.1.8.8.6.5.5.8.t.8.6.8.8.8.8.5.+.:.y s 5.6.8.6.8.1.+.:.7.8.8.t.8.8.8.6.5.>.t.t.:.:.} 5.t.8.8.t.u.8.t.8.8.t.t.8.:.:.8.8.8.t.t.t.8.u.u.t.t.8.8.t.t.t.6.8.8.t.t.t.t.u.t.u.t.u.u.s.s.1.d.X.:.8.8.t.5.5.t.t.8.8.6.7.t.p.t.t.p.p.p.p.p.p.p.p.p.p.p.p.p.p.s.p.p.p.p.p.w.w.p.d.a.w.4.OXFXuXhXdXbXkXgXfXwX6X8X6X0XwXwXwXeXeXgXeX,X1XeXgXeXgXqX:X>X>X9X>XqXqXqX9XqXgXkXhXqXhXgXwXdX0X1X+X8XdXbXbX7X7XpX2X#X'.g.=.B.L.#X].,XdXdXdXhX@XA.x.jX%XN.@XAXAXAXAXAXZXAXcX'.rX X-.4.7.y.y.y.s.s.p.p.p.s.p.p.p.p.p.p.p.p.t.t.t.7.7.y.5.8.<.:.y.t.5.1.1.X.1.s.8.t.u.t.t.t.1.} 1.:.5.u.>.5.u.1.6.s.u.8.t.t.8.8.6.6.u.t.t.t.8.8.8.6.1.1.1.5.1.7.5.' R I ' ! 6.8.8.>.5.5.8.t.8.6.t.t.8.8.5.} } 6.>.5.8.t.6.t.6.5.6.6.6.6.5.6.8.t.6.} :.8.6.6.8.8.6.8.8.6.8.6.8.6.6.6.6.6.6.8.6.5.8.6.6.6.6.6.5.6.6.6.6.6.6.6.5.8.6.5.6.6.6.6.6.6.,.6.,.7.6.8.7.:.^ x a s R :.y.:.,.5.5.5.5.1.5.,.1.5.1.5.5.1.<.5.<.5.",
",.7.7.7.O.;.:.7.;.X.R b r 2 x ' +.>.:.1.:.1.o.^ 8.5.6.7.5.5.5.1.:.:.1.1.8.1.6.1.1.1.;.o.o.} ' ! U N x a a a r 2 2 M + N :.5.7.7.t.6.t.>.X.:.t.+.5.5.8.5.5.1.o.:.6.6.5.1.8.t.8.t.8.8.8.8.y.1.;.r a 5.8.5.6.6.8.6.:.5.8.6.8.8.8.5.7.:.+.1.5.>.5.X.+.8.8.8.t.t.u.8.u.8.8.t.8.6.1.8.1.8.u.t.u.t.u.8.t.t.u.u.t.8.8.i.5.>.5.8.t.8.t.t.t.t.t.s.8.d.1.+.} 8.5.5.:.1.8.t.8.>.+.5.d.y.p.p.t.t.8.t.8.p.p.p.p.p.p.p.p.p.p.p.p.p.p.p.p.p.w.p.a.a.4.m.lXlX#XcXkXnXgXgXeX9X8X6X0X6X9X6X6XeXwXwXeX1X9X0XqXgXgXeX9X5X5X>XqXeXqXqX5X0XgXgXkXgXqX,XoX,X3XdXfXgXbXfXbXpX1X7XpXxXcX.XL L %XjXA.+X3XMXhXjXL.L.j.A.h.`.MXmXAXGXAXAXAXmXjX%XxX(.@.*.5.y.t.s.s.p.p.p.a.p.8.p.p.p.a.p.p.8.t.7.p.<.7.7.5.p.<.7.s.t.t.p.1.' 1.s.8.s.t.t.t.s.5.+.8.1.s.1.5.5.:.1.8.8.u.s.u.u.t.t.t.t.i.8.8.t.t.u.8.5.>.1.8.:.8.8.1.:.>.M Q ' } 1.:.1.t.7.t.8.t.5.t.6.8.t.t.} [ 6.i.6.6.8.t.y.6.,.6.t.6.t.6.t.5.6.t.>.' 5.t.5.8.8.8.6.5.y.6.8.6.8.6.6.8.6.6.8.6.y.6.6.6.6.6.6.5.6.6.6.6.6.6.6.6.6.5.6.,.6.6.,.7.7.6.6.6.6.6.7.;.^ M a t r 1 N 5.:.5.1.5.5.5.5.1.5.5.1.5.5.1.1.,.5.5.5.",
",.5.1.7.;.;.<.;.^ R ^ ^ a M X.5.5.5.1.5.7.:.:.' 5.1.1.5.5.<.5.:.;.:.,.1.1.7.6.5.7.5.:.5.5.8.6.8.t.t.t.t.6.5.>.:.' a 1 r ' 5.1.8.6.t.7.8.7.} } ^ 8.8.6.8.6.6.1.:.X.5.+.7.t.6.7.t.6.7.8.8.t.t.:.x 2 6.t.8.8.8.t.t.8.1.5.8.8.5.8.6.8.8.5.X.1.t.8.6.' ;.5.5.8.5.8.t.t.t.8.8.t.8.6.>.1.5.8.8.u.s.t.t.u.t.t.t.u.8.6.8.t.6.1.5.6.8.t.u.t.t.t.p.8.s.t.I +.t.6.6.5.:.1.8.8.1.1.6.5.5.5.<.<.<.5.5.p.p.p.p.p.s.p.p.p.t.p.p.p.p.s.p.p.a.w.p.y.u.q./.DXuX.X0XgXgXwXwX0X0X6X6X>X6X6X6XwXwXwXwXwX;X;XgXgXgXgXgXqX>X>X9X>XqXqXqX5X0XgXgXdX0X8X3X1X8XnXMXkXjXNXfXMXNXAXjXjXjXGXCXuX=.Z.7X}.pXoXhXcX}.iXiXC J.FXiXCXMXCXGXZXAXAXmXuXxXaX@Xj.@.4.u.s.s.p.p.p.p.p.p.p.p.p.p.p.p.8.8.t.a.t.7.7.p.8.a.<.8.s.i.s.t.t.+.o.6.s.8.t.8.i.d.5.6.+.' :.+.t.8.5.8.8.s.u.t.t.t.u.t.t.t.8.6.5.5.1.5.>.t.6.1.t.:.1.,.:.y.i.>.M >.:.! } +.1.6.t.6.6.5.8.5.t.8.i.o.5.u.t.8.8.8.8.8.6.5.6.6.6.6.8.t.6.t.5.i.] X.y.6.6.8.8.8.8.6.8.6.6.y.6.6.6.8.8.6.y.6.6.6.8.6.6.5.5.5.y.6.7.5.6.8.7.5.7.5.7.7.5.1.5.<.1.,.5.:.X.^ ! ^ M r a 2 : 1 s ;.1.7.1.5.7.5.5.5.5.5.5.1.1.7.5.5.1.5.",
"5.5.:.X.{ ~ Q ' ' o.o.I I R Q X.:.:.5.5.5.7.:.! :.5.1.>.1.5.o.o.:.7.8.5.>.>.>.5.1.1.5.8.5.5.5.7.5.5.6.5.5.1.7.5.5.<.Q r 1 U ,.5.5.1.5.:.:.' U b +.7.5.6.7.8.5.1.;.] ^ 5.8.5.t.8.8.8.8.6.6.6.1.d r 5.5.6.8.8.t.t.y.8.1.6.6.8.5.5.t.5.1.1.1.8.t.t.+.} 1.5.:.5.t.t.8.u.8.8.8.t.t.5.<.:.1.t.t.8.t.t.u.t.u.t.8.t.8.t.t.5.6.8.8.8.8.8.t.t.i.s.t.t.t.' :.t.6.1.d.>.1.8.5.t.8.s.t.t.t.t.8.8.w.7.8.p.p.p.p.s.p.p.p.s.p.p.p.p.p.p.p.p.p.p.0.u.q.OXvXuX,X3X0XqX0X0X9X6X;X6X6X6X>X6X>X6X>XwXqX1X1XeXgXkXgXgXgX9XqX:X>X>X:X9XqX5X5X,X0XfXbXfXjXjXMXMXMXMXAXaXAXmXNXMXCXCXAXZXmXC.g.C.sX.XiXhX{..XsXuXP xXFXiXxXFXCXGXZXAX%XaXMXpXpX$XV.` 9.s.s.s.p.p.p.s.p.p.p.p.p.p.p.p.d.p.t.7.7.7.8.p.a.w.+.t.t.t.u.t.8.:.:.:.6.y.8.8.s.t.:.6.+.! +.1.8.6.8.t.t.u.t.u.t.t.8.t.t.u.8.8.7.6.5.5.5.1.:.1.5.+.5.5.5.t.t.6.R >.X.+.8.5.+.+.>.6.6.t.6.5.t.8.8.X.5.t.8.8.8.8.8.8.6.5.6.8.8.6.8.6.7.7.t.6.} Q u.6.5.6.8.6.6.8.6.8.6.6.6.y.6.8.6.8.6.6.6.,.1.t.6.5.8.7.5.6.,.5.7.6.7.5.5.5.5.1.,.:.:.X.} I I a t r x c s a r 1 1 : 2 y I :.6.1.1.5.7.7.1.5.1.5.2.1.<.1.5.5.",
";.! I I ' } X.X.;.:.:.M } 1.} +.+.X.+.} :.<.1.' o.1.1.7.1.o.o.1.7.7.6.6.6.5.>.>.:.+.>.:.:.1.1.1.6.5.1.1.5.6.5.6.7.7.7.} r + c } +.;.>.;.5.5.<.} U +.8.1.>.1.:.8.8.:.} +.t.t.5.8.8.8.8.6.6.6.8.x 2 5.6.8.t.8.8.t.t.t.t.5.1.1.5.5.8.+.<.6.1.8.t.i.6.} ' :.5.8.6.6.8.t.8.8.8.8.u.8.5.:.:.t.s.t.u.t.t.u.u.t.t.t.8.8.t.1.5.8.8.8.8.t.t.t.s.t.t.t.p.+.:.t.t.5.i.1.1.1.1.t.s.s.t.t.w.a.a.t.p.p.p.p.p.p.p.p.p.p.p.s.p.p.t.s.p.p.a.p.p.a.s.r.9.OXzXcX3X-X,XeX9X9X6X6X;X=X6X>X6X6X>XwXwXwXeX4X5XgXgXgXkXkXqXqX9X:X:X-X=X=X,X1X1XfXgXNXMXjXjXMXMXAXNXMXAX7XAXjXAXAXAXAXAXAXaX`.sXN.2XiXpX].{.GXGXC.N.DXFXlXsXAXAXaXAXmX@XaX{..XaX$XrX=.-.e.s.s.w.p.p.p.p.p.p.p.p.p.p.p.p.p.p.p.7.<.w.8.a.p.<.d.t.8.s.t.1.+.5.+.:.u.u.1.t.X.5.7.:.} :.5.8.5.8.t.t.t.t.t.t.t.u.0.8.u.u.t.8.t.8.8.u.8.1.>.t.>.6.t.6.8.t.6.I 7.>.>.8.5.1.5.+.X.6.6.5.1.5.8.1.X.6.8.6.8.t.6.8.8.6.5.6.6.6.6.t.5.t.:.:.' U ' i.6.y.6.6.6.5.8.6.8.6.6.8.6.8.6.6.8.6.,.y.8.5.+.[ Q I I I Q Q ^ Q Q Q I I Q U I x a a r r r r I ' X.' I x a r r 3 y r r 1 a R +.4.1.5.6.1.2.1.<.5.2.1.1.5.2.",
"[ Q ' :.1.1.7.<.1.:.1.N ;.8.:.:.>.1.7.<.o.o.;.' Q <.5.:.X.+.:.8.8.7.5.7.6.7.,.5.:.;.:.;.:.:.1.:.5.7.6.8.6.5.5.:.:.+.;.:.! 2 - r ' >.7.5.t.6.t.8.:.Q ^ :.6.5.1.6.5.t.t.:.+.5.8.8.8.8.8.t.8.7.8.y r 1.t.8.6.8.8.8.t.8.t.t.t.:.+.:.8.1.5.8.1.5.6.8.8.1.' ' 6.6.>.5.8.8.t.t.t.u.s.8.8.5.:.6.t.t.t.8.8.8.t.u.u.s.8.8.u.6.>.6.8.u.u.8.5.8.8.t.8.8.8.+.X.8.7.7.t.5.+.:.t.t.u.u.8.7.8.p.t.8.p.d.p.p.p.p.p.p.p.s.t.w.p.p.p.p.p.p.8.w.t.t.u.e.z.DXxXjXgX0X].5X9X5X6X6X;X=X=XQ.=X=X=X>X>XwXeX4X5XgXgXgXkXkXqX:X4X5X:X;X;X-X;X0XgXgXbXnXMXjXjXsXsXjXaXjXMXaXmXmXAXCXCXAXCXGX%X'.GXsX`.C.`.'.zXcXFXj.N.FXFX.XxXZXAXAXaX'.`.rX2XpXAXjXlXj.9.e.e.p.p.p.u.w.p.s.w.p.p.p.p.p.p.t.t.t.p.<.7.1.8.p.1.p.t.8.s.t.1.:.t.1.X.5.8.t.7.+.:.1.o.:.>.+.7.5.6.8.t.t.t.t.t.t.t.t.t.t.t.8.t.t.t.t.8.u.8.X.t.5.>.8.t.8.t.>.U 8.>.1.5.5.7.6.X.I 8.6.6.1.+.5.:.+.6.t.8.8.6.6.t.6.6.6.6.5.5.6.6.:.6.1.} ^ M M 5.6.6.6.6.8.y.6.8.6.6.8.6.8.6.y.6.6.6.y.5.Q c M c M I M x x a a a t r r r t s x x M I ! [ ;.:.5.y.6.5.X.R c s s a s y r 1 @ , x ^ X.,.6.5.1.&.1.1.1.&.<.1. .",
",.;.;.7.5.1.1.5.7.5.7.M >.5.1.:.:.8.5.1.8.5.5.5.{ R +.R ! 5.1.8.8.8.8.5.1.1.1.:.+.X.X.5.5.1.1.:.:.:.;.+.O.X.X.+.1.5.5.1.8.o.y   - Q 8.i.t.t.t.5.>.6.+.! o.6.8.6.5.7.t.t.:.+.5.8.8.8.6.6.8.7.:.2 a 1.7.t.t.6.8.t.8.t.6.8.t.1.X.' +.:.8.s.5.1.5.8.1.t.5.' 1.<.X.7.t.t.8.i.t.s.t.t.t.8.5.1.8.d.u.p.8.8.8.8.t.t.8.5.1.1.1.8.8.s.u.8.6.8.t.t.8.<.5.1.} t.5.5.8.1.1.8.t.6.i.8.8.8.t.s.p.7.7.p.p.p.s.p.p.t.p.p.p.p.p.p.t.p.p.p.t.8.a.p.s.0./.DXsXdXkXgX+X=X6X;X=X>X6X=XQ.Q.Q.Q.:X>X9XeXeX>X9XwX5XgXkXkXqXoX5X5X>X:X4X5XeXgXgXkXnXMXnXjXCXCXCXCXmXjX@X'.$XaXaXGXAXBXxXVX X'.GXGXVX'.L iXVXGXHXx.V.FXDXoXGXGXmX#X$XZXAXCXCXCXcXVXCX^.q.r.e.e.w.w.p.p.p.s.p.p.s.p.p.p.p.p.7.t.t.p.t.7.7.<.1.t.t.t.t.t.8.:.t.8.+.+.5.:.1.' 5.^ :.s.d.O.+.:.1.5.8.s.u.s.t.t.8.u.0.t.t.t.t.t.8.8.t.8.t.} 6.6.X.6.t.6.7.X.' 7.X.5.t.5.6.1.5.M +.d.8.8.:.1.o.:.8.8.6.t.8.8.7.8.7.5.7.5.1.:.7.5.:.1.7.d.:.c } 8.7.5.8.8.6.8.6.8.6.6.6.6.6.6.6.5.y.5.N s } u.8.8.:.,.5.1.5.5.5.6.6.5.6.8.8.8.6.1.1.5.>.5.7.6.t.t.t.6.+.I M x c b s r 2 2 2 % : d E o.1.6.5.1.>.>.<.O.} k ",
"7.;.:.:.5.5.5.5.1.1.<.M +.5.:.o.+.1.7.8.1.5.1.5.1.X.' V ! :.:.5.8.6.5.5.:.1.1.:.:.+.+.:.1.5.5.1.;.+.' ' :.1.5.8.5.7.6.5.:.1.} x - - I 1.5.7.6.8.t.5.8.:.Q +.5.8.t.7.1.6.t.>.+.5.t.t.7.7.7.:.} - I t.8.8.8.6.5.6.8.5.5.:.1.8.t.>.X.:.1.8.t.5.8.8.1.8.u.+.+.:.+.8.u.6.8.u.t.t.t.t.t.t.6.o.1.t.t.t.s.t.8.5.1.1.8.5.+.:.8.8.8.6.t.6.t.8.6.5.1.} +.5.} 8.1.5.t.:.1.8.t.t.s.8.8.6.t.s.t.5.t.s.s.s.p.p.s.t.p.p.p.p.s.t.p.p.p.p.t.t.8.w.8.*.OXVXjXgXnXgX9XQ.Q.=X;X=X6XQ.F.Q.Q.=X>X9XwXeXeX:X1X:X1X9XgXgX4X:X5X>X5X>X5X5XgXgXkXgXbXMXpXpXCXCXMXmXmXxXxXjXaXpX{.$XxXZXxXxXA.@XGXVX<XC.`.J.C.'.vXx.N.DXDX.X%X%X%XpXAXaXxXZXCXCXcXMXsX(.-.r.e.s.s.p.p.p.p.p.p.t.p.s.t.p.s.t.p.p.p.t.t.a.8.<.1.t.t.t.t.p.8.:.t.t.5.1.8.t.} ' +.8.s.i.d.1.5.t.8.5.6.t.t.8.t.t.u.u.t.t.t.t.u.u.8.t.8.5.u.:.:.8.+.6.7.>.5.Q } 1.+.6.t.t.t.1.t.! Q d.8.p.1.:.;.5.8.8.6.6.8.t.8.8.7.5.4.6.5.1.o.:.:.:.1.8.7.I I ,.5.8.6.8.8.8.8.6.6.6.y.8.8.6.6.y.:.M c X.8.:.5.8.y.5.8.5.5.5.5.5.5.5.5.6.5.5.8.u.t.8.6.6.7.5.5.6.5.5.6.:.[ I c x a r 8 r 3 2 2 3 3 b R O.1.2.2.2.| E n d ",
"8.:.5.5.5.8.8.8.:.1.5.R [ t.1.:.X.X.>.>.5.5.5.5.5.<.' N X.5.;.:.<.8.t.1.7.1.5.5.1.+.:.:.+.+.X.+.:.:.+.;.8.5.8.7.7.6.6.7.1.1.1.:.R r - ^ 6.6.t.5.8.6.6.5.6.' ' 5.6.t.t.6.t.6.:.+.5.u.;.1.7.6.! - ] t.7.6.6.6.7.6.8.:.;.>.6.8.6.t.+.8.:.+.:.1.8.t.8.8.t.5.} ' ;.1.5.5.8.u.8.5.7.t.u.8.8.+.+.t.8.t.t.8.5.1.:.X.X.X.:.8.:.1.s.8.u.8.8.t.6.5.1.X.} } ' :.! ;.8.+.5.5.6.s.t.8.5.t.s.t.1.5.s.p.s.u.s.p.u.u.s.p.s.p.p.w.s.p.p.p.p.p.d.8.9.=.yXmXaXgXgXeXgXQ.Q.=X=X=X>XU.F.Q.Q.=X:X:XeX9XeX=X&XqX=X5XeXqXqXqX9X4X>X5XgXqXnXdXnXfXkXMXpXkXCXMXjXjXjXMXmXCXAXAXMXxX#X#XsXxX(..XGX XA.jXAXAXsXx.l.P j.DXiXC.N.`.hXAXCXuXjXGXvXCXMXdXiX|.-.f.a.p.y.s.u.u.s.t.s.s.u.s.u.s.s.u.p.p.p.w.6.d.s.1.5.u.t.t.t.t.t.1.8.t.t.5.5.s.X.>.8.s.t.t.u.5.5.s.8.8.8.t.s.8.t.t.u.8.u.8.t.t.t.u.u.u.8.t.t.t.1.5.+.>.5.5.5.I >.5.,.8.8.6.7.6.6.,.I s.8.d.1.o.1.8.8.8.8.8.8.4.2.6.5.2.5.5.7.1.} o.;.' 5.8.5.X.t ;.,.y.6.y.6.8.y.5.8.6.6.8.y.6.6.6.! c o.5.5.1.1.5.t.8.8.8.6.7.1.5.5.5.6.5.1.5.6.8.6.t.6.5.5.5.6.5.5.6.5.6.8.X.I x a r i 3 r i r , , : : 0 k E W E n h p d ",
"7.1.<.5.1.5.>.1.+.o.o.I ' :.:.:.;.+.X.:.:.+.+.:.;.;.o.R [ :.t.1.+.+.5.8.5.5.5.1.+.:.1.5.6.5.1.5.X.} :.5.5.8.5.5.5.6.8.6.7.7.5.7.7.} 1 r ' 1.5.7.t.8.6.t.1.y.+.R >.>.6.6.1.6.6.+.+.5.;.,.8.5.y 1 :.t.8.5.8.t.6.6.7.1.>.5.6.6.8.i.1.p.8.8.1.+.<.8.t.t.5.8.+.R } ' +.6.u.8.8.5.1.t.s.8.8.8.+.8.8.s.t.8.8.6.1.6.6.1.X.8.o.X.5.8.s.s.t.5.1.1.1.5.+.+.' <.} o.1.:.:.1.5.8.s.s.5.t.t.5.1.t.d.t.u.u.p.i.s.t.p.p.t.p.s.p.p.p.p.p.s.p.p.8.4.-.lXBXjXfXbXwX9X=XU.=X=X=XQ.Q.Q.Q.Q.Q.>X9X9X9XwXW.Q.eXP.W.:X9X9X9X9X5XgXqXgXeXeXgXeX3XjXMXhXMXCXCXcXMXAXAXAXAXMXCXAXAXAX$X'..XN.(.N.'.@XmXZXxXAXHX.XC Z ].N..XvXsXuX%XsXsXGXCXFXCXdX,X2XOXr.d.s.i.s.s.u.s.t.s.t.u.s.s.u.s.s.u.p.a.p.8.8.p.s.+.t.s.t.u.s.t.t.5.5.t.5.8.<.;.} t.u.8.8.8.8.8.8.s.t.t.t.t.8.y.0.t.u.8.u.t.t.t.i.8.t.8.t.t.6.6.8.+.} +.:.5.5.R :.6.t.8.t.8.6.6.t.7.V 5.5.t.<.:.5.t.8.8.6.6.8.8.4.2.5.1.&.<.:.:.} o.;.U 7.y.,.y.t I 5.,.6.5.8.6.5.8.6.y.6.y.8.6.y.5.;.o.7.5.7.5.5.5.8.8.5.5.5.>.:.5.5.5.1.1.1.5.5.5.5.t.6.5.5.6.5.6.6.5.6.5.6.5.:.} V i i y i r 3 , , 2 3 3 < i h p 7 7 0 y ",
"5.1.1.7.:.;.} +.;.+.' R I :.;.:.1.1.;.:.7.5.5.7.8.7.5.:.' R 7.7.8.:.X.1.5.5.1.8.:.5.5.5.8.8.5.5.X.+.1.1.7.5.8.8.6.6.6.6.5.7.6.6.7.5.Q 1 2 ' 6.8.8.1.7.5.>.>.y.:.I } ,.t.5.5.6.5.:.} :.6.7.! O x t.7.t.6.6.t.8.6.6.5.5.8.2.1.7.7.1.8.t.t.7.5.1.5.5.t.t.8.1.[ Q ' 1.8.6.5.8.7.5.t.t.8.t.t.5.:.8.p.u.t.i.t.8.8.t.8.:.+.t.8.+.1.s.8.5.1.1.6.8.8.} Q X.1.8.8.' 1.5.:.8.5.t.t.1.1.1.:.8.s.s.t.s.s.t.s.p.u.p.p.p.p.w.s.p.p.p.w.p.y.y.8.4.r.tXaXfXbXgXwX6X&XY.U.=XQ.U.:X6XU.Q.Q.6XeXwX>X5XXXW.=XH.4XqXqX:XXX-X5XeXbXgXbX9XgX9X<XnXMXjXCXCXCXCXAXNXAXMXAXAXAXAXAXCXCXGX.XC j.rXpXmXZXNXZXAXCXGXN.C zX.XvXcXcXVXMXpX.XsXVXVXiX,X<XpXlXz.s.p.t.s.s.u.s.u.u.u.u.u.s.t.u.s.s.s.s.u.t.8.8.8.o.8.u.u.s.s.8.s.5.:.8.5.6.X.X.X.8.8.6.u.t.t.6.7.t.t.t.8.t.s.t.8.u.8.u.8.u.t.u.u.t.t.t.t.t.8.8.t.+.;.5.5.7.<.I +.8.t.8.t.t.6.6.7.5.R o.8.p.1.1.8.t.8.8.8.4.8.8.7.3.1.&.1.5.1.>.:.5.7.^ <.7.<.t.T a y.,.5.8.8.5.6.8.6.6.6.6.8.8.5.7.t.5.5.5.5.5.6.6.8.5.1.>.1.1.5.6.7.1.1.1.1.5.5.5.7.5.7.5.6.7.5.6.6.5.5.6.5.5.5.5.<.X.V k v d 8 , , d N v d u y 0 0 7 7 7 ",
"1.5.1.,.X.;.5.5.+.+.o.X.M } 1.<.5.7.5.1.:.1.5.5.5.5.1.5.t.^ o.<.8.8.1.X.:.5.5.1.:.5.1.7.5.5.5.1.+.6.5.1.6.5.5.5.5.6.8.8.6.1.5.5.8.1.,.R r r o.7.t.1.7.7.:.>.} ' [ I ' :.t.6.6.8.6.+.} 8.,.r + ' y.t.t.8.6.8.t.t.8.5.8.8.8.8.8.5.;.o.8.s.8.8.5.>.1.8.t.8.1.>.} ' +.5.1.1.8.1.1.8.1.5.s.8.t.:.5.t.t.t.8.s.s.t.d.8.8.X.8.p.>.:.5.y.:.>.8.t.t.t.} b ;.d.t.1.:.+.5.+.5.s.t.t.>.1.1.5.t.s.s.t.s.i.u.u.0.u.p.p.p.p.p.p.p.p.p.p.s.s.d.w.r.n.aX%XdXbXbX6X6X&XQ.H.R.U.U.W.>XQ.Q.=XQ.wX>XwX:XU.I.P.U.eXgX9X4X:X-X:XqXgXgXnX9XeX*X<XMXNXhXCXMXMXAXMXMXAXAXAXAXCXMXAXCXFXcXvXK .XmXaXZXAXNXNXZXCXvX|.C lX.XCXGXVX%XZXMXcXsX.X`.'.2XjXxXiXz.0.d.d.s.8.s.t.s.8.s.t.8.8.8.8.t.s.s.s.s.t.8.5.<.5.t.u.t.u.u.u.8.8.+.5.1.! <.} +.t.y.6.t.8.8.5.7.t.8.8.8.u.s.8.u.8.t.t.u.8.u.8.u.t.t.t.t.8.1.:.>.o.>.t.5.8.1.M :.t.u.8.6.6.t.t.6.5.} I 8.8.+.<.8.8.8.8.8.8.8.4.2.3.1.&.1.5.5.7.5.6.t.' } ;.<.<.;.y :.7.7.5.6.5.5.8.6.6.6.6.8.8.8.5.5.7.8.8.7.1.5.5.,.,.>.1.7.8.6.6.5.1.5.1.1.5.5.1.1.1.5.5.5.5.5.6.5.6.6.5.5.,.5.5.7.7.1.^ N v i 3 i b n i 0 7 < 7 0 5 > > ",
",.7.5.o.X.5.1.<.:.:.>.:.! Q +.+.o.:.6.>.+.:.5.5.1.5.1.:.1.:.} R X.5.5.:.X.+.+.} 1.5.5.1.5.5.5.1.5.5.5.1.1.6.8.8.6.7.7.6.6.5.5.>.7.8.1.:.I ; y ' ;.} } ;.+.} ' :.t.6.o.' +.5.5.6.5.t.+.X.Q - a 5.t.t.6.5.7.6.6.6.5.5.5.1.<.1.1.1.;.' :.>.6.5.6.1.:.5.8.5.5.5.+.' { +.5.5.5.+.1.8.1.1.t.t.5.5.1.8.t.t.8.t.s.s.8.s.8.:.1.t.:.>.X.:.5.+.5.5.6.5.5.T 1.d.7.5.s.5.1.:.1.5.t.t.1.1.t.t.t.u.s.s.s.s.u.u.s.u.p.s.s.p.p.p.p.p.p.s.w.y.d.8.e.~.zX7X7XgXgX6X;X=XQ.P.F.U.&XR.Q.Q.U.=XQ.6X;X;X=XH.D.P.-X9X9X4X-X9X-X=XqXeXgXgXgXqXoX<X3XjXdXCXCXCXCXAXAXCXAXCXMXAXMXjXjXCXFXcXv.$XaXZXNXZXZXNXZXAXCXlXC x..XFXVXGXuXAX.X%XiXuX X2XaX1X2XrXn.1.8.8.d.s.t.s.s.s.i.s.t.8.5.5.8.8.8.8.6.5.1.<.} s.t.t.t.t.t.u.8.u.5.:.5.+.u.^ X.:.t.t.t.8.8.:.:.5.6.8.t.u.t.t.8.t.t.8.t.8.8.u.u.t.t.t.s.8.X.o.5.5.:.7.6.6.1.b :.8.6.8.5.6.t.6.8.7.+.x t.8.} <.5.7.w.4.8.4.8.2.2.3.3.5.2.3.2.5.5.6.7.' ' } 5.5.;.a Q 7.5.5.5.5.8.5.6.6.6.y.7.5.8.t.5.5.:.>.1.1.1.6.1.5.5.6.6.6.7.5.1.>.5.1.1.5.6.5.5.>.5.5.6.5.5.5.6.6.5.6.7.5.5.5.7.7.4.7.%.~ n v V F d y 7 3 < > 7 < : > ",
":.7.:.;.5.+.} :.1.1.5.:.:.I X.:.o.} } } >.:.:.1.1.:.1.1.<.1.:.} R ' 5.+.;.X.I t.:.8.+.:.>.1.5.1.5.1.5.1.>.:.1.5.5.6.6.5.6.6.6.5.1.7.;.:.[ r + M o.' 1.:.>.+.:.:.1.1.1.:.^ o.5.>.6.7.t.R - t [ t.6.t.t.5.1.5.8.5.5.8.5.1.<.1.8.8.6.8.8.6.+.:.1.>.' +.t.s.:.1.+.Q ^ } 5.5.:.+.1.1.t.>.t.7.5.t.5.5.8.t.8.t.s.t.y.6.t.1.+.1.+.1.1.+.1.+.>.8.5.8.t.I <.t.1.6.8.s.8.1.+.8.s.8.+.8.t.s.t.t.8.s.s.t.t.8.s.8.p.p.p.t.p.p.p.s.t.p.p.p.a.8.9.V.vXaX1X6XbXwX*X=X=XP.I.H.&X=XQ.H.Q.Q.>X=X;X6XI.U.H.5X9X:X9X9X:X-X4X=XqXeX4XgXdX*X&XfX,X,X2X,XhXcXMXCXMXMXAXAXCXxXjXsX,XuXhXFXj..XZXZXbXZXNXAXmXGXVXHX(.C @XHXGXCXaX#X2XsXvX%XiXsXnXdXjXzXm.8.8.8.8.t.u.t.t.0.s.s.t.+.1.1.7.5.6.8.8.8.5.8.+.s.6.s.t.t.t.t.u.s.s.;.7.+.s.! 5.<.+.:.5.5.1.1.o.5.5.8.8.8.8.s.6.8.t.8.8.u.u.8.u.t.t.t.s.+.X.t.5.8.8.5.:.7.1.x 5.p.6.6.6.8.6.t.6.5.1.V [ +.V R V I G R ~ ^ { %.%.2.1.3.1.3.2.w.6.6.5.+.;.:.5.5.;.d r I :.t.5.,.5.8.5.,.,.6.t.t.1.,.:.X.} :.6.8.6.6.7.1.6.t.8.t.6.1.>.1.1.1.:.6.>.1.1.1.1.5.5.5.5.6.6.5.6.5.,.7.8.5.1.5.8.4.$.E M b B d r 0 7 3 > 5 < > > & ",
"1.1.:.:.o.:.1.5.5.1.5.5.1.Q ^ 5.1.1.;.O.:.X.} :.5.1.5.1.>.7.6.6.1.} ' :.8.7.[ X.8.,.:.1.1.5.5.1.,.5.5.5.5.5.5.5.6.5.6.6.8.6.5.,.1.X.X.:.1.R 2 x :.:.o.t.1.:.7.5.1.1.7.8.1.X.X.t.7.7.' 1 - ' 6.t.5.8.8.6.5.5.8.t.t.t.8.1.1.5.8.5.6.6.6.5.t.8.6.5.o.[ 5.5.6.<.} I X.Q X.8.>.+.:.>.8.5.6.1.5.s.i.o.5.5.1.8.t.8.t.6.8.1.} :.1.:.t.8.^ +.t.5.1.t.8.R :.5.5.u.t.t.8.8.5.8.6.+.1.s.t.t.6.s.s.t.t.t.t.6.8.s.t.p.p.p.s.p.p.p.p.s.p.p.a.8.9.V.vXpXfX9X9XgX1X;X[.&X&XI.XX=X;X&XR.H.&X&X;XY.XXY.Q.;XeX9X6X;X4X4X:X-X5X:X9X5X0XoXoXdXpXL.}.cXcXcXCXCXCXMXcXcXxXxXMXAXCXhXrX.Xj..XVXxXNXNXmXmXAXAXZXFXxXK @XGXVXGX.X%XxXAXxXsXvXcXcXnXmXaXm.e.8.8.4.t.s.s.t.8.8.6.+.o.1.1.8.t.s.u.t.t.8.6.X.t.>.6.t.t.8.u.u.8.8.1.X.:.5.o.s.s.5.>.:.+.X.o.:.t.u.t.8.t.t.5.7.6.t.t.t.t.t.8.u.t.t.u.5.1.6.8.6.t.t.8.6.5.X.s X.1.6.t.8.s.8.7.6.5.[ c a a r - - % % : : % 3 0 i 0 i p v k b V E ~ R ~ { } :.+. .a 1 x V { <.1.<.<.>.5.7.1.+.$.<.<.5.1.<.1.5.5.5.5.1.1.5.6.6.6.6.1.5.5.5.+.} >.:.>.1.5.5.6.7.5.5.5.5.5.5.5.7.5.1.1.6.8.<.} F b v v v 8 3 , , < < < > & = : ",
":.:.:.X.:.>.1.7.5.5.1.:.1.<.Q 1.1.:.5.1.X.} ^ } X.+.5.5.1.1.7.7.1.5.7.X.^ o.t.+.' :.;.5.5.1.5.5.5.5.6.6.6.6.6.5.5.5.6.6.5.8.7.5.8.+.5.8.8.X.r r ' 1.} ' ;.7.1.<.;.1.5.1.7.>.' X.1.I 1 @ I 8.6.5.t.t.8.8.6.5.5.5.8.8.6.1.8.t.6.7.6.6.8.6.8.8.8.8.6.5.' 5.t.>.:.' +.o.' :.8.>.:.8.5.:.1.:.1.5.5.8.1.<.1.t.t.8.5.1.1.1.:.+.} 1.5.+.t.1.+.5.1.8.t.Q o.1.t.s.s.t.s.8.u.1.1.+.6.1.5.t.5.s.t.8.8.t.t.1.8.d.t.p.p.s.s.8.p.p.p.p.p.p.a.p.w.V.xXdXgXeX6X1X8X9XR.=X=XU.U.*X6X9X;XR.U.U.+XR.-X=X&X6XwXeXeX;X4X9X-X-X4X5X9X[.*XR.,X,X}.}.}.hXcXcXcXMXMXMXcXCXCXMXMXCXGXcXcXiXj.B.@XmXNXmXZXNXNXZXHXvXaXK rXGXGXaX@X%XxXpXxXGXGXcXMXnXmXzXM.w.8.8.5.5.6.6.5.1.1.1.5.8.t.5.t.t.s.t.t.8.8.8.O.5.+.+.u.t.u.t.8.u.8.s.X.:.+.>.s.8.8.t.8.8.5.:.o.5.t.t.t.s.t.5.6.t.t.t.t.t.t.t.u.8.t.8.:.1.8.5.i.6.t.i.t.6.} c ' y.t.t.s.8.6.s.6.^ r r a 1 r ; : % , , 3 < < , , & , , & % & , : % : 2 r a r y x 2 r v r a N ^ } +.o.X.o.1.5.2.6.6.7.8.6.5.1.1.1.1.6.1.+.>.6.6.5.1.5.5.5.+.X.5.1.5.5.5.5.7.6.6.8.5.6.6.6.5.5.5.6.6.1.o.I M d y y 8 , % : : , , > > & $ $ # ",
"X.[ [ +.5.5.:.1.5.1.5.1.1.1.I 5.t.:.5.1.5.5.:.} ^ ! [ ,.6.5.1.1.5.:.>.5.' :.} 1.o.' 1.7.5.1.<.1.5.5.5.5.6.6.t.7.5.5.6.5.6.7.6.5.6.;.8.t.7.5.V - 1 N ' ' } +.;.;.:.1.5.5.[ 5.X.c a - + N 8.y.t.t.t.8.6.8.8.8.5.:.:.8.5.:.5.6.8.6.5.6.8.t.t.t.t.6.5.6.:.R :.5.:.X.X.7.} >.8.:.' 5.8.1.8.:.{ +.8.8.:.X.:.8.8.5.5.1.1.:.:.' :.>.+.1.1.1.:.X.>.s.8.M ^ 1.s.8.8.8.s.t.t.+.1.o.1.y.t.8.5.8.8.8.t.s.8.5.t.d.t.p.p.p.p.s.p.p.p.p.p.p.a.t.e.V.xXpXgXeXbX9X<X;X&X*X;XR.G.&X*X;X;X9XH.H.H.R.&X-X=X9XeX9XwX9X=XqX-X=X;X5XXX[.[.J.-X3XdXoXhXcXpXcXCXcXcXMXCXcXcXjXjXMXcXFXhXiXx..X.X`.@XmXZXZXZXGXvXFXaXK @XvXmX(.pXpX<XiXCXFXGXAXMXnXmXzXM.w.7.7.w.8.8.8.6.6.5.s.8.8.8.6.8.t.s.s.u.t.u.u.1.:.o.+.t.t.t.t.t.u.t.t.6.' o.6.i.8.8.8.8.8.t.;.! 1.6.8.8.8.1.:.6.t.t.t.t.t.t.i.t.t.t.<.>.8.6.7.y.8.8.t.8.8.5.' I t.t.i.s.8.7.:.R 3 r 1 1 r 1 ; 1 % % , , , , & , , < , : , , 2 , @ % 2 2 3 r r 8 2 3 r 8 2 8 y r 8 t a d d d v V G ~ { O.+.+.1.6.8.8.t.1.,.6.1.,.1.1.5.1.;.+.5.1.8.6.5.5.5.5.5.6.5.5.5.5.5.5.1.5.:.E v a i i y 3 , 3 : : & > > & & & @ . . ",
"! X.:.6.>.5.6.>.5.1.5.1.7.7.R } 5.1.5.<.:.1.1.;.X.X.X.[ X.+.:.8.1.1.1.;.:.1.1.} } I } :.5.5.5.5.5.5.5.5.5.6.6.6.8.6.5.6.6.t.6.,.:.:.1.t.5.t.X.V - - d } ^ ' :.:.:.:.7.8.R N x - - r R :.8.8.t.t.8.t.t.t.8.8.8.6.5.1.1.:.1.6.6.5.5.6.8.8.t.t.8.8.8.8.8.5.[ +.1.:.>.+.X.>.:.1.' 1.1.5.} } } } +.1.1.X.o.8.t.5.5.6.t.:.1.X.' ^ +.8.5.5.1.5.+.>.5.V +.6.u.5.8.8.t.8.6.5.6.8.6.8.e.8.1.6.8.t.s.s.6.6.s.s.u.p.p.p.p.p.t.s.p.p.p.p.a.s.e.V.xXpXeXeXeXbX*XU.[.;X;X&XH.U.:X1X=X6XY.R.H.H.;X6X+X;XeXwX9X9X&X9X=X=X&X*XY.1XR.F.;X0X,X`.hXcXcXcXcXMXMXMXcXCXMXcXhXiXsXhX.X.Xj.iXFXAXaX'.A.@X.X`.DXvX).K zXBX@XA.'.%XC.CXCXCXCXNXnXnXBXBXV.3.8.7.4.p.8.8.s.8.8.1.8.f.u.u.5.6.t.t.t.t.i.s.8.:.o.>.s.s.t.t.8.8.7.t.s.' ' 1.y.t.t.8.8.t.7.1.! ;.+.o.>.1.5.,.5.8.t.t.t.t.8.y.8.t.8.X.5.8.7.t.,.5.5.6.u.8.:.,.I ,.8.5.5.8.:.V r 1 + O - ; O + - : : : % & , < , , & = , , , , % @ , r 2 3 r 2 , 3 3 8 r r 3 3 r 8 r 7 r r r r r 2 2 : r s v M V R ! [ } } [ X.>.>.>.5.5.5.:.7.1.6.1.5.5.2.5.8.8.6.6.5.6.5.>.} R M d y y y y 3 , , % % & % : $ $ $ $ # . . ",
"} 5.5.>.5.5.:.1.1.:.1.5.8.[ U ' :.5.<.1.t.5.1.5.1.;.} ' X.X.' ^ } +.:.:.;.1.+.:.' ' I R X.1.1.1.5.5.5.5.6.8.7.6.8.8.6.6.6.t.6.5.>.:.:.t.7.s.:.t.I O 1 x [ o.7.:.} ' [ x +   - a x I 7.>.>.5.8.t.8.8.5.t.5.1.5.t.u.t.5.1.:.1.5.5.8.t.t.t.t.6.6.t.t.t.t.5.6.[ [ 5.:.^ :.:.:.X.} 1.+.+.^ V X.6.X.8.5.' ' 1.6.6.6.5.5.' X.+.' o.6.6.8.1.5.8.1.>.' b 8.8.s.s.t.s.8.5.:.t.s.5.8.d.d.6.+.1.s.t.u.i.1.6.s.u.t.p.p.p.p.s.p.p.p.p.t.p.a.p.9.V.xX3XeXeXgXeXwXY.U.;X=X6X;XS.=X;X9XR.[.R.U.K.1X1XK.4XeX9X9X=XR.=X=X-X&X*X[.8XJ.G.1XhX<XJ.cXhXcXhXcXcXMXMXMXcXjXhXpX2X.XC.C.sXC.sXCXvXGXAXmXv.C K x.FXj.P HXaX(.@X@XpX'.AXcXFXVXMXMXnXMXvXM.w.8.7.8.8.t.s.s.8.5.+.5.p.s.f.6.8.t.s.s.t.8.t.8.1.o.:.s.p.t.t.8.8.6.s.t.} I t.d.6.8.t.t.i.1.s.;.' 8.5.5.i.s.6.5.t.t.8.8.y.6.6.8.t.>.+.5.:.:.7.:.;.+.8.d.y.;.!.I } d.a.<.;.I 3 + - - + 1 I } ^ ^ F i , % @ @ % % 1 , , , 3 0 , 2 % 1 , 3 3 3 3 8 2 1 r r 8 r r 8 r y 8 8 r r 3 3 3 3 r 3 , 3 : : 3 : 1 3 y s N U U U ^ ^ X.X.+.+.6.2.6.5.6.6.6.t.0.8.5.>.+.} D y 2 3 t t y 3 : % @ % & % @ o # o o @ o   . ",
"7.1.5.1.5.>.1.5.>.5.7.:.' ' :.1.+.+.:.+.1.5.1.5.7.:.;.} ! ' [ ' } X.+.+.+.+.X.:.o.' X.R R ' 1.6.5.1.5.5.5.7.6.6.6.6.6.6.6.6.7.5.5.>.X.1.8.5.y.7.5.x + r I I :.:.<.' x - 1 I Q } } s ;.7.8.7.5.5.8.8.8.8.1.8.8.8.8.6.5.8.7.5.5.+.X.1.t.6.t.t.8.8.t.t.8.8.7.5.' ;.8.' o.+.8.:.+.1.X.1.+.+.X.i.5.:.8.:.Q t.6.t.8.6.>.>.5.} X.7.1.8.7.5.:.8.5.1.Q x u.s.8.u.t.t.8.5.7.s.8.8.s.u.8.6.5.8.t.t.8.s.1.s.s.s.u.s.8.s.8.8.t.u.t.s.s.p.a.t.e.M.vX3X:X>XqX9XfX0XR.&X&X6X+XH.F.K.Y.=XR.c.b.Z.,X0XG.<X8X,X8X;XR.&X1X,X;X*XwX1XL.G.,XMX,X{.hXhXdXpXkXMXMXMXcXMXMXcXkXjX'.L..XiXl..XVXxXmXmXmXBX7XN.K K C @.zXrX'.ZXZXAX`.MXCXCXCXcXMXnXmXvXM.-.7.4.t.t.s.8.s.8.5.1.+.8.5.8.>.o.t.s.8.t.8.s.8.s.^ 1.t.8.7.1.6.6.t.t.s.>.c 7.i.t.8.t.t.y.8.t.:.! 5.8.8.6.t.s.8.8.8.t.,.y.,.,.5.:.o.:.:.1.8.6.5.5.>.7.5.:.6.t.5.N 7.7.;.I 3 - + + - r R 1.p.p.d.d.w.<.<.R M M M y 2 % % 2 3 , % @ % , 3 3 3 3 3 2 3 8 8 r 2 8 8 r r r r r 8 , 3 8 8 0 y y y y 8 7 7 3 3 7 7 y t u a t u a y a u s d R ] +.$.2.1.$.$.X.^ E N d t 3 3 3 1 : @ % @ & # o o o o o .   . # 7 E ",
"5.6.:.>.5.1.>.1.7.5.X.Q X.5.6.5.5.1.:.X.X.+.5.5.1.1.:.1.1.' Q ' ;.1.8.8.8.5.t.6.6.>.} ! } } } o.>.6.6.6.6.5.6.6.6.8.t.6.6.6.6.6.6.8.:.} +.5.7.7.7.' ; + y ' ;.8.X.y O 1 R ,.X.} ! ; } 5.6.6.5.8.t.8.8.8.1.t.t.t.8.8.8.8.1.1.6.5.5.5.1.>.1.6.8.t.t.8.6.t.,.1.;.R Q o.} ! :.+.} 7.+.5.5.8.1.:.6.8.X.1.V 6.5.8.8.i.5.+.+.7.:.1.t.t.6.8.<.:.' X.;.Q s.t.t.t.t.8.1.5.s.s.1.1.8.6.8.i.8.8.t.8.8.e.5.s.u.t.s.t.s.8.5.8.t.t.t.u.u.s.a.w.e.M.zX3X:X>XqX>XfX6X=X+XY.=XQ.H.b.H.R.;X9XG.c.B.G.*XK.<XfX0XbX9X-Xb.Y.+XL.*X3X<XL.{.{.dX}.3XhXgX3XpXcXMXcXMXkXdXjXhXcXsX2XjX.XvXC..XvXxXjXjXmXGXmXVXrXl.4 j.x.N.@XmXaXAX`.xXVXCXMXcXMXMXNXzXM.4.3.8.p.p.t.8.s.8.8.8.<.8.5.8.6.7.8.d.t.6.+.5.8.8.} ' 1.1.8.7.1.8.t.t.s.6.R t.y.t.t.6.t.t.t.t.X.! 5.i.y.t.t.y.t.t.8.5.5.5.6.1.:.X.,.;.:.1.5.7.y.y.,.>.:.X.5.i.6.Q I ' I r - - + + V ' :.1.<.} } o.+.:.:.M I ^ ! s y ~ } )  .E T B v i r 3 , : , : 3 , 3 8 8 y y 8 r 8 r 2 8 , , y i y 8 7 3 y u u u u u a t t t s s a a t t r 2 2 1 7 7 s n E ! ^ E R m b u t 3 7 3 : & $ $ $ @ & o o o o . . . & h / #.$.",
"1.5.>.5.1.5.5.5.+.' ^ +.:.1.5.5.1.1.5.5.:.} X.:.<.5.8.5.1.+.:.:.+.+.:.1.7.1.5.1.7.t.;.U N 7.o.' ' >.6.>.8.5.6.6.6.7.6.6.6.5.7.5.6.1.5.:.1.8.5.5.:.;.a - r 7.t.:.a O r } 5.7.1.:.! y N >.5.6.5.7.7.8.8.5.5.t.5.8.8.5.5.1.1.1.6.t.t.t.t.8.:.1.1.5.t.t.8.6.7.7.o.} R ! o.X.' X.} p.5.5.5.6.1.} 1.8.6.+.a +.s.s.8.:.} X.1.t.5.1.8.5.t.8.;.X.} } o.} i.8.8.t.u.6.5.t.s.8.:.5.8.6.i.d.7.7.u.t.t.8.6.d.t.s.s.u.s.8.1.u.u.u.t.u.s.t.y.p.w.l.2X5X-X>X>X9X8X6X=X;XQ.R.R.H.H.D.+XQ.*XF.{.B.Y.<X].8XnXgXwXeX9Xb.U.;X0X*X*X}.G.5XL.dX<XhXkX<X3XkXcXkXMXMXMXhX3XdX<X#XMXiX'.CXJ..XGXGXCXZXCXjXGXVXHXrX4 C.VXrXrXmXmXAX{.mXCXCXCXMXMXkXmXaXm.3.w.4.p.p.u.s.s.8.8.1.5.d.7.8.8.u.5.s.d.8.1.6.8.1.X.! :.8.t.6.1.y.t.t.s.6.' 5.t.t.t.y.t.t.y.t.,.' >.t.8.i.d.t.t.t.8.5.y.6.i.5.o.7.t.X.:.1.6.6.6.6.6.7.:.' X.;.:.' x r r 1 ; + - M ' b ' +.} X.X.} ' T M M x a r s o.4.4.} %.1.2.2.<.3.%.O.{ Q i @ 8 y 2 2 , 1 1 2 1 1 3 3 , 2 8 8 8 y 0 3 0 u u i d d d p u u t s s t u s y t t t y y y t y u u d d d u y 7 3 > : : : : : : : & @ o o   o @ = i E $.&.$.>.",
"7.>.1.5.1.>.5.+.! ! 5.7.1.5.6.8.7.5.5.,.7.:.:.o.+.:.5.5.1.:.1.5.5.>.:.+.;.5.7.6.6.5.6.[ r X.:.7.X.R ! 7.t.7.7.5.5.5.1.5.5.5.7.7.6.,.t.7.5.7.1.5.:.>.M - - ' ;.x + 2 } 1.7.8.6.8.6.1.b M 8.5.7.5.1.7.5.5.>.5.1.6.5.:.,.6.t.5.7.6.8.t.6.7.t.8.1.+.+.1.5.t.t.t.5.8.8.o.' ' } ' :.s.8.5.5.1.5.:.X.1.1.1.M } t.1.X.! ' :.5.8.5.+.s.8.8.8.1.} } :.} ' y.6.8.t.t.1.t.s.8.5.6.t.s.t.s.s.8.5.t.t.s.8.8.d.t.s.s.u.8.5.5.8.t.i.t.s.t.t.s.p.0.r. X8X;X:X:X:XoXoX&X[.&XR.F.B.H.H.F.9XH.K.1XY.G.[.L.dXkX5XdX9X*XR.1X[.9X1X*X[.K.fX{.}.,XkXjX3X{.kXMXMXkXkXcXMXjXuX{.pXhXuXiXGXA.@XAXZXZXZXZXZXxXBXFX).* (.FX7XrXCXMXAX%XcXCXCXCXCXMXcXmXtX-.4.4.8.8.u.t.u.s.t.t.8.+.7.6.s.8.s.1.1.s.u.s.d.t.>.1.+.+.t.6.5.8.t.s.s.s.t.+.' p.s.6.s.8.s.8.u.d.:.^ 1.s.p.t.t.t.t.6.1.s.t.6.:.+.5.>.1.8.t.8.8.8.8.7.<.;.{ ;.' ~ x r - + + - r I ~ ^ ~ ^ R M x d d x x s r 3 : b X.5.1.) ^  .| $.1.5.2.2.1.4.7.b 1 { +.{ ) ~ V B d d y 8 : % : , 8 3 8 8 0 3 3 0 y u u i u 0 7 y a s s s s s y t t t 7 t t t u s s d y 7 3 7 > ; @ $ $ ; : $ $ + o o # o & u F G G m V J G ",
"1.1.1.1.5.5.o.' Q o.<.<.6.8.>.5.7.5.6.1.1.7.5.:.:.+.o.;.8.1.:.5.1.5.1.1.:.:.>.1.1.5.5.8.Q I t.5.t.:.I x I ;.:.;.;.:.1.1.1.1.1.7.t.5.6.6.7.7.6.>.5.>.' - O x x - @ ^ 8.8.6.y.6.t.:.>.5.x ! :.t.8.5.5.1.5.:.t.8.6.5.1.t.8.t.>.1.6.t.t.8.6.7.8.8.5.>.:.o.1.5.8.5.6.8.8.>.M ' U 5.8.8.5.:.:.o.:.' } 7.5.:.^ ^ +.} 1.8.+.X.5.y.+.6.6.1.:.} } ' :.} o.t.7.8.8.:.6.t.t.8.8.s.s.s.s.s.u.u.6.5.t.s.8.8.s.s.s.s.8.7.1.8.8.t.t.p.8.8.t.y.y.e.r.|.pX:X:X:X:X].H.XXR.&X-X&XH.F.P.g.P.D.[.L.,XB.A.L.dXgX1X0X5X;X1X1XR.*X<X].+XL.8X8XZ.<XfXhXMX{.3XhXdXdX<XhXMXdXB.+XpXhX'.xXCXN.@XAXZXNXNXNXZXBXuXxXA.4 @XZXaX%XxXVXCX#XCXCXCXMXcXkXMXmX@X-.e.8.t.0.u.s.u.s.s.8.8.X.;.5.s.8.8.5.:.8.s.t.d.8.1.:.5.;.:.t.7.t.t.i.s.s.s.t.V 5.d.8.u.u.s.5.y.8.7.^ X.t.p.t.p.t.p.6.1.d.6.+.7.1.X.1.5.8.8.t.t.t.7.7.;.:.5.O.I a 1 - + + : a I Q T R B y 1 r y s v V T I ^ b 8 M X.<.O.%.$.<.}  .%.o.%.3.1.7.$.y y 4.5.2.7.8.4.2.7.1.+.} E F d , : , 8 , 3 , < < < 3 3 0 0 y 7 y y y y y t 7 7 3 2 2 3 7 3 1 7 y s y 7 3 3 1 2 3 7 3 t u y t 3 > > , 3 8 y i 0 3 , y u u a ",
";.6.:.7.1.' ! +.1.o.:.7.5.1.7.5.5.,.1.1.5.1.1.7.6.>.:.R Q :.:.5.:.5.1.>.1.1.1.:.:.:.:.6.t.I ;.7.7.:.;.I 1 2 r 3 r r r r 3 r r a t x x c M N I R R R I - - - O - N 1.5.8.5.6.8.5.;.o.1.>.^ I R 1.6.1.:.+.X.>.5.8.6.5.t.6.6.6.+.>.5.5.t.i.6.>.:.5.7.i.1.:.+.:.:.1.s.t.s.+.s I t.i.t.8.5.>.:.t.:.+.1.d.} R ' } 5.t.t.1.:.1.8.X.o.1.5.5.+.+.X.' Q :.8.8.>.1.>.5.5.6.t.t.s.t.s.s.s.t.s.8.5.8.t.6.8.u.s.s.s.s.5.6.t.8.u.s.8.5.8.1.1.t.8.9.(.iXoXXX:X9XXX*X:X1X-X*X-X=XU.F.S.g.I.&X<XoXJ.D.D.[.3X}.oXXXR.wX3X1X+X*XY.*X*X+X*XJ.{.dXdX3XoX].oX<X3XhXdXfX{.B.8XdX}.'.%XiXA. XZXbXbXZXmXaXaX(.aXn.e $XZXaX@XNXAXxXiXCXCXCXcXcXhXMXCX X9.e.8.p.u.u.8.8.8.t.8.5.7.5.1.1.6.6.8.1.t.s.s.d.i.1.1.t.:.' 5.t.t.t.s.u.t.s.u.! } s.8.t.8.t.5.8.7.8.1.X.+.t.t.t.8.t.6.1.6.X.^ 1.+.1.8.7.8.8.t.t.7.8.7.:.{ ! M r - - - + - a ^ R x ! ^ d F ^ +.5.1.1.1.7.8.8.7.$.R d M } 1.%.5.w.2.1.$.3.5.3.3._ r E w.2.2.3.1.2.5.3.7.6.7.2.1.<.) ^ E d , , , > > 3 , < 3 a a u y y y t 7 y t 3 3 3 7 7 7 t t y u u t 7 2 > > 3 s d u y y 7 1 > 2 3 < 3 7 3 > , 7 0 y u u u ",
"I 1.8.1.[ X.1.1.5.:.;.1.1.5.5.,.1.5.5.5.,.5.5.5.5.5.1.5.I I 8.<.6.:.t.5.1.1.>.1.5.5.1.+.o.! ! 1.1.7.M 1 I } ^ ;.6.1.X.X.} } ' R I c s r r 2 1 : - @ O O @ O - I :.8.6.5.>.5.7.5.;.' t.t.t.5.V b t.:.t.t.6.1.:.1.5.8.t.6.6.7.5.6.1.:.:.+.:.7.8.8.6.6.8.u.5.5.} I t.s.8.8.Q y 1.7.t.5.5.8.5.5.6.8.1.;.Q +.t.:.:.t.5.t.u.8.8.' ^ 5.8.1.+.+.X.I R +.8.+.X.5.8.1.:.5.8.t.s.u.u.u.u.t.u.s.8.8.8.>.t.s.s.s.i.s.1.5.s.8.t.t.>.+.1.>.1.t.s.e.V.rX;XoX=X&XoX=X-X;X-X;X;X=XXXI.-Xk.K.8XgXgXoX`.v.<XdXhXoX].*X*X*X1XY.Y.*X].wX{.].Y.D.}.oX}.[.].<XdX5XnXMX1Xv.<XMXMXiX<XpXsX(.A.aXaXaXbX7X7XA.n.7X=.e 7XmX7X`.mXCXsXsXCXCXCXCXjXhXjXGX/.-.0.7.8.8.8.8.8.8.t.s.t.5.:.e.1.1.s.f.5.:.s.1.1.:.} 1.1.>.[ :.t.s.t.8.8.t.t.s.5.R 8.s.6.8.1.5.5.7.7.5.5.^ ! t.t.a.t.d.X.' o.} ' 1.1.1.5.5.8.8.7.7.t.1.X.I r ; - X @ 1 r I x M w.;.R 3 ^ 6.1.7.1.$.$.1.1.1.%.} ^ ! R V E &.2.2. .1.&.$.1.<.$.} F y ) X. .} { { ) ^ { ) ^ ^ ^ ^ E G F E h < < < & : < u u y 0 7 0 3 3 7 3 1 > 1 7 u h n N B c d s u y t 7 3 3 3 3 7 3 1 > > 1 7 3 > $ : > 0 u u 3 3 7 0 u y 0 ",
"^ I } } ' :.t.>.1.1.:.1.1.1.1.5.5.1.5.1.5.1.1.5.7.5.5.7.:.V R :.>.t.:.5.5.6.6.5.>.1.1.1.5.X.a [ [ x r U ;.1.:.' ' :.7.5.7.7.5.:.1.7.:.+.:.<.1.1.7.' 1 - O O 2 { 7.5.8.5.5.1.5.8.8.:.5.8.8.8.8.^ y >.5.8.t.8.1.1.1.7.t.8.6.8.t.t.t.t.5.+.5.8.8.8.t.7.Q ' d.8.+.1.:.} 6.1.' Q M 5.1.6.8.7.6.t.8.5.8.N R 5.t.8.>.X.5.t.8.8.8.+.X.t.7.5.:.1.1.! I o.} +.5.5.' X.1.t.u.t.u.u.u.u.t.s.t.t.s.s.6.+.p.s.s.s.s.t.5.5.s.8.u.1.>.6.6.1.t.y.e.0.l..X}.;XXXW.&X4X-X4X;X=X-X=X-XXXXXS.D.}.hX5XoXiX`.].oXhX<X}.5XgXgXgX1XK.K.+XbXwX+Xv.B.L.+X[.[.[.L.}.8XnXkX#X2XdXnXNX2XjXxXsX`.C.jXmXZXAXaX@X7X(.BXP C @X7XfXA.aXmXpXjXCXcXCXcXcXpXhXDXM.-.0.w.7.7.5.8.8.8.t.t.t.u.1.5.6.1.o.1.1.1.8.1.:.:.+.1.<.7.>.X.5.s.s.s.s.u.t.p.t.) X.w.8.2.5.1.2.8.4.t.8.5.^ R } 8.w.8.! X.6.+.+.6.5.5.6.8.4.8.5.5.+.Q d r 3 1 1 1 y F ^ { F i F d : i M v d d 8 r y i i d v d d v v d i d d i i d d d i i y d y 8 d y i i y y y y y y r r 8 8 y 8 8 0 8 , : > : > > : 3 3 3 0 0 u u u u y u u d V D D h s u u y t y y 7 3 3 3 3 3 7 3 3 > : ; > 3 y u d s s y 3 3 2 3 3 3 > ",
"' c ' +.5.:.;.5.:.1.1.1.1.1.1.1.5.5.,.5.1.5.5.5.5.5.5.5.5.X.N ' t.5.7.7.5.5.5.5.1.5.7.5.6.>.x s r M ' X.X.<.<.1.+.' ' o.:.:.1.7.,.1.1.5.5.5.5.5.;.c + + O O + a } t.6.5.5.8.8.8.8.1.1.8.6.t.1.8.' c >.6.6.6.5.5.1.>.>.5.8.6.6.t.8.t.5.:.5.t.8.5.t.R b +.8.5.8.6.s.5.+.R ! R b d 1.8.s.d.d.6.6.s.} M ' :.7.7.t.t.:.1.t.s.t.:.' d.t.8.1.1.+.M R } :.1.<.} } +.1.6.t.s.u.u.u.u.u.s.s.s.s.u.t.1.u.s.s.s.d.s.6.5.5.5.5.1.u.f.8.5.y.t.6.2.-.(.}.oXW.W.U.-X4X9X9X=X&XT.XXoXS.F.G.B.oX5XoXdXoXL.].dXoXoXgXdXgXgX0X+Xc.L.+X+X[.c.K.B.<X*X<X3X].G.,XfX}.3XpX1X0XaX2X+XuX%X'.`.AXAXZX7X@XaXmX@XBXH =.bXZXZX@XCXmXrXxXGXxXcXMXcXhXcXlXj.l.8.p.t.t.t.8.8.8.6.5.5.8.:.7.d.s.6.1.X.+.s.8.8.8.:.1.7.6.t.X.1.s.u.8.t.u.u.p.p.s.V +.1.+.1.1.5.2.1.1.+.| R N V N E E b R F V I N I N b M b v x v i a y a y y a y y y y r a r y r 8 2 , , 8 r , < 2 , 3 8 r 8 8 8 r 8 y 8 y y 0 y i s y y 8 r y u a y y y y y y y r r 3 3 2 , , 8 8 < : , , , < , : , < 3 0 u y u 0 y u s u u u u 0 y u u s h d y t t 7 t 3 3 7 7 7 1 > 3 7 y u s s s u 7 3 > 3 > : : : > : ",
"} R ' 5.5.5.1.5.1.1.:.,.:.:.:.5.1.5.1.1.5.1.5.5.5.5.5.5.8.1.+.N ' 6.5.t.6.5.5.5.5.5.5.1.! x 2 s [ >.+.+.:.;.:.:.o.' [ [ } [ :.<.o.5.8.8.8.5.5.1.M - + r - O ; M Q ' 8.t.7.5.8.8.7.5.:.8.6.6.u.5.8.M Q 6.7.7.6.5.7.5.:.,.5.5.6.8.8.5.5.5.5.t.8.t.' x ' 8.:.5.8.s.8.7.5.+.+.+.o.M M 1.t.s.5.6.t.X.^ ! 1.+.8.8.y.5.1.} } 8.8.1.^ s.8.5.8.:.+.c X.p.t.1.' X.:.5.8.8.t.t.u.p.s.t.u.s.s.s.t.t.i.5.s.p.s.s.s.1.1.5.1.6.>.8.s.1.+.u.y.t.2.4.-.C..XXXW.oX=X&X&X-X4X:X-X*XoXXXD.S.oXv.J.dXoXjX}.].].oXoXqXqXwXfX0X;X+XB.K.wXgXgXL.[.L.0X<X3X0X[.K.+XL.Y.fXbX<X8XL.L.@XiXxXrXA.ZXAXaX7XZXzXxX).^.e V.ZXZXaX+XmXCX$XsXcXhXzXcXGXcXvX`.-.9.8.t.t.i.s.u.u.s.8.t.5.1.1.5.8.8.8.t.+.} +.1.8.1.:.s.s.t.t.7.5.p.d.t.t.8.5.1.+.+.b V b V d d d v d s v u y d a y a d y v d a y t y a y y r r r y 8 y a a y r 8 y y a a d y y i y i i 8 r , 8 3 3 3 3 3 8 3 3 8 r 8 8 , 8 r r y , r 8 8 3 8 8 y 3 3 i 8 8 8 r 8 , r 8 2 3 3 , 3 , , : , 3 7 0 7 3 > : : > 3 0 0 y i s p u u p p u i k c h h h s y y t t y y u y 7 7 y y u s s u 7 3 1 > > > 3 3 > > 1 < 7 7 ",
":.,.Q <.5.5.5.1.>.1.1.7.1.:.1.1.5.,.5.5.1.5.5.5.5.5.5.6.5.7.1.1.Q M ' ,.6.6.5.5.+.Q N s x Q ' N :.1.1.5.7.7.:.' ^ X.;.:.1.} } X.;.8.5.5.6.8.1.Q - O a ' r - ; I 5.Q Q 5.8.5.8.5.:.5.X.7.8.6.6.6.1.^ x >.5.8.6.5.6.5.5.8.5.8.7.8.6.6.8.8.8.1.8.' x ' 1.<.1.8.u.s.8.8.5.u.t.y.u.6.b V 1.1.7.6.X.' X.} t.1.t.8.t.o.1.s.1.:.:.:.T 8.8.8.t.:.1.x 8.d.7.' O.:.;.8.t.8.8.p.u.0.u.s.u.i.s.s.u.u.t.:.s.d.8.8.8.5.6.7.8.6.>.6.1.>.6.s.y.7.6.0.q.n.}.}.T.T.Q.W.XXU.T.oXXXW.I.XXF.k.Y.}.h.J..XoX`.G.b.].iXhX0X3X0XwX*X+XH.+X+X0X1XI.*X{.L.8X1X<X<X[.b.K.7XfX<X+X+XA.{.`.hXCX$X(.BXVXmXZXZXZXZXA.=.e @XZXNXZX@XrXxX'..XuXuXhXcXcXcXiXx.-.9.4.t.u.u.s.s.s.s.i.d.t.t.d.6.8.8.s.d.t.s.t.+.^ 5.s.u.i.t.>.<.^ ^ ' I U I V c d d i y b d d d v v d d s s y a y a r d d v d d s d x d s s y a y a y a s i a a a s y a a 8 i a 8 y 8 y y y 8 r 8 3 7 u 0 r 8 r 8 8 3 3 8 r 8 8 8 y 8 r r 8 8 y 8 a t i 3 3 y 8 r 8 8 r r r 8 3 3 , y i d u i u 7 3 7 0 u u u u a i d c n n B B B b k c s a y 7 t y y y u u s d d s s d d t 7 3 2 7 1 3 3 3 > 7 2 3 2 , y d d ",
";.7.' M ' <.1.1.7.7.5.5.1.>.<.5.5.1.7.1.5.1.5.5.5.,.1.7.8.7.7.>.1.+.x 2 M I x t a c Q :.t.>.1.N 1.5.1.7.8.5.X.+.1.7.8.7.;.} Q I o.y.7.7.5.7.' 1 O 1 [ <.r - - I 8.5.' U 5.8.6.8.5.:.X.:.8.5.7.5.8.5.a ^ y.y.1.1.5.5.8.8.8.t.6.6.5.t.t.5.t.<.' y ^ 1.>.1.8.t.y.6.6.6.t.t.t.8.u.6.5.a X.8.7.{ R t.' o.t.t.1.s.:.1.8.7.8.s.5.^ d 8.t.8.t.o.:.r 8.:.} o.[ } 5.8.s.s.t.t.t.s.s.s.s.t.s.t.8.s.t.1.u.6.>.5.t.s.s.8.8.5.5.p.7.1.s.t.p.:.5.4.3.x.A.Y.XXoX;X-X4X-X5X:X=X-X:X:XXXc.[.,XB.h.oXoX`.h.g.].oXiX;X[.;X*XY.H.Y.;X+X6X;XR.+XB.K.3X0X3X}.G.v.].].;XY.G.J.pXfX]..XCX$XC.VXAXHXmXGXHXlX-.4 -.HXVXxXGX$X@X7XA.%XaX'.aXcXhXsX.Xl.9.2.8.t.s.8.d.p.s.s.s.s.s.y.u.5.1.8.8.t.8.s.w.+.} O.} ~ ~ V b i 8 y i x x d d x b d i y y h d k k i i i i 0 y u d d d h h d d b c d h v d d d d s u a i d d d i d d d v i i u i p w u i 0 i i y y u y y t y t t 7 t t r y t 3 y 3 3 0 y 3 7 y y y y y y u y y y y r y r r i i d V E { E b i y 3 > 1 7 t u u t 7 t t u d d h d s u a y t t t t y t t u u s d u s s u t 7 3 > 3 3 2 3 > : & > 3 7 7 3 3 y u u u ",
"} ' } R R ^ ^ ! ' ' ! ' } o.o.+.:.:.>.:.:.:.+.+.+.+.} ' Q I I I M x V 2 r ! ' X.>.6.t.5.8.7.R x 1.5.5.5.5.:.1.1.5.1.1.>.7.1.} ! ^ X.;.5.5.' r O + Q 7.:.r - - I 5.5.5.:.U } y.t.6.6.>.>.8.5.8.8.5.7.Q a :.7.1.:.8.5.8.8.6.6.8.5.5.>.6.y.8.' r I t.5.6.7.1.7.6.5.7.t.t.i.8.i.6.1.8.' I 7.:.{ o.1.R 1.y.t.X.} X.8.t.t.8.t.6.u.Q 5.t.6.:.:.:.r V Q ' :.6.8.8.8.t.8.t.t.t.u.s.t.t.t.s.s.u.s.5.[ 1.6.8.t.t.t.t.t.:.5.8.8.1.1.8.7.:.:.7.w.3.=.A.+X].=XoXXX:X5XqX4X9X;X;X-X-XI.Y.oXoXB.].oXB.].oXC.oX`.[.5X[.G.b.H.B.Q.=XY.H.+X+X*XR.K.,XoXG.b.3X5X,X[.].[.Y.0XnXxX`.aXA.V.GXGXZXAXGXDXrXj K zXFXCXBXmXpX+XaX{.pXaX%XrXiXxXzXOX@.q.0.0.8.p.d.p.p.s.d.s.s.d.s.s.5.+.:.+.} ! R V V v b b x x i d i d b B a y b B b c b p 3 0 l n m k w i i i a 0 u k n d s h b k c h n c v d d d u d b d d d v v k v d b b v i p i p i 0 0 0 0 0 0 y y y y y y y y y u y a i y y y y 3 3 t t t 7 7 y y u s d d d a u i d b F R E ~ E ~ E F x y 3 3 t u d s u y 3 3 3 7 t 7 7 t 7 7 7 3 3 7 7 7 7 7 y u s d c h h s a u t 7 y u 7 3 1 > > < 3 3 7 t 7 7 0 u a u u ",
";.X.+.8.1.1.5.1.5.:.:.+.} I a 1 2 r a x t a a t y d N I U ' X.;.8.8.} x ' 5.5.6.8.8.6.7.6.5.} r ' +.>.5.5.1.5.5.5.1.1.:.1.t.:.:.7.1.:.;.Q r O + I 7.5.;.r - - I 5.5.5.5.} ^ [ y.6.5.>.5.8.5.7.7.1.5.1.a I :.1.:.8.8.8.8.t.6.t.>.8.5.7.:.' 1 M :.o.;.5.8.i.8.>.1.6.8.8.t.8.s.6.6.} :.y I } t.8.Q } f.8.s.o.R 5.d.8.s.t.i.s.6.R 8.:.:.;.d.Q b +.1.5.t.y.8.u.t.t.8.8.t.t.t.t.t.t.t.t.t.5.1.X.+.5.t.i.t.8.6.t.t.+.1.t.8.8.y.t.7.2.7.:.:.4.=.n.@XY.*XoXoX-X:X-XoX4X4XoXgXF.F.F.G.oX].`.oXB.].iXD.oXoX[.[.9XR.F.b.Y.U.H.Q.c.R.,X;X+XJ.v.N.B.].*XoXK.L.,XoXoXjXkXMXA.'. XV.zXaXvXBXBXBXrX4 -.HXFXAXZXbXjX+XaXZ..XsXxX%XiX.XFX~.-.9.8.u.s.8.t.t.t.s.s.t.7.8.o.} R N V M v d v V I ~ ' R d i i p i i k d i b ! R N b y 3 i n m n d j d g u , > u k b d d h n h d d B n c b d y y d h k d d v d i d d B F b s d p i 0 0 0 0 0 0 u 0 0 y y y y u y y u u y u y 0 3 7 t a y 7 3 3 3 7 y u d h c d d u d d k b M b v k b b b v d d d u y y y d u y u u y u u y y y t t t t 7 2 7 s h h c n b d s s d u h h h s u 3 3 3 3 7 y y u y y u t t t u y y y ",
"R R Q Q R Q ' ' [ [ Q I M x a d x I ' ' o.:.:.:.,.8.t.7.5.5.5.5.5.5.Q X.7.7.6.7.7.6.6.5.6.7.:.y } 1.5.5.1.1.1.5.5.5.5.5.:.,.:.} +.o.! M r O + M X.:.5.:.r + + I 6.8.5.7.t.o.c ' 6.:.;.8.8.8.8.7.8.7.t.U a ,.:.1.5.8.t.t.t.t.1.5.1.:.o.R 2 x :.X.! } ' X.} I V ^ ' ! ! ' ^ ! ^ X.! ! N ; :.,.5.M 5.u.s.1.X.6.t.u.8.8.s.8.y.y.' 1.+.:.7.R d ' +.5.t.t.s.t.8.t.u.u.u.8.t.t.u.s.s.s.d.5.} :.t.t.s.u.8.8.t.8.6.+.} :.+.+.1.8.$.} $.5.:.8.w.-.=.@X{.[.].W.XXXX-XT.-XT.I.I.I.T.D.B.].5X`.oX].].5X].].iX1XI.*XG.D.B.R.R.H.H.b.R.[.6XY.Z.G.h.oX].<X[.B.,X<XK.5X5X#X3XaX.X'.x.n.K @XBXFXFX X* l.FXHXZXZXNXmX#XjX@XpXiXcXrXzXzXlXj.q.q.0.t.t.p.p.t.8.5.+.^ Q V M M M b b x b M N ^ X.^ V d i i w i v k v k V F F R B 0 0 k G D h p d k p 0 < < , n V n d l n h d s h b b D b 7 3 u h h b d v d y y s b F R v i u w y 0 0 0 0 0 8 0 y u d p u u s y y y y y y y y 3 1 3 3 0 y t 7 7 t t 7 3 7 7 3 7 7 y 0 y 8 8 8 i i d d h v d k v c h d h x h c b c h c c u 1 1 7 > > 1 u n B V N x s s u 7 7 y s s u y t 7 3 7 t y y u s s s y 7 t u t t 3 3 3 > ",
"V N V a x M M M M N N U ^ o.:.+.;.1.5.5.5.5.5.1.5.1.5.5.1.>.1.5.5.>.R 1.8.8.8.8.6.7.5.6.7.8.+.M ;.1.1.5.1.5.5.1.1.5.1.5.1.:.:.' R a 1 : - O r ;.y.<.;.} r - - I 8.8.7.7.t.5.' N ' [ X.7.7.5.7.7.5.5.5.:.a :.;.} 8.8.8.t.t.t.7.7.<.+.x r ^ +.+.5.8.:.5.5.X.} 1.6.6.5.1.6.>.+.5.6.y.>.+.N ! 1.' ' t.d.o.} 7.t.8.t.8.u.8.s.8.s.! o.1.:.x a } 8.1.t.s.i.t.8.u.t.t.t.t.t.i.s.s.s.8.1.' ' 1.t.y.d.s.u.6.5.6.8.1.X.1.8.5.6.6.5.X.E O.1.7.,.,.,.@.j.A.G.F.K.U.XX&XXX-X=XXXI.oX:XoXoXD.oX5X`.I.I.oX].D.oX;X5X[.b.H.T.G.H.Q.R.H.=X6X6XK.R.5Xh.J.}.L.[.L.oXoXJ.].}.3XxXsXVXA.=.x.C @XBXFXDX@X* =.HXZXZXZXbX3X@XpX{.GXrXiX|.DXHX^.-.&.5.<.a.7.;.^ R I N b v v I M v s s d v B F ~ _ R B i d i i d p z v j v n n m m u d n m V m k i h g 7 7 u u h B n h n b h d d h k n G V s y h n b b n b d u 7 y h B n h i i 8 0 u i p p y 0 0 0 i k b d y t y 7 t y y u y y y 7 3 > 3 0 t 2 : $ > 2 t u u u s d u u u a v M n d i y i d v b b b b h h c h c c h d u y a t 7 2 7 7 y s d s a y 7 3 3 3 3 1 2 > > 2 > 1 3 t y u s y u y u y t t t 7 r 7 1 3 3 3 t ",
";.5.5.} 5.7.>.5.1.5.6.5.>.5.1.+.;.<.:.:.+.:.:.1.1.1.1.1.>.5.5.5.s.1.^ >.8.6.6.1.,.6.6.5.5.7.1.N 1.5.1.1.5.1.1.1.>.5.7.,.>.+.I r - O + @ O + I 7.:.y.5.X.r - - M <.5.y.7.7.7.5.Q } 5.1.6.5.,.y.7.5.5.5.5.r M Q c +.8.7.t.8.5.1.t.;.b 1 ' } 1.d.:.5.8.8.>.+.t.t.8.t.t.t.t.6.5.6.6.6.t.:.' V ;.R :.s.1.' :.d.t.s.s.8.8.8.8.6.5.R +.' t c X.8.6.p.8.t.t.8.t.s.s.8.8.8.t.8.5.1.>.+.+.1.8.:.:.7.7.5.8.s.8.5.+.X.1.s.d.1.6.6.7.1.:.s.s.!.y.8.6.2.j.A.L.U.T.XXT.XXXX=XXXXXT.;XXXoXoXoXb.B.I.D.G.L.J.C.].oX}.Y.L.c.K.Y.=XY.Q.U.6X6X6XY.+X3XL.L G.oX0XL.].b.B.<X<XpXpXMXGX@X@.n.e _.FXDXHX X* =.HXZXZXZXaX7XaX2X%XHXvXj.V.^.V.S #.&.<.{ { Q I M I b b x b V T N x y y v m R ! { R d d a i v k j z v z n n z b l n G m D U Y n h n y q u h k d u h m V k h h h h k d N G u 7 n V n V D d u u u y u h h d y u u 0 0 0 i u 0 u u 0 p k n c u t 3 3 7 7 7 y y u y 3 3 3 ; 3 > $ $ @ $ 2 a n N N b b c b V V N b i v b N B B B B b b b d h x d d d d y y y y u d d s 7 3 3 3 > > : > 2 2 > : : : > > > > 3 y u y y y 7 t t t t t 2 2 2 2 1 2 2 3 r y y ",
"<.X.:.o.X.1.5.>.5.5.1.5.5.1.:.+.+.>.5.:.+.:.1.1.1.1.6.1.:.1.5.6.1.6.Q 1.8.5.>.^ U [ >.y.5.<.t.M 1.t.1.:.>.:.1.t.5.:.X.Q M r 1 - - - - - O - a b c T I x 1 1 ; r M Q I I I N N x x R Q ! } X.X.X.X.} ! I a r - O d :.t.t.5.5.:.I 2 r ! :.:.8.s.8.6.5.>.+.5.8.t.p.6.t.t.6.1.5.6.7.8.t.7.5.a V X.a.} ' :.t.y.8.t.8.8.t.5.>.+.6.R d x X.y.t.1.6.8.t.p.8.u.t.5.1.+.o.} } ^ } +.X.;.:.1.5.:.+.:.1.5.s.s.1.X.8.+.6.5.5.+.6.6.8.6.5.w.s.i.t.y.i.e.-.C.#XR.R.W.W.XXXXW.XXE.XXW.:XoXqXoXoXk.k.P oXB.].C.h.K.{.J.].B.*XqX;X=XU.Q.6X6XwXR.7XoXhXh.].,X,XB.B.L.}.<X}.].2XaXsXaX@.=.e ).DXDXDXOX9 _ HXHXZXBXaXjXxXzX|.vXlX=.r.l.*.f J o.V a x x I M N b d d x R ^ B d s b V R E R F d 8 u i d v j v z z z G J B z G _ W V Y E D n b f q q f n g u f n n k h p g h h h d d u p n m n B m n k i y u u y y 7 y u i u 0 u 0 u 0 i i i u p d i i y t 7 t t y y y t 7 3 1 3 : ; ; ; ; $ $ ; s h h c c c b B R E m d B F V B F F V B b b v y u d d u s s y u d d h N h t 7 3 2 > : : : > > : > : : : > > 1 3 7 t y y y t y t 7 t 3 3 3 3 3 t t t t t y h c V ",
"5.5.:.o.' 6.d.1.5.1.1.7.5.;.X.:.1.X.:.7.1.>.<.:.:.+.<.;.;.>.>.7.6.5.Q :.8.5.t.6.+.Q c ^ 5.p.;.c 1.p.t.:.:.:.1.} I y ; @ + + + - + - - - - + - + O O O - - - r ; 1 + - + + + + + - ; ; - - - - - 1 - O + @ O - r N t.1.;.1.Q : : I 1.1.1.7.8.8.8.6.1.:.5.8.t.t.8.t.6.6.>.:.5.t.8.t.t.t.d.y x d.5.I o.d.t.5.u.5.} +.+.+.1.d.1.3 : I o.5.7.t.t.t.t.5.1.' R ' } o.+.>.7.1.} X.8.s.d.t.1.<.:.5.t.f.5.} ' X.X.R <.+.:.>.1.i.8.8.t.8.t.p.t.i.i.2.2.n.%X'.Y.T.W.W.XXW.W.E.XXXXXXoXoXoXoXoXb.L b.D.].].h.v.k.U.k.F.;X9X9X;XH.Q.6XbXQ.+X1X,XdXh.J.1XB.B.dX1X3XdXcXhXuX%XaXBX=.r.e ).yXSXyXtX4 H HXHXHXZXHXHXDXzX X^.^./ -.#.W / .. .F x x x a c d d d v R  .R b y x F V F V k d y i u i k v v z A F J J m k R ( ( D D W R n n u 7 t h n l u f N A h p y q 0 0 7 < 0 0 d n n b n k d i k p g h y > > 7 q u q u u u 0 0 0 i p p u 0 0 3 7 y a u s 7 y s s 7 > : > > : @ $ > 7 : ; 7 s a s h h u n W ' F M E ^ E R F V V B B m d i u d h s u y y y u d h y y 3 $ > 3 7 : : : 1 > : > > : : > 1 3 7 t y t y y u u y y 3 3 3 7 t u h d s s u h n U ( } ",
"! ;.5.1.o.} :.1.:.:.1.5.:.} } :.>.;.+.X.<.5.1.:.X.+.<.;.1.7.1.5.y.1.[ X.7.y.8.5.5.5.+.Q V ~ X.I 1.y.5.<.:.] x r ; - - - - - - + + + + - - - + + + + + O + - - - - - + + + - + + + O + + + + O + + O - - r 1 I O.:.6.:.Q x r c o.7.>.1.5.>.5.5.5.>.:.:.5.t.8.t.8.8.6.6.1.1.6.8.8.i.u.8.o.r M :.! 1.8.t.8.t.7.' ^ 7.:.8.y.' 3 y +.>.' ! R ^ ^ Q R Q X.X.:.5.8.8.t.8.8.8.>.<.6.6.5.5.8.8.7.5.6.+.' 1.5.:.;.' t.t.5.u.8.u.1.:.y.7.8.t.p.a.p.0.q.-.^..XT.I.T.XXoXW.T.I.XXXXXXXXXXXXE.oXoX].g.D.b.B.h.g.k.H.g.H.=X;X=XQ.U.=X6X6X+X;X+XhX}.g.v.B.].<X;XpXdXMXkXcXCXcXzXrXj.w 4 -.DXyXSXSXf Z DXHXHXHXDXaX(.l.` K J W J / ( _ E v v i d d d v d x b E  .) d d n B b B m F b i d v j v b B z l m G G k p D ( / U D D S b s t 7 t c A h f b n A f g u q 7 5 7 0 y u p k n k V m l i u d l k p 7 < < 5 7 u p u u 0 0 0 i d d 0 0 7 < 7 y u u y y t y u s t > : 3 1 : $ ; > 2 : : u d u a s h V ^ R n V E | ) R V V V V N b h s s d d s u u u y y t 7 7 3 u t 1 7 t 1 : : > 1 > : > ; : $ > 2 t y y y u u y 0 3 , , 8 8 i w i v v v j j F F ^ _ _ ( ",
"} ' ' { <.:.;.:.;.:.>.1.:.+.;.X.+.:.+.+.;.:.:.+.} X.t.:.+.5.5.5.:.5.;.! ;.1.8.p.8.5.8.t.:.M x y ' 7.y.;.^ x r - - - O + + @ + + - + + + + + + - O O @ O + + - + + + - - + + + - O O O + + + O O O - s { ;.a Q y.;.} x 1 b +.6.1.1.t.t.:.5.t.t.6.6.5.>.6.t.8.t.8.6.5.5.8.8.8.8.t.t.u.t.M x r Q <.s.s.t.y.1.' o.t.s.f.7.R x M ;.5.i.8.s.d.d.s.5.:.7.s.t.u.i.8.8.s.d.f.d.t.5.5.8.8.t.6.d.f.8.N } 8.u.p.s.1.[ 5.8.t.t.1.1.o.;.:.:.:.1.7.w.w.i.i.l.-. XoXW.W.W.E.E.P.I.E.E.I.I.E.S.D.I.T.oXk.v.B.D.h.k.g.c.c.U.Y.=X=XQ.U.>XQ.Q.K.1XgX5XB.L h.,X{.}.hXhXMXkXCXjXCXGXsXaX/.f e j l.@.@./.c s SXHXDX/.f.K z H Z S J ] | ] / m b b v B B v v v b b ~ }  .F M b b B b b F G B k B b b B n b B m A k u g m D n N A f d s b f 7 t Z A A q t g p u u y 6 y f h f f h k l n m m G n d i p p n k u 0 7 7 7 7 u i 0 < 0 i p k k p 0 8 7 0 y y u u y y y y u u y 7 3 7 3 : $ > : ; > 7 t u s y d R | D u b ! | ! G B n B V F V k y 0 y d h a t 3 7 2 1 > : 3 t s 7 t u 7 > : : > 1 > > ; ; : ; > 7 y u y s t 3 > 1 > 1 , 8 w i v w w w i v W ) ) W G D G ",
"5.<.} R R } o.^ ' :.<.:.;.+.:.} R ' 1.:.:.+.} O.+.o.;.:.' X.1.:.:.:.:.:.o.1.5.1.8.t.5.+.;.:.^ a a R ^ x r - + O O + - + + + + + + + + O O O + + + O   . + O + + + - + + O O + O O O + + + + + + O - a T ^ 1 M y.+.r y ' p.t.5.6.8.6.1.7.t.t.t.8.6.5.1.5.t.6.7.5.5.6.6.8.t.8.t.t.p.8.^ Q V r o.y.t.t.d.<.' X.y.d.t.t.I 2 I } 8.8.8.u.u.t.t.8.5.8.s.8.8.8.t.s.s.s.t.t.i.8.s.d.t.6.8.y.d.5.~ +.8.6.t.s.8.8.6.o.+.5.5.t.8.i.y.y.,.:.<.3.3.8.8.0.q.-.V.oXXXXXW.T.T.P.I.F.F.E.F.I.I.D.S.F.I.D.g.`.5XB.k.L g.c.+XU.;X+XH.U.6XQ.F.H.;X[.N.v.}.h.g.v.K.+X0X3XcXcX3XiXsX.XaXtXj 4 # # . . S f 6 /.^.#.H H Z S Z D J | X.^ ] R v v F T T F b d b V F R ~ T B F v d b F B F v k F G E B k B B B z k h h u u n h h b x p f f s 6 t A A h f p u q 7 6 7 7 p f g g f k k k n B m k i u p j k d g u u p 0 7 7 0 0 5 , < u k k p u 9 0 u u u a y y t y 7 y y 7 7 3 7 7 7 : ; : $ : 7 t t u h n R R N u b ( ] R N N B n b B m b u y r u d u t 7 1 > : > 1 3 u 7 3 3 y y 3 2 > 1 3 > 3 > : : : > 1 y u s u y t 1 : : , < y i d v v j i j j z ) ) H G z l W ",
"1.7.5.5.o.' ! R } :.1.:.' :.1.:.:.' I ^ :.} X.:.1.1.' o.} X.1.:.:.:.5.8.1.:.X.;.5.1.:.X.+.;.1.1.I y r ; - + - - + +   O O O O + O + O O O O   O + + . . @ O O O O + O + + + + + O O + O O + + - O O - - r 1 x I y r } i.7.6.t.y.8.7.8.7.t.6.8.t.8.6.,.>.:.>.1.5.8.6.5.8.6.8.t.t.s.+.N o.y V 8.y.8.s.:.} 1.5.1.5.[ x r x } 1.8.8.s.s.t.8.8.7.6.8.8.8.8.t.8.8.t.t.p.s.p.s.s.8.t.s.s.s.8.' :.t.t.t.5.:.+.' } +.+.>.>.:.5.i.t.8.8.7.8.4.p.p.u.u.i.r.l.(.}.].oXT.E.E.E.].E.D.F.E.I.I.I.].E.].h.h.oXN.K.c.C b.Z.J.;X+Xb.Q.Q.B.b.K.b.H.P.}.oXoXK.h.g.b.}.<XoX}.'.%X%XlXvX@Xe * # # # . b _ t Y H G G G V A m G ^ o._ } ! N b E ~ T T B v v N V T F V V F b y B B B E F d B  .) F F B V k k i i h u 0 y h u u d d d h t 7 s b f n h h k p h u 7 6 u k u 7 u h b b k n n h u 0 y d k d k h B l y < 3 7 0 3 < 5 0 i p d j 0 , i h d i u 0 0 y 0 t 3 3 3 3 3 , 1 3 : ; @ @ : t u u c N Y N s y h D U D l c n b d v b b d y r 0 s d 7 ; > : : 2 u u y y ; : y u y 7 7 7 t 7 3 3 > : : : > 3 y s d u 7 7 7 7 < 7 8 i d v i j i w z j H F H H m G ) _ ",
":.<.>.:.5.7.:.R r Q ' o.:.7.:.:.:.:.:.} M I X.1.:.:.;.X.;.o.o.<.:.:.:.,.1.1.1.:.+.1.:.:.t.t.;.N r ; - ; + - + + + O + + o $ + . .   @ $   @ % X       . . o + @ @ + - + + + - - 1 a r 1 - O O O + - + O - - 1 r r ! y.8.<.7.5.7.8.8.t.8.t.t.t.t.8.5.:.+.;.:.5.5.t.t.8.8.7.y.8.7.8.^ } <.a ! X.X.1.R 3 y x 3 3 - - + - I } ;.6.i.t.t.i.d.s.:.:.5.5.5.5.5.t.t.t.t.t.u.s.8.8.8.t.s.8.u.o.Q u.8.>.' ' :.5.1.+.1.s.8.8.8.1.:.+.<.1.5.8.p.s.s.s.s.s.s.i.n.`..XT.W.E.E.E.I.I.I.I.I.T.T.E.].oXoXF.g.oX].].G.L B.L.L.1X+XH.Q.'.b.g.g.P.c.R.5XgXwX,XY.+Xx.c.#XwX#X`.N.j.V.BX~.* * # # & 5 n E H W ( V F F m V T ^ }  .) ~ R V T ^ B F T M N N N M M c n M N y d G W ) ~ F n )  .F F E E F p i 0 u p t 0 u i i h k u p f y t f n h h u u u f h h p h f p u h k k h b b n v d y u d d d v k c n h 7 3 3 3 7 0 y u u p p d i u i d d d i y 7 7 3 < 3 7 0 7 : $ > 3 3 7 > > 3 t s s c B b d u u d b N n V B h d i u d b B b d y 0 a u 7 ; ; > 7 h c u u 7 ; : a u t 3 3 t t 3 3 > > ; : > 2 y s h s y t 7 7 3 7 0 u u i j j v F H z i H H W F A W ....",
"1.1.1.5.1.1.5.:.' ^ V M ;.5.:.:.1.;.1.+.^ Q Q ^ X.;.:.:.;.! [ 7.7.:.1.5.1.>.1.5.1.+.} } ^ I x 1 @ O + - O - + + + O + + .   o . @ < t 7 : 1 : @ @ @ o   . . @ $ 1 3 x M Q ^ I x ^ 7.5.R ; O + - O O + - + - - - : a ! } 5.y.7.7.5.5.6.6.t.6.t.6.8.8.5.8.s.t.t.8.8.5.8.t.t.:.;.! M y r r - 2 ; - - 1 + + @ - y x M a y 1 r t N ' +.7.8.7.+.} 8.8.5.t.p.8.t.t.t.t.s.s.u.u.p.s.s.t.u.t.N b ^ } :.6.t.s.u.u.5.:.+.6.1.6.5.+.+.:.t.t.p.p.t.t.s.t.8.t.u.-.n. X].].I.E.E.E.XX].I.I.T.W.].E.F.I.].g.k.oX`.L.g.N.{.+X+XJ.c.U.x.b.J.<XF.c.&X9X9XbX,X+XwX6XK.g.v.K.uX'. X@X@X@.* * # H &.n D Y W W J m F F d m E )  .E E R ^ T E R T { T b b b b v c s M M v b E ^ ) ) F m F R k b E ) F v i y 3 3 0 7 u u d b d 0 u u h y p n n f q u 6 t u h h h h h h h n n k k n n k d h h h h d k h n h h 0 3 , , y p d p p 0 p k u w i k b l h 0 7 3 3 , < 3 y 0 , $ $ 2 0 7 y y s h c c c N c s u c h d h b n n b d i a u b V G V h y y a 3 7 2 2 s b N h d s 3 > : t u t 3 7 t 7 3 3 : > > : > 7 y u u y y t 7 7 3 0 i i q w B v z _ H j z W W H F H ` ` _ ",
"} } o.o.:.<.5.<.o.:.1.^ c I :.1.5.1.:.8.1.5.5.;.! I I ! X.' x I +.:.,.:.>.t.5.>.:.} M y 3 1 ; - - O O + + + O O O O + O o O   t D [ 1.| R } | | E D R E ^ E ( | $.2.7.7.t.y.<.:.^ M ;.5.{ M -   - + ; - - + + - - + @ 2 x { ;.;.,.6.t.7.6.6.5.5.8.5.1.6.t.8.8.8.y.y.7.X.I t r - @ - - - - O + + - 2 x I } 5.y.1.d.1.:.{ ! M r 2 1 1 2 x Q ' 5.8.8.5.1.5.1.5.8.8.t.s.s.d.t.u.u.d.d.R b ! 1.i.t.8.8.t.t.8.6.s.7.+.' :.8.8.t.5.5.t.p.t.s.s.t.t.u.s.u.r.-.V.rX].XXW.E.W.XXXXI.S.D.P.E.].oXI.F.b.L I.`.oXg.j.bXbXbXA.C L c.Z.B.-XL XXU.;X;X;XU.6X6X6XbXwXx.C =.rXtXtX).j 9 w G H F F D W W _ F G E k i m ) ) ) F ~ R +.m R N ~ T b v b M x b b x N b i F E _ ) E v k B p i m ^ ~ i p d 0 3 3 u u d d d l u 3 u d h u f n n t 7 p k p u l n n n n h n n n m m N m k k n D B k B k d p s 7 3 7 < 7 d k d i u w p u 0 0 i k n m u 3 < , > > < 7 3 < : > 3 0 7 7 7 t d b h c n s u N E D d y t s h d y u s k R ( } E B u y y 7 y y s N R D c s d y 2 > 3 7 t y s u y 7 3 2 3 > 3 3 7 3 2 7 3 3 7 3 3 7 7 y 0 0 0 B z w A .._ ~ W ..) F H ) ` %.) ",
"1.1.<.;.' Q ' ! I I ! ;.' I I I ^ X.o.:.1.1.1.1.5.:.;.} ' ' I I R ' X.X.[ R U c r 1 : : - - - - O O O - + O O O O O O O . $ c ( E } +.| ! ..6...| 2.1.$.$.>.2.2.1.2.5.7.5.7.7.7.t.<.' ' :.y.X.N r + O O + + - - + + + + O 1 a I } ,.>.o.1.6.5.5.t.8.8.5.8.t.8.8.;.Q c r @ - - + - - - 1 a I ' I 1 1 o.y.t.8.i.<.:.I :.5.5.t.7.[ N I I x r 3 x d x I ' X.1.8.p.y.t.s.s.s.t.s.8.X.R R p.d.s.8.8.t.t.t.t.u.8.5.s.8.X.} +.5.t.8.8.e.p.p.t.t.t.i.s.t.u.0.q.l.|..XoXXXW.W.W.XXE.I.F.F.I.E.F.E.c.I.g.L z.iXj.B.N.B.c.L k.+XH.Z.oXoXD.g.[.*X1X+X=XwX6X6X6X#XJ.A.x.=.=.@.H H W G E E E ^ U R R ! V ..F i p F } _ ^ E ^ ) { B F V ! v v M G V c d c b D c b V B ^ R b v 0 i i d m W F d d i 0 0 0 d d h d h u 3 u d k f h n h u 7 y h k u u n n n n h h n D J G m V N b n B h k b h d d i u 0 7 y u h h d u y j d u 8 3 0 u k d 3 < , 3 < > , 3 > , , < < , & & 7 y c n B n b c 2 h ^ ^ u 7 s u y t 1 7 s h R } | ] U h y y y y d h n E E b h u 7 3 t 7 t 3 u d d y 7 3 3 3 7 2 2 3 2 > 7 3 3 1 3 > 3 7 7 7 , 8 0 j w F ` 3...) ) ` ) F H ` %.&.H ",
"1.5.5.5.5.1.+.^ M x N R N R I I Q M x a a a x a x a x a s a r r 2 r a a 1 1 2 > 1 ; ; ; $ ; $ + + + . . + + + . O O . O   ; n E | R | 1.} | 2.| ..2.2.2.6.1.$.| $.1.6.6.6.8.8.8.0.t.8.+.^ ' 1.5.{ I a + - + + + + + + + + + + + - a x I ;.5.5.7.8.1.7.y.8.8.X.N r - + + + + - r 3 - r 3 Q y.7.s.M - ' 5.a.8.5.' N b 1.5.1.7.7.7.:.5.[ X.8.5.+.} ^ a - r y M ' :.8.d.s.d.d.t.R N } y.8.s.t.s.t.s.s.t.s.8.X.1.t.8.6.1.1.6.5.5.7.6.8.8.t.t.s.t.t.t.8.s.w.4.r. XiX,XoXXXW.W.W.E.I.E.U.W.W.D.b.P.H.C k.lXj.C P j.L.lX{.{.{.[.].].}.L c.[.5XXXbXwXqX9X6X6XjXV.(.tX).r...` _ W ) ~ E F T T { T { ..G i b E ) _ ^ ~ R ) R R B V F d v b V V d v d B D h R B k G l u i 0 d h h D E b u y 0 0 u i k k d u b p 3 u b h h n A u 7 7 u k t 5 u D S b k h h n N D D D Y D n b d d i a p d p l l i k d d d v p u u i j 8 < 8 5 0 0 0 : : < 3 3 3 > 7 , : , < < , 0 u i n k b b D V u y b N d y x h s u t 7 s h B E | ( R h u t t y d s n D n s d d 7 7 y 7 y t t c n u t 7 t t 7 3 t 2 > > 1 3 > 3 3 > 2 7 2 t 3 > 3 0 u m | ..*._ ..*._ H H ..&.&.) F ",
"1.7.1.;.} Q Q ' ;.:.o.' ' I ;.[ I M M M c I I I I Q R I a r 1 1 2 1 1 ; : 1 > ; ; - $ + + + + + + + + + . . + . $ o > s D N 7 : 7 d h ( | U | | ,.$.1.2.2.2.2.1.2.2.8.6.6.6.8.8.8.t.8.s.8.} I V X.7.:.x r O - + + + - - + - - + + O ; - 1 a R ;.5.5.t.7.X.M 2 : ; + + - - a [ <.t.^ 1 1 ^ 5.1.8.R - r o.8.o.V Q o.I 1.7.6.5.7.:.+.5.} 1.t.>.:.1.5.+.d R } R I b c I [ X.' I I t.d.d.t.s.s.s.u.8.t.8.:.1.8.8.8.8.8.6.5.8.d.8.8.6.:.>.5.5.1.5.6.8.u.d.p.8.*.l.).uXhX1X-X=XW.T.T.T.T.W.W.H.c.=X=XN.g.`.P P ].oXlXiXjXB.L.}.}.oX}.G.L +X].{.eX9X;XoXY.7XrX X(.#._ _ *.^ ) { ^ ~ F T T  .{ T %.%.p d F W ^ T ^ V F E B E v V d n d d R m d n i E c n A i n m h i q h k d h D m p 0 < 0 i 0 b N h n d b u u h B h h n f 5 7 f p 7 5 t b S N b k h l n D E D E R n k i u k k k i m V G G V z v k p p p j d j p i 0 8 0 3 y , , 7 0 0 u u p 0 , 0 8 < 3 0 k m m m b k n N d t y y 7 s d a c n h t a A U U ( ( D s d d 3 t u t p h s y t y 2 > t t t t u h V h t 7 t t 7 7 7 3 2 > > 2 3 1 3 2 > 2 2 t 7 3 , 7 u n ^ | &.....3.3.) H ..4.&.W m z ",
"' R M a x x V V V N a c b a I R [ X.:.<.5.<.:.;.' R x a 1 1 1 ; : : ; - - - - @ + + @ # + . . . + . . @ + . + . . 3 E 1.8.1.$.o.! d 3 7 h b D $.2.1.&.$.$.$.1.6.2.6.2.6.8.8.6.6.8.8.8.5.;.:.>.X.Q ! ' X.r 1 X.! x t - + + + + + O - + - - O + ; r x V M a ; - - + - r N { :.5.<.7.1.N x ^ } ^ ^ X.V O d [ V } :.' d R ' ;.>.t.1.+.1.1.s.5.:.8.:.7.8.} R 5.8.5.8.1.X.' ^ N d ' 5.8.t.s.s.s.t.s.8.8.8.8.6.5.5.6.8.t.8.5.1.8.s.s.8.5.5.t.t.8.8.8.6.8.a.p.d.0.9.l. X%X,X,X+X1XoXXXXXW.W.H.T.H.D.{.}.P P P ].iXiXiXoX7X,Xv.{.]..X}.[.g.v.].{.<X1XhX0XfX7X@X X-.K ` ) W E } } G B F V T  .T ~ 3.W , F ) ) E ~ E B R ~ m E v v d B d k G V h d B ^ h h n u u h m b h m h u V l i p 0 u 0 0 d m n b m d h h h h h h h n a t t 7 7 5 7 f n n n l n l h n n D D E D h d h d n d n m D N V B n l k j i d v k b k d p u 0 0 u 0 3 0 u u p k h y , 0 u u y i d p l G m m V V B u 3 3 y u t y s n h h c D U ( ] ^ G b d d y 3 7 t t t t t 7 7 3 7 t y u u t s b h t 3 3 7 3 7 3 7 3 > 2 3 2 7 7 1 > 7 7 7 t t 7 y u h G W ..&.&.&.3.&...%.3.%.F j g i ",
"a I N Q ! ' } o.+.o.' 1.<.{ Q [ <.1.5.5.;.I x r 1 + - - : 1 ; - - @ @ @ @ @ @ + # . . + . . . . + + @ . .   . + y } $.X...$.| $.$.$.[ h : $ ; B 2.6.2.2.$.$.....1.2.8.6.1.6.8.8.5.1.1.1.>.5.1.1.y.:.I M r 1 :.y.7.1.} M x 1 + - O O O O   O + O O       O + + + 2 U 1.7.<.:.5.:.7.5.1.:.:.1.5.t.y.1.Q 1 r N X.o.;.X.X.:.} Q ! ' R ^ 5.t.8.5.5.6.1.:.7.R +.5.1.t.8.s.>.s.t.t.d.:.>.1.1.6.t.s.s.8.1.t.s.t.5.1.5.5.5.7.o.o.8.6.6.1.1.8.t.8.5.6.6.8.t.y.a.a.d.d.q.n.yXAXfX0XoX}.[.U.F.F.R.Y.G.h.G..XY 4 g.lX.X|.oXiXdXNX%Xc.{.{.}..XJ.L J.pXdXjXiXoX@X(.^.H ) ) ..J D ( } ' V B G B B R B %.<.y j _ ) G W ^ V F ) E E B d v b v v W ^ V v u E ( u n n u 7 u z n n k q p g p p n p h 3 < h E G n h i h d n B b p q l u h p > = 7 u k A n b D A n h n k l n D V k p d n B n G D G n m m m m d v k z m n n k j g i i y 0 0 i d b b b d y 3 3 u i d n k h h G E G m G V n h a y u h y s h M N V U E U ( ! R m b h y 3 3 7 t t t 2 2 7 2 7 t y t 7 t u h c t 3 7 7 3 2 3 3 3 1 > 2 1 3 7 7 3 3 7 7 t t t u s b B E ^ ..+.....&.3...` H z w 9 9 8 ",
"+.5.5.>.5.t.7.1.;.;.;.;.} } Q ] ^ I M a r r - - - - - @ - @ O @ O + O + + @ . . + . . . . . . . . .   . . . 2 n | 0.$.2.6.4.2.2.2.1.$.$.( b t : > ( 1.1.2.2.2.1.&.$.$.>.1.8.8.6.8.7.6.5.1.>.5.8.t.t.7.' 1 1 I :.5.8.8.' 7.;.M + O O O + O O O O O O + + - + + x :.8.:.1.6.t.>.,.7.5.:.;.+.8.s.s.,.:.7.R 2 r ^ 7.5.5.1.t.8.u.i.1.' R o.+.X.1.t.8.t.8.5.' ! 8.8.5.6.1.5.5.:.5.6.8.8.8.5.1.:.:.5.8.u.s.s.s.y.8.8.8.5.1.5.5.5.s.8.8.5.t.s.s.u.8.t.t.t.y.d.p.8.s.4.9.n.rXBXmXkXhX1XL.b.B.K.[.].h.B.{.P 4 P |.oX.XiX5XpXL.#X+XJ.<XiXiXiXj.P iXiXiX.XhXiX X=./ _ _ W D E ( ] R F R W k m T F %.O.w E  .) ) ) F N ^ ^ G E m h d v d F %.[ N d d / / d n n u 7 7 j n m u u p 0 p k m u q > 0 A ^ R d u d c h b n n u 7 f f k 7 : > 5 7 k N A D U A n n h h h h l B h u i m m E E m m B n m m d j m A A k v z k z k j y 0 0 u d k b k i < > 3 u h R W n k k F J G W W E m n d u 0 s s a h c N U E U U E U V n c f u 3 7 7 u u 7 2 2 7 2 7 t t t y t y h c t 7 7 7 3 3 7 3 7 2 2 > > 3 3 2 3 7 t 2 t y s x d h B V G ^ _ W _ &._ H F z 9 < 0 w 0 8 ",
"7.5.5.,.<.1.5.1.,.6.1.;.I M r r r - 1 1 r ; - - @ + X O O X @ @   .     . . . . . . . . . . . .   $ @   > n X.] } 4.$.2.2.8.8.4.1.2.o.$.2.} D E 3 $ n +.1.2.8.0.0.8.6.,.:.:.6.8.8.6.8.1.+.X.>.0.5.5.t.} - { a ^ 6.5.6.' d.7.y.I + + O I M y r +   O O O O O O x ' 1.t.t.6.5.5.t.t.5.:.+.X.5.1.X.} ' } :.X.y ; X.f.s.:.t.8.u.8.s.:.X.5.s.+.} 7.t.7.t.1.8.I ' 1.+.>.} +.8.8.:.:.t.t.u.t.8.5.1.+.+.1.8.8.u.t.s.u.u.6.1.5.s.6.5.6.6.8.8.s.s.8.8.t.s.s.t.p.s.s.s.e.9.9.n.tXVXcXhXhX3X[.*XR.Y.oXL.N.C.P C P C .XlX|.J.#X3X<X{.`.N.J..X.X`.C C..XiXiXlX|.@./ / ` ^ n h E U ^ Y G G F k F E F O. .u F )  .) E v R ^ G V F b N h k m E  .Y b d l U D n N n q 6 7 u k l p n h k f k w 0 < < n E R m d i h n B m b d 2 u p h s 5 = < 7 h k k A U S n A c f h p u d h d p b V D E ! V F k n m m v k F F z v z F F F z i 0 8 u p k d u 0 7 > : u k G W R d d m G G W  ._ E V n d u i c u u c n D D U D D E D b s u t 7 t y t u t t 2 7 2 : 2 3 7 t u u d d t 7 t t 7 7 t 7 7 t 3 3 1 2 3 3 3 3 7 7 7 t a s x c n n V V G G W _ _ A p j w 8 8 p p 0 8 ",
">.6.5.5.:.;.} ! U M a r r 1 1 1 1 - - ; - - + + - @ + @ @ O O X + . . . . . . . . + + . . . . + o o & b } 2.2.$.( 1.2.2.2.2.5.1.2.1.2.2.2.$.o.| ( d $ u W 2.2.2.2.4.6.u.8.>.>.>.6.6.6.1.6.6.,.1.6.t.7.R 1 y.' r 1.t.1.^ t.t.1.7.r O O I ;.' R R I M b M b a 1 - 1 x X.1.>.5.7.6.7.7.7.>.} :.5.;.X.;.1.:.:.;.I r +.1.:.8.t.p.t.s.7.} 1.i.8.:.;.5.1.t.8.6.6.Q t.u.t.8.+.+.>.[ } >.8.t.t.8.8.p.6.8.8.1.6.6.6.8.t.8.1.s.8.7.s.6.5.5.5.8.d.s.u.t.i.s.u.s.t.t.p.s.d.e.r.9.r.OXxXsXhXdX7XwX6X+X].`.B.j.e C lX/.P j.N.oXjXhXjXxXhX}.j.C. X.XV.j.lXrXOX/.=.S / / / N s n _ E R R m m k m G m ) %.| i F _ } E F B W E m b v k B n m R ) ) A b h b D N D A n u 0 7 0 g l k m m m l k 8 0 < 0 A G m d d p h D D D h y y A n 7 : $ : > h A n n D ! n u b h p u h p d p b m D F V F G F m p G W E m z m A j v k J F A z 0 3 0 g i i u 0 3 , : : u V E m k m F E F J %.&.) G m k k n D n t u c c n N D E U A h s y t u t t y t 7 t s t 7 : > 7 3 y y y u h u 7 a y 7 7 t y y y t 7 3 2 2 3 7 3 r 2 3 t s s s h b N V D G V V W G m v j i 5 5 w w i w 8 ",
":.+.' U N s t r 1 1 ; 1 ; - ; - - + - - @ - - + + + X O O O O X O + + + + . . . . . . + + o $ + > N } &.2.1.6.2.1.$.1.6.9.8.6.2.2.&.$.2.2.2.8.$.} } h $ 3 b ( 2.6.8.8.0.2.5.2.+.5.8.0.6.6.8.>.1.8.y.t.a M a.5.R b R ' R } y.7.1.a O O - Q 7.5.1.[ R T ;.;.X.{ X.I r 1 d Q :.5.t.5.' x t c +.1.7.7.8.t.y.1.' ! r d 6.5.6.t.t.8.t.t.} >.5.t.8.5.:.;.6.6.6.s.^ +.i.5.X.:.1.8.5.+.X.} ' +.t.y.8.8.d.d.8.8.6.1.6.6.8.8.s.s.8.8.d.s.6.X.+.8.s.s.s.8.t.s.s.i.s.s.p.p.8.w.e.w.e.~.zXZXjXfX6XwXbX5X.X.XP 4 @.DXDX|.C g.lX#XjXjXvXiX X(.`.rXvXOX@.@.] l.,.| Y Y U n s u E R F G m n l j m F F W W V u B W E E V F R E h i h V m D m G W V l b b A N h B E J u u 7 < h m G W m m k w 0 0 0 p G V k k k d d h B n p 7 h N p & $ $ > > s U B n E E h y h h u s u p d h V D R E G N b m V B E W G G G F n p z k ) ) G z , 5 k n i u u u y , < 0 i n m k F G E W W _ ..W G m m A W E N u 7 h b n N D R U V c u u 7 7 7 7 7 7 7 t d f t 5 7 7 t y u 7 7 y u 7 1 t t t y y y t t 7 t t 3 3 2 2 7 3 t t y h s s n N D R D V b b m A n k v g i v i w 0 8 8 ",
"s a r ; - + - - - ; ; ; ; - - $ @ + + + + - + + + + + O + + O + O + O + . .   . . . . .   . @ B $.$.$.2.>.0.2.2.2.1.$...&.5.2.2.2.1.1.2.8.4.2.1.E E b $ : @ b E $.>.>.$.>.>.6.1.$.,.5.6.8.6.6.>.o.6.X.1 ' 5.5.d.+.V ! M a 5.1.8.+.3 +   a X.:.{ ' ' R o.<.:.p.8.t.s.+.d 1 3 x I x s I 1.5.5.t.8.p.6.5.>.' M I } a x y.7.t.t.u.s.8.o.6.>.+.1.>.5.t.1.5.5.8.} b } :.8.t.f.p.s.5.1.:.o.} ^ } 1.1.t.6.1.8.t.8.5.1.u.s.s.u.8.p.s.8.d.6.+.:.1.5.8.s.t.u.s.d.i.s.u.8.8.w.e.w.4.9.n. XvXjX3XoXuXcXvXV.4 * P BXBXzXV.j.v.cXhXxXiXz.g.lXDXV.^.j.Z S Y ;.,.o.Y V c y t d R V n m k k m d z k F m k i u k N V G V G E G u u B n N D A U Y n f c n h n d N / ( u 7 7 7 n m W ) m m j 8 8 i p j W V F m d d u u i u 3 i n u < : : & < 3 d D k h ! V 3 u d d u p d p d k B V E G D V m E E G R V m G E G m d l F ) _ H z < 8 v A v y d k y 8 0 y u k b l d W G l W ..W m z F H ) ) G p 7 s c c B D D n c h y t 7 7 7 7 7 2 7 t q u u 6 7 t 7 f f u t t 7 7 7 t t u u u u t t 2 1 t 2 t 2 1 t t a t u a d u s n R E E V B c h u l B k k k m m k w 8 8 8 ",
"; ; - - - - - ; ; ; ; ; - - + + + + + + + O + O O + + + . O . + + . + . +   .   . + @ : u R ( R ^ >.2.2.2.>.2.>.$.+.$.$.] | ..+.$..._ | $.$.| | ( | R $ o : > a | 2.2.2.0.0.>.+.] } +.#...o.o.} Q ! U 1 ' t.5.6.y.t.y.~ y +.8.6.8.} y - + x X.o.:.;.' o.1.7.t.t.t.8.u.s.:.! V r + M 7.t.5.t.t.8.:.[ ! Q ' :.+.y.;.r ' 8.t.8.8.u.t.o.6.y.>.+.X.:.t.8.8.1.X.:.I Q 5.i.t.s.t.t.5.;.o.1.1.:.:.;.o.+.:.:.1.5.1.1.6.8.u.t.8.s.u.8.s.u.s.t.8.5.5.6.8.8.t.s.s.y.u.s.d.e.s.e.e.d.q.9.z.^.rXiXsXiXzXlXZ 4 e Z ^.tXaX'.cX`.j.(.iXOXg.rXDXFXOX=.S K Y ] ] ] Y D D d u u i F b v m v k m k m j d j 0 0 i b n G E m V R D y p n n A D D U U b c h h u c f n ] D g 7 6 u D m G W W F j 0 w w p k E B G V 3 u 0 y 0 3 i d u : : , < 3 7 7 k V d k m p < p i u i d p u d n b G ^ D V D E _ ^ R D n n G G m F j m W _ H H z p g i m i k G n u 8 8 a k m n n p G i k W %...F m F _ _ G z i y h h b D V b d u s t 7 5 7 7 t t t p t t p t t t t q t u t 7 6 7 7 t u y d s t t 7 7 3 2 2 t t 7 t t t d s s a s s c U E ! D c h s s d m m v n n F d i u 0 0 0 ",
"- - - + @ @ @ @ - - - ; + + + + + + O O O O + O + O . O . O O . + + O + + .   . . . . 7 Q ( ^ ( s s B ^ } 2...+.$.$.o.| ^ E ( o.>.$.2.1...>.6.8.8.0.8.n : u : > t E U U U E D V E ^ ^ ^ ^ Q V N s 1   - c N I N R ! ! c a o.:.y.t.d.! + - r :.a.:.;.<.1.:.5.t.d.s.s.8.6.d.1.y.[ ' x x 1.s.8.o.R R X.t.6.5.8.' t.8.I y 1.t.t.8.s.s.o.8.6.t.6.X.} :.8.s.t.8.:.t.^ R s.t.t.s.s.s.t.;.:.} <.t.t.1.+.:.1.>.+.} X.:.5.5.1.5.u.8.s.8.s.s.8.8.s.t.5.1.1.6.i.s.i.t.s.s.t.s.e.w.8.e.u.q.r.l.).DXDXOXg.4 # H l.@.V.$X@XBXAX.Xj.iXP P iXFXlX/.@.S ] Y ] #.] E N V v s d d B b d m j k B v n d g w 0 u i n n E E m G E m 0 i D b D ! D D b n h c f t p u c E D h 7 3 A E H W J ..G i 0 p i p m V k V k 3 0 3 y 0 0 d 0 & > 3 < 3 u 0 a k n d d u 3 y d u 0 d k d u k k n E ^ V G E R G G G n k m F m m m p G W W F F p b j i z i m G d 3 8 u k G F n p g k q F ....J m E _ ) H m i 5 i d i n V c d u t 7 7 > 5 > 7 t q t f h b f s t s f f t d 7 7 t u u a s d d s 7 1 3 1 7 7 t t t t t t t d d s t y s n R ^ U h s t u n D G V m V m k n l u 0 0 i ",
"- @ @ + + @ + + + + + + + + + + . + O O O + O + . O O . O . O O . O . + +   . . X . + @ 7 n n B E B g b h n U E ^ ( [ ( | $.6.$...$.2.1.$.$.&.6.s.8.2.R $ V d @ > h o.2.X.^ ] | X.| $.o.o.X.+.$.>.[ 1 x X.o.X.I x r r 3 + r r I ;.7.1.x - - I <.;.5.8.7.5.:.:.t.8.s.d.s.t.8.u.} 7.:.R M I ^ R ' 8.8.7.5.8.8.' o.7.<.c ' 6.i.t.t.u.+.8.8.t.t.1.+.1.5.t.t.t.5.5.5.I X.8.t.t.t.t.8.X.5.1.1.5.t.8.5.5.8.8.8.6.8.1.5.1.:.6.i.8.s.8.s.s.s.t.8.t.5.+.5.8.5.7.t.s.s.i.0.w.s.s.p.y.y.d.0.q.#./ S f 4 # 6 =.n.K @XaX@XVXzX(..XZ Z K K @.@.K Z Y ] ] Y Y S N m m B d d y b v i m i l m d l k v i i u i m B ^ ( V W V d u d D b Y ( n l n h f d s 7 t d n A b g 7 6 H D R / G ) W w 8 w k m z n n k i i u 0 8 3 0 0 > $ > , , 0 d y u k h p y d k h k u i d b p i n b H ^ D D D m b V D V d y b n u d j d G m z m z z F w z F F z v i 0 y u i N G n i i p m W _ J F H ) W z v w < 8 u i p k h u y 7 3 > > > > 7 7 t t f b n f p t f b f s u p t t t p d u t d d y t 7 7 7 7 t t t t t t t t s s t 7 u u n E D h u t y h N U m k m n k B n i 0 0 d p ",
"O O O + .     O   . . . + . . O   +     + +   . + + O . O . .   O . O @ + . .   . . . . + t E 2.2.2.$.$.>.+.+.] ( ^ E U N N N $.1.$.2.2.8.e.1...E B h h V 5.1.b : > u ] >.$.2.>.,.2.5.2.6.8.6.6.:.U + ' 1.7.6.t.1.;.X.I x t t : 1 x ' ' 2 + a ;.:.5.t.t.t.u.5.1.5.5.8.8.t.5.5.X.} 1.} X.b I } 8.8.t.8.5.t.u.>.^ >.s.+.x 5.s.8.8.u.>.>.t.s.8.6.<.5.8.1.7.8.5.1.7.:.R 7.t.t.8.d.8.5.5.t.t.8.6.+.:.1.1.t.u.t.t.8.8.8.6.6.u.8.s.u.u.t.s.u.t.s.8.5.5.1.>.;.1.y.s.t.t.p.d.8.8.p.d.y.8.s.S = 6 # # 6 l...l.l.V.aX'.VXlXOXP j./..XlX|.).@.Z J D U U U U B B B v v i y b v i d p k m k d k m d p i d B D [ ( E G b d h c E n U / c n n h f s u 7 t h A b h u y w W W F W G ) G j 0 < k A m G b u i d 0 u 0 3 , > > : 3 3 0 i u u 7 d v u u n V n h u d k k d h n V E E G D V h B D G p > u b u 0 p p V n p j j j F z i v _ W k 0 p i < 0 1 n G m i 0 i F %...z F F A v A z 8 * 8 i y u d d 0 3 < : $ : > > 5 t h h f u u t t t l A c u u t t t u u t 7 u u y s u t 7 7 7 t t t t t 2 7 t s t t 2 2 h N N c 2 t u d h n b j d k k k m i , < 0 d i ",
"O O O     + . .   . .   . . . O .   O .     . . + . . . + + . O . +   .     .     . . o   o s ( $.$.$.$.&.&.&.>.$.2.2.2.>...D u } 2.>...] E V u u N ^ $.e.2.2...c : : s +.8.6.6.6.4.6.6.8.8.6.8.1.c 1 X.7.t.6.6.t.t.:.+.;.:.o.R a 2 1 r r + a :.1.5.5.1.1.5.5.+.:.5.6.5.1.<.+.' Q o.' 1.5.1.I [ 5.6.8.s.:.s.8.8.:.o.:.y R t.t.t.t.>.} 1.8.i.5.1.5.8.5.7.t.8.8.8.5.' ;.t.t.t.t.8.7.5.8.8.8.t.:.:.:.1.6.t.t.u.u.s.s.8.8.8.s.s.u.u.u.u.u.u.t.u.8.8.6.1.:.} } 1.d.u.8.t.s.s.d.d.7.d.0.n 6 6 6 2 f z.3.OX@X=.yX).tXV.P Y lXDX|.|.lXlX@.Z S z I I U N V B n M B v 8 v v i u i u b k d b V k d k k n D _ E V V h u h n E n V Y h b c c s t f 7 p A b f p u u h W ) J W G W W d < 5 F F z m b d n n b n u : & : > 7 0 u u a u 3 7 h a u h V V l d p h b b k n V m G ^ R m k d m E V i 3 b n u : k n n l w 8 v j v w j B E | m u d u : 7 , k m k u i z W %.A p G i j v g < % < 8 i 0 i i u q 3 : & > 7 > 7 t f c c p 7 7 7 7 u b b s u u 6 s u f u y u s s s u t 7 y t y t t t t 2 r 2 t t t 2 2 t x n c u > s b h s c h i u p p p 0 0 < 8 , 0 n ",
"X X X X . .     .   .       .   . . . . . . . . . . . O   O O . + @ + . + + .           .   $ s E } } | | o.$.$.$.o...,.1.8.2.N 7 n h t 7 c E ( } >.2.>.&.2.&.| | a @ 2 c ] 0.,.8.2.6.2.6.6.t.1.:.x s :.5.5.t.6.5.1.1.t.7.1.1.5.5.} x - - 1 - Q >.1.5.5.6.6.8.8.6.8.t.s.y.5.+.^ R :.;.d.8.8.5.X.N 1.p.5.d.6.t.s.1.o.7.I d t.u.t.s.+.>.>.:.5.7.8.6.6.8.t.t.t.s.8.5.+.X.t.t.s.5.t.8.7.8.t.8.s.>.+.5.1.+.1.6.t.t.t.s.t.8.s.t.s.u.u.u.u.u.u.s.s.s.u.y.5.t.t.:.:.7.y.s.t.s.s.7.a.t.t.u.] 5 7 7 6 6 Z K V.~.=.V.OXtXS S /.SXDXOX(.iX|.K Z Z h f n A c b b b b V v r d v i 0 0 3 u d p i b d h n n m D W D n k y 0 h V E n n A c n b V u t n t f n c u 0 p k m _ _ J W F F F j < w W F i l v k n m G V i : & & > 0 0 y u y 0 7 d k 0 i n m V h d k n n n B D D B R E h d i n D ^ b y n V D u 3 V D h s 8 8 w i i g F W G %.W u u u , < 8 0 p k j m n J J k v m i p p 5 * 8 w g 0 < 8 9 8 0 3 3 < < < 7 u c N n f a t 7 > t h d u t f t 7 p h h d h d h d u 7 t t t t t t 7 7 7 2 2 2 t 2 > 2 t h h h s 7 7 c D s u s u u i u p i 0 3 < < < k E ",
"X   X   .   .     .           .   X . . .     . . . O + $ t b M n N d : . . . . o .   . . o + : 3 7 y y y y y t 7 t u d D N D h t V } >.$.2.+.$.2.0.2.o.1.8.8.0.>.$.c 3 t s ! 0.6.2.0.8.6.5.1.} } x I :.>.5.t.t.t.>.:.5.1.7.6.:.:.1.:.o.x + + I t.t.t.t.t.8.t.8.s.s.5.o.} X.+.:.} 1.;.<.7.d.5.d.+.d 6.s.6.5.i.8.5.5.d.} t 6.s.u.8.1.s.i.1.1.>.t.u.5.7.8.t.p.s.8.5.5.:.:.s.t.t.t.8.8.8.t.t.5.t.5.+.1.7.8.t.t.t.i.s.u.p.t.s.8.u.u.u.s.t.s.u.s.s.s.u.s.s.u.t.1.;.5.s.t.i.p.a.y.7.y.6.^ ] u 7 t t 6 H *.3.&.k %.#.q /.yXSXDX^.z.lXl.Z j f f d f b c v v k v b i t s v y 8 8 , 0 i u u p u d k n V V D V c d y 0 h U U n l b n l A Y h d b u s b c f 0 i k n J G n E F z z i 0 w m m k k h d k V R G h : & : > , 3 7 0 3 3 d m d u h V m n d p b B b B D D V D R k p h k V D E k h b b ^ d h R G f b v 8 9 j j F ) J n ..^ p 3 0 3 : 8 3 p d n F n z p m G A j i 0 5 i 0 0 < 5 , , , < 8 0 0 0 0 0 h n V Y A h d 7 7 t f b f u u s u u s b A n c b d u t 3 7 t u a u t t t 2 7 2 2 7 ; > t s c s h u t s c d u y y u w u u i u 0 9 < 3 w m E ",
"X X   . . . .           . . .   . .   . . . . @ $ + + O ; s U [ $.2.$.U 2 +   . o . . . . . . + $ $ ; ; & ; $ @ $ $ $ $ $ > 2 : 3 h ! | >.8.2.2.2.2.2.1.1.( E N u s u 1 2 ; M >.2.2.,.2.>.2.1.[ } r ! :.5.8.t.8.1.1.5.5.5.5.5.6.7.1.1.5.' - - a ' 1.t.t.7.8.8.t.5.+.+.:.:.5.5.6.X.1.;.5.t.6.6.t.t.Q y } 5.i.s.5.5.5.t.} : ;.p.y.6.5.t.s.s.i.1.1.8.8.5.1.8.s.s.s.5.t.8.X.8.8.s.t.t.t.8.t.t.8.t.8.5.6.u.8.8.t.s.s.t.u.t.u.s.t.i.s.u.u.u.p.s.s.s.u.t.8.8.8.i.8.1.;.,.8.y.y.8.1.7.;.^ } 6.X.d t s 7 e ] q.#.Y t $ D 4.-.r.r.l.@.9.H f w g u y u u s d d d d u u t t u 7 7 3 3 < y s 0 a y u d h n b A b s p t 6 b S D f h n A h A ! n f n t 7 c S h t p p d z k k J m 0 i w 8 & 8 v z v z p n R E R h > : < > > > 7 u 3 > h b u u h G V k d h k n b B D V N m d h m N R m V A n M u c Y y d N n b b i w i g l W G v G _ E i 3 0 1 & , 7 k k B m V l i F W G 0 0 5 0 k 8 5 < < , , = : 9 0 8 0 d k b V D U D k d 7 y u d h s u u h p f c k n f s s s t 7 7 u d c c h t t t 2 2 1 ; 1 2 7 u s c d s y 7 u d t y y y u u u p i 0 7 7 3 u 0 p i ",
"  .   .   .           .     . .   . .   . : y b N n s : + . $ 3 c Q >.0.( > + o + O .   . +   . @ + @ $ $ o o + + + . + . $ o ; + $ $ 7 b E | ..| ^ D c u 7 : @ + $ $ + @ u | ,.>.>.$.2.0.u.1.:.,.: } :.5.t.1.:.;.5.7.5.t.8.5.1.1.7.t.6.Q + - a I V o.7.6.t.1.:.} ^ :.8.8.5.5.t.o.;.>.[ :.s.t.6.t.X.' I R 5.5.X.1.8.t.+.1 ' 7.t.5.5.s.t.8.f.s.1.1.8.8.6.5.6.8.s.1.t.y.} :.u.8.u.u.p.u.t.u.s.t.u.8.8.s.t.7.6.s.t.8.t.t.u.s.t.u.u.u.s.u.s.s.s.s.s.s.t.6.1.1.8.i.:.X.,.t.5.,.8.;.R :.i.5.i.' a t 7 > S #.,.U - u h ( *.*.-.*.S z l g w p u 7 0 7 7 7 y u y y 0 7 7 t 7 3 3 3 > 7 u 0 y 7 y a i h k b b t t 7 t t M D d s c D d n E n t n d 7 n U h u q 7 5 u 0 0 m p = 8 j 8 8 < w F v z B m E E G h 7 < & & : < y h 0 3 h d d d d E V k c h b h n n m m m d u b b D E n G E N t t b d a h A c N A i v z z v W G j _ | W 0 3 5 & & & 0 h n m h G k w m W m 5 9 8 0 z 5 , & & = < , , < 0 0 k l m n n D D D f h h p d d n n h h D B s d h t 7 t y u t 7 u c c n h a t t 2 2 1 > > 2 t s c s c c s 7 y a u y y y y y y u p u 3 7 < 7 0 < 8 8 ",
". . .         .       . . . o o . $ : t B U ] &.1.$...[ D c 3 : ; 7 U 2.2.| h ; o + o . . o .     o . o . o O   @ .   o . . . . o . $ @ > 1 3 2 > $ . . + . . : y u h c E o.o.$.>.,.$.>.,.$.] :.I x [ ' 7.t.1.<.1.5.6.7.7.8.1.1.6.t.7.y.I + a M d } I } X.;.;.} 1.5.6.6.:.5.t.5.} +.t.:.} :.t.t.8.' 5.t.:.' X.} 5.8.8.6.x b i.5.1.8.p.s.u.u.s.p.6.8.6.t.5.5.8.+.:.s.t.7.X.s.s.t.t.u.t.t.u.t.t.s.s.t.s.s.6.8.s.s.8.8.t.u.s.t.8.s.s.t.s.s.i.s.u.p.t.t.p.s.8.8.t.t.5.X.[ ' ' I I 1.y.8.s.5.} U t t 7 > N Y t t ,.^ 1.( G &.W ` k d g q 7 7 w 8 < < > < , 7 7 3 y 3 3 3 3 > , 3 3 0 3 7 3 3 t u h s x s t 2 7 7 t f c c x c c b h U N u A s > n n f 7 7 > 6 = 5 w d w i v i 8 * , i m b B F F W W m h 7 : $ & & < 7 d u u u d d h n E N d b h k d p i i h k i p m B D ^ N E ^ d t s h t y c c d b U V F J F l G k m _ _ F u 0 3 : @ : i n l d d n d i m W G 8 , 8 u b , , % % 0 w < # # 9 l A m m k m D m d u u h h n A n h n N k b n 7 7 7 7 7 u u t t t c h s s t 7 7 2 7 1 ; 2 t h c c h n s y t d d s u t 7 t y u d u y 3 3 3 3 3 , < = ",
"  . . o o o         o o + + . > u D ^ | ..>.1.&.o.| o.#.o.>.D > + > V $.0.6.2.^ u $ . .   . + . . + . $ + o . $ . . @ + @ + . .     . . + $ > @ o +   $ > y N ] 2.1.1.>.>.>.>.2.2.2.>.,.>.$.} M r X.;.I >.:.} :.5.5.6.6.8.:.1.5.6.6.7.5.I O - x M I } s I X.o.1.:.1.:.:.5.8.1.:.1.1.t.t.:.+.:.8.t.R 7.5.5.8.} { 1.5.s.s.Q b 5.5.+.8.t.t.t.8.t.t.t.8.5.5.8.8.t.:.1.p.t.t.} 8.s.s.u.t.u.s.u.u.u.s.s.s.s.t.8.8.u.s.s.t.8.8.t.0.s.s.t.s.t.t.u.t.t.s.u.8.s.d.t.5.1.8.1.1.1.7.;.' } 8.t.8.5.>.6.,.c t 7 7 2 2 s Y $.Y | $.| ) G V j d y 7 > > , = & & @ & & : 3 3 3 7 7 3 3 3 3 < 1 t 3 3 > > 7 7 t u f f t 6 2 2 7 t b b f s M D s D D t b c 5 u y p 7 q : 7 < 9 p i i k k w 8 * 5 j m z m G G W W F h 7 < # & & & y k l k u u h n D D h p k d u i y y h p a u k m G E U V U N t 1 a t 1 a x t t b U T E ) H z F n F E  .W m u 7 & @ 3 0 b d d n m k d n J ^ 8 0 u h j 8 5 , , p p < < q l m m n v V D b i d s b b N n d h V D h d k d t 7 7 t u a s s t u t u t 7 7 7 > > 2 2 6 s c N n c c y u u h h h s s 7 3 t u y y 3 3 > > 1 > 3 3 , = ",
". .     .     . +   . . : t h ( o.$.$.$.2.2.2.2.2.2.$.$.$.E s 2 $ ; y s n D R } [ D t 1 $ @ +   .   @     .       . .   . .   X . o .   + . . . + $ + ; U >.| ^ ^ U M D ] ] o.>.2.5.2.,.+.[ a 2 ' 7.X.N [ } } :.5.6.6.8.8.:.:.8.t.6.t.,.N c r O y 1 ' [ } :.5.8.5.>.+.5.t.5.:.8.6.1.5.t.t.1.>.5.7.! 8.,.8.y.+.} 5.1.8.s.' V t.7.X.t.s.8.t.u.t.t.s.8.5.6.8.8.8.:.1.6.5.s.+.5.t.t.u.8.s.t.8.u.u.u.s.s.u.8.8.u.i.8.t.s.8.6.t.s.s.t.s.u.t.s.t.u.t.u.t.s.u.t.8.6.6.8.t.y.t.5.5.5.o.s.8.8.6.1.6.8.^ y t 6 ; > U 1.1.| | #.>./ H v v j 7 7 & & & $ $ X . # o & : d u 3 > : > > > > 1 > > > > > 2 7 7 7 u t u t 2 1 > 7 f b c h b N s N Y t h h 2 y 7 p w u < y 5 p z v p z z w 8 % < 9 m m F H F H H A l 7 & & & & = q n N A t u b A n l i u h d s i y u d d u d m G ! V h b c d t : 2 ; ; t s a s b A R R A W G G z m E &...m p < % & 3 , 0 q p m G b m k W ) 0 0 i p 8 u y i 8 p j 0 w j G F v p B k h 0 y b B B d h d d n N d i h d u y 7 5 7 u t y 7 7 7 7 t 2 2 7 7 > > > > t t b n c h s t a s f d d y 7 3 3 t 7 3 > 3 3 > 1 1 3 3 y 0 , ",
"    . . . .   . $ 7 c E | | | o.$.$.1.$.1.$.$.o.( E D n y > : : $ @ . . $ 2 7 t s c D ( E n 3 + . : @ h 0 s h b h :   @ . ; u s > @ o   . . . . o + o $ u n h 7 > > ; ; $ > 3 3 s c N D d r s ' 7.:.:.U R [ 1.5.5.>.1.5.6.1.1.5.8.t.+.I R 5.^ r r r - M X.1.t.7.8.1.5.8.8.1.8.s.8.5.5.8.t.6.6.5.:.R d.8.8.8.:.1.+.1.5.t.I I t.1.+.8.u.t.t.s.t.s.t.8.8.t.t.8.8.+.5.5.5.8.:.+.t.t.u.s.u.0.s.s.t.u.s.s.8.8.8.u.s.s.u.s.s.6.5.s.u.t.p.t.u.t.t.t.u.t.t.u.t.t.8.8.t.8.8.t.6.5.t.8.X.6.8.6.8.u.5.t.>.x 7 ; 2 ; _ 2.` &.2.>.>.E n i p i 7 5 & $ $ o o o o o @ m | $.| ( ! N d u t 7 3 > : $ ; : ; > ; @ 7 t t t t 2 7 2 t s c h d c s f V y u u 7 p 7 p p q 6 7 0 k z p d J m w , & , 8 l G G G G F m A z q = = = = = q n S n t d n f c d d d p p k u u u u p d b G | E c u y 7 t r ; > 2 2 t c h d c b V V m W W G F l W 8.| i 3 < & 3 3 & $ : 0 d V m m m E m < 0 8 0 d k j i g k k z z z g 0 w p p 8 3 3 u k q 3 7 d u u u 7 3 u 0 7 , < 1 : 3 7 3 7 7 > ; : 1 2 7 7 2 2 2 7 7 7 t s s a u y t t t p u y t < 3 y t 3 3 3 7 3 3 7 7 y p d d 0 ",
"  . .   + > s D | >.>.$.o.| | [ ( ] V h s y t s N E Q ^ ] $.>.$.o.E d 1 + .     + ; $ $ t d u 1 ; 7 7 } ^ $.2.2.^ 3   . . h 2.0.1.( n : $ .   . . o + $ @ $ ; $ . + - @ @ $ @ + O $ ; 1 ; t X.5.:.:.:.;.I ' 5.5.1.:.:.>.5.5.t.5.5.:.' ' <.X.1.I 7.;.- x +.:.5.5.5.7.8.1.:.8.s.8.t.6.5.8.8.7.t.1.X.I 6.5.8.6.+.8.8.} :.+.s R <.:.:.t.s.t.t.u.t.s.u.t.s.p.s.u.8.5.s.8.s.8.5.' s.u.u.8.u.u.u.t.8.s.s.u.6.t.t.s.u.u.s.u.s.8.6.8.i.p.t.8.8.8.t.u.u.t.t.8.8.t.u.t.8.u.8.>.:.5.1.:.X.$.s.8.u.8.i.u.5.M 7 ; : ; o.u.8.2.} ] U E v i i , > 1 % % o o o X . 3 G 1.| +.8.d.u.0.s.s.u.8.5.6.1.o.] [ ! S s t 7 ; ; t 6 2 r 2 1 t s d s s s s c y y t 7 h t h h q q q q z l q j ) m 9 * 8 9 w m H H H H G j A z q = < * = > u A D n u b n c h d h h d h b i u u p k m G | | D y t 7 7 7 3 : 1 7 2 y d d u h n b d l F m G G m _ &.G 0 > , 3 8 3 : $ , y y m V d l b 0 3 0 3 i J m k u b v l G G z w 5 g v 0 < 0 3 y u > 7 u u 7 > : 7 y 0 3 < : > & : > > 3 2 : : > : : 2 > > : 2 2 2 : 2 t u 7 7 2 7 7 7 7 u y y 3 2 7 y 7 2 7 y 3 3 7 7 7 t a u u i ",
"+ $ 7 b U | $.>.,.$.$.o.} [ E N b U ^ | $.>.,.$.$.$.>.,.4.,.>.>.2.,.2.$.( N c d 7 ; ; ; + . + O @ @ > > t h s 7 $ o . o 0 } 8.2.4.d.N u R D d 1 o . @ + + + ; $ $ > 3 3 : : @ + O . O - + 1 x ! 7.7.8.8.Q I ;.1.5.5.8.1.:.5.1.5.+.[ +.8.;.:.t.' o.} b a X.5.t.6.<.8.1.o.+.8.6.p.t.8.5.8.6.5.8.5.+.' :.:.8.+.:.8.5.} +.Q r ' 1.:.1.6.s.t.t.s.u.u.8.t.s.8.t.8.:.1.s.8.8.5.6.! 6.8.u.u.t.t.u.t.u.u.s.8.5.t.s.s.u.p.s.u.p.s.6.5.s.t.8.8.8.8.8.t.t.t.t.t.8.t.u.t.t.8.7.5.6.t.8.5.1.>.u.6.s.8.s.u.5.V 7 ; ; : ( >.1.] B U D V i 8 , , : & o o o o o % u | &.o.$.| _ } +.>.5.0.i.q.u.0.u.0.0.u.u.,.,.8.,.;.U d t ; 7 7 : 7 t t t s t s s y t y 7 l u f n u y q w l l 0 j W z w 9 j j j H G G A G H j A z q 5 5 5 & = g A D A h f l b h h d b h k h p i u k V R ^ ..^ d 7 > a u h t : 7 7 7 s d s t a d h k i u i l G V E V d 0 : 3 0 3 7 > < 0 a 0 b k y y 8 1 7 0 q n E d p m n k z G G Z l j n z i i u 7 7 p y d 0 3 < 3 7 u u 7 0 , & > > 3 3 1 > > : ; : 2 7 > : 7 2 2 > : > 7 t 7 7 2 1 2 2 7 t s d s 7 t y t 7 3 y t 3 2 3 3 3 3 3 7 0 k ",
"B ( $.2.6.2.+.} ] ] } o.o...>.>.$.$.$.+.,.o.^ } +.>.>.,.,.2.,.2.,.1.2.,.} } } | $.X.] E c t - + @ $ + $ . .     X   X 7 [ >.2.2.2.U y W 2...1.$.V 3 . . $ @ $ . d [ $.+.+.| ( ! n 7 + . @ ; - ; c ;.7.o.;.Q <.<.5.t.1.5.8.1.6.X.' :.y.1.5.6.5.[ 5.X.I x X.5.8.:.1.5.[ ;.p.7.8.t.8.8.6.8.5.<.5.7.I ' 8.+.o.' R X.7.;.M I I ' 1.:.o.8.t.t.8.t.8.t.t.t.t.8.t.6.:.5.t.8.t.8.5.R :.i.s.t.u.t.u.s.u.s.t.6.5.t.t.t.s.u.s.u.t.u.8.6.8.t.8.8.8.8.t.t.t.t.t.d.8.p.8.8.8.7.5.6.8.8.8.6.1.X.1.8.8.8.s.8.8.I : : 1 1 c X.Q M x V V d 8 , , : X % %     X : m o.$.$.u.f.s.0.6.2.,.2.>.2.0.i.i.u.0.s.s.u.0.5.u.8.8.u.8.} c 1 ; u 1 1 t t t s s a t t t 7 h h h n 0 q 0 j j k i 9 H z w j j z z W J J W / J l A G g 9 < * , = g G G G z n m k g h p k h h d i p u B E E / G b u y 8 i i B u , 8 7 y c u 0 3 7 i d d 0 0 0 d z b n h c y : 3 y y p 7 u 0 i u u 0 7 y u 3 7 7 p m n w i F i j B H / W H l A m i i 0 3 0 u y y 7 , < 3 3 h i 7 < : > , < , > > $ : : > 1 7 t 3 3 7 7 > : ; > 3 3 > 1 > 1 3 7 2 7 t u u 7 7 t 7 t u y 7 3 3 > > 3 3 3 t a k ",
"$.^ ] +.o.} ] | $.>.>.>.,.5.2.,.>.>.>.>.] ] +.2.,.>.2.2.2.5.5.2.2.2.5.,.} $.>.>.>.2.6.2.,.+.t - t c 7 ; ; $ $ > 0 i b ( 1.4.2.2.R 2 ^ 2.2.1.$.$.2...D u : @ @ $ n 2.8.0.6.5.6.2.6.,.] b 7 ; ; - + y } 7.<.! :.7.7.5.7.5.X.+.+.' o.t.8.6.6.6.>.X.y.5.R s :.5.5.t.1.<.X.:.8.8.t.t.8.t.8.6.1.o.X.o.b R :.8.t.X.R } +.} a Q ^ Q Q ' +.6.8.6.8.t.8.t.u.u.8.8.u.8.8.t.s.s.8.t.+.^ Q 1.6.8.t.s.8.s.8.s.t.5.t.u.t.s.u.u.p.t.u.s.s.8.8.t.p.8.5.8.t.s.s.s.s.d.8.6.5.7.t.6.8.t.8.6.5.6.5.} X.u.s.s.d.s.s.! 2 r r y s I a a x d s r 2 , , : % X X X X u E $.0.>.$.2.2.>.6.i.i.u.u.0.u.0.0.i.u.u.u.i.u.u.,.5.8.6.u.s.u.6.' b t 2 t 3 r t t t a f t t 7 y n f l q 0 < j p k j 0 v v w w v F F G H ` ` ` _ m H z p 9 < * * < w G J m m G m k p i i b h k d p i d m ^ E V i 0 i d k p z G 0 = 8 7 y p 7 & : y d i u u u 0 p i 0 B d ( 7 1 y u u s 0 b d u y u y t c s 3 t 7 p V p , j p w i G ..*.W m l G m 0 0 < 7 , 3 i 0 7 > & , u h u > : & > , < < : & @ > 3 3 7 7 7 t 7 3 2 : : > 1 2 2 > > > 2 7 2 > 2 t t 3 2 2 1 t u t 7 3 3 7 > : 1 > 3 7 t 7 ",
">.$.( ^ X.>.1.1.,.2.,.5.,.5.6.2.] ] X.+.>.2.>.o.>.0.2.,.5.2.5.2.5.5.5.2.>.] ] ,.2.,.6.,.6.} > t ] >.( ( o.} [ } $.2.2.2.6.8.2.R y ^ $.2.8.4.1.&.+.$.2.2.U h u . > | 8.8.2.2.2.6.2.2.2.5.>.[ s 1 - @ r ;.X.' ;.;.} o.o.I } 1.T [ 5.t.6.6.7.7.+.} t.1.Q a Q 5.8.6.:.1.5.:.5.8.t.t.8.8.8.5.5.1.:.5.! 1.X.:.y.5.} t.1.' c ' ' ' R Q } +.8.s.i.8.6.t.8.u.t.t.s.8.t.u.t.s.s.t.+.:.Q +.1.6.8.8.s.p.8.s.6.5.s.t.t.p.u.u.u.u.s.s.u.u.8.t.8.1.7.s.y.s.s.s.t.8.5.5.6.8.d.t.t.i.8.8.8.t.8.} [ 8.i.t.s.8.t.' r r a x M s 2 r a a r 1 , , , X X X X % v O.8.&.2.2.$.2.2.,.5.6.0.s.u.u.d.s.s.s.u.i.0.q.u.8.,.2.5.t.t.u.s.s.i.u.} c t : > r t t t t t t 5 7 k p k u u = k p j z 0 j p w < j G G G F ) ` _ ..J V l u 9 < * & < g ) H F m A m n p u u k d d d d d d B D D d 8 y v m m v m m = , 0 3 3 7 3 : > u d i u u u 0 0 8 3 h b ^ 3 y d y < 7 7 d h u u h d t u y 7 t 7 0 l p 8 w 5 8 9 _ ..` H A J D p 8 , , : & u h 0 3 3 1 3 u p 3 < > & < 3 , > & $ ; 3 7 t 7 t t u y y 7 2 7 t u y 7 3 3 7 7 3 2 2 7 > 2 2 2 3 7 7 t 7 t s d y 3 > : : > < > & ",
"| R | 2.,.+.+.>.5.>.5.,.>.+.X.} +.>.5.5.>.,.5.5.,.+.>.,.,.,.,.,.,.,.>.2.1.>.^ ] >.,.,.2.,.a + U 6.| | 0.1...$.$.2.2.1.2.2.0.( 3 E 2.2.2.2.6.2.&.1.$.1.1.E ! >.h   3 8.0.6.6.8.2.6.2.6.6.>.5.>.R r O @ r N R X.:.y.:.! :.:.} X.5.8.8.t.1.>.:.+.X.5.5.c I b I 1.8.+.:.t.1.:.6.8.t.t.t.t.8.7.t.t.8.Q t.8.:.+.5.} t.d.} ! ' X.^ R +.X.' X.:.1.7.5.7.6.8.u.t.t.8.t.t.8.s.t.d.+.1.:.1.5.8.5.5.6.s.s.8.5.t.s.t.u.t.u.u.t.s.s.t.t.u.t.1.1.1.6.t.8.t.t.t.8.6.6.8.8.8.s.0.t.t.u.s.t.t.5.' } +.6.5.8.1.8.} y y a a x r r t r r - % : : % X X   % E d.8.3.8.2.2.2.$.6.0.6.5.6.u.u.u.s.d.s.u.0.i.s.i.u.0.6.1.6.t.s.p.0.8.u.s.i.8.+.c t 2 2 2 2 t t t 7 > u u k u u 0 l z d n 8 8 g 0 8 i G G F z V J E W W D l q 0 < 5 o 5 g ` H m l l m n u u i v j k k k d h h n b d 3 u n F n d k w < w y 3 < 7 p 3 , u i 0 y 0 0 0 3 , < y d D u u 7 : & < < : u i d d u s y 1 : : , 0 d k w 5 < i v _ H A n J S p < < % > & : k h < > u u 0 d d , 3 < 1 7 7 < : : : > 3 t u s d h b b c h s s h c h y t 7 7 2 > > 2 2 ; > t 2 7 t 2 > > 7 d d 7 1 : ; $ : : : : ",
"| +.1.$.>.>.>.,.5.>.:.+.;.:.:.:.>.5.2.1.,.2.,.>.+.X.| X.X.[ } } >.+.X.o.X.X.] U [ >.X.X.M ; c X.+.1.1.8.2.&.$.o.1.5.2.5.6.X.d ! 2.2.5.1.1.2.1.1.&.| &.1.D R s.$.d d +.6.6.2.6.5.5.2.2.5.5.,.1.+.b - O + x a a r d a U :.R ' 5.t.8.5.5.5.1.1.8.>.5.:.Q 1.:.' ^ R :.:.8.5.1.1.8.t.t.t.8.t.8.8.t.:.' t.7.t.5.1.:.t.8.I } :.} Q ^ 1.t.8.1.+.:.+.X.:.6.8.8.6.5.6.t.t.i.u.t.t.+.5.8.1.5.6.8.5.6.8.s.5.6.s.8.t.u.s.u.u.t.u.u.t.t.s.t.:.5.t.8.8.t.t.8.8.8.t.t.s.s.t.t.u.t.s.u.u.t.s.5.^ >.1.t.8.t.5.u.+.a r a r r r - 1 1 : 1 1 , 8 : & % i  .w.4.p.w.6.2.0.6.2.6.0.t.u.i.u.s.d.d.s.s.s.u.u.s.u.u.5.>.1.8.s.0.8.6.t.i.t.0.i.u.8.>.Y a : 2 t t t 7 7 5 p p p u p g m p l 9 8 i 8 0 u k k k p v l k n m k p 0 0 < < = w n ..J J j k m h u i i j i k b k k h p d d u u i k m z d k p w 8 0 0 d n n < : i k 0 u 0 3 0 0 > : : h m d y 3 & , < 7 3 0 3 y u y u 3 @ @ & 0 i w w w 8 w z F F G n A A l t 7 5 > : 7 u s 3 > 3 k p 7 0 u 0 8 0 0 u 3 > : & > > 7 y k V V N V N c h c h h h y 7 2 1 : : > 2 2 7 2 3 t 7 7 2 > ; $ : > 3 : $ @ $ $ : : : > ",
">.1.&.<.>.$.>.+.o.} X.:.:.1.1.1.5.6.1.1.>.1.2.,.>.:.;.+.;.;.} :.,.5.5.6.6.5.>.+.>.t.5.,.! R :.' o.1.4.2.1.2.5.| &.O.2.$.1.d G 8.1.>.&.1.1.1.&.1.5.O.$.1.U ^ u.2.| ^ 1.0.1.>.5.1.5.6.6.>.o.+.! [ Q I + + : ; - + @ - - x X.8.8.8.6.1.5.5.8.8.s.6.p.[ 1.8.:.t.;.I Q 5.1.t.6.>.:.t.t.8.t.u.8.8.t.} +.t.t.t.t.5.+.8.:.V o.' X.} ' ;.X.t.s.8.:.8.1.+.:.6.u.t.t.8.8.t.t.u.8.5.1.1.5.5.6.5.8.s.8.8.s.8.8.s.s.i.t.t.u.s.s.s.u.5.5.s.8.+.t.s.u.8.6.8.8.s.t.s.s.i.t.t.u.u.u.u.8.t.8.1.>.} 8.5.8.8.8.t.s.t.Q a 1 : ; r - O O 3 R o.3.1.<.o.O.1.8.w.s.e.p.8.6.5.u.u.5.8.6.t.u.u.s.s.i.q.u.u.u.u.u.s.6.>.+.8.d.d.8.t.u.8.t.u.i.u.s.i.s.i.8.} x 2 2 r t 7 1 t k i p 0 u p k d w y 8 0 0 0 0 0 y 0 0 8 0 0 u u u y 0 < < 8 z _ 3.G W k D m g p p i i k k z n v u h k i i u j k l d d k n p 8 m i m E k , & k p k 0 3 u i u 3 & $ h G d p 3 3 , 7 y 3 < , 7 3 7 : : 3 , 0 8 % < 8 5 w j B A z z A U n u t 6 7 > 7 p 7 7 : $ u B y < 3 0 0 0 n V d 3 > 3 , > 1 3 u V m b B A m h h c h s 7 3 > 3 2 2 > 5 2 7 t > 7 > 2 2 7 2 > : : : > : > @ $ & : : & < ",
"1.+.1.1.1.+.] ' } :.1.1.1.1.1.5.5.5.5.1.>.1.,.1.>.:.+.+.>.+.+.:.1.6.5.5.6.5.:.5.:.>.6.5.5.>.<.X.$.5.7.2.6.6.5.6.O.+.o.<.k N 1.4.2.+.$.:.&.1.2.1.1.1.o.o.G R 0.6.o.^ } X.+.1.6.1.>.+.X.+.+.>.>.1.{ X.R a r c x ! a - - 2 ^ t.+.:.1.6.8.8.8.t.8.t.:.X.1.5.8.8.} <.Q +.5.6.8.:.X.1.8.t.t.t.8.t.8.' 1.t.t.t.t.8.o.o.' R X.} } } X.1.5.5.8.t.1.5.8.7.8.8.8.u.t.8.t.u.u.t.t.1.:.5.8.5.5.8.s.t.8.8.8.6.8.s.t.p.t.t.u.u.t.8.t.t.8.t.8.+.8.8.8.8.8.t.s.s.s.t.u.u.u.t.u.u.t.t.u.8.8.6.1.} 6.1.8.8.t.t.t.s.a.X.M a r ; 1 ; x s { 1.<.1.5.1.1.7.s.e.e.s.s.8.i.6.6.t.8.6.t.t.0.i.u.s.d.s.s.s.u.u.s.8.+.>.i.t.t.8.8.8.8.s.s.s.u.u.u.u.i.s.d.s.5.] c t 1 3 7 3 y i d 0 < 0 p p y 0 0 0 0 , < 3 < < 3 < , 3 8 0 0 0 0 0 5 < k ) ) J ) n m m p p k k v v k n z v u d j w w j d v v p g p l j i m d b m d 0 , i w i 0 p k p u < % > k G k i 0 0 , t 3 3 y y 7 7 3 0 3 y 0 8 < % 5 8 9 9 j G m j n Y / Z 5 5 q s 7 > 7 > 7 5 : u h 7 7 8 w d W _ F p 3 , , & $ : y b b d k n n n h l h g u 7 2 7 7 7 7 7 7 7 > t ; > 2 7 2 7 7 2 3 3 7 < & $ & : & & > , , ",
"5.1.;.X.} } +.1.,.,.5.5.7.1.1.,.1.2.5.1.1.1.5.5.1.5.1.6.1.,.5.7.5.5.6.6.5.8.>.t.>.+.6.1.>.,.5.+.<.2.8.4.6.2.5.2.2.1.1.N y $.1.1.5.1.5.&.+.+.1.1.1.7.1.+.R V 6.o.+.6.8.5.+.! U ' >.,.6.6.6.5.,.$.:.7.y.<.;.' N x r y r - d 1.5.5.8.8.8.6.t.8.t.8.' +.8.t.8.:.1.:.+.Q 5.8.8.5.+.:.5.8.u.t.t.s.1.^ t.t.t.t.y.7.:.7.I V } X.X.o.;.:.5.8.+.:.s.6.5.8.u.8.6.t.u.t.t.u.t.t.u.t.1.X.1.1.8.6.1.d.s.8.8.8.t.s.t.s.t.t.t.s.y.t.t.t.8.7.5.;.8.8.t.u.s.s.s.s.s.u.u.u.u.u.t.u.t.u.8.u.t.i.7.X.7.5.8.8.t.t.t.8.t.a.8.5.5.X.;.;.1.M x 5.5.;.+.+.$.w.d.s.s.s.s.u.s.6.6.>.5.5.8.t.8.i.u.u.u.i.s.s.u.s.d.8.:.1.u.u.s.6.6.t.8.u.t.s.u.s.u.u.8.s.s.8.y.t.6.,.U u > ; 3 t d u 8 3 u i 0 0 8 0 0 , < 0 < 8 3 3 3 < < < 0 u 0 u p 5 j E g m J G G l p p n z z z n k B z g k u 0 p d j p z z p p p d j m m m k k p u k p i 0 i p 0 < * @ < h B h p i 0 i u 7 d k d , 0 7 d i b d 0 , & p 5 < 5 p _ F j m D A t = 5 q 6 7 5 7 > 7 5 7 y q 0 0 i p m _ G l 0 < < < > & : t c u u d k h p h p u y 7 7 0 6 7 u u u 7 7 7 ; ; 7 t 7 7 7 t y u u u 3 $ & : & : > 7 7 < ",
"+.} ^ } :.7.1.,.5.,.1.1.1.5.1.5.5.1.1.1.1.1.1.1.1.,.1.5.,.:.7.7.1.1.1.5.1.5.:.5.5.:.o.5.:.1.5.1. .<.6.2.1.5.t.1.5.5.R y ' ;.5.1.$.1.5.6.>.>.1.:.5.1.1.&.~ r ' 1.6.1.1.+.+.:.+.:.6.t.t.6.>.:.5.>.1.;.} } Q ' } R a M x - - X.y.p.t.t.8.t.8.6.t.' ' 5.5.5.:.} 6.8.5.R >.1.u.8.6.5.5.8.t.6.t.t.:.} t.t.t.t.t.6.t.t.I ! ^ ^ :.5.:.1.:.6.1.>.d.i.8.8.t.t.t.t.u.t.u.t.t.8.t.d.5.X.+.o.5.5.<.p.8.8.6.8.s.s.8.s.s.t.8.s.s.s.8.5.8.t.8.1.t.t.u.t.s.s.s.u.u.u.u.u.u.t.u.u.u.u.t.u.t.s.8.:.5.8.5.8.8.s.t.s.t.t.p.t.s.s.t.s.5.} b I +.1.} <.<.w.s.e.s.s.s.s.s.u.8.o.1.t.8.t.s.t.s.s.s.t.t.u.s.s.8.>.} s.s.s.1.+.6.t.t.t.t.8.8.t.t.t.t.t.t.t.i.u.i.s.0.$.E h : > > 7 7 y 0 u w 8 0 i p 0 < < 7 < 3 7 0 3 3 5 8 w i g i < i z , 0 z E m j i j k k n F F k z v l d i i k j p d v v i w i d k n G m k m m m k i u u 0 u 5 < , % < d k d i p w 0 p 0 k z w & i 0 v v k i , & * p , 8 5 w G l p l 0 < 5 5 > 6 > 7 7 7 : 5 7 u g h p u h h n b i i y 0 7 3 7 3 : 3 d u u d k p u p u 0 0 0 0 0 q y d f d p 7 7 : > t t t q t s s q 0 0 > $ & , 1 , 0 3 > , ",
"R ^ +.1.<.,.7.1.:.1.1.1.1.,.5.<.,.1.1.5.5.1.5.5.7.5.1.5.1.:.,.5.6.6.5.6.5.5.1.5.5.5.X.X.:.7.5.1.+.:.1.5.6.t.1.6.6.V r X.1.:.X.5.1.5.6.6.6.7.7.5.1.+.1.+.^ @ ! 1.:.:.;.1.7.5.5.6.6.6.7.6.7.7.1.+.} R Q 5.5.t.8.7.M ;.X.1   ' <.:.;.:.1.1.6.6.X.R 5.p.t.8.5.>.1.5.6.Q } t.8.8.t.t.6.8.p.8.s.s.+.5.t.6.t.8.5.5.5.1.R I I [ >.t.1.1.1.X.+.6.8.8.t.t.t.t.8.t.t.t.t.t.8.6.t.8.7.1.1.o.+.1.5.1.5.7.2.8.8.t.s.8.s.8.8.s.8.8.5.5.t.s.+.5.u.t.s.u.s.s.s.u.t.u.u.u.t.u.t.u.u.t.u.u.t.s.t.5.5.s.8.8.t.t.s.s.t.t.d.s.t.8.5.8.5.5.+.V ^ 8.:.1.1.t.s.p.s.w.p.e.s.s.u.+.>.t.8.8.s.t.t.t.t.t.8.d.u.>.>.5.6.d.s.8.o.o.5.6.6.5.5.6.8.8.8.8.t.p.t.s.u.t.s.8.s.u.u.1.] n y : : 7 3 0 y y i p k i 3 < 7 , 3 < 7 3 < 8 8 0 i p 0 , 9 5 < < p F B i i g j d F J J n B z k j p j n k p j g w w i w j k F G k d m F G v d 0 u 8 0 0 8 < & 0 l n j w i i 0 p k n G j 8 w i i 0 0 8 8 5 8 0 9 9 w 8 0 k k u < < 7 q 6 > 6 7 > 6 $ 7 7 u h n A h h g w u 0 p h h u 7 3 1 : 7 d d p s a u p i u 7 7 0 u u u h h f u 7 7 7 > h p t u t u u s 7 3 3 1 & & 3 0 u u 7 > < ",
"X.7.1.>.7.5.:.:.7.,.1.1.5.5.1.5.1.1.1.1.,.1.1.1.5.1.1.7.7.1.1.1.>.>.>.:.:.1.1.1.+.1.+.^ } 5.8.5.6.+.} O.5.7.7.<.V r { 1.7.y.:.X.o.8.6.6.7.6.7.1.+.+.| o.:.: T X.X.5.8.5.>.5.6.5.5.6.6.6.5.5.:.7.y.:.' t.i.1.t.o.x } +.1 O } :.;.:.:.:.:.:.X.V } 6.1.7.5.o.+.>.1.1.y.! 1.t.t.t.8.t.8.u.6.t.8.} 1.t.t.t.6.>.:.+.' R x N 1.>.8.7.1.6.1.} u.s.8.t.8.t.t.t.u.t.t.t.t.8.5.8.s.6.:.1.5.8.5.X.1.+.1.6.s.s.8.8.u.s.p.8.y.d.8.5.5.t.t.} w.d.6.t.i.s.s.s.t.s.u.u.u.u.t.u.t.t.s.u.u.t.s.s.t.1.s.s.t.t.t.s.s.s.y.8.t.8.5.t.8.8.:.:.o.M 5.5.5.8.8.s.e.s.w.p.p.s.8.t.1.t.t.8.t.s.p.t.t.t.8.5.8.1.1.6.1.+.5.>.>.1.5.6.t.t.s.s.s.s.s.i.t.t.t.0.t.t.u.u.u.u.6.8.0.u.0.| n 7 > > 3 8 8 0 i n p d u 7 u , 3 3 3 0 0 < 8 i j 9 , 5 % w * i A v i 0 w w j F H H F n v k k v j z i w i < < 5 w p j z F F v p k d E n m i 8 < u d k u , i n d 0 p j A l j z m W B j i g u , , < 8 8 5 5 8 j j 8 0 G m q = 5 5 q 7 = 7 5 : > 5 t 7 n H D D g y q w , 0 k k n h y < > > 7 y y p u 8 0 u 0 0 7 5 0 g b n n l h u q t 7 u D u s u s s f s y 0 3 > 3 0 : 0 p u 3 3 < ",
":.1.>.1.:.,.5.5.1.1.1.1.:.5.1.1.5.1.,.5.5.1.1.1.1.5.,.5.5.1.5.1.>.+.o.+.1.:.1.1.:.:.1.+.X.+.5.5.5.1.+.' :.:.7.R y } 8.1.5.1.<.;.} 1.5.8.5.>.:.:.1.1.o.<.o.V b 5.8.8.5.5.:.7.5.>.6.7.6.5.5.5.1.8.t.o.X.t.8.7.8.R } N ! 1 - M :.7.5.1.8.5.5.' M <.1.1.5.1.+.+.:.:.1.5.' 1.5.8.8.t.s.8.i.8.t.6.O.5.6.6.5.5.:.:.+.I ! I M :.5.8.>.;.1.1.5.1.s.u.6.8.8.8.t.t.u.8.u.8.6.8.8.8.6.1.5.5.+.8.8.5.1.X.6.i.8.s.8.8.8.6.6.8.8.8.8.6.t.X.:.8.8.6.s.s.s.s.u.d.t.u.t.8.t.t.t.t.8.t.u.t.u.t.s.8.5.s.t.t.t.t.t.t.u.t.t.8.8.8.t.s.8.1.>.y.V R X.o.d.w.e.s.e.s.s.s.s.s.8.5.s.t.s.s.8.8.t.s.8.:.+.^ } +.>.1.>.8.6.6.t.u.t.t.t.u.u.t.t.u.t.t.t.8.8.i.t.u.u.u.u.u.u.u.u.u.u.8.| N u > & 8 y u i i d k d u 7 < 7 < 0 < 5 8 w v 9 < < < 8 < i j 0 0 8 w i j F F m m m g j k d j i w w i < , 5 i p d m F A v i 0 p W G W < < 0 n F m G k p p k b v W W W F m m m z z j w w < & < < 8 < 8 w v w 5 p k p 0 > > = < 5 & 6 5 0 6 u u p m m p p 0 0 7 5 0 i k k n i u 7 , > 3 7 y y 0 < 0 < > 0 0 < u m A n l g y u 7 7 f B l f t 7 7 t t t 6 < : < : > 1 i u u i 7 < ",
",.1.7.<.<.,.5.:.,.1.1.1.1.5.1.5.>.5.5.1.1.1.1.5.5.1.1.5.1.5.1.,.:.:.1.5.5.6.8.5.1.5.t.8.>.' :.5.8.:.X.:.;.' X.;.' o.:.1.5.1.<.5.5.:.X.X.<.<.5.<.:.:.;.;.:.o.I 1.5.8.5.6.+.1.5.1.6.6.5.1.1.5.1.t.8.O.:.8.8.5.1.V >.+.x - : ^ I 5.8.t.5.t.6.^ } 1.y.1.1.:.5.8.:.:.1.8.O.1.5.t.8.8.u.8.s.6.u.1.:.6.6.6.8.1.,.7.} ^ Q [ Q N +.5.+.^ X.X.5.8.1.u.u.u.8.6.8.u.t.t.t.8.6.6.6.8.8.1.1.6.1.8.t.t.u.} 6.s.s.u.u.u.s.1.o.1.s.d.t.8.5.1.1.a.0.<.s.t.t.i.s.f.8.s.t.6.8.8.8.8.8.s.u.u.s.t.s.8.1.8.8.t.s.s.s.s.t.t.8.8.8.t.t.u.t.5.1.8.o.: ' ^ 1.s.e.8.p.p.d.u.d.s.1.6.d.t.s.8.1.6.s.6.' ! ' +.5.d.s.s.t.8.t.i.s.p.t.t.t.t.t.t.8.s.t.5.8.t.u.s.0.u.0.u.i.t.i.u.u.u.0.u.e.8.o.D y > > 7 p u d d d u y 3 0 3 0 5 8 0 0 p p 0 0 8 0 p p i w i w 0 y v l k j i j w v A p v p 0 w i 8 < 5 0 i j B F m b 0 < d J E W w , j G G V E n j F m k k ..%./ F m v j z v w 8 8 & & & 5 < < g B z w i g 9 w k p 5 > 7 5 7 7 u q 0 k g g h i 5 5 > < 0 0 8 0 i d m 0 i 0 > : 1 > , < : y < < 0 0 < 0 g m n l k 7 q u q 9 p g u t 6 > ; ; 2 t f > & : & & 3 u u 0 u 3 , ",
":.,.,.,.<.,.:.5.1.1.1.1.1.1.1.,.5.>.1.1.1.5.1.5.1.5.5.1.5.,.5.1.1.1.5.5.6.5.6.1.:.5.7.5.5.:.} +.>.<.X.X.[ o.;.:.<.;.:.1.7.8.8.,.1.:.X.X.;.;.:.<.:.5.:.:.7.>.' 1.5.8.5.5.1.:.:.t.5.5.6.1.;.:.:.1.1.X.:.8.8.t.} } t.i.! ; a 7.;.I 7.t.5.t.X.' +.1.8.:.:.1.>.1.6.8.5.8.} Q ! +.u.t.6.8.u.6.8.<.:.6.8.6.8.5.:.;.V I Q } [ N ! ' :.X.+.5.5.8.5.u.8.t.t.8.8.u.u.t.t.8.5.1.8.8.8.5.5.8.5.5.8.y.s.t.1.8.s.8.s.8.8.t.t.1.X.+.<.y.;.X.+.5.t.1.f.u.8.d.8.8.t.8.5.5.8.8.8.t.t.t.t.u.s.t.d.8.1.8.8.s.t.s.s.t.t.8.t.8.u.s.t.8.8.6.1.5.s.' R :._ 7.p.8.e.p.s.s.i.5.1.u.8.d.t.u.s.7.} I R :.5.d.s.s.t.8.t.5.8.u.s.t.u.u.t.8.8.t.s.6.1.t.u.u.8.t.t.u.i.i.u.0.t.0.u.u.u.0.s.u.u.0.+.D t 7 3 a d u y u y 0 8 8 u 0 w y 0 0 j i i 9 i A k w j v g 0 w l z i i w i i F A g j i 8 w 0 w w 8 8 0 w k n k n i < i d F E m k d m m n m p n B d i m .._ k j z w 9 v w 0 w 9 < & & * 8 i z j B v v 9 i i k n f f u p f f 7 5 0 g p u q < 9 < = < 3 0 5 3 w p d 0 u 3 & $ $ $ & > < i 0 p d p q u p h k l f u w u 7 5 0 0 5 > = ; ; t t f t & : : > 3 i d u y u 0 < ",
"1.,.5.,.5.<.1.:.1.1.1.1.5.1.5.5.,.1.1.1.1.5.,.1.5.5.1.5.1.5.5.5.5.1.1.5.5.6.7.1.<.1.<.>.6.+.} } ^ ! Q ;.[ :.:.;.:.;.:.1.:.;.:.} ' :.5.7.;.^ ' :.y.;.:.7.5.:.o.1.6.7.7.5.5.:.} 6.7.1.1.:.o.+.1.7.o.X.8.8.8.7.Q 1.7.t.! - b :.8.:.R +.8.} 1.o.} 6.8.+.X.:.6.8.8.6.5.8.6.>.1.' o.8.s.s.u.t.8.5.+.7.8.6.8.t.>.' U Q Q } +.} X.1.6.<.1.8.8.8.1.8.8.5.6.8.6.8.8.u.t.t.8.5.8.t.u.8.6.8.8.5.s.s.t.s.7.:.8.f.8.s.u.5.:.^ b y y c d c o.;.:.X.t.t.5.6.6.8.t.5.5.6.8.t.t.s.s.s.8.s.u.8.s.t.1.6.8.8.8.t.s.s.t.t.t.t.s.s.8.8.t.8.1.6.t.8.I X.+.+.2.w.u.w.s.s.8.5.t.s.s.s.s.8.:.+.! ' 1.7.1.1.+.6.u.8.5.5.8.s.s.s.t.s.s.u.5.5.:.:.:.1.8.i.u.t.u.8.u.u.i.0.i.i.u.0.u.u.u.u.d.e.0.8.2.U y 3 y u y a 0 u u i v i i w 8 5 w p i 0 0 A v w v z 0 8 i F n w 8 5 8 g m z 8 i w 0 w w i j p w w i p k n n i 0 0 8 k m G m d 0 n k u 0 i 8 j m n G l w w v 5 8 w 0 w i < , = , 8 0 g v v m z g 8 v z z m A A A A S u 7 q q p 0 q q q p q 0 5 9 5 5 8 i u 0 y y : > > : ; : , 3 8 w k i d p p q w l m z k g 9 < * 5 6 7 5 6 6 2 t t c r < , > 3 d h d y 0 0 0 3 ",
"5.,.,.,.<.5.1.5.1.,.1.1.,.1.1.1.5.1.5.,.1.1.1.5.5.,.5.1.5.1.,.1.5.5.6.5.5.5.1.1.1.:.o.+.:.+.:.;.:.' R ' X.} ;.' ' ' ;.' ;.:.;.^ ;.5.:.+.;.;.;.;.;.} 6.8.5.;.:.7.7.5.5.8.5.5.;.:.>.1.:.X.o.+.1.:.} :.8.8.8.' } 8.5.7.M - M <.:.7.^ M I } 8.5.^ 1.:.+.X.1.u.t.8.8.8.1.:.X.1.+.^ >.5.8.6.8.5.5.X.5.5.8.8.i.:.Q X.X.} ' } t.[ 1.t.8.<.8.t.8.1.>.t.5.6.8.1.6.8.u.t.t.8.5.t.t.t.8.8.8.8.1.u.t.u.t.t.>.X.X.X.' R M V M R ^ x y ! a M Q Q X.8.X.R +.8.s.t.t.t.t.8.8.t.s.s.s.s.t.8.s.s.8.5.t.8.6.5.5.8.t.8.8.u.s.u.t.t.8.8.8.5.5.d.6.:.T 1.o.X.7.e.e.8.5.1.t.s.s.s.d.8.;.:.+.} 5.s.p.d.5.5.8.t.5.1.t.s.s.t.8.t.s.s.8.1.1.5.5.8.6.5.>.,.>.5.5.8.8.i.i.i.8.u.u.u.u.0.0.0.s.u.0.s.e.| B t 3 7 y 0 u i d m k p i 0 8 8 j w i < z z i w i 5 0 j F m i g < < i g v w g p p i g v d p i i w 0 p k n l i 0 5 d l G n d i i 0 0 8 0 n d k i i j i y 0 , 5 0 v n p < < 5 0 p i 8 g v F v p w k n F n n A D S b 7 6 q q j k l p l m g p 0 5 < 8 8 0 0 0 , , > 2 3 > : : , 3 y k 0 u k j l k g k n z k w 5 < < < 7 6 t s t 2 t x Y r 3 < 3 k m d u 0 y i 0 0 ",
",.,.,.1.5.:.1.<.<.,.5.:.1.1.1.5.1.1.1.5.5.1.1.5.7.5.1.5.5.1.1.1.5.5.5.5.5.5.1.1.5.;.X.;.+.1.1.>.1.7.o.I } o.' ;.} Q Q X.} } } ;.5.:.1.7.5.:.:.o.' ;.;.1.5.X.:.1.6.5.5.t.7.6.6.:.>.6.5.>.:.:.;.} +.t.5.8.X.Q 5.8.7.:.1 s :.{ ,.o.;.I d ;.5.t.:.:.1.1.1.5.8.5.t.8.1.+.+.1.6.1.X.1.8.7.>.5.:.:.^ 1.1.y.7.5.} ! X.} :.^ +.5.>.:.8.5.t.8.t.t.8.>.6.8.t.8.6.5.6.8.t.8.5.:.5.s.t.t.t.6.5.:.t.y.t.1.} } Q M o.+.' } 1.8.u.i.I x t.R ^ o.V M V R I :.8.8.5.8.8.8.8.8.s.t.t.p.p.p.t.a.a.a.<.t.a.a.w.7.<.<.<.5.s.s.t.t.t.8.5.5.5.1.t.8.y.o.} $.+.2.t.5.1.1.t.y.s.s.d.y.1.5.1.X.o.<.:.<.>.' o.o.} X.o.:.+.o.} } +.:.+.:.5.8.5.8.d.p.8.1.:.+.:.1.8.8.t.u.u.u.u.u.u.u.u.u.0.u.s.e.s.u.0.:.V 3 1 t 3 u u c D D h y u y 7 p y u 5 k n w i 0 5 i k F m z k p 5 i p j i j j k k k k d f q y 6 0 g b n n l p 0 p i V k D p 0 , 3 < 7 m i k h u h k 0 i 8 i k m F k 7 7 7 u h 7 7 f b l f t y f c f p h A n f f q p 7 q g m k q g h w u q 7 5 7 u u 0 0 & & > 6 r 1 ; 2 2 2 Z c 2 f l A A l f g g f u q 7 5 7 5 q 0 k z : $ 7 n n 7 7 7 h Y D d h t u p u y ",
",.5.1.1.:.5.1.,.5.5.:.5.5.1.1.<.1.5.1.1.>.1.1.5.>.:.1.5.1.1.5.1.5.1.5.7.5.<.5.5.1.+.^ X.5.1.5.5.1.1.5.+.o.X.:.' } } ! ' X.<.:.5.5.,.5.7.7.t.7.+.:.1.X.} ' +.t.t.t.5.5.5.5.5.6.6.>.:.t.;.<.t.^ ^ y.6.8.8.' X.8.5.y.! - I 5.' 5.6.X.^ R V t.5.6.;.8.o.5.5.1.1.1.5.:.1.:.5.8.5.' ' >.6.>.>.t.:.' 5.t.t.5.;.X.o.' } o.:.t.5.8.X.5.5.8.8.t.s.6.1.t.t.8.u.s.6.>.8.8.y.8.:.1.8.t.t.t.d.7.' Q Q R ^ +.t.t.X.8.5.X.1.6.s.8.!.M x 5.+.1.y.I x I o.R 1.1.1.1.t.8.t.s.u.t.u.p.p.p.p.p.w.p.w.7.w.w.p.a.p.p.p.7.5.8.8.t.s.t.5.1.1.s.6.y.1.1.;.+.1.8.5.:.1.s.>.+.X.' +.' R a N V r a x x R [ ^ X.5.5.>.u.5.5.1.>.1.6.5.5.5.1.+.1.5.5.6.8.8.6.5.1.:.1.8.8.t.t.t.t.u.u.u.u.u.u.u.s.u.8.7.8.6.5.} d @ 3 7 y s N V c u s h s p u u 0 d n i i 0 < i k J F m F k y w w y w g d n l k k p s y u u 7 h k B n D F i l i m h E i , < , , 7 d i b k d h k d p p y n G F l 0 3 < y 7 2 5 u u s p 7 q t 7 7 u h n f u t s t 5 0 q h 0 q u 0 7 q 7 q 7 y h u < < & $ # ; 2 r 2 2 2 t D s 2 s u u u w q q u 6 q 5 6 w g p u g n h 5 5 w p f t y u n n p b g y p y p h ",
"1.,.,.,.5.,.5.,.:.5.,.<.:.5.<.5.5.1.1.1.5.1.5.5.>.;.1.1.5.5.5.5.5.1.5.7.1.1.1.:.:.} ^ } ;.5.1.1.6.5.8.5.1.;.o.' :.' ' +.} } +.:.:.+.;.,.5.1.:.+.;.;.X.^ Q +.7.>.5.1.>.5.6.6.6.7.5.:.X.X.1.X.o.7.1.:.8.} { 5.5.1.;.r 1 X.:.' <.7.[ <.t.V } 8.6.+.5.X.1.1.1.+.X.+.+.8.1.1.1.:.:.:.7.,.:.! :.X.} :.5.:.:.' 1.X.^ ' ! 1.8.8.8.:.8.5.6.8.i.s.6.5.8.8.8.u.8.5.8.8.t.8.t.8.5.>.8.:.o.' R R ' :.6.s.8.8.7.:.5.1.:.8.X.+.1.t.a ^ 7.' X.<.I ' 8.5.! >.5.p.6.8.8.8.s.s.s.u.t.p.p.p.p.7.a.w.7.a.a.w.t.p.p.p.t.8.:.1.5.8.t.t.5.1.8.8.6.5.1.X.{ o.+.R M N b b V U I N R ' V I 5.t.1.5.7.7.5.:.' [ :.5.6.1.7.8.5.5.8.s.s.t.1.o.:.5.6.6.6.5.8.8.8.t.8.t.8.u.u.t.8.u.u.t.t.u.t.u.t.t.8.8.8.8.t.s.+.U 3 1 t h h h h u s h d d u p w k k u 0 i 0 0 p m m F F z j i i 0 0 v k n l i h h 6 p s h y u d n h n F l V k l k m y > 7 3 < u u a l s u b h n i g p n k k v 0 0 7 7 y 7 7 t t f d u 7 5 6 2 7 t 7 7 7 7 t 6 > < g u < 5 7 6 7 7 7 u p f h q 7 5 7 : # $ 2 r 7 2 2 s M t q u 7 5 5 q q q q 5 = 5 u D D A A n l h u u h h n n n D m 0 u l 7 u 7 u n n ",
",.1.5.1.1.,.:.5.:.,.5.:.5.:.,.5.:.:.>.1.>.1.1.5.:.+.5.5.5.1.1.5.5.1.1.5.:.o.X.} +.} ' o.Q :.5.5.5.7.7.1.5.:.>.X.} ;.[ >.' ' 7.1.:.+.X.X.o.:.<.:.1.1.7.+.} } ;.7.7.:.5.:.:.>.5.6.5.:.o.} } X.;.:.+.X.} V X.t.t.5.Q + M <.<.o.' X.;.p.p.o.! :.,.' :.1.1.>.5.5.5.:.:.:.X.1.>.6.5.1.t.t.6.^ } ! X.o.+.:.:.X.1.Q } ! } :.8.6.5.1.s.8.6.8.8.8.8.6.8.t.s.u.1.6.1.1.8.s.5.X.X.R V N Q ' +.1.6.8.6.8.t.s.t.:.[ :.:.t.t.6.+.R 2 Q 1.! :.' V :.i.+.} d.1.:.1.7.8.t.s.s.d.t.u.t.t.a.a.w.p.p.7.7.a.7.p.p.p.p.i.s.5.5.t.8.8.t.8.1.+.8.d.s.:.' I r - 1 d ' :.8.8.t.s.5.o.o.1.X.^ :.d.t.d.d.i.6.X.! +.7.7.i.s.t.8.6.5.5.8.8.8.5.+.6.8.8.8.8.8.t.t.s.t.t.u.u.t.t.t.u.t.u.u.u.t.t.t.s.s.t.8.y.s.8.6.8.[ d 2 7 t d u y s d d p p d u d p i < 0 0 0 i b n l n n z u 0 0 w F H m l i s f t d h h u y d k u u k d G m k d u 3 7 y 0 3 a u u k y 3 V k j 0 0 k d p j k i u t 7 q t 7 t 7 7 u 6 : : ; # = > > > 7 7 6 ; > q n g 7 3 7 7 7 q y g h d g y 7 0 u 5 @ $ 2 2 t t 6 s f f f y < > q p y q 7 = < 5 n _ ( G D p q 7 w k h l J A n A k q k u u p 6 n D c ",
"1.,.5.,.<.1.1.:.5.5.:.5.5.:.5.:.:.:.;.<.<.1.1.5.:.+.1.1.1.1.5.1.1.1.5.1.+.' } X.<.+.' X.+.} :.>.:.;.6.5.:.:.7.>.' ;.} :.X.} 1.<.1.:.1.5.1.o.' 5.5.5.7.1.5.} ~ X.<.5.5.7.8.7.1.:.+.:.1.} } :.t.7.:.:.' ! :.1.;.^ r ; X.5.:.+.^ 1.7.t.6.5.I M 1.X.7.>.5.1.8.8.s.t.1.} [ 8.8.t.5.1.6.8.6.>.X.U ^ } o.<.+.;.X.^ 5.} 5.:.6.8.>.>.6.8.t.8.8.8.t.8.6.8.1.1.1.5.8.o.^ [ ^ ! ~ ^ ^ X.8.8.5.:.1.6.8.t.8.p.8.7.Q Q 8.t.8.t.+.R y 1 ! ;.<.^ R o.7.1.[ d.5.:.+.6.t.s.s.s.s.u.t.u.u.t.p.t.a.p.7.7.a.p.p.a.p.p.s.u.5.5.t.t.8.8.8.7.:.o.1.1.x y x N ^ ;.t.} 1.8.i.s.8.t.f.7.1.;.R V o.o.+.5.:.5.>.>.X.+.8.t.t.5.1.1.5.8.8.8.t.u.>.X.X.1.8.8.t.s.u.t.8.s.u.t.t.t.t.t.t.t.8.t.u.t.t.t.t.t.t.t.t.t.0.t.0.o.N 7 1 t t y s s p u u i 0 p d u < u p u p n m B m m R m l d p D E n h y y u q s h g p m k p u u u j V z i 0 , < u d i u u u 0 d 0 7 k d i u 0 0 i d k d u p u u u u t u 7 > 6 t 5 7 > ; = : 7 t t u > = 5 h n h h 7 7 > 5 7 7 q u 7 7 u y g f 7 = @ 2 2 2 2 7 t c N f t : 5 g u 5 5 5 < 5 u D / n k p q u q u n u n J A m l p p u u h g p D m y ",
",.5.,.,.,.,.1.5.,.<.1.,.:.5.,.5.5.5.1.1.1.1.1.>.+.X.>.:.>.1.5.5.5.5.8.1.X.:.1.:.+.+.o.o.5.X.' X.>.1.:.;.7.1.5.6.1.o.} o.:.1.X.o.;.+.;.1.5.:.;.' ;.7.:.<.1.;.' ^ ' X.:.X.^ I I I R U I I I I M M I I r b U N v 1 O 2 :.1.' ! X.t.7.6.7.6.X.M N +.6.1.5.5.t.6.8.6.+.+.:.t.8.8.5.5.8.6.5.6.} +.>.1.1.:.} o.Q 1.5.o.8.5.1.t.1.1.6.8.8.t.8.8.t.8.1.5.t.8.8.8.5.X.' } +.5.6.5.>.1.8.8.8.1.5.8.8.t.8.s.5.8.} Q +.:.:.+.1.6.;.y 2 R 1.R } ;.:.1.Q 8.t.t.5.5.8.s.t.u.s.t.u.t.t.u.p.7.p.p.7.7.w.p.8.p.p.s.u.8.6.1.5.8.8.t.8.8.5.X.x y x ' 1.:.:.:.t.t.X.1.8.t.s.s.t.5.7.8.+.' ^ ;.} +.1.:.1.X.X.:.} :.:.;.5.s.8.8.t.s.t.s.p.1.o.1.t.s.s.8.t.u.s.s.8.s.u.u.t.t.t.t.u.t.t.t.t.t.t.t.t.t.t.t.t.t.0.u.1.[ c 2 3 t t u d 0 0 0 7 i d u 7 d h d i z m n B m E W E D k m n g g p 7 u p u d y s D d w i i 0 k n j i u > 7 i d p k 8 3 y k u 3 , 0 i i i i l k w 0 u i d p f t 7 u 7 > 6 t 7 t 7 > > 5 u f f u > 2 7 k y u 6 7 5 > 5 2 > > 7 7 7 q d n b 7 = ; ; 2 t 7 ; 2 f c t t y g h q > < 0 u q h m l h u q g m p A p q / ( _ W l z m l A z p z m q > ",
",.1.5.,.:.5.1.1.1.,.<.5.5.:.1.,.1.1.1.1.1.1.>.5.:.' >.:.:.:.1.5.1.1.8.:.:.1.:.:.;.' R R ' ' ' V ! ^ I I ' { R ' I I M a V I M b b c M I I I R y a I M I I V b x d x b M I ' +.+.;.} } 1.;.} N R <.I ' o.Q } :.b 2 - Q [ [ [ 1.7.5.5.5.5.;.:.d [ t.8.8.6.t.6.5.8.:.1.5.1.s.t.5.5.t.t.7.5.} [ 8.7.X.o.} X.} 7.:.+.t.6.6.5.1.8.8.5.s.t.u.8.8.8.8.1.1.:.:.>.} +.>.5.t.t.6.1.1.>.1.5.7.6.8.7.8.t.t.6.t.d.+.} 5.[ } +.y.8.t.:.x 3 a x 1.5.5.+.^ 5.t.s.t.8.t.s.8.u.s.8.u.s.t.t.p.p.p.p.7.<.7.a.d.p.8.s.s.s.8.5.5.t.:.t.8.8.O.x : M 1.5.7.1.6.1.;.7.y.} 5.+.1.:.:.+.:.8.5.:.X.I X.1.5.8.8.7.+.} t.6.+.t.5.6.s.t.t.t.t.t.t.6.5.1.1.6.s.i.s.i.t.t.u.t.t.t.t.u.t.t.u.s.u.s.8.t.p.8.8.u.t.t.t.5.6.u.0.0.>.D 2 : t t a p y 0 3 u d 0 y u d h d k n n V G W W G m d h u h h h h n f k h t y k i u i p k m i 0 n m 0 0 u 0 0 u 0 < , l v , , 0 u d k n m 0 y w 0 y d k 7 7 t d t t t t > 7 5 : 2 t n t t 2 = $ 7 h g 7 7 7 7 7 7 7 7 5 > < 7 u k k p > ; > ; 1 2 2 : 7 s h f n h h d q q y y p u u l h k p p A n n k < E q.( #.J m J W J _ z A A g < < ",
",.,.1.,.5.:.5.1.<.,.5.:.1.1.1.1.1.1.1.1.:.5.1.1.1.+.} ;.1.5.1.1.5.5.1.X.+.:.+.+.<.<.:.:.' X.X.X.X.} X.+.o.o.;.;.o.:.{ R ' :.X.} +.+.:.1.1.<.+.o.;.t.1.t.1.1.:.:.+.X.;.1.8.8.7.6.8.1.:.p.o.} 1.5.Q Q 1.:.:.o.o.M [ r r Q } } 1.1.5.7.>.+.:.t.' Q 6.8.8.6.6.5.8.1.+.1.1.1.6.t.8.6.8.8.6.7.:.o.:.;.X.;.X.+.;.t.1.:.t.8.8.1.5.8.8.6.8.8.t.t.8.6.5.1.+.' } >.1.5.8.s.i.8.7.5.t.t.8.t.t.t.t.t.t.i.s.8.t.t.X.} 1.1.1.+.o.:.1.7.;.M r t I 5.5.8.U } s.6.t.t.t.t.p.8.s.s.p.s.t.u.p.t.7.t.t.<.7.p.s.p.p.s.s.8.6.5.5.5.t.8.t.;.y d R } 5.6.7.7.1.t.5.:.5.+.+.+.1.:.5.5.5.t.t.8.5.' +.+.5.t.s.t.6.:.+.5.:.5.6.8.y.t.t.t.t.t.8.8.t.6.6.8.t.t.t.t.t.t.t.0.t.t.t.t.t.t.u.8.6.8.s.t.u.u.8.t.t.8.t.t.t.8.6.8.u.6.[ a : 1 y a y a 3 y 7 u u a p c k b n B V W ^ E R N u q q h l u p c D D n p h i 0 w i l n b u i d n u 3 0 < < 8 3 & 3 k j 3 3 < u u k l i 8 w 0 u 0 y u 7 t f d f f u > > 5 ; : 7 u f t 6 2 $ $ t f p t t t u u 7 7 7 > > 6 y h k p 7 5 = > 2 2 6 2 > 7 u a f n n k h p h h p h g d n n l p h n m J p m m.&.D D m G ..` | J n n p < & < ",
",.1.,.>.5.1.1.1.1.1.1.5.,.:.1.1.>.1.1.1.:.7.1.1.1.5.<.+.X.+.:.1.5.1.>.+.>.5.5.5.1.:.+.:.+.' X.5.1.+.X.+.>.8.1.1.+.} :.1.o.<.:.:.5.7.5.t.5.+.>.8.7.1.5.8.5.1.+.+.>.5.5.5.5.5.5.5.5.1.+.5.! t.:.1.M ' ;.1.5.+.M 1.8.R 1 d ' 1.5.5.7.5.:.X.>.7.o.x t.8.8.t.t.6.1.:.+.5.7.1.+.8.8.6.t.t.8.6.5.5.1.1.+.5.:.1.1.1.1.5.8.t.8.:.6.8.8.t.8.8.t.t.5.+.1.1.} } t.i.8.5.6.t.6.8.>.5.8.u.t.t.s.t.u.u.t.t.t.8.8.:.[ X.} i.+.5.7.>.>.' 5.X.y 1 a X.d.7.+.V 5.6.6.8.s.8.s.e.8.s.t.8.8.t.s.8.8.t.5.1.8.t.u.u.s.s.t.8.8.p.u.8.8.8.y.c 3 :.1.' +.6.8.8.5.8.t.+.X.1.:.8.8.8.8.t.8.5.6.8.5.} 8.5.:.X.8.s.5.:.X.8.8.t.s.0.t.t.8.t.t.u.t.u.s.8.8.u.8.t.u.u.u.s.t.t.0.u.u.t.8.s.t.8.5.5.u.t.u.t.1.t.t.8.u.i.8.8.i.8.8.6.| U x ; 1 t u u t s u s d s u h k n n n D ^ / E G V i 0 u z n h h f D E D f h u u 0 0 k h p u 0 j k p 8 < = % & = o < i w 8 8 : 8 , d m i 0 p i p s u i p h h h M c t ; 6 2 > 2 7 u s t f t $ ; t u 7 t p u t q 7 7 7 7 7 p h n f t 6 r 2 2 t 2 2 r t 2 t 6 f U n k n k n n k k p k G E D p h k W _ k $.m.R A A m ( *.1...h u g & # < 3 ",
",.,.5.>.>.,.1.,.,.1.1.<.,.5.1.1.1.1.1.,.1.1.1.1.1.:.1.5.1.:.+.+.+.} +.:.>.:.+.+.+.:.:.:.+.+.} } Q X.:.:.5.1.5.! ^ ;.1.1.X.' o.1.1.1.5.+.o.:.1.5.5.1.5.1.+.+.5.7.6.5.6.5.5.8.8.8.5.1.:.X.} 8.8.Q X.:.;.1.5.R ' o.+.' M - I t.6.t.8.1.+.o.:.5.1.^ Q 5.8.8.8.8.5.>.+.1.8.5.o.8.8.5.t.8.8.6.8.t.8.8.7.5.1.5.8.:.+.<.5.5.:.>.8.8.8.u.5.1.5.8.1.+.1.6.;.:.u.5.o.5.s.s.6.1.1.8.t.s.u.t.t.t.t.t.t.t.t.s.6.+.o.6.} 7.1.6.t.t.5.U ! M x M r a X.y.i.I ' t.5.5.5.6.8.y.s.s.s.s.t.s.u.8.6.8.7.1.8.8.t.t.8.u.t.8.6.y.8.t.8.5.' r X.>.5.>.5.t.t.s.8.1.6.+.X.s.6.t.t.s.u.t.t.u.s.y.8.X.u.s.6.:.:.8.6.5.>.:.1.8.8.8.t.t.t.u.t.8.u.8.t.8.t.s.s.s.u.s.8.8.t.t.t.8.t.u.t.t.s.u.8.1.8.t.t.5.:.8.u.8.8.8.i.0.8.8.2.>.o.,.t.] a 7 7 t t u t u d u y s d d b n m ^ E V k k u u p m n h h p B U U n f u p 0 3 i 7 u i u l v 0 8 < & % # & o * 8 5 , < % < : u n 9 0 k u g d d n n b n n f f r 6 t t 2 6 t t t f t 7 > > u y t s h s t 7 y u p p d f f p t f s 6 6 6 2 2 2 2 2 6 r 2 s f k n n n m m n k k V E J k g k J ` D l / D q h n D E $.&.S > > > & > 0 w ",
",.>.,.1.1.>.1.1.1.1.1.1.1.1.1.1.1.1.1.1.1.1.1.1.1.1.5.1.>.1.5.1.>.+.:.:.:.1.:.+.;.<.5.6.>.X.5.' } 7.5.>.1.:.o.' } +.X.:.+.} o.:.5.1.:.+.1.8.8.6.1.1.1.X.:.5.5.8.8.6.6.5.8.8.8.5.5.X.X.^ 5.>.^ o.1.1.t.5.} Q X.;.} ' { I + ' t.8.5.1.:.} 5.8.;.5.N +.t.y.8.6.6.1.5.5.8.6.+.5.8.7.t.7.8.6.6.t.t.8.8.1.5.1.8.1.;.5.1.o.:.8.u.t.8.8.8.6.8.t.8.8.6.5.:.1.5.5.>.1.1.+.1.6.6.u.t.t.u.t.t.u.u.t.u.8.u.s.7.[ :.t.5.;.t.5.d.5.:.^ s c ;.+.d y x 7.u.' I [ 1.5.1.1.5.5.1.1.1.1.:.<.>.+.>.5.8.1.8.8.8.t.u.s.s.t.8.8.5.o.Q d - x >.5.+.8.f.p.8.u.t.1.+.1.1.y.t.8.8.t.s.u.t.u.t.t.u.o.1.8.t.8.+.+.+.8.:.:.1.<.1.5.6.t.u.8.8.8.u.8.t.8.t.s.t.u.u.u.8.u.t.t.u.u.8.u.t.t.u.t.p.1.6.t.8.5.6.t.8.t.u.8.8.i.8.>.+.>.6.u.5.5.+.h > 3 t y t t u s d s h d k b b G R n y 7 3 0 u l l u p q f N N n y u u 8 < 0 < u u u b p 0 < < & & & & & = 8 8 , , & & : 0 0 , 0 k p d h h n D n h h t 7 t t t s r r t 7 t t t t t 7 u p s f f t 6 7 u d f u d f u 7 t u r > 2 2 2 2 r 2 6 2 7 t y f h n k h n m m n B m n b g h n ( H p h k q h h B n D E D 5 : : : : 0 0 u ",
",.5.5.,.1.1.1.1.1.1.1.1.<.1.1.,.,.1.1.1.1.1.1.1.5.5.1.>.1.1.1.>.5.5.5.5.5.:.>.1.1.1.5.7.>.:.1.X.:.>.5.5.:.+.[ +.:.>.1.6.5.1.;.} :.5.^ +.t.1.8.1.;.:.>.:.5.5.6.8.8.5.5.6.1.5.5.6.5.' ^ Q 6.! o.>.7.1.7.:.I +.' ! ' :.;.1.t V 5.1.:.>.X.! :.8.+.:.} b ' 7.8.6.8.>.6.8.8.6.1.:.6.6.t.6.5.6.6.t.i.7.5.:.t.5.1.1.5.8.1.} 5.u.8.8.t.t.s.t.8.t.8.8.s.5.+.7.t.5.5.1.+.+.1.5.8.i.8.t.t.t.t.t.t.t.u.8.t.i.:.' >.1.s.:.>.t.i.!.^ t Q 6.5.:.' y y ' o.i.6.[ o.i.s.8.6.5.+.1.5.5.1.1.1.:.5.t.s.8.8.6.8.u.i.t.1.X.V d r - O 1 y } } 5.6.t.s.p.d.t.t.8.+.1.8.5.s.d.8.8.t.u.s.s.s.0.i.X.1.8.u.8.5.} ! 5.:.>.>.+.:.5.8.8.s.8.8.s.t.p.s.s.t.u.t.t.u.t.i.t.t.u.8.u.u.t.t.u.u.8.t.5.6.s.8.5.t.u.t.t.u.u.8.6.#.>.8.t.u.6.6.6.8.>.s y 7 3 3 7 u s h c b d h h h V D c 0 3 , u u h l d y t h n n h u u i 9 3 0 0 0 7 0 i 0 < < < , = * & , & 5 5 < = : @ & & 0 8 w k p u h h p n h s y 2 7 u u f f 2 2 t 7 7 u t f t t p s f s 7 7 7 7 g c h h t u q u t u 6 2 2 2 2 2 2 r t r t t t f h h s d d b b B h d h n h h A G u p 0 q p g n / D V n 6 $ < 5 5 < u u 0 ",
",.,.,.:.>.>.1.:.1.1.1.1.,.<.5.5.5.:.5.1.1.1.1.1.1.5.1.1.5.1.<.1.5.5.1.5.1.>.1.5.5.1.1.1.1.;.;.' :.1.5.;.X.:.:.:.+.X.X.+.:.:.:.X.} X.+.5.7.1.1.:.>.1.5.6.5.6.6.5.5.6.8.5.5.7.8.5.7.5.[ I ! X.:.6.1.t.1.' ' } Q +.<.;.} y.I 1 U } ' o.+.;.1.:.I ^ Q ' ' ' 6.8.5.:.1.5.:.6.1.:.;.1.5.5.5.6.t.6.8.t.5.1.1.1.:.8.5.1.:.5.t.t.8.t.t.t.t.8.s.t.t.t.8.5.1.6.6.5.5.5.+.>.1.6.t.8.t.t.t.t.t.t.t.t.t.t.t.6.:.+.8.t.8.1.:.1.t.} x @ } f.p.<.;.b r s [ 8.8.d.! Q 1.5.t.8.t.u.t.i.t.8.5.:.1.8.5.o.y.5.5.t.7.:.c 1 @ y M x I <.5.X.+.>.8.s.t.s.d.y.8.8.+.5.t.1.5.d.8.8.8.t.t.t.t.t.u.X.5.5.t.8.8.1.:.<.5.6.5.8.5.1.6.8.t.t.s.u.u.u.u.t.u.p.u.u.u.s.t.t.u.t.t.8.8.u.t.t.t.t.t.t.5.8.t.1.t.t.t.t.8.u.5.+.<.8.t.8.6.6.8.8.6.0.E $.B 7 > 7 t s h h b k h d p B B n u 7 6 t s h n d u t p n n h u u 0 q < 7 h q > 7 0 7 < < , * , , & & : , 0 < < , < , & 8 0 y p i 7 y 6 : t f f 2 2 s x f s s 2 t u t s f t s t s s d s u 7 7 5 7 g g h h q 7 6 u 6 u 7 t t 2 2 2 2 2 t t t t q f b u u c n n n n h u n A n h H D u 0 q 7 7 f W ..D g 7 < = 5 5 0 0 0 0 0 ",
"5.>.5.,.5.5.1.5.1.1.1.1.1.5.:.:.5.5.1.1.5.1.1.5.5.1.5.5.1.;.:.5.5.7.1.>.:.1.5.1.5.1.1.1.1.:.:.} +.:.+.:.>.7.:.:.5.5.5.6.6.5.5.1.X.+.1.;.X.1.:.5.5.5.1.1.5.5.5.5.8.8.1.6.5.1.:.O.+.1.I M 5.7.1.y.1.>.R X.} } } ;.} 1.:.o.X.: x ' :.8.8.5.6.o.o.+.' ! ' R X.6.:.o.+.1.5.8.5.5.:.:.+.>.5.6.t.6.t.6.1.7.:.>.1.8.1.5.5.t.8.t.t.t.t.t.8.t.u.t.8.8.8.6.t.8.5.6.5.8.1.>.6.6.8.u.u.t.t.t.t.t.t.t.t.t.6.>.1.1.t.s.t.5.t.1.^ M N r o.i.s.p.:.:.r r b 1.s.:.8.1.^ s.s.u.8.6.6.7.8.t.8.8.t.8.1.+.} X.1.y.+.s - x o.5.o.:.8.p.6.X.' 1.8.8.t.s.t.s.t.8.1.>.t.t.1.t.t.5.t.t.t.t.t.t.8.o.8.5.1.8.s.t.8.1.+.8.8.t.8.8.7.8.8.8.8.s.u.t.t.t.t.u.u.t.t.u.u.t.t.u.u.u.u.t.t.u.t.t.8.t.8.8.8.6.t.8.t.8.2.6.X.>.8.8.8.t.6.8.6.6.8.8.^ 0.2.^ y 2 s 7 s c k d d u u h h h s u t 7 y h c f u u p f h s g d 0 i 7 < h u 7 q 0 3 < , , < < < & < < 5 8 < < 8 8 0 0 8 0 0 0 0 7 7 7 & t s t > t t t t t t t y d d s t u u t u s f t 7 7 7 7 p g p g u 7 u 7 7 6 t 6 u f 2 2 2 2 2 6 2 u u t s n h n Y A n D D h h n U m n l g q p 5 < 0 k W J g & > 5 5 5 0 u p q < 5 ",
",.,.,.5.>.>.1.1.:.:.:.1.1.:.1.5.:.5.5.,.1.1.1.5.1.1.1.5.:.o.<.5.1.5.1.>.:.1.5.5.5.1.5.1.<.5.o.U I ' +.>.7.1.5.>.>.5.5.5.6.5.5.6.+.X.+.+.+.5.6.5.5.1.1.1.5.5.>.1.6.1.5.5.:.:.;.X.Q x x ' ' } } ' o.x a ' X.' 7.o.<.1.+.! X.R a [ 1.7.8.8.6.o.:.8.:.' 5.^ b } 5.5.1.6.5.8.7.8.+.5.+.X.;.5.7.6.t.1.:.6.+.8.8.7.:.6.8.t.t.t.t.t.8.8.t.8.t.t.8.u.8.8.t.t.8.5.7.8.:.>.8.8.8.u.8.u.t.u.t.u.u.u.t.t.t.1.1.1.8.8.t.t.:.^ ' R V <.:.7.t.t.;.7.I r r a ^ } 5.y.1.X.8.8.8.1.1.1.1.5.8.s.t.5.t.t.:.+.X.} x @ I y.y.} ' t.s.7.:.:.+.:.p.p.t.s.t.8.8.8.t.5.7.t.5.8.5.6.u.t.t.t.t.t.s.:.5.t.:.8.u.8.6.8.6.8.5.:.8.t.8.t.u.8.s.s.t.u.0.s.u.t.u.u.t.u.u.t.t.t.u.t.u.t.u.8.u.8.u.t.8.5.6.6.t.8.t.6.>.[ ,.6.8.t.t.8.8.6.6.8.6.8.R 2.0.8...n 2 y 7 t d i u 0 y d p u u u u 7 t f s d f y u u u q p f u q < 7 p u u y 5 3 8 < < < , < = , < < 0 8 , 0 0 u d w 0 5 0 8 7 7 7 : 6 t 7 > ; 7 t 6 t t y u s d t t u 2 7 t p s t 7 t 2 7 f 0 q f u 7 u q 5 u t 2 f f r t 2 2 2 2 t u s t u h n D | U A Y D k n D D l h p u g g 5 7 u p l u 5 5 7 q 7 0 q g p 0 < 5 ",
"} o.:.:.:.>.7.>.;.1.1.,.5.7.5.:.5.,.1.1.5.,.5.1.1.1.<.1.+.:.5.5.>.5.5.5.>.5.1.5.5.1.1.1.5.O.^ ! V R X.5.5.>.;.:.>.5.5.>.5.6.7.:.} } X.1.5.1.1.5.5.5.<.1.5.8.6.;.>.8.5.5.:.+.} R ' +.+.;.:.:.Q X.' N x ;.:.7.,.+.^ M c o.7.5.x :.8.5.8.5.7.' ;.t.t.' ^ X.Q N +.5.5.8.5.5.1.1.[ :.1.5.5.8.6.7.1.+.1.6.>.8.1.;.+.8.t.8.t.t.t.t.t.t.t.t.t.t.u.8.s.u.8.y.u.6.t.8.1.>.6.6.u.8.u.8.t.t.t.t.t.t.t.t.t.5.7.1.5.5.t.X.^ 1.[ x +.6.1.8.t.p.<.5.;.a r 2 b 3 Q 6.t.1.^ t.8.t.t.t.8.5.1.5.8.8.t.5.o.I y @ - x 6.s.;.^ ' 6.t.:.+.>.1.+.6.t.t.t.s.s.8.8.u.5.1.6.t.t.>.t.t.t.t.t.u.t.d.1.>.u.>.1.t.t.8.8.p.t.5.+.1.t.s.s.i.u.s.8.u.t.t.t.t.u.t.t.t.t.t.u.8.8.t.u.u.8.8.t.8.u.u.8.i.1.6.6.6.t.8.8.>.] u.5.8.8.8.8.,.>.5.6.5.2.W 6.6.2.6.6.( 2 7 3 0 y y 0 7 y u y y t t t t t t s d u u 7 7 7 7 h k 7 7 7 7 f n l u u 0 < = & , < < , < 8 0 u w 3 y l k y 0 8 8 0 t 6 7 5 > 7 > > ; > 7 t t 6 t t s f t u t > > t u s t 7 7 7 6 7 5 u k f u f q 5 6 6 > t s t t t t 6 2 6 t u t f f E ( #.D N D D A D D n h g p h h u 7 u p p p 9 > 7 7 5 0 0 u u 0 7 5 5 ",
",.,.+.+.+.:.:.;.1.1.1.1.1.5.1.1.5.1.1.1.5.1.1.1.1.1.1.:.+.5.5.1.5.1.1.5.1.1.5.5.1.1.1.5.+.! ' X.} R ! o.:.5.1.1.1.5.5.5.1.:.>.+.o.5.1.+.;.5.:.5.8.8.5.1.>.5.5.:.;.} ' ' ! ' ;.:.5.1.X.5.:.X.:.' I X.I } } 1.;.:.+.+.Q Q I } r o.8.6.8.6.5.o.' 6.8.1.X.U ! R ' ! R ' } o.o.<.o.<.t.d.s.t.8.t.1.+.6.8.5.8.:.:.,.t.6.t.t.t.t.t.t.t.t.t.u.8.u.u.t.u.u.t.u.8.6.8.8.1.1.t.8.t.t.t.t.t.t.u.t.t.t.8.:.>.t.5.8.7.:.' 1.7.x ! 5.>.6.6.8.s.5.5.8.b d y X.X.I I } 1.1.;.!.t.t.p.t.8.7.5.8.t.o.M 2 - r x U :.t.o.^ 1.t.8.1.5.t.u.8.1.1.8.t.t.s.s.t.8.s.6.5.6.6.5.O.+.t.t.t.s.u.t.s.6.5.8.5.1.8.8.u.u.t.t.t.5.:.6.t.u.u.t.s.u.t.t.0.u.t.u.t.t.t.t.t.t.8.5.8.t.8.t.t.8.t.t.t.8.i.1.6.8.8.1.8.6.+.:.8.8.8.8.8.8.>.:.>.,.>.+.Y >.6.2.u.6.8.] a 2 3 < 3 7 3 7 t 7 7 2 7 t t 6 t q y u q t 6 > 7 f f t 6 > 7 l / | J l i 0 , , < < 0 , < 0 8 i w , d m k i 0 8 8 0 i q 0 7 5 ; > > 2 2 t 2 > 2 2 y g u y y 7 1 2 u u t t 6 t 7 7 6 u k n n g k g g t q 7 t t q t t t 6 r 2 t f u f Y Y | / A D E / R D H D p u u k g 0 q p p p u q 0 0 0 q w 7 w u 7 5 0 7 ",
",.,.,.,.:.[ o.o.X.o.+.;.<.1.1.1.:.:.1.1.,.1.1.1.1.1.1.:.;.1.1.5.5.5.5.1.5.5.1.7.1.:.} X.' ' } } o.o.;.:.X.' 1.7.5.1.1.5.1.<.>.:.5.7.7.<.;.<.5.1.1.8.t.5.:.+.' R ' V I } 1.7.5.:.;.+.' o.5.7.<.' ! } :.R X.:.1.+.^ X.;.X.X.;.M ! 1.1.s.+.+.X.' +.5.+.! +.' R :.:.^ R N Q 1.t.8.1.:.6.s.8.t.t.:.<.8.8.5.5.+.1.6.6.t.u.8.8.8.8.t.t.t.t.8.t.t.8.t.t.t.8.t.t.5.8.u.8.1.:.s.t.u.s.t.8.8.u.u.6.5.5.X.:.8.8.8.t.+.>.t.I I :.1.1.5.6.8.5.5.1.t.b r 2 Q 1.:.' x [ t.t.t.s.s.t.s.s.t.t.;.^ s @ - I { y.:.t.X.V +.s.s.7.6.8.y.t.8.u.5.1.u.8.s.8.p.u.t.8.8.8.8.8.+.' 6.u.i.t.p.s.t.8.:.8.t.t.6.p.s.s.s.s.s.t.+.1.8.t.u.s.s.u.t.t.t.u.u.t.u.t.t.u.t.t.8.1.t.t.t.8.5.t.t.t.t.t.t.5.8.8.5.5.t.+.X.:.8.8.8.8.8.8.5.5.5.>.+.} V } 8.u.0.0.u.u.2.N ; 3 7 2 t > 3 3 2 > ; 1 2 2 t t 6 y q t 7 > > t t p 7 : 7 n E | | n h i w 8 , < 7 0 j d 8 5 8 0 n F k 0 0 0 0 0 u 0 7 7 > 5 > > 6 r t 2 7 t t y a u t 7 7 1 7 t t 7 t u t 6 7 u h l A z f h h f f f f p 7 t t s s t t 6 a s a c Y M D D E ( / } / n D m 0 q g l h 0 p d h f u p u q q u q 7 q w q < 0 q ",
">.,.,.>.+.+.1.:.X.} ' } +.:.:.+.+.+.;.:.:.1.>.>.:.1.1.5.:.:.1.1.5.5.,.1.5.5.1.5.1.>.^ ^ o.<.1.7.5.5.1.5.<.:.^ } +.:.:.:.1.8.8.>.1.5.1.1.1.+.O.+.5.1.X.[ } ' ! I } } 1.5.7.1.5.1.;.^ +.7.:.:.} o.:.{ } R X.:.;.+.o.7.5.+.+.1.' ^ 5.:.:.5.1.+.+.:.:.+.X.t.1.} R +.o.1.} R ^ X.<.1.>.5.t.5.8.5.;.1.7.5.1.5.;.5.5.5.6.i.u.t.u.8.8.t.8.u.8.u.u.8.8.8.8.u.t.u.6.8.6.1.+.[ 1.5.6.5.8.8.1.+.>.5.8.6.1.5.1.8.t.6.X.7.' c 5.6.6.6.5.t.t.8.5.5.t.x a r c 7.7.:.:.x o.6.d.t.s.8.t.d.y.8.Q 1 @ x X.7.6.8.y.8.^ R 8.5.7.8.t.t.u.u.u.s.8.5.t.t.t.s.s.t.t.8.5.5.8.t.7.1.1.5.t.t.8.t.t.8.+.8.u.s.8.t.d.s.t.s.s.s.5.>.t.s.8.s.s.u.t.t.8.u.8.t.u.u.t.u.t.8.i.:.:.8.6.t.5.8.t.t.i.8.t.1.8.8.+.1.8.+.+.:.8.8.8.8.8.8.t.t.0.6.5.1.N N >.2.2.s.0.8.u.5.V > : y 2 a 1 > > > > 1 > 2 2 2 t t t q 7 6 ; 5 7 t 7 > 7 u h n E m u u d 0 < & < u d k 0 u : < V J j u 0 0 0 0 0 < > < 7 7 > 7 2 2 6 > 7 t s s t t 7 t u 2 2 t 7 t f u 7 7 7 f n A A n h l j l A f p t 2 t t y t u t t a f s f M p n D ` 2.| ` H D W m u q n J n 0 k k g k h g g q u y 7 q 0 7 p q u q ",
",.,.,.>.X.>.+.+.+.5.+.+.1.1.1.1.1.>.<.:.<.>.:.1.1.,.1.7.:.1.1.,.>.1.>.1.1.1.5.5.+.+.} +.5.5.1.1.5.1.1.1.<.1.;.X.} X.} } +.1.t.1.1.7.1.5.8.1.+.' M I ! ' o.+.o.o.t.7.7.7.5.7.>.+.I R o.<.1.Q ^ } :.;.o.o.Q +.+.X.5.7.7.8.1.7.X.R :.:.5.8.8.:.:.1.1.' ^ 5.;.;.! ' X.1.1.;.X.' } <.:.:.5.7.8.5.:.t.6.8.1.5.+.5.5.1.6.8.6.u.8.u.t.t.t.8.u.8.8.u.8.u.8.6.6.1.1.5.1.5.1.+.o.:.1.:.o.[ R Q } +.+.:.>.5.1.6.5.u.} :.x +.y.8.6.6.8.5.6.+.8.:.X.b r r a :.t.y.1.:.x } 8.8.t.u.8.8.t.R 1 - I 5.:.<.u.s.d.X.X.5.8.6.5.t.t.t.t.t.t.s.t.8.6.s.8.s.s.u.s.u.7.6.6.6.1.+.5.6.t.t.u.t.t.8.o.8.u.u.8.6.8.s.t.s.s.t.s.5.+.8.s.s.t.t.s.t.u.t.8.8.t.u.t.t.u.8.s.7.X.8.5.t.1.5.s.s.s.t.t.5.6.8.:.1.+.} 5.t.8.t.t.8.8.8.t.6.8.u.6.5.U N >.$.>.5.u.u.0.0.8.| s : 7 3 3 : ; ; 1 ; > 2 6 1 2 6 t t t 7 = ; = 7 5 > 7 6 > > h D m m n k , & 0 k p u 0 0 0 u m F n i 0 3 8 8 7 < < > 7 7 t u t t 7 ; 2 7 s h u t s d u 7 7 s t c c t 7 7 t f A D A k l l j f n k f 7 > t 6 t u s t 6 t s s f s s p S ` ..W ( W ( W l h g W | l p l g u g l h g u 7 q q 7 7 q k p q u ",
",.>.>.,.[ :.o.+.5.5.+.X.;.1.1.5.7.1.1.1.,.:.:.1.>.1.,.1.1.:.:.1.1.5.1.1.5.1.5.:.;.} } 5.1.5.5.5.1.5.1.1.1.:.>.:.<.5.5.:.' R ! } 8.t.1.:.o.' ^ ^ Q o.>.>.t.7.:.:.5.:.5.:.:.>.:.' I o.:.} I ' :.1.:.} Q } >.X.' :.6.6.8.t.5.1.} ^ 5.5.8.6.8.:.:.5.5.[ ! 7.1.1.5.' } X.:.5.5.;.} +.5.8.8.8.8.5.7.t.6.8.1.1.+.6.6.5.6.8.u.8.u.8.u.t.t.8.8.t.u.8.t.8.t.u.u.u.t.t.6.8.8.5.5.8.5.:.+.+.:.8.d.s.8.:.^ ' } [ } ' R x 1.5.8.s.t.8.p.8.+.X.i.} R ^ a r r R 7.5.t.t.s.b +.:.5.6.8.6.} r 1 N 5.t.5.8.8.8.o.Q 7.t.1.8.6.8.8.s.t.t.u.8.s.t.:.s.t.s.s.u.u.u.t.8.t.s.8.1.6.t.t.8.t.u.s.t.X.8.t.t.s.6.5.8.u.t.t.u.s.8.} X.6.s.8.s.s.t.t.8.5.8.t.t.u.t.t.8.8.t.+.:.5.6.:.1.t.t.t.8.8.8.6.7.+.8.+.:.8.t.8.t.t.8.8.8.5.5.5.5.5.,.V U i.2.>.$.+.,.1.6.>.>.| s ; t 2 2 1 ; 2 1 > 2 > > > > > 7 7 t 7 > > 6 7 5 > > > 5 5 p n D n n 5 & u d u u i 0 k k d F m d 0 8 8 8 < 5 u 7 < 7 u h f t t ; ; > u d u s c n c a s h p f d 7 > 0 u n S E n l A f j j f S 6 ; 2 6 r t s s s t s t s s u p w A / _ / ..&.#.G m k k / ( h m g 0 q p l k h g u u q & 5 u l p 0 q ",
"2.,.>.] [ +.>.>.1.1.:.+.+.1.1.<.1.1.1.,.1.1.1.,.1.1.1.1.5.1.1.7.5.1.1.1.1.1.5.;.:.' } :.;.1.1.:.:.:.>.:.>.1.1.5.5.5.5.5.5.:.+.' Q Q R ^ } X.o.o.:.:.:.:.>.5.6.+.:.7.1.1.7.5.X.U o.<.o.Q ^ o.:.1.;.X.X.+.} ' o.+.>.8.8.8.8.5.X.V :.5.8.8.6.:.1.5.>.+.[ 1.7.5.1.5.1.:.+.:.1.8.t.X.>.t.1.5.1.1.1.1.1.6.5.6.:.t.t.6.8.u.t.0.8.u.8.0.t.t.t.t.8.u.u.u.t.u.t.t.t.t.t.t.t.5.1.1.o.} :.8.8.t.u.8.t.t.X.+.:.1.:.' x I 1.5.i.8.t.t.1.5.+.5.1.} X.1.x r 1 a +.6.t.8.t.+.x ! 6.6.s.1.M - c t.t.t.8.s.8.6.' +.6.6.6.8.5.s.s.8.t.t.s.8.s.8.+.>.t.u.u.u.s.u.s.t.t.s.t.5.1.6.6.6.8.8.s.t.+.s.t.t.s.t.8.s.s.s.8.u.t.8.1.X.o.5.t.s.s.8.t.8.5.8.t.t.s.8.t.8.5.6.1.+.:.6.1.8.s.s.t.5.5.7.5.5.t.5.X.1.8.p.t.t.t.s.8.s.t.6.8.8.6.+.s U ,.u.6.,.,.5.,.1.,.$.$.>.U 2 1 2 2 2 2 t 2 > > 7 7 > > = 7 6 7 5 > > > ; ; # 5 t < > u k k G d 3 u u u k z i i 0 j G k k p 0 0 9 7 p n 0 5 7 u c s 7 t 7 > > s s u s n D V h u t t t t t 7 u g l A A l A A l f f A q # 2 6 2 t a s s s s f f c f h q u g E 2.&.#.J J G z h k G A k A g u u h n k h g g u = < 5 7 p u h g ",
",.>.X.o.5.:.5.:.<.1.1.1.:.;.:.<.1.1.1.1.1.1.1.1.1.1.7.5.1.<.1.1.1.1.,.:.:.1.1.;.<.X.X.:.:.+.O.o.X.+.1.5.1.5.5.5.1.5.7.1.1.+.X.1.1.:.X.X.>.7.7.X.6.5.5.>.:.:.:.o.:.t.t.5.7.1.] R ;.o.^ 1.1.5.1.5.1.+.<.8.X.X.5.1.+.5.t.t.7.1.' I ' } 7.8.8.1.5.5.5.>.+.6.>.5.6.5.:.8.8.1.1.1.t.:.Q } :.1.:.:.1.+.1.8.8.8.:.8.6.7.6.t.t.t.u.8.u.8.8.u.t.t.8.u.8.u.8.t.t.u.8.t.8.t.8.1.t.>.1.8.8.8.8.t.s.i.t.:.5.8.6.6.:.Q a :.8.t.6.t.t.p.5.} 1.6.X.o.<.7.M r 1 - x 1.i.i.5.d.1.x ' 8.:.M : r ' y.t.8.t.:.+.^ Q 5.6.d.8.8.6.u.s.t.t.t.s.s.8.6.1.+.t.t.u.s.s.t.u.t.t.t.s.s.t.t.u.p.u.t.s.t.:.s.8.s.8.u.s.t.t.u.s.8.t.t.8.7.5.1.1.t.s.p.i.8.5.t.t.t.s.8.t.8.8.6.t.5.7.8.6.u.s.s.u.1.1.1.1.6.t.+.' 1.:.8.t.y.s.s.8.8.8.8.t.t.6.Q U 5.} ,.d.i.8.6.1.>.$.$.1.u.5.( 7 : 1 2 2 2 > 2 2 2 > 7 > ; > 7 7 7 > > 6 = # + > t 7 : 5 0 3 k p u p w q k i 0 , < v m m v v 0 8 i d k h 7 > 7 u n s 2 s s 2 t t c s b D U D c t t y u u u 7 h k f n l g n A l z n t > # 6 2 r t t s s t t M D A c h q 7 7 A 2.*.G w k m A l h f g g p p u h l n k g 7 q q < p 0 0 q 0 g k ",
"+.X.;.,.>.>.>.>.>.1.1.5.1.>.1.>.<.1.1.1.1.1.5.1.5.1.5.1.5.1.5.1.1.1.1.:.o.:.1.<.5.+.' +.:.;.:.+.:.:.1.1.1.5.1.1.5.1.;.+.+.1.5.7.5.6.+.6.,.6.:.+.6.5.5.5.1.:.:.} ! } +.;.} } R ' ! b ' 1.5.1.1.5.X.1.7.1.+.>.5.t.5.:.:.5.5.;.:.:.t.} :.5.1.:.1.6.:.1.:.>.t.5.7.:.5.7.5.5.t.5.:.:.} +.8.t.t.t.t.t.8.8.8.8.t.6.8.6.t.t.8.6.6.u.8.u.u.8.0.8.u.8.u.8.t.t.8.t.8.t.t.t.1.6.5.1.8.7.8.t.t.t.s.t.1.1.8.8.6.t.;.V } <.5.t.d.8.s.t.X.X.8.5.} <.y.5.;.r 1 r 1 c :.t.1.t.1.x a t : - + y t.t.8.t.1.1.I R :.8.s.8.t.u.5.6.s.s.s.t.u.t.s.t.5.8.5.t.t.s.t.s.u.u.t.t.t.t.t.t.t.8.t.t.t.i.1.t.t.t.u.t.t.u.8.t.u.8.t.t.8.5.5.5.:.1.6.8.t.8.8.8.t.8.u.8.8.t.6.8.s.1.8.t.8.8.u.8.t.s.1.' 5.t.5.X.:.8.8.:.8.t.6.6.t.8.i.t.8.u.:.^ ] u.0.o.$.,.t.8.t.t.,.5.5.,.5.6.,.c ; 1 2 2 6 2 7 > > 7 7 = : 7 t 7 7 7 ; = ; ; + 6 7 > 7 > & 7 d k d y i d u 8 1 < d m F z 0 w 0 9 p d p u 7 7 u s f t t f t 6 f s y h N D U n u 7 y u u y s u u u u u d h h h n g 7 = > 2 2 6 t s f s s f D U D b g t > 7 m E H J l H / A l f q f g 0 f f f A z f 0 < < 7 5 p p g u q p p ",
";.:.1.,.<.,.:.1.1.>.1.1.1.1.5.1.1.:.1.<.1.1.1.1.1.5.5.1.1.5.5.1.5.1.1.1.<.;.o.' +.:.X.o.<.1.1.;.:.5.6.5.1.:.>.+.+.:.>.,.5.,.5.5.5.6.:.5.5.6.o.+.8.5.1.5.>.1.5.+.o.:.:.1.o.Q ^ ;.' ^ 5.1.5.6.5.5.+.1.5.1.+.:.8.s.5.5.1.+.' } :.5.1.' X.>.+.X.+.:.o.:.;.+.1.8.t.+.>.8.6.5.u.6.:.1.1.o.>.8.8.8.t.8.t.t.6.8.8.8.8.8.8.8.8.8.t.t.8.i.8.u.8.0.8.u.8.u.8.t.t.8.t.t.t.t.1.8.5.5.8.8.t.s.8.8.s.5.1.t.5.t.6.t.' b 1.8.X.1.5.7.t.X.M } 1.+.X.5.y.5.t.I r r r r x I x a 1 - + - - r R >.i.5.s.s.t.} ! 1.t.t.t.8.t.u.5.5.8.s.u.s.s.i.s.8.5.6.>.t.s.s.t.s.s.8.s.0.t.p.t.u.t.u.u.t.t.s.1.8.t.t.t.t.t.t.8.u.u.u.t.t.8.8.6.6.6.6.1.5.6.8.8.5.t.t.5.6.8.t.t.t.8.+.:.8.8.6.s.t.t.i.8.X.y.5.6.X.8.8.t.5.>.8.8.t.t.t.8.8.s.6.X.o.+.6.t.8.1.X.+.8.8.8.u.0.6.5.>.+.>.8.Q 3 2 1 > > 2 2 7 7 2 ; > 1 t 2 7 > 1 > 2 ; $ = 7 7 7 , 3 p h b n d i 0 u 3 , 7 i m J n 0 < w 8 8 w j v w i i i p 8 8 9 y 0 i i u h G V m m d 8 5 8 u y u i u u u y u h k f d 7 > 6 7 7 t y y s s y s f U S c f 7 > > s d f Y #.E #.` z w u f u q u A D S D Z u 7 < 5 5 5 u k h u 0 5 0 ",
":.1.,.>.>.:.1.:.1.:.>.1.1.1.5.1.1.1.,.:.1.1.5.1.5.1.<.5.1.1.1.1.1.1.7.5.5.:.} ' } +.+.1.7.1.1.5.5.5.1.+.+.+.1.1.1.7.8.6.7.5.5.5.1.5.:.5.8.5.X.1.8.5.5.5.5.+.;.5.1.t.1.1.' ' o.! :.5.;.5.8.5.5.1.:.1.1.1.1.;.7.t.5.t.8.:.X.:.} } ' X.[ 1.:.} } :.1.1.>.;.<.8.t.:.:.6.6.6.t.1.1.6.s.>.X.:.6.6.8.8.t.6.t.8.8.8.8.8.8.6.6.8.t.8.8.u.u.8.t.t.u.8.u.8.0.t.t.t.8.t.8.t.1.8.>.6.8.u.i.8.s.s.5.1.8.6.t.6.8.:.' } X.s.s.1.5.6.s.^ X.6.1.X.X.<.a.8.+.I a ; ; r ; + O - O O - y d 5.8.d.8.t.8.8.' ' o.t.8.t.s.t.t.u.8.5.6.s.8.8.s.s.t.8.6.8.>.8.s.t.s.d.t.u.8.s.t.u.u.s.u.u.s.t.u.t.1.8.t.t.t.t.t.0.t.u.u.u.t.t.8.t.6.1.8.5.t.u.t.8.8.6.t.t.5.1.5.5.8.5.:.+.X.8.1.5.t.8.8.8.t.+.>.1.6.+.u.6.t.8.1.6.t.u.t.t.6.u.t.>.1.5.>.5.7.8.1.:.} +.8.8.6.8.t.5.6.8.1.+.5.R y 1 7 > 2 > ; 7 2 7 1 1 > 6 2 > > > 6 ; ; @ > 7 3 0 h m d k k n d y , 3 y 0 i F F z j < 9 9 9 0 i v i j v w i y w 8 0 i g i p m _ G n n k p 8 < 8 w 0 u q y u q u p u t 7 5 7 t t 7 2 t y s 6 t a U U f t t > 2 = t s A ( ..E W m Z f q f q u J ` _ / D n u q q 7 < 7 p g 0 7 5 5 q ",
",.,.:.>.1.>.:.1.>.:.1.1.1.1.1.1.1.1.1.1.1.1.5.1.:.5.5.<.1.1.1.1.1.7.1.1.:.<.:.:.:.o.} } :.+.O.+.+.;.;.:.1.7.5.1.5.5.5.5.5.5.5.5.5.5.>.>.8.1.X.5.6.5.1.:.+.+.:.:.o.X.:.1.} ! } X.1.:.5.1.8.6.5.:.1.5.1.7.8.:.1.5.6.8.7.:.6.6.;.} ' :.} 5.:.+.:.8.6.6.7.5.6.t.t.1.7.>.5.t.5.>.6.6.t.8.:.+.8.8.8.8.t.t.t.6.8.8.8.y.8.y.8.8.8.u.8.u.t.8.t.t.8.u.u.8.u.8.t.8.t.t.8.t.5.8.1.8.8.s.t.t.s.1.+.8.6.8.t.6.5.[ 5.} ' 8.5.7.8.8.8.N 6.8.8.X.X.8.7.' M r 1 - - - + - + r M ^ :.:.M I ^ X.} :.X.Q b } 5.p.t.y.s.s.t.u.u.8.8.u.8.t.u.8.8.u.8.t.1.:.8.t.8.s.t.s.t.t.u.t.u.u.u.s.i.p.s.t.1.8.t.s.t.t.t.t.t.u.p.s.t.t.t.u.6.1.5.1.8.u.8.t.t.8.8.8.t.1.5.5.8.5.:.<.X.8.5.5.s.8.u.8.t.:.^ 5.5.1.8.5.t.t.6.6.t.t.8.t.u.6.+.+.t.5.>.6.1.:.5.1.>.:.X.+.7.6.>.7.s.u.u.>.o.' ' y : : > > 2 2 2 7 2 6 > 2 2 6 = > t > > $ : 7 $ 7 B V i u d G E m 7 3 d h p F B z v w 0 8 w 8 i j w i i 8 g p i 8 < w w 8 u m _ J m j k m u < 0 0 0 7 7 7 6 d 7 6 7 5 > 5 u t t 7 6 t t t t t s S D a 6 2 = > ; 6 n ] ] Y u q g / A u 7 6 f / | D k k f u h g 5 < 5 u 7 5 5 < 0 7 ",
",.,.,.1.,.1.1.,.1.1.1.1.1.1.1.1.,.5.1.5.5.1.1.1.5.:.1.1.1.1.1.1.,.1.1.:.>.5.,.:.5.5.1.+.1.5.5.5.:.,.6.7.5.1.5.5.,.5.6.7.5.5.5.5.5.5.5.:.1.:.X.5.1.5.1.X.' X.} [ :.t.:.1.M Q 5.8.1.+.5.8.6.5.6.:.5.5.5.5.5.:.>.:.6.1.;.:.1.:.+.1.5.5.:.:.+.:.>.6.1.>.1.7.8.5.5.8.t.5.6.7.:.5.8.8.6.t.8.X.8.t.8.8.t.6.8.t.8.8.8.6.8.8.8.8.y.8.u.8.t.t.t.8.8.u.8.u.8.u.8.u.8.u.6.8.6.8.8.u.u.t.t.u.8.+.+.8.8.t.8.8.Q ' 8.:.^ t.t.t.5.6.o.R 8.t.+.X.X.;.I r 1 1 - : - + O O 1 ' ;.1.7.7.Q d +.8.y.d.5.o.:.;.^ } 1.s.u.s.u.t.8.u.u.t.s.s.t.t.8.s.8.t.5.X.+.6.6.6.u.s.u.t.t.u.t.u.t.t.t.s.t.8.+.6.t.8.t.t.t.t.t.t.t.s.t.t.8.t.t.5.5.8.8.t.t.t.8.5.5.8.s.8.1.t.8.8.1.5.+.8.5.6.s.8.s.t.t.:.! 8.>.8.6.8.6.8.6.5.6.t.t.t.u.1.} 1.t.>.1.5.1.1.7.5.8.6.} Q X.:.+.>.8.6.1.+.,.7.:.' b t : : : 2 2 t 2 2 > > > > > 2 6 t > > 2 u 7 > 7 h 0 3 i F ^ W h 7 n B y B z v z A w w p w j i 9 5 w 9 g j w 5 5 8 w w u z W W F k k E d < < i 0 < 5 7 6 u 7 5 > 5 7 > t t 6 t t t 6 t 2 r r s s t 6 2 ; ; > 2 N ^ Y Z = < w A h 7 5 u f J n 6 5 6 u p k p 0 < > = = > < < < < ",
",.,.:.>.>.1.,.>.1.1.1.1.1.1.1.1.:.:.1.1.5.1.1.1.:.:.5.,.1.1.1.1.1.1.:.,.1.1.1.7.7.1.1.1.:.1.5.:.,.5.7.5.5.5.,.1.5.7.5.5.5.6.5.5.5.5.5.;.:.:.+.8.5.5.:.[ } +.+.7.t.5.5.^ ! t.6.8.5.+.5.5.6.5.7.+.1.5.t.>.:.1.1.:.1.X.:.1.+.X.1.8.5.} >.7.5.5.>.5.6.5.5.8.u.6.5.t.8.y.6.,.:.6.7.t.6.8.t.} 5.t.8.8.8.u.y.8.t.8.8.8.t.8.8.8.t.t.8.t.t.8.u.8.0.t.u.8.0.t.u.8.8.u.6.8.8.8.8.8.u.u.8.u.8.5.1.1.8.>.t.;.I X.:.} I 5.t.t.6.y.' 1.t.8.1.+.I x a 1 + + @ O + - x I - r :.:.+.} ' x I <.1.:.' } s.s.t.6.:.:.5.8.8.t.t.8.t.t.s.s.8.p.t.s.8.t.8.:.:.t.t.t.s.8.t.t.8.s.s.0.t.u.t.s.8.1.+.1.8.s.u.u.t.t.t.u.t.8.t.8.8.8.p.6.8.s.6.5.6.w.u.8.8.8.u.8.:.t.8.5.8.1.:.5.5.8.8.t.8.t.5.1.X.5.1.t.1.8.7.6.1.5.8.t.t.8.5.+.:.t.8.:.6.>.o.1.1.5.1.1.8.X.[ :.:.+.+.>.5.8.t.t.7.t.5.^ d : 2 7 7 2 2 2 2 > > 1 > t t t > > 5 f c 3 @ 3 7 3 h D ( | V u R V 8 j B z B ) z w j 8 w w 8 8 w 9 g v w , 8 < 9 j k m W _ F A z H v = 5 w 7 5 > 7 u u t 7 5 7 7 7 6 u s t y t 2 2 2 2 t a t t t 2 > 2 2 6 f c f s 5 5 6 t 5 > 6 7 6 7 5 5 5 7 f f l p u q < = < > < 7 5 7 ",
":.,.,.>.1.1.<.1.,.1.1.1.1.1.1.1.:.:.:.7.1.5.1.1.5.,.5.<.1.,.1.:.:.1.1.1.1.:.1.1.1.1.5.1.5.1.1.5.5.5.,.5.1.5.1.5.1.5.5.5.,.5.6.5.5.7.5.:.>.+.X.1.<.+.o.X.X.5.5.5.y.1.} ^ 1.6.1.6.<.:.5.6.6.6.5.:.6.6.5.5.+.5.5.t.:.} 7.:.+.1.6.5.8.' X.>.1.1.1.1.8.6.5.t.8.6.:.8.8.8.5.>.5.8.6.6.t.t.8.+.>.8.t.t.u.8.8.t.8.t.8.y.8.8.8.8.8.8.t.t.u.t.8.u.t.t.8.u.t.t.8.u.u.8.8.8.8.8.8.8.t.t.t.8.1.5.t.6.5.t.>.U I ' } } R X.:.t.s.1.Q d.5.8.:.V r 1 ; - - @ O - a R 5.7.N - M :.:.;.} ! b ' 7.:.} 5.8.t.t.t.t.6.1.+.+.1.s.d.t.8.u.s.s.8.u.t.u.t.t.5.1.t.d.i.s.8.t.u.u.t.y.t.u.u.t.s.5.5.5.:.s.t.t.s.s.t.t.t.i.t.t.u.t.8.5.5.p.t.d.8.6.6.8.6.6.s.s.t.8.5.6.1.s.6.<.1.6.8.u.s.8.6.8.t.1.} 1.1.5.6.5.>.>.t.6.t.u.5.>.1.t.t.1.1.5.+.+.5.1.1.1.5.5.1.:.:.5.6.5.t.t.i.t.t.t.8.t.0.o.c ; 2 2 1 2 t r > > > > 6 t 6 7 > : t d 0 & > 0 y k B D ( m d R D v w B F F ) z v z j j i w w w 9 w j 9 9 w * 8 z F H _ _ G A F F k < 8 0 7 7 5 5 7 6 5 q 7 5 5 7 7 7 6 t 7 7 2 1 2 2 6 t t f f s y f 6 2 r t s 6 t u t t 7 7 7 7 7 > : & : 7 u u p l k u 5 5 5 7 0 q 7 q ",
",.>.,.>.1.:.1.1.1.1.1.>.1.1.<.:.;.:.<.5.1.5.5.,.:.5.:.5.1.1.1.>.<.1.1.1.1.1.,.1.1.5.1.1.1.5.5.1.5.1.5.1.5.1.5.1.>.5.5.5.5.5.7.5.5.6.5.5.6.+.;.1.X.X.>.5.+.:.:.5.1.' ^ :.6.5.5.8.1.+.1.7.6.6.7.:.5.t.5.8.5.+.:.:.! o.+.X.1.1.6.5.7.^ X.>.6.7.7.6.8.8.8.8.8.5.:.6.t.8.5.1.6.t.t.6.t.6.8.+.,.t.t.t.8.8.t.8.t.8.t.8.y.6.8.t.8.t.8.t.8.8.u.8.t.t.8.8.t.t.8.8.8.t.t.8.8.t.8.t.t.t.8.6.5.8.8.:.>.:.' >.! :.;.1.X.5.o.:.8.R ' a.:.! x : 1 1 - + O O d ' 8.u.a.y.:.2 - a +.;.1.:.} I 1.+.:.t.8.8.8.t.t.t.t.t.1.+.>.t.s.s.s.t.s.8.t.u.u.t.t.8.1.8.t.s.t.u.u.u.t.u.p.u.8.t.t.s.1.t.5.+.8.s.u.t.s.t.t.8.t.u.t.t.i.8.5.1.8.s.8.8.5.5.8.8.8.u.8.i.t.1.6.1.6.8.1.+.1.8.8.s.8.8.t.t.8.~ :.:.1.1.5.1.6.i.t.t.8.1.6.u.8.8.5.5.:.+.1.8.6.8.t.8.6.5.5.>.t.t.7.t.t.t.t.6.t.t.6.6.u.,.U 2 ; 2 2 2 2 > > = 2 2 6 t 6 > > t y n a 0 y 0 u b n E k d E D v v B F F _ z j z j z j 8 w w 8 w j w 9 8 , * v H ) %.` G m J G d = 0 q = 5 > 5 > 5 5 y u 5 7 7 7 6 t t 7 7 7 7 6 r t a t s f c f s 6 2 ; 2 6 s f f s f f t 7 7 7 > < > > q u u f G A p 0 n g u 0 6 u u ",
">.,.,.>.,.<.,.:.1.:.1.:.5.1.o.o.:.5.1.,.1.1.1.,.5.<.1.,.1.1.1.1.>.1.1.1.1.1.1.5.1.1.5.1.1.1.1.5.1.5.1.5.1.5.>.5.5.5.5.5.5.5.6.5.5.5.5.5.:.[ :.:.+.1.8.5.<.:.7.:.I R Q 1.5.1.7.5.:.:.8.7.5.5.5.X.+.8.t.5.7.6.5.} ' +.} +.:.>.5.1.>.^ :.1.5.6.5.6.8.8.8.8.8.8.1.1.8.8.1.1.8.8.t.6.6.t.7.+.,.u.8.8.0.i.8.t.t.8.t.t.8.t.8.8.t.8.t.t.8.u.8.u.8.t.t.t.8.t.t.t.6.t.u.8.8.t.8.t.t.8.8.6.6.6.1.:.>.1.5.7.R ! R R 1.s.:.6.^ a X.} x r - - ; + O O - M :.8.t.s.y.p.t.x r b 1 I 7.:.1.} V 1.8.8.s.8.8.t.t.t.t.8.s.s.5.o.+.5.8.8.s.s.u.t.u.t.t.t.5.1.t.d.p.t.t.u.u.t.t.s.s.8.u.t.+.8.8.5.t.t.t.t.t.t.t.8.8.u.t.t.t.8.t.6.1.t.d.8.8.5.+.1.8.t.8.p.8.5.8.5.1.5.5.^ o.8.6.8.6.8.8.5.t.} 1.1.1.1.5.8.6.8.8.8.8.t.5.5.8.6.t.5.:.6.8.5.8.8.8.7.1.5.8.>.>.t.7.8.t.t.7.t.6.6.u.6.6.8.,.! t 1 ; t 2 2 > > ; > 2 t t 2 7 q d D m u 3 7 7 d b B u h R n j i j z z H B w j z B j w w j w w i i w 9 , % w v H _ ) F g ) _ l & u p 5 7 < 6 5 > 5 q q 7 7 7 7 7 7 7 7 7 t t 2 f c t f s f x c A t 2 2 6 s f n c s f n 7 6 t q 7 > 7 7 7 p n n n h p k G g 7 7 7 w h ",
">.,.,.>.>.>.>.,.>.1.1.1.:.o.o.;.1.<.1.1.5.1.1.1.1.1.1.,.1.<.1.1.1.1.5.,.1.1.5.,.5.1.1.5.5.5.,.5.1.5.5.5.,.:.5.5.5.1.5.5.5.5.5.5.5.1.6.1.+.[ :.X.+.5.t.5.5.5.+.+.' U [ :.>.1.6.6.>.1.t.5.5.1.7.;.;.1.1.5.8.t.1.} 1.:.1.:.' 1.>.:.+.^ >.:.5.6.6.6.6.8.6.6.t.8.5.1.5.5.1.5.t.t.t.8.8.t.5.+.5.t.8.t.t.8.u.8.u.8.u.8.t.t.6.8.t.8.y.6.8.8.t.8.t.t.t.t.t.t.t.8.t.8.t.t.8.5.5.6.8.8.8.6.5.5.5.6.7.+.5.' ;.V r y ;.8.y.1.M x ' M 1 ; - - + + O + V 8.8.s.f.t.t.8.t.V O ' I 3 N 1.o.} M 5.:.7.t.7.8.u.u.u.8.8.8.u.s.t.^ [ p.6.s.8.s.u.u.8.8.d.e.5.6.s.s.8.t.u.t.u.u.s.i.t.t.5.5.8.5.X.8.8.8.6.8.8.8.5.5.u.u.t.s.8.8.s.8.1.8.d.6.5.1.^ X.s.s.8.t.6.1.t.1.+.+.Q } t.t.t.1.:.1.5.8.} 8.6.5.1.1.5.:.5.5.6.t.t.u.5.5.s.1.+.8.8.6.w.8.t.t.6.5.6.s.5.>.5.8.t.8.8.t.6.8.t.8.8.8.t.5.5.X.M ; 2 1 > > > > ; : 5 7 7 7 7 h D U n 7 t 7 y h d 7 d V h y 7 0 0 g m z 5 w F z v p w b z w i j i v < % < 8 j F F k 8 V ..m < 0 i w p w p q 6 > 7 q u q 5 5 7 7 7 7 7 t 7 t f b s p d u c N f 6 > 6 t t f b s t c h 0 y p u y 7 7 7 7 h D n g 0 g D A 7 5 6 5 u 0 ",
",.>.,.>.>.>.>.1.>.1.+.:.+.X.:.>.1.1.1.>.1.1.1.5.1.,.1.1.1.1.1.1.<.,.1.5.1.1.:.5.:.5.5.:.:.5.5.,.<.5.<.5.5.5.,.5.1.1.1.1.5.5.5.7.7.>.t.>.:.:.<.+.X.:.1.5.1.+.X.7.:.' >.>.7.6.6.6.5.1.6.5.5.6.5.>.8.1.:.:.:.:.} ^ +.5.1.:.} 1.5.>.X.N ;.1.6.y.t.6.t.t.5.5.6.t.7.5.1.5.5.8.8.t.8.8.8.8.5.+.5.8.8.t.t.t.8.u.8.u.8.u.8.t.t.t.8.t.8.8.8.t.t.t.8.t.8.t.t.8.t.t.t.8.5.t.8.1.1.5.5.6.8.8.5.5.8.8.>.t.:.[ 7.+.:.x M 7.<.a a I s ; - - - + - O r ^ 5.8.u.s.8.y.8.t.5.X.r x :.+.I M Q ;.o.! :.5.8.8.8.u.t.t.u.u.8.t.u.s.:.X.5.8.8.t.u.t.u.t.8.8.i.8.o.5.s.s.u.t.u.u.s.8.u.s.8.5.u.8.8.X.1.8.8.6.5.7.8.5.1.t.t.t.t.t.t.u.t.5.1.8.8.8.8.1.X.:.i.8.8.8.>.8.6.1.+.^ ' t.t.6.5.+.+.6.1.X.5.6.5.1.1.1.X.1.7.8.8.8.t.8.5.5.1.1.t.7.5.6.6.8.5.1.1.6.8.t.5.1.6.8.6.8.6.t.t.8.8.6.u.6.6.,.5.>.U 2 1 2 > > > > = > ; > p d a A E E b 7 7 u y k u 3 d 7 7 > < < i g w = 5 k j g j 0 z v j v v w v 0 , 8 8 0 n v n k n W j < w 9 0 w p j l 6 < < 7 g 7 < 7 u t 7 7 t 7 2 7 t t t t 7 u n D f 2 > 2 t f c f s f f y 7 u i 7 y u 3 0 u k k g u p n n 7 & 7 0 7 g u ",
":.>.,.:.1.1.1.5.:.+.+.+.+.+.>.:.<.<.1.:.:.>.1.:.1.1.1.1.1.1.,.<.1.5.5.1.5.1.1.5.5.:.1.5.5.5.1.5.5.:.5.5.5.1.5.5.1.5.1.5.1.1.1.5.1.,.5.o.>.X.1.:.1.1.+.X.} ;.1.8.} ' :.6.t.5.5.6.6.7.6.6.6.6.7.:.1.6.5.:.+.;.} } o.;.>.7.1.:.<.5.^ Q 1.1.:.7.7.8.5.5.5.t.t.t.8.o.+.6.5.i.5.1.8.u.5.t.t.' :.s.t.8.8.8.8.8.8.8.8.t.t.t.t.8.8.8.8.8.t.8.8.t.t.8.t.8.8.t.8.t.i.8.6.8.8.5.8.1.8.8.6.1.+.6.8.:.>.i.} 8.t.5.<.I - N 3 1 c a 1 1 1 - - - + x :.7.7.8.t.t.s.t.t.6.1.:.d r +.' +.I r 5.1.V :.5.t.t.6.t.s.8.t.t.8.u.t.8.8.1.X.:.d.6.u.s.8.8.p.8.8.6.X.o.5.6.t.s.s.s.s.d.t.t.8.6.u.8.5.>.1.8.5.5.1.1.5.6.:.8.u.t.t.t.t.t.8.8.5.6.8.s.t.5.1.1.1.7.6.6.5.>.t.5.t.5.^ 8.8.5.1.:.8.5.} X.1.5.8.5.1.:.5.8.8.8.8.8.6.t.8.+.1.i.t.5.1.5.5.5.6.5.1.6.5.t.t.5.5.8.1.8.t.8.8.0.8.8.8.6.2.u.5.>.,.] 2 ; 6 1 ; 2 : ; $ ; d n 7 d E E E y 1 d y u h t 3 t 7 : > , 0 0 > & 8 y 0 i g i d j j z j w 9 8 < , r 0 i u k m b n 0 8 0 < 5 0 u q p u 7 7 7 q 7 7 6 s p 7 t u 7 7 7 > 6 u 7 6 f D D t > 2 7 t A c t s d y 7 < u 7 7 0 7 u d 0 d 7 y g k D g & = 9 7 0 p y ",
">.>.:.5.1.:.>.:.} :.+.X.;.<.>.:.:.:.:.;.:.1.:.1.1.1.,.1.1.1.1.1.1.1.1.1.1.5.5.:.,.5.5.:.:.5.5.5.5.5.5.1.5.,.5.<.5.1.5.1.5.1.5.1.1.5.1.+.5.+.:.5.5.7.:.X.:.1.8.1.;.+.:.>.5.7.7.5.6.6.6.6.6.8.1.,.1.5.1.5.:.1.} 5.5.1.;.} 1.1.7.' ' ' t.1.5.1.1.5.6.6.1.5.5.:.o.o.o.8.8.6.8.5.8.8.t.i.1.! X.8.6.8.8.8.8.8.8.8.5.6.6.8.8.8.8.t.8.t.t.8.t.8.8.8.8.t.8.t.t.8.t.8.5.5.5.6.8.t.8.7.5.:.X.6.:.+.8.1.+.s.t.1.5.' M 1 d c r r - + - - - - I 5.y.7.8.t.u.t.8.t.t.8.8.:.x 1 1.X.+.5.} c o.! ' :.t.y.t.t.t.t.u.u.8.t.t.8.8.8.5.+.X.5.6.8.s.s.t.8.8.8.1.5.5.6.6.8.8.u.8.6.t.6.1.8.8.1.>.<.1.1.5.6.8.5.5.8.8.5.8.8.t.t.t.8.8.t.t.8.8.8.8.8.8.1.+.1.1.5.s.+.:.8.+.>.} } 1.t.6.1.6.5.! +.t.s.5.+.:.5.t.t.t.t.t.t.8.8.1.1.6.>.:.:.1.7.6.8.8.t.8.8.6.6.8.8.8.8.t.5.,.8.8.8.8.8.8.8.6.5.6.1.1.>.X.s ; ; 7 2 ; ; ; t d 7 ; 7 U E E U 3 7 d a c d h a > 3 : : 3 , & : , 5 0 v 0 0 0 i v z 8 , w < 9 8 u 8 y y i d u u , < y 0 0 0 7 7 q f u 7 7 7 7 7 p u u 7 f f f y 6 7 t f t 7 k A f t t t 7 f n f 7 p s 5 3 7 y 7 7 7 > p p < 9 < 0 h k l 5 < < 7 w q g u ",
":.:.:.:.:.+.+.:.:.' ' } o.o.+.;.+.:.:.:.:.<.>.1.1.:.1.1.,.1.1.<.<.5.5.,.:.5.5.1.5.:.5.,.5.5.5.5.5.5.5.5.5.1.5.5.1.5.1.5.7.1.1.5.5.5.:.:.t.:.+.1.5.1.+.X.:.:.>.' +.+.:.1.7.6.6.6.7.5.6.7.6.8.5.,.1.5.1.5.<.8.o.7.t.5.:.+.;.1.! I } ' <.t.:.:.5.t.t.t.:.o.:.X.o.} X.5.6.6.6.5.7.6.t.5.>.o.+.1.1.>.>.>.:.>.1.+.o.+.>.1.6.8.t.8.8.t.y.8.8.8.8.y.6.8.8.t.8.t.6.t.i.t.5.5.8.t.8.8.8.1.+.+.5.t.1.X.6.t.t.1.7.;.t.} I y 1 - - - + @ 1 ^ y.7.8.t.t.t.t.u.t.t.y.t.t.1.N t 1.5.8.1.6.' b :.1.' 8.6.t.t.8.s.t.s.t.8.8.8.8.8.i.5.' X.6.i.t.t.p.t.t.s.8.6.8.6.6.8.t.8.t.t.5.1.6.8.5.+.X.X.>.:.5.5.8.s.t.6.1.1.t.t.t.t.t.8.5.5.6.8.8.1.8.8.8.5.+.1.+.>.t.t.1.8.1.>.1.R ;.p.8.7.6.5.V 6.t.5.+.:.8.i.s.s.s.8.t.8.s.8.1.5.1.1.5.5.8.s.s.s.8.t.t.8.8.7.5.6.8.8.8.6.,.,.8.u.t.8.6.8.8.6.8.5.:.5.5.;.M 1 1 2 1 : 2 h s > : $ s h c D s > u u s d N c 1 7 1 ; > : & $ : , 0 d 8 0 0 i v w 8 5 9 < < 0 d u a u y 0 0 < > ; 7 7 y y < 5 7 u f 7 7 7 7 0 f u 7 6 l n n g t 7 f c y 7 n k u u q t 7 n c t 7 f t 7 > 7 7 7 < , 0 d 0 5 , < 0 i u 0 , 5 5 0 u q 9 p ",
"1.1.:.+.+.;.:.o.} X.;.1.<.:.<.:.:.:.1.1.>.1.>.1.,.5.1.1.1.1.1.1.,.5.1.5.5.1.,.1.5.5.:.5.5.:.1.5.1.5.<.5.<.5.5.,.5.1.5.1.5.1.5.1.5.5.o.+.6.>.;.1.X.X.X.:.>.8.+.X.X.+.5.7.,.,.5.6.6.7.5.6.5.8.8.5.5.5.5.1.5.8.+.5.7.:.:.6.d.o.x } X.' ' :.1.5.7.5.1.7.:.+.X.' } o.:.>.6.t.6.5.1.6.8.1.1.1.:.5.t.8.6.6.6.6.6.6.5.5.6.8.8.8.7.8.8.8.8.8.6.i.8.8.t.8.t.8.t.6.5.8.t.5.>.+.t.8.8.8.1.1.1.6.8.6.X.1.t.6.t.7.1.a.<.I y 2 1 + - - O r { 8.t.t.s.8.t.t.8.u.t.8.t.t.<.+.U a 6.1.6.8.8.y.' b +.+.t.7.t.t.t.t.t.t.t.8.7.8.8.8.8.8.6.:.+.1.d.t.1.8.t.s.8.8.d.s.8.t.s.s.8.6.t.s.6.O.+.+.X.+.8.8.t.8.8.s.t.8.5.5.5.8.s.t.t.8.6.5.6.t.8.5.6.6.8.y.6.6.5.5.>.8.5.1.u.1.t.^ +.t.8.8.:.:.R y.t.5.,.t.d.8.t.u.s.8.8.u.6.1.5.1.1.8.8.8.8.t.8.8.8.t.t.8.8.t.8.5.6.6.8.8.6.,.5.5.8.8.8.8.u.6.6.5.5.>.:.6.;.t ; r 2 2 > u 7 > > : 3 7 7 y c u u t t t s D c s s 7 > > & $ & < 0 w < 0 0 p w , 9 0 9 8 5 8 d a u d y 0 < < 7 7 7 7 y q $ 5 7 6 u 7 7 0 q p y p 5 5 m k f y 7 q c Z h f A f u t t 6 7 A u t t f 7 2 : 3 > 3 < 8 G l 5 8 = < 0 0 9 < 5 8 w j g 5 5 i ",
">.:.o.+.} } o.;.>.1.1.1.:.1.1.1.1.1.1.1.1.1.1.1.1.5.,.1.1.1.1.:.5.:.5.5.5.:.1.5.:.,.5.5.5.,.<.1.<.,.5.,.5.5.1.5.1.5.1.5.1.1.1.1.1.1.o.;.>.>.+.+.' X.5.5.5.8.:.:.+.:.:.>.:.:.>.5.6.6.6.5.5.6.8.6.7.7.5.5.5.5.:.1.t.1.:.:.:.M M ' R ' I R I U ^ ' o.;.;.>.1.:.<.:.6.>.5.7.6.7.o.+.1.5.8.7.:.8.8.8.8.8.8.t.8.8.8.8.8.6.5.6.8.y.8.t.i.8.t.6.8.t.6.t.t.6.6.t.t.t.8.8.5.1.+.1.6.1.1.8.1.5.8.1.} t.s.8.t.t.<.:.I a 1 ; - - + O r ' 8.1.1.8.5.1.7.t.t.t.t.6.5.5.1.;.' r +.8.8.s.8.1.} R d R ;.8.t.t.t.8.8.8.8.8.5.8.8.t.8.8.8.8.6.:.>.t.t.t.p.s.s.8.8.s.s.8.8.8.t.8.1.} X.1.8.t.8.5.6.5.6.8.8.s.t.8.t.5.+.:.8.t.8.5.5.5.5.5.5.8.6.+.7.t.5.1.8.s.6.:.>.+.8.5.8.+.X.6.8.5.X.+.[ 8.:.5.6.t.t.s.t.s.t.u.t.u.1.o.5.6.8.8.8.t.p.t.t.i.u.t.8.8.8.8.6.5.6.5.t.6.1.6.5.+.1.6.t.8.8.6.6.t.;.} ;.,.:.c ; r > > > 1 : : ; : : 3 1 7 u s t u t 7 2 c N c n h y > : : : < < < < < , w w * < w < 0 y 8 u u s i y 7 , , u d t 5 7 5 = > 5 7 7 5 5 7 7 u 0 p 5 < l l f u 7 f A b l A Y f t t 7 > 7 t 7 t t t : = & < : 7 , k W i < 8 < < < < < < 0 w w j f q 9 i ",
"o.} ^ ' X.<.5.1.:.:.:.1.7.1.:.:.1.:.1.:.1.1.1.1.5.:.1.1.1.1.1.1.:.5.,.:.5.5.,.5.5.5.<.5.:.5.5.:.<.:.:.:.5.5.:.5.5.1.5.1.1.>.1.1.1.5.:.7.>.>.:.^ X.>.5.5.8.X.+.+.:.:.+.+.:.5.6.5.5.5.5.5.5.5.5.5.5.5.6.5.7.5.1.} 1.1.5.<.c I :.:.+.[ R c I } :.:.1.t.t.7.t.8.:.o.5.5.6.:.t.t.+.+.p.t.8.8.+.t.8.8.8.8.8.8.8.8.6.8.8.u.y.t.8.6.7.t.6.8.8.t.8.8.t.8.6.t.6.6.5.,.8.t.t.8.1.:.;.^ O.t.8.t.+.X.1.t.s.d.6.t.<.R a ; 1 - - - + 2 ^ 8.1.y.y.1.+.} +.t.t.t.t.8.1.1.<.o.I r X.u.5.8.8.1.o.1.^ a I 1.t.6.y.t.t.8.8.5.8.t.8.8.t.8.8.u.t.+.o.5.t.s.s.8.s.8.8.s.s.s.8.8.5.+.} 1.6.5.8.8.t.s.8.6.1.:.>.1.t.t.8.6.t.1.;.5.t.8.:.} } :.:.1.5.5.5.t.s.8.8.8.t.8.1.Q 8.1.8.1.} 8.1.} ;.>.! +.s.t.6.8.t.6.8.t.8.8.t.1.o.:.8.t.5.t.8.8.8.8.8.8.u.8.7.8.8.6.5.8.6.5.1.8.6.5.6.>.X.1.8.t.6.8.6.u.t.;.:.,.,.Y ; Y N 1 2 1 3 : $ ; $ : $ 1 7 t d c f t ; 7 d c V D h 7 7 < , , , % * % o < 9 & , 8 * w p 8 3 u d d u 3 < : u b t = 7 : = : > 5 > < < & < 0 q 0 q = g A l t 5 f l f u n G d 6 t 6 ; : : 6 2 6 = ; + $ : $ > & m d < 5 0 * , = < 9 5 0 w v j w q 0 j ",
"^ ' +.:.:.>.>.>.1.>.>.1.1.1.:.,.1.:.:.1.,.1.1.,.:.5.,.:.5.<.1.1.1.1.1.,.1.1.1.1.1.1.1.1.1.1.1.1.:.;.:.<.7.,.1.5.1.5.1.5.1.1.1.<.1.<.5.:.8.+.} o.5.5.5.5.5.X.:.:.:.1.:.:.:.:.>.1.5.5.5.5.7.5.5.6.6.6.6.5.6.5.5.+.+.5.' V ^ +.X.1.;.>.,.' U :.5.6.7.6.8.8.6.5.>.5.5.6.5.5.7.>.+.6.t.t.t.5.>.t.5.8.t.8.8.8.6.8.8.8.8.8.y.6.t.6.t.8.u.6.t.8.8.8.8.8.8.8.8.8.8.8.6.5.5.5.1.X.' ' :.:.t.:.! ^ t.6.s.8.t.1.[ b r - - - - + r I o.:.:.:.5.1.8.8.>.t.t.t.8.8.8.t.;.X.^ y +.6.8.1.:.^ ! t.5.;.c x o.s.8.s.t.8.8.5.8.t.8.8.8.8.6.8.t.5.6.+.+.5.5.8.5.8.5.t.5.<.6.5.:.5.u.t.s.s.t.s.s.t.8.t.8.5.1.1.5.8.8.8.8.8.5.<.<.5.5.5.:.X.+.+.+.+.;.:.w.6.1.6.6.6.8.5.+.;.:.1.[ +.+.:.8.X.} 7.t.8.8.t.8.t.t.8.t.t.t.+.1.1.8.8.6.8.8.t.6.8.6.8.8.8.8.8.5.6.5.1.8.5.5.1.7.1.>.8.1.X.1.t.8.6.t.6.t.>.:.6.,.b 2 ] ,.R 3 > > : ; ; : $ : > 2 y c V M s 2 2 7 s b b d 0 0 3 , , & & & & < 0 j * < * * w j w > y s d a 0 < , 7 d u > > : # # > 5 $ & = & = 9 q 0 q 0 9 j j p 6 q h p 5 g D 6 t 7 > $ $ # $ ; : = o $ # + @ $ , < 0 u 0 5 < < = 5 5 8 9 w j j g 9 p l ",
"o.:.1.:.:.:.>.1.1.:.1.:.:.1.1.1.1.1.1.,.1.<.1.1.1.1.5.<.,.1.1.1.1.,.1.1.1.1.1.1.5.1.5.5.1.5.>.>.:.[ 8.:.1.1.5.1.5.1.5.1.5.1.1.5.1.1.5.;.1.X.} 5.7.5.5.6.+.^ +.1.5.1.1.5.5.5.1.1.5.5.6.6.6.5.6.6.7.5.5.5.6.6.>.5.:.I N X.:.1.>.:.:.6.5.5.' ! 5.:.7.6.5.6.6.7.1.5.t.t.t.6.6.>.>.t.t.8.6.8.1.8.8.t.8.t.8.8.6.6.8.8.8.8.8.8.6.t.8.t.t.t.8.8.8.u.t.8.8.8.8.8.t.8.t.8.8.8.<.1.6.:.:.+.1.+.^ :.6.t.t.t.y.o.x r 1 ; O O O r R ;.:.t.1.5.t.s.d.t.1.,.7.t.u.s.8.8.<.} 1 I s.+.s.5.} I :.6.t.} } x d } i.8.t.5.:.8.8.6.8.6.8.5.:.5.t.:.X.+.' ' } +.+.X.} } +.:.+.+.8.t.s.8.8.t.t.p.t.t.t.t.t.t.8.8.5.6.8.8.8.t.t.8.5.:.+.6.6.5.X.o.1.+.:.+.5.1.o.o.+.1.1.+.+.! Q ^ I >.>.t.t.} 1.8.8.8.6.t.t.t.8.8.t.5.:.:.8.1.t.8.5.8.8.8.8.6.6.6.1.5.8.8.5.5.5.5.5.5.6.5.,.1.7.5.6.8.X.+.t.8.8.6.8.5.>.5.;.c > ! 6.2.D > ; > : $ $ ; : 3 7 7 s n V h 2 2 2 3 u d d a 7 3 7 , & & < < 0 p v 8 8 5 8 < i j 1 3 y u 0 7 < 3 7 0 y < 5 > ; & = 5 # $ = & & 5 0 q w w 5 0 g j w q f p 7 q n t 7 > = & $ + @ @ $ $ . $ @ @ $ @ @ & , < < 8 0 8 5 5 5 5 w w z j w 9 g z ",
"5.:.:.:.:.1.1.:.1.>.:.1.>.,.1.>.,.<.<.1.:.1.1.1.5.1.1.1.:.5.1.,.1.1.1.1.1.1.5.1.1.1.1.1.1.5.+.>.:.' 7.:.5.1.5.1.5.1.1.5.5.1.5.1.1.:.5.o.} ;.o.5.5.1.5.1.} ' :.5.>.1.>.5.5.6.5.7.7.6.8.8.6.5.6.5.5.6.5.8.7.,.1.7.U M +.>.+.5.t.1.:.5.1.6.7.! ! 7.>.5.6.8.8.6.6.6.t.6.8.6.7.1.t.6.t.t.6.t.>.1.8.8.6.t.t.6.8.y.8.8.y.6.8.8.t.6.8.t.8.6.8.8.6.6.8.8.8.8.6.t.t.8.8.6.8.8.5.5.t.1.6.t.1.<.:.1.6.8.t.s.1.N r : - - - + + I 7.:.;.5.t.8.5.5.t.8.t.8.5.>.6.6.t.5.:.a d 1.8.8.i.5.} Q 5.5.8.X.o.' c x ' a.s.5.t.t.8.i.i.7.+.} } } ^ >.8.t.+.1.1.;.+.:.} +.1.+.+.s.t.u.t.t.t.t.t.t.u.u.t.t.t.t.8.t.t.8.8.8.t.t.8.t.d.6.+.X.+.5.1.' +.1.+.+.8.8.5.5.6.6.6.5.<.1.X.[ I t.t.t.8.' 1.6.5.7.6.8.8.t.8.t.1.X.:.1.8.5.<.+.>.8.8.t.8.8.8.5.+.:.5.8.8.>.>.5.5.8.:.5.t.X.' 1.8.8.:.X.5.5.6.6.6.5.+.1.o.x 1 ^ 1.2.| u b 2 > ; : : ; : 1 2 7 n D c 2 3 t r 7 7 0 u 0 3 3 3 & : , 8 u j 0 9 i w 9 * 8 i : 3 3 y 0 3 < 0 3 < < 3 7 5 7 u 7 u 7 7 q < < < 5 9 w g 9 9 w w w w w g u 7 p f f 2 : & $ $ # + o o o $ = > > $ o o & = , w u q w j j w w w z j w 9 j g ",
":.1.:.:.:.1.:.1.>.:.>.<.1.<.,.1.1.,.,.1.<.1.1.1.,.1.1.1.5.1.1.1.1.1.<.,.:.1.:.5.5.1.5.1.1.1.:.+.X.} :.:.5.1.1.7.1.5.1.5.5.5.5.5.1.5.o.+.' } 7.7.5.1.1.;.^ +.8.5.1.5.5.5.5.7.6.6.5.8.8.6.7.6.5.6.6.6.5.5.7.7.1.' x X.1.>.5.5.5.5.+.1.7.6.6.5.Q X.i.5.5.8.6.6.8.8.6.6.t.6.5.6.t.6.t.t.8.t.:.:.5.8.6.6.t.8.8.8.8.8.6.8.8.8.8.6.t.8.t.5.6.8.6.6.6.y.8.6.t.t.t.t.t.8.5.1.8.8.t.1.8.y.o.5.6.>.y.8.u.8.U r 2 1 O - - O - a I M N R U ' :.+.>.>.i.d.8.:.:.:.:.} a b y.8.1.6.8.6.} :.1.8.5.+.1.5.x V x ' 1.:.+.5.8.6.+.^ ^ } } Q X.6.t.s.5.5.5.5.:.7.8.5.6.6.5.t.y.u.t.t.t.t.t.t.t.t.t.y.t.t.t.t.t.t.t.t.t.t.t.t.8.6.8.8.5.+.<.^ ' 5.:.:.:.8.s.d.8.8.8.8.5.1.6.X.x ' t.8.5.} 1.8.5.1.7.8.t.t.y.:.o.} >.+.X.+.:.:.1.8.8.8.t.t.t.5.5.:.} 5.t.5.>.1.1.1.1.:.1.1.:.} ;.8.8.:.,.1.6.6.6.6.+.5.;.x > ! 6.$.$.c ( E t > : > ; $ : 3 t h N s : y c t y 7 , 3 y 0 7 0 0 , & 5 k d < 8 z j w 8 8 8 < > 3 7 y 7 7 7 > > & > 5 7 h n l n f l k q 9 * 9 w u j g w q e q 6 w q g 6 u A Y t $ o # $ # @ $ $ $ > 7 7 7 > @ X % < 8 j p i d A m 0 * w z j 9 9 w < ",
":.:.>.1.:.>.>.:.:.>.>.1.1.>.:.1.:.,.<.1.,.1.1.1.1.1.,.5.:.,.5.:.1.1.1.1.1.1.1.1.1.1.1.1.1.1.5.o.I } ;.:.1.7.1.1.5.1.5.1.1.7.5.1.+.<.} ;.' } 5.1.1.1.1.>.} 1.1.1.,.5.6.5.5.5.6.6.6.6.6.6.5.5.6.5.5.6.6.6.8.>.M 1 x N R } o.1.5.6.:.1.1.5.5.5.} I 1.8.8.8.8.6.t.t.8.8.t.6.1.t.t.t.8.8.t.8.:.5.1.5.8.6.8.8.y.6.8.8.8.8.8.8.t.8.6.t.t.8.6.5.6.8.8.t.6.t.t.t.8.5.>.1.8.s.5.5.8.:.5.6.:.t.1.5.p.8.y.X.y ; ; ; - + O + I I M v x x r r r r s x M M [ t.t.7.1.R 1 ' :.1.t.5.5.' } >.5.8.5.<.:.t.} ! a s ! 8.t.p.:.Q Q o.8.t.8.t.} o.5.8.s.6.+.5.o.5.1.8.u.8.8.t.t.t.i.t.t.t.t.t.8.u.8.s.t.t.i.0.8.u.t.u.t.t.t.t.8.5.6.8.f.t.d.8.+.+.8.t.+.1.y.u.t.8.8.t.u.8.s.8.} Q y.8.5.} 5.5.5.6.8.t.t.8.5.X.>.>.1.1.5.:.5.t.6.5.5.8.8.t.8.1.5.1.} :.7.1.<.5.5.:.5.8.1.7.t.5.} ' 1.1.5.5.5.5.1.6.+.1.+.x ; Q 2.+.2.N d $._ h 1 1 > $ : 7 > 7 c u ; y M a u t 3 < 3 0 y i p 0 & < j n 0 9 p p 0 q 7 0 > > 3 3 t y 3 < 3 > ; : < q h n f D k z z g g < w w q j j j w 9 9 5 q q p q u D _ h > $ 1 ; $ ; , 0 u u y 0 7 7 & o : 0 0 p k j w p w 5 9 j z w 9 * 5 # ",
">.1.>.1.1.>.>.:.:.>.>.>.1.:.1.1.1.1.<.,.<.,.<.1.1.1.<.<.5.:.:.5.1.1.1.1.1.1.5.1.1.1.1.1.1.1.1.+.I } o.:.1.1.1.1.5.1.1.1.1.:.+.} ' 1.5.:.+.1.1.1.5.>.:.:.} :.>.:.5.5.5.5.5.6.6.5.5.7.6.5.5.5.5.5.5.5.5.7.6.,.x x ;.' ^ N V 5.,.7.5.5.1.7.5.5.6.:.Q o.8.t.6.8.8.6.6.6.6.6.7.8.t.t.8.6.8.8.1.8.6.5.7.t.8.8.6.t.8.8.8.8.6.6.8.8.6.6.t.8.1.1.6.8.u.8.8.t.t.8.5.7.8.8.8.t.8.8.t.1.1.+.5.5.+.t.y.7.<.c r 1 1 - O - - I :.,.8.8.t.8.o.+.t.8.5.:.+.! +.8.7.t.5.y I 1.1.:.t.t.5.[ o.+.5.6.8.5.5.5.5.' } V I N N M ' o.>.7.7.5.8.1.1.} 1.8.5.5.+.1.;.8.t.t.8.8.8.6.8.t.t.u.p.p.t.t.t.t.t.u.t.8.8.u.t.6.8.t.t.t.8.8.7.5.8.i.8.t.8.1.5.:.X.1.<.+.t.8.t.t.8.8.u.p.8.8.1.I +.1.5.X.8.1.1.1.8.t.6.>.+.>.8.5.5.7.t.1.t.t.t.6.5.5.5.8.8.1.1.1.1.:.+.X.X.1.1.X.1.5.t.t.8.8.t.5.} X.1.5.1.1.>.5.,.5.;.x ; I 1.| +.o.d D 8.( B 7 1 ; : > @ $ s y ; 3 h u u u t 3 3 7 8 0 0 0 < , 0 n 0 0 5 0 0 u u t > 1 > 1 7 7 3 < 7 7 5 & 5 u g f h l j p m h p 5 0 9 < j g g w w q 5 9 0 p q q n / n 7 5 > > > 5 0 k n h 0 7 0 7 < & 0 q < 0 l j w 9 w w z A z j w 5 * o ",
"1.:.1.:.:.:.:.>.1.>.>.:.:.1.:.:.<.,.,.1.<.1.:.1.1.1.1.1.,.:.5.5.1.1.1.1.:.1.1.1.1.:.:.1.1.1.1.:.' } ;.:.+.:.o.o.;.;.o.;.;.:.:.;.X.1.1.:.:.1.5.5.1.:.:.+.X.1.5.1.5.6.5.7.5.5.7.6.5.6.7.6.6.>.>.5.5.6.i.6.7.' y 5.1.8.;.} I ' 7.7.5.5.5.5.5.5.5.8.+.R ;.8.8.t.t.6.8.t.8.6.6.6.8.6.6.8.6.8.>.8.t.8.8.8.8.8.8.t.6.8.8.8.6.t.6.6.u.u.6.+.:.6.u.8.6.t.t.8.t.8.t.8.t.8.t.8.8.8.t.+.1.1.8.<.:.7.7.8.Q r 1 ; ; + - O r :.7.:.5.y.1.8.8.+.6.t.8.t.t.t.t.6.5.8.^ a 6.8.7.8.t.8.5.5.>.+.:.6.6.6.5.8.5.} 1.[ Q 8.5.8.:.+.' } :.5.1.8.5.t.} [ d.t.:.5.:.5.8.8.8.t.8.8.t.u.t.u.t.t.8.0.8.u.8.t.t.t.t.t.6.6.5.5.1.1.1.5.6.8.8.t.8.8.t.t.5.1.X.} 8.} 1.1.1.8.8.8.6.8.8.5.6.} Q >.8.;.t.:.1.s.8.X.} +.5.8.8.1.>.5.t.1.t.t.8.t.5.5.1.6.6.5.5.5.8.5.1.X.} +.:.' } ;.;.o.o.o.:.1.:.+.+.1.t.t.t.5.X.X.' y ; b o.1.w.5.R a $.$.2.U q 2 > $ + $ 2 > ; 7 h s t u u 7 0 3 3 < 8 i 8 , 0 n 0 0 < < a i s 7 : > > 3 t t 7 2 > 7 7 $ 5 g u u f g k 0 A k p * 0 5 * g j p w w u q q q f y 7 f D h y y 2 6 6 5 p l l g w 5 q 7 0 < q = < w j w j z j j j z z z j * * * ",
":.:.+.+.+.:.>.>.>.>.:.1.1.:.1.1.1.1.1.:.,.1.1.1.1.1.:.5.1.:.5.:.1.1.:.:.:.:.1.1.,.:.1.1.1.1.>.1.:.} :.:.;.1.<.1.:.1.<.1.1.1.>.:.+.1.1.1.1.:.:.5.5.:.1.1.1.1.1.5.5.5.5.5.5.5.6.6.6.6.5.5.6.1.:.5.t.5.>.6.[ 3 Q ,.5.5.:.1.5.R 7.1.1.8.5.5.5.5.5.7.8.:.I 1.5.5.6.5.5.7.8.t.8.8.6.8.6.6.8.8.>.i.5.8.8.8.8.8.8.8.t.8.6.6.8.,.,.5.5.1.1.1.>.,.6.6.8.8.t.8.8.t.8.8.8.t.t.t.8.6.8.} >.8.1.>.8.8.t.+.x - 1 - - - O - ! 7.y.:.<.y.1.:.7.:.:.p.1.t.6.t.6.t.t.>.M ^ 8.8.t.8.t.6.5.7.t.1.+.1.8.8.t.8.8.X.5.8.! <.t.t.i.5.O.' o.5.5.5.8.y.8.X.X.t.7.1.1.t.t.t.t.8.8.8.8.8.8.t.t.t.u.8.u.8.u.8.t.8.t.t.6.:.:.>.1.5.5.8.t.t.8.5.t.8.t.t.1.+.5.+.1.>.+.1.1.1.6.8.t.6.6.5.8.5.^ ' 1.[ 1.7.8.1.:.+.:.1.6.6.t.6.1.5.8.1.8.5.8.8.8.7.5.6.1.6.8.6.8.t.t.7.1.<.1.} 5.8.1.:.<.:.+.:.:.X.Q ^ X.o.X.+.X.] Q a @ R R o.1. .o.N ^ $.o.2.( u > : @ @ > 2 : 7 u t t t i a y y 8 < < 0 w 5 i b i 0 3 > y u y 3 > 1 > 3 2 7 7 7 : > 7 > 7 p 7 w l l j 5 m l j < * < < m m k l p u p u u g 5 < y q > 5 7 > 7 p 7 k g 0 w m < < 7 0 0 7 & 9 q w j j z j 9 9 w j j 9 5 * < ",
"+.+.;.:.:.:.1.1.1.:.>.>.:.1.:.1.,.,.<.,.<.1.>.<.1.1.1.1.1.>.<.>.:.:.:.:.1.1.>.5.>.:.>.1.:.:.;.1.+.Q o.;.1.1.1.1.1.1.5.1.1.+.+.<.5.1.1.1.1.:.+.:.1.1.1.5.5.1.1.5.5.5.5.5.5.6.6.6.7.5.6.5.7.6.:.X.:.7.7.} x M 5.<.6.:.>.8.t.' o.7.5.1.7.5.5.5.6.5.5.t.o.Q +.>.1.>.1.5.5.6.6.8.8.8.8.8.8.,.+.t.7.8.8.8.8.8.8.8.8.t.6.7.t.>.>.1.:.>.8.:.:.>.5.6.8.8.t.8.y.8.6.8.8.t.t.8.5.5.+.' 5.t.:.5.t.t.<.! r - 1 - - O O x 1.8.6.6.5.5.8.1.:.+.:.>.t.8.t.t.6.t.>.[ M 5.7.8.s.t.:.:.1.5.8.8.+.+.5.8.t.8.u.1.:.t.5.I 5.t.6.i.6.:.>.6.6.7.5.6.8.>.} X.1.1.:.t.t.t.6.t.6.6.8.8.t.8.t.y.6.6.u.8.t.t.8.u.t.6.t.5.6.8.8.t.t.t.p.8.6.6.5.5.5.<.o.} 1.1.} ' X.>.:.o.o.1.6.1.8.u.1.6.8.' N R :.:.+.:.6.t.8.8.8.6.5.5.:.:.1.+.8.7.8.5.6.6.8.8.1.1.8.5.7.5.7.t.6.>.:.! :.:.:.1.5.6.8.6.6.1.:.} +.5.7.5.t.X.I r r ;.^ ~ ^ 1.o.U b $.$.$.$.&.n ; $ : 3 u u t y 7 t y h s u y y > & 3 q 0 i k p 0 > : 3 7 t 1 1 3 3 1 : > 7 2 : 5 y 7 q p 5 p z z g 5 g h l 0 & < 5 m m p g f h k p g k 5 > 0 : & < 7 q y g 0 p p 5 q H < = 7 8 5 , 5 * * w j j z z 9 9 j w 5 * * * 5 ",
"O.;.:.>.>.1.:.:.:.>.>.>.>.:.1.>.<.1.>.1.,.>.1.1.1.>.1.1.:.+.>.:.:.:.1.1.1.1.>.7.,.:.1.:.:.:.;.<.:.{ } +.5.1.1.5.1.5.5.1.:.1.1.1.5.:.:.:.1.1.:.o.1.1.1.5.5.5.5.5.1.6.5.5.6.5.5.6.5.6.6.6.6.5.5.+.X.o.' x N 5.:.8.:.,.:.8.7.:.R >.8.1.7.5.5.5.6.8.5.5.y.o.[ 1.6.5.5.5.5.6.8.6.7.8.5.8.5.;.[ 5.6.6.8.8.8.8.t.8.8.6.t.t.8.:.+.>.8.t.5.5.5.6.8.6.6.8.8.8.8.8.8.t.8.8.8.8.1.,.X.} t.1.;.t.8.t.;.c r 1 ; - +   1 X.t.8.t.5.5.5.1.t.6.5.7.:.t.6.t.t.t.1.X.' I t.i.8.u.1.} +.:.5.5.5.:.o.:.5.t.8.s.8.+.>.8.X.Q 8.5.t.5.5.5.5.t.t.8.t.5.1.7.' Q >.;.t.t.8.6.8.t.8.t.8.8.t.8.t.u.u.8.u.t.8.u.8.u.t.6.6.t.u.u.8.8.8.8.8.8.u.5.1.1.5.1.5.:.8.:.R X.:.:.o.} :.<.1.t.5.5.t.+.8.N I >.>.6.y.s.8.8.8.8.8.8.8.5.1.:.} 6.6.5.1.5.5.8.8.:.1.8.5.8.6.,.6.6.:.:.^ :.:.1.t.8.7.5.>.:.:.1.5.;.1.8.8.y.X.a ; x 1.2.+.^ } X.^ u R ..2.1.1...B 7 ; > s s u u r 7 s h d u t 7 > & : 0 u i p d 0 : < > , 3 > < 7 7 3 : ; > 7 7 7 d 7 u u q j A m g 0 q 7 g 0 = < & q q 7 u p k l f h h 0 5 0 # $ 5 g l h g < 9 g g w G 5 = , & & < < * 9 w w z H H j w w w # X * 5 9 ",
">.:.:.:.:.:.:.:.<.>.1.:.>.>.>.1.1.<.1.:.1.1.1.1.1.>.>.:.;.+.:.1.1.>.1.:.1.5.1.7.1.+.1.:.+.:.:.:.<.1.^ X.:.1.1.1.1.5.1.1.1.1.5.5.7.1.:.:.<.1.<.;.5.1.5.5.1.5.5.:.,.>.5.6.5.5.6.6.5.5.5.6.6.5.8.5.5.o.a d ;.1.7.:.7.+.6.5.7.5.M ' 5.6.5.6.5.6.1.7.6.8.5.t.} [ 6.6.6.8.8.6.8.6.8.8.6.6.7.6.:.5.5.7.8.8.8.8.6.t.8.6.8.8.>.:.1.7.7.8.6.t.6.6.6.6.t.6.8.t.8.t.8.t.8.8.6.5.:.X.;.X.<.:.+.t.6.1.' x r r - ; - O N t.,.8.6.t.6.1.6.1.6.6.t.7.X.>.5.1.1.X.1.I X.t.t.u.5.[ >.8.5.1.:.:.6.8.X.5.8.8.t.8.>.:.>.t.X.' 8.8.6.7.6.6.6.t.t.8.t.8.7.5.[ o.,.t.t.t.8.8.t.6.8.t.t.t.t.8.8.t.u.8.u.0.8.t.t.t.8.t.t.8.8.8.8.t.8.8.8.8.8.1.1.8.p.t.1.8.8.8.X.o.>.;.[ :.t.1.1.5.>.6.} 5.[ ^ 6.y.8.8.8.8.t.8.6.8.8.t.t.8.:.' 5.8.6.5.5.5.6.8.+.7.8.5.5.8.5.1.5.1.5.X.X.+.5.7.>.5.5.>.1.5.8.5.7.,.o.o.1.! r - I :.5.5.5.+.| } d N $.>.1.2.,.2.( 0 : 2 > 3 7 3 t u s s s u 7 > & & < 0 u u h u , : 1 1 > : > 1 7 t 7 : 2 t t p h 0 u q 7 g z m k u 0 & 6 7 > = & < < 5 q 7 u z n D n q 0 u 7 7 w l h p p 5 q k z w H 0 = $ % $ & * 9 w j H ..*.H w w 9 = # # * 9 w ",
"1.1.>.>.1.1.1.>.>.>.>.>.>.>.<.>.,.,.1.1.1.:.5.:.t.:.;.+.+.<.1.:.:.<.,.>.<.5.1.:.1.:.' ' o.:.1.7.5.:.1.Q :.1.5.1.1.1.1.1.1.1.8.5.1.5.7.1.1.1.X.;.1.1.<.5.1.1.1.1.:.5.5.5.5.6.6.6.5.5.6.5.6.8.5.5.1.:.: ~ 8.5.1.8.>.X.6.5.6.5.+.b 1.5.5.5.6.7.8.6.6.6.:.8.5.! +.5.6.t.8.5.8.8.6.8.t.t.t.5.>.5.6.6.6.8.6.t.t.7.8.t.5.+.:.8.8.6.8.6.6.6.6.6.8.6.6.8.8.8.8.8.8.8.8.t.8.1.5.,.+.o.+.o.1.t.5.+.I r r 1 ; - + ; } 8.5.t.6.t.u.8.5.>.+.5.1.1.! Q 1.t.X.:.5.x } 5.1.8.[ :.:.X.} o.1.8.8.8.t.X.5.t.6.t.t.:.X.:.1.X.o.6.t.6.6.t.t.6.t.t.t.t.t.8.5.:.:.>.6.8.t.6.8.t.t.8.t.8.t.8.t.t.8.u.8.u.u.t.t.6.6.t.6.8.8.8.8.u.8.8.8.8.8.8.6.5.8.i.t.5.5.8.7.X.' 8.^ X.1.5.y.6.5.5.:.:.+.! t.6.u.8.8.u.8.8.8.5.6.8.8.8.;.' >.8.8.8.6.6.5.1.+.8.t.1.8.8.8.8.8.X.:.+.o.X.7.t.7.:.>.7.6.t.5.6.6.t.t.X.V ' r 1 N y.5.6.2.8.e.8.0.h | 1.2.1.2.$.1.} c > : 1 7 t 3 t d u y s y 3 : $ : 3 3 i p p : 3 > & $ & ; > 3 3 t 7 y h d f n 0 7 7 5 w l j g 7 7 > > < & < & = < 7 y 6 0 k l W k u p j g h l f q 6 w g f A H w W 0 5 & & # % % 5 j ..f.` ` K w w * * * * 5 8 8 ",
"1.>.>.:.:.:.>.:.1.:.1.<.:.1.>.1.<.>.>.1.1.>.<.1.1.:.;.:.1.:.1.5.1.1.1.:.:.o.:.o.X.:.} X.:.1.1.1.5.>.5.' :.5.5.5.5.1.:.:.8.8.1.1.+.1.5.>.5.1.X.:.5.6.1.1.:.1.1.1.>.5.5.5.5.5.5.5.8.6.1.5.7.7.1.7.7.' - ' 1.,.;.:.>.X.6.6.6.5.t.U ' 5.8.5.8.6.6.6.7.8.8.5.5.5.' 1.7.5.5.t.5.8.8.8.7.6.8.7.>.5.6.6.8.8.y.8.t.8.t.5.1.5.7.8.8.8.8.8.t.6.8.8.8.6.6.6.8.8.8.t.8.8.8.8.7.5.1.7.7.7.<.:.:.[ I x r - - - - + + a 5.5.1.6.6.8.t.8.5.5.X.X.1.6.;.1.1.<.;.8.+.r ! 6.s.:.:.8.t.5.1.5.8.8.8.8.t.1.:.8.t.8.8.1.X.6.8.5.t.t.6.8.t.8.t.6.t.t.8.8.6.6.t.t.5.>.7.8.t.6.8.t.y.t.8.t.t.8.t.8.8.u.8.t.t.8.u.8.8.8.t.6.8.8.8.8.8.t.8.p.6.8.6.6.6.5.8.8.8.7.t.:.+.' ' o.1.8.7.1.5.t.1.:.o.I 7.6.8.t.6.t.t.8.8.5.5.8.t.8.1.X.1.1.8.t.5.5.5.1.:.8.1.1.5.5.1.:.1.;.1.X.:.:.5.5.6.5.6.8.7.8.t.5.6.8.y.7.:.X.I ; r ;.7.5.7.5.5.6.8.W N 2.1.2.2.2.2.2.$.E t $ 3 t 3 > y d y 7 y y 3 $ & < a k h d 7 3 , : > : $ : > 3 7 t s c b f c 7 < 7 * w A z p < > < < & < & > 5 : 7 q u q l h H u < 0 p q q q u q 5 g l j H ..m / j 5 : , , & # 9 H m.r.H _ j * = # # = 9 9 w 8 ",
"} } } } } X.o.+.+.:.:.:.:.:.:.:.:.:.:.:.;.:.o.:.' } } X.X.X.X.X.} } o.o.:.:.1.+.' :.+.>.1.1.1.1.1.5.5.[ +.6.5.1.1.:.:.:.1.8.5.5.1.+.;.:.5.:.^ +.>.7.>.:.o.:.1.5.5.5.5.7.5.7.5.5.5.6.5.8.6.5.5.5.t.Q - ' 7.o.Q I X.X.>.6.6.6.8.o.' 6.7.6.6.6.7.8.6.7.8.5.6.8.:.^ 5.t.5.8.8.8.6.5.6.6.t.6.5.7.6.6.6.8.8.8.8.8.5.+.1.t.t.8.8.8.6.8.t.6.6.6.6.7.7.5.6.t.8.8.8.8.y.8.8.7.5.y.7.,.:.X.Q x r 2 - - + - + O - T t.5.6.5.6.8.8.t.t.6.8.,.} :.:.>.X.X.+.:.' ' +.' [ 1.8.t.8.6.8.8.6.8.8.6.p.t.:.1.8.8.7.8.1.t.t.8.8.t.t.t.t.t.t.6.8.u.t.8.6.t.6.t.t.7.5.8.t.8.t.u.8.8.y.8.8.t.8.t.0.8.u.u.6.u.8.t.8.u.8.8.8.t.8.6.8.t.8.8.7.6.8.8.5.1.5.8.5.5.6.6.>.' x X.t.8.8.5.:.1.7.;.X.I 7.8.5.6.6.8.t.8.8.5.5.8.8.8.:.+.8.:.6.t.>.5.1.1.:.1.<.5.5.5.1.>.:.+.1.+.} +.;.+.:.:.6.6.6.7.5.1.6.6.6.8.1.5.Q r + I 5.:.7.5.7.7.2.1.h [ 2.2.6.2.>.$.2.6.$.h ; 7 t 7 1 7 y 7 t t 7 > & 1 y B N h y t 3 > > : ; : : 1 7 y u c A s c > & 7 < p G m g = 7 7 7 7 < & > 5 : 6 u p 0 k h n 5 = 7 q 7 q 7 w q 9 g z l H -.H H k & & 5 0 < = * m m.w.z W * % . # # < 0 w g < ",
"X.X.X.} } } X.} X.[ [ } } } } } [ } ' } ' } ' } Q Q } +.+.:.1.1.:.1.:.:.<.1.5.+.} ;.:.<.5.1.1.1.1.1.5.+.X.5.1.1.:.:.1.5.1.5.7.1.5.1.:.+.1.:.} o.+.1.1.:.X.:.5.5.6.5.5.5.5.5.5.5.5.5.8.:.,.5.6.1.y.' @ I 5.I r x o.>.:.5.6.8.1.1.^ 5.5.8.6.6.6.6.6.7.5.8.5.5.8.^ } 7.8.5.t.7.1.1.>.,.6.8.7.6.6.6.6.8.8.8.6.5.>.1.6.t.6.8.8.8.6.6.6.6.t.t.8.6.6.6.8.t.t.8.6.6.8.6.1.:.8.7.8.:.{ Q x t 2 1 - - + - O O r ;.6.7.6.5.8.6.6.8.t.t.5.t.5.>.X.[ Q X.1.:.[ 5.u.t.^ 1.t.s.5.5.u.8.8.8.s.8.8.t.8.:.:.t.t.5.<.1.s.t.6.t.t.t.8.t.t.6.8.t.t.8.6.t.5.6.t.8.8.8.t.t.6.u.u.6.t.8.8.t.t.t.t.t.t.8.t.t.t.8.u.8.t.t.t.t.t.8.8.8.6.7.6.8.6.8.8.8.1.1.>.5.t.6.6.6.! R 7.5.1.1.5.8.t.:.' N t.6.5.5.6.t.8.8.8.8.5.7.6.8.+.+.t.:.1.t.5.7.1.:.+.:.8.8.t.8.>.5.1.1.+.+.X.o.;.X.X.} :.:.5.6.7.8.t.t.8.6.:.5.;.a ; + ;.5.y.7.6.2.2.2.( h $.2.&.2.2.2.1.&.2.2.D 3 3 : 1 > 3 y 7 7 3 > 1 > 2 h V h u t 7 3 1 : : > > 3 t y t h n d f 7 = < < 9 j p 0 < 7 0 u u < > & = & 5 7 p p n k g > = 5 0 0 g f f q q f f z H 9.*.m q & = 0 u < < % * ) H z F X X $ & ; 6 0 9 0 * ",
":.:.<.1.>.>.:.:.:.:.>.:.:.:.:.:.:.:.:.:.} :.1.>.:.' :.5.:.1.<.:.1.1.1.1.<.1.<.o.} ;.1.<.1.1.1.1.1.>.1.:.} 1.1.1.<.1.1.5.:.+.1.5.7.t.1.:.:.:.+.o.X.>.1.<.+.<.1.1.5.6.5.5.5.5.5.5.5.5.,.[ :.5.6.1.:.X.- c } a 1 d :.5.o.6.6.8.6.1.I 1.6.5.6.6.6.6.6.7.8.8.6.t.1.:.} +.1.:.;.:.:.<.5.8.6.6.6.5.6.6.6.6.6.6.6.5.>.8.t.t.8.6.6.6.5.7.7.6.6.t.t.5.5.6.6.6.t.6.t.6.t.6.:.:.7.5.;.^ I x r 2 1 + + + + + + + a 7.5.7.8.5.6.8.8.8.8.6.t.5.5.+.' [ +.5.t.>.[ t.5.t.5.:.8.8.>.1.8.8.8.8.8.8.t.8.8.5.:.5.8.5.5.1.t.t.t.t.t.8.6.8.t.t.8.t.8.6.6.t.t.t.t.t.8.t.t.t.u.6.t.u.8.u.t.t.8.8.t.t.t.8.t.8.8.u.8.i.u.8.8.8.t.t.8.6.6.6.6.6.5.5.8.8.5.+.+.>.6.7.t.8.f.Q ' 8.5.+.1.8.8.5.! M t.7.1.8.t.6.8.8.8.t.8.1.1.8.;.+.s.:.+.5.1.8.:.+.:.1.8.5.5.1.o.1.1.8.+.X.X.} :.>.:.:.:.:.+.o.o.o.:.:.5.8.t.1.7.I r O c :.7.5.4.6.0.1.2.n U 2.2.1.2.1.>.$.2.>.>.o.k : 3 > : 2 7 3 3 3 2 2 t u b y y u t 3 3 3 > > 1 7 y u u c c c f d < 3 w 0 9 9 5 7 0 0 g u > 7 7 : > h u w h m k p = > 7 q 0 g f f q q 6 w w Z ` #.l = & < 7 i y w 5 * 9 0 w z * % # > > = < < < % ",
":.:.:.:.:.:.:.>.:.:.>.:.>.:.:.:.:.:.:.:.X.<.5.:.:.Q } 1.1.1.1.1.1.1.1.:.;.5.1.o.' :.1.1.1.1.1.1.1.:.1.7.X.>.1.1.1.1.1.1.1.:.;.8.5.7.5.5.:.[ Q +.[ ;.>.:.:.1.1.1.5.5.5.5.5.5.5.1.5.t.X.' ,.6.5.6.:.:.r 1 x r a I 5.>.' 7.7.6.5.5.U ,.5.5.5.7.6.6.6.6.6.6.6.6.7.X.>.5.5.5.5.1.5.8.6.6.5.6.6.6.6.5.6.6.7.5.6.1.5.t.t.6.t.5.5.7.1.5.2.,.,.5.6.1.>.5.5.5.5.5.6.6.8.6.<.:.X.Q c a a r - : - + - X X @ O O r 5.5.5.8.7.5.6.6.8.6.5.:.>.1.8.+.X.t.t.7.o.>.8.s.5.t.O.t.5.5.6.6.8.u.8.6.8.8.s.5.p.5.1.5.5.5.1.5.s.u.t.8.8.5.8.u.t.8.8.8.6.8.8.t.8.8.t.6.8.t.u.u.8.u.8.u.8.8.0.t.t.8.t.u.8.8.t.t.t.t.t.t.t.t.t.t.6.8.6.8.8.5.6.1.1.1.5.<.X.' X.5.8.s.8.6.5.! X.t.:.+.t.t.t.' V t.7.5.7.t.t.6.t.6.t.t.:.:.7.+.:.i.1.:.+.:.6.+.+.5.t.5.8.1.:.:.5.1.6.+.} 5.} 1.5.:.1.5.8.8.5.>.X.:.:.[ ' ! ' ' ! r 1 @ V 1.8.8.7.2.2.1.| u o.2.2.2.1.2.$.| 2.0.$.8.n 3 ; > $ : 1 3 2 2 y h t a 3 0 u y 7 y 3 3 > : , y u d k h n h N q 7 g q w q 7 0 7 < u 3 3 q u > 2 W W u g n h f = = w p w f g f f 9 q q 7 f Z / f $ 5 5 5 u 7 6 7 7 = # ; 6 > $ ; 7 > $ $ ; & & ",
"1.:.1.>.1.:.:.1.>.>.1.:.>.1.>.>.1.>.1.:.' :.5.1.:.X.} { :.<.:.1.5.1.1.<.} 1.:.X.' 1.1.1.>.:.>.1.:.5.1.:.X.>.1.1.5.5.1.5.5.;.} +.5.1.>.>.>.:.:.:.+.' ^ X.:.:.1.5.>.7.6.5.1.:.1.5.1.o.R :.6.5.>.7.;.7.M 1 1 a r ' 5.>.' t.1.6.6.5.' :.6.6.6.t.8.6.7.6.6.6.6.6.>.[ 5.5.5.5.8.5.5.8.6.5.6.6.7.6.5.:.>.;.:.,.:.+.>.5.,.:.+.o.>.>.+.o.>.>.>.>.>.>.,.,.5.5.,.u.u.0.5.o.I I a r r 1 ; - - - @ + O O O @ O + - X.8.7.7.5.t.7.7.5.,.,.5.t.i.8.o.>.t.6.5.} 5.6.8.8.8.5.:.5.8.s.8.t.s.8.u.8.t.t.8.8.s.5.+.1.6.1.5.t.t.u.8.8.6.6.t.8.6.t.8.6.u.8.t.t.8.8.6.6.6.t.u.8.6.u.8.u.u.8.t.t.8.t.8.u.t.8.t.8.t.t.t.8.8.8.8.t.8.8.7.8.6.5.5.6.5.1.5.<.1.5.1.1.8.6.6.1.1.! ;.t.o.1.8.t.} V 5.5.7.8.6.t.t.6.t.t.8.6.1.:.X.X.1.>.6.+.1.6.+.1.t.7.6.6.5.:.1.1.5.7.+.' :.' 8.8.:.5.1.1.:.:.:.>.6.6.5.5.5.,.X.^ R d - @ R :.1.6.6.5.1.4.R d $.2.1.&.2.1.>.&.1.2.8.1._ t $ : @ : > 3 > 7 d s t > 3 y 7 7 0 y 3 < & : 7 y u n b n h h h u u u g g q q 9 < 0 5 5 u u 7 & W ` l A l k l = = p p g l q q w 6 6 Z Z Z f Z q # $ > = 0 < 5 7 q 7 & $ 5 7 $ ; 7 ; $ $ > > , ",
":.>.>.>.1.>.>.>.1.:.>.>.>.>.1.>.1.:.:.:.Q :.5.+.+.:.:.X.' X.;.:.:.1.1.1.X.+.1.X.X.1.1.:.:.:.>.1.,.1.5.<.o.:.1.1.1.1.1.1.:.:.X.{ ' ;.>.1.>.>.5.:.:.o.Q I ' 1.8.5.7.1.5.1.7.+.,.1.1.I } :.5.5.5.,.>.5.' y 2 1 1 ' t.<.^ :.5.i.i.+.} 6.>.5.5.5.6.8.t.6.6.6.5.5.:.U 5.8.5.1.5.5.1.5.6.8.>.} ' } X.X.X.X.} X.' } 1.5.7.5.5.:.1.1.:.:.,.>.>.$.,.1.5.>.,.6.0.6.:.' I c r r r - - - - - - @ O X O @ @ : O O % ~ 1.7.O.8.5.:.:.,.7.t.t.t.6.X.:.8.5.i.} :.5.>.5.8.t.t.6.:.8.s.s.8.8.u.8.u.8.u.8.s.t.t.5.O.6.6.5.t.t.u.8.8.6.5.5.t.8.6.t.8.8.t.u.8.8.6.6.8.t.t.t.t.8.u.u.8.8.u.8.u.t.t.t.8.t.t.t.t.t.t.t.t.8.8.t.>.>.t.5.5.5.1.1.7.5.1.+.:.5.5.5.X.6.s.y.5.:.5.I t.:.} 7.t.;.c ;.1.7.6.6.t.8.t.t.6.8.8.6.>.^ ^ ' 1.8.:.5.1.X.8.5.8.t.5.1.>.:.:.5.7.} ' 8.X.1.6.8.t.u.7.1.1.1.t.6.5.5.6.t.7.<.X.8.:.r O O d ^ V +...+.2.| d b s.4.8.&.2.8.2.4.6.2.0.$.o.d + : $ > 3 > 7 t y y > $ > 3 7 7 u u 7 : & 3 3 u b h h n h g h f j k f g g q 9 < & < u u q : k D D G n k k = < j w w H f 6 6 q f S q.q.u 6 7 # o # # > > < 5 7 7 5 # ; = ; ; > $ $ : : : , ",
"1.:.>.>.:.>.>.>.>.>.>.>.:.>.:.>.:.1.>.:.' } :.+.o.1.1.:.X.+.:.:.1.1.1.1.X.^ 1.} X.:.;.:.:.>.1.>.:.5.1.1.o.;.1.1.1.1.1.:.:.1.:.+.+.} o.:.:.:.:.>.5.1.7.:.' Q ^ X.:.:.7.5.7.X.>.>.' V >.5.:.1.7.>.t.X.N a r 1 - x :.7.} 1.5.:.^ R } y.5.t.6.6.5.7.5.5.5.>.1.1.>.} +.1.5.:.8.5.1.X.' ~ ' } +.5.8.8.8.8.t.8.5.5.1.5.6.8.8.1.,.5.5.1.5.2.8.6.2.>.:.:.,.,.[ V x t 2 r r ; - - - + O O @ @ X X @ r ^ +.M 1 O d $.2.1.6.>.>.,.8.8.8.8.;.+.X.7.8.5.5.^ 5.5.;.5.8.6.t.t.>.6.8.u.8.t.8.u.8.u.8.s.8.8.t.t.5.1.1.+.5.8.t.8.6.6.1.1.8.t.6.6.8.t.t.u.8.5.5.6.8.t.t.8.u.u.8.u.u.u.8.u.8.t.8.8.u.u.8.8.t.t.6.t.t.8.6.6.6.>.>.t.5.5.5.8.8.5.5.5.1.1.5.5.1.o.X.8.5.+.:.} I :.+.6.:.o.y ' 1.7.6.6.6.8.6.t.8.6.8.6.7.! o.1.:.+.:.:.X.[ 8.1.5.6.5.8.5.X.+.5.1.X.:.6.:.:.o.8.t.6.1.>.1.7.t.6.6.6.5.:.;.:.:.1.7.' r @ 3  .+.| _ ( ( +.( d E 6.2.2.6.2.2.2.2.2.1.2.2.$.n : : > 2 > 3 2 > t 3 $ ; : : > 0 u a > & > < y d u p h h h h h l j j f j p q 9 & > w g u 5 5 q p g p p q & 5 z j w J l w e A H ` m.~.e # * : # o & 5 6 5 5 6 7 5 ; = > ; = # + - : = : < ",
">.>.>.>.>.>.>.>.>.>.>.>.>.:.1.:.:.:.1.1.:.' +.+.o.5.:.1.+.+.>.:.:.:.1.:.+.Q X.Q Q +.:.<.1.1.>.>.:.5.1.1.o.;.5.<.1.1.1.:.:.1.:.1.1.X.[ } :.1.1.>.5.5.:.1.>.X.+.>.;.+.^ } { Q I I y Q 5.<.:.<.7.:.<.R r 1 - - O 1 U ;.^ R ' ! +.:.>.8.6.5.8.5.5.8.t.6.>.:.1.1.,.7.1.} +.+.+.' U I R X.1.6.6.6.6.6.6.8.t.6.8.7.8.t.t.1.7.>.:.>.5.5.5.,.,.>.,.,.,.:.] M r r 1 1 1 - - - + + O + + +   @ O O a 5.8.2.1.! 1 % ~ 1.8.5.6.6.7.6.7.5.>.+.5.5.7.7.t.[ ' 7.7.>.5.7.7.8.t.,.1.5.8.u.t.t.8.u.8.u.u.8.y.s.8.8.:.^ X.:.1.>.+.5.8.6.1.1.t.8.8.8.t.t.t.6.5.6.8.8.8.8.8.u.8.8.t.8.u.t.8.u.8.u.8.u.8.6.t.t.t.8.8.8.t.8.8.5.1.:.:.5.;.1.8.8.5.5.1.1.5.6.8.5.7.X.+.:.' 5.5.! I Q >.>.+.r ! :.6.6.6.6.7.6.6.6.5.6.6.1.} :.1.8.+.1.:.X.X.8.5.<.+.:.1.:.} } ;.7.1.+.8.O.X.+.5.1.>.1.1.8.6.t.7.5.5.>.:.,.5.,.:.8.5.V 3 O d +.1.$.8.&.| E d 3 ..1.6.2.2.2.1.2.8.4.2.2.4.| D y 1 : > 1 2 : 3 3 ; $ & $ $ > 7 7 1 & & > 3 u u u u g h k h l j w w g w w w 9 5 9 p l w & < < < < < & # 5 A k g J H Z f / / q.~./.t # = 7 5 # # * 0 q 6 5 7 5 = & ; = # # $ $ > > > 7 ",
">.>.>.>.>.>.1.:.>.>.>.>.>.1.:.:.:.>.:.1.1.+.} ' X.5.5.5.<.o.+.:.+.:.1.1.1.+.} Q I <.1.1.>.>.1.>.1.1.:.<.X.o.5.1.1.5.1.:.;.1.1.;.X.+.o.X.} [ [ X.o.1.1.1.1.7.>.X.' R V x x x y R a c ;.:.5.:.7.+.R x a 1 x 1 - + 2 I :.:.>.:.5.1.+.5.6.1.:.X.} [ ' [ X.:.5.1.>.>.1.+.' U Q } +.1.1.+.5.8.8.6.8.8.6.6.6.6.6.8.,.5.8.t.7.:.+.X.:.5.5.5.>.>.5.,.] N r 1 r ; - - - - + O + + + + + X X O   r O.8.2.7.w.1.x   8 +.5.8.8.8.5.5.t.6.5.8.8.1.<.8.6.U +.6.6.5.5.1.6.t.8.6.1.5.8.t.8.8.u.8.u.8.8.u.t.t.t.6.:.X.o.+.8.1.:.>.5.6.6.+.6.8.8.8.8.t.8.5.1.8.8.t.i.8.t.8.6.u.t.8.8.8.u.8.u.8.u.8.t.t.8.8.t.8.t.6.8.8.8.5.5.1.;.:.5.+.1.5.1.1.8.5.5.8.6.1.;.! R R ' Q I ^ a I 1.t.1.x ' ;.5.7.6.6.7.5.6.7.7.8.8.1.:.+.5.7.1.1.<.1.;.5.7.:.X.X.} } X.X.:.1.:.:.8.X.:.8.7.:.1.1.5.7.6.1.>.>.:.>.7.y.7.6.:.5.1.+.x % @ b 2.2.$.1.6.0.$.n y U ] ..$.2.2.2.6.2.1.$.6.8.o.D y > : : > > > : ; $ $ $ : : : & & @ : , < 7 0 0 0 y g h u l z g w j j w w q q 6 p z f & & > < < < # o 5 z z z W J H S ` ` z.z./.q S A n f 7 5 = p g u u q q 7 = & & - @ @ $ ; > > 7 ",
":.:.1.1.:.1.:.<.<.>.>.>.>.>.:.1.>.1.<.:.1.<.X.^ ' X.;.1.>.:.} } +.:.:.:.1.5.;.' I :.1.:.>.>.>.>.1.7.:.5.X.:.1.<.5.1.:.1.<.1.1.1.5.1.1.5.>.:.<.:.:.X.' I V R I I ^ X.;.:.;.;.o.o.I a a ' 1.:.7.! x 1 r x ;.I r O - r ^ 5.6.7.7.5.:.} Q M I ' +.:.+.X.' ' 1.1.5.6.:.} ' X.:.5.6.8.6.8.8.8.8.8.6.8.t.6.6.t.t.6.8.t.5.:.:.X.X.[ :.5.5.5.>.$.] U s r 1 - ; 1 ; + + O O O O O + O O O X   1 Q 8.4.8.7.t.6.{ @ @ R 2.8.8.t.y.5.5.1.8.5.>.t.6.t.X.! >.t.6.6.5.5.7.t.t.8.6.1.6.t.s.8.8.u.t.8.8.s.t.t.8.1.1.t.1.+.8.t.8.1.5.6.t.1.1.8.t.6.8.8.8.5.1.8.6.t.6.t.8.u.8.t.6.t.u.8.8.8.8.u.8.u.6.t.i.u.t.t.8.8.6.8.8.t.8.5.1.+.5.5.1.1.8.1.+.} } ' ^ +.X.:.;.R Q :.;.7.} x ' ,.5.x X.[ ,.8.8.5.5.5.6.6.6.t.t.5.1.+.1.8.:.+.1.1.1.+.1.+.' Q } >.:.>.1.1.X.+.+.X.1.5.5.+.1.1.1.:.:.:.>.5.5.6.y.5.y.5.5.5.<.8.^ 1 @ : b $.&.1.6.1.2.| d b ^ E E $.8.2.$.2.2.2.2.2.1.E d > : : 3 > & $ : @ : $ : : $ @ @ @ 1 3 3 3 7 0 7 7 y g u g G z j j w j j w g q q z g = $ > < < , & # < v z H H / / / ` #.z.z.~.Z *.9.` J A u w f l f f u q t 7 > = $ @ # $ ; > 7 6 ",
"<.:.+.>.:.:.>.:.:.>.>.:.1.1.1.1.:.:.>.1.+.+.+.+.+.+.' } [ X.' U ' +.1.5.5.<.1.;.I :.1.1.1.1.>.:.:.>.:.+.^ 8.<.1.1.1.1.+.1.1.1.1.1.1.,.:.5.5.5.1.<.1.! M ' ;.:.:.5.7.t.7.<.:.;.o.' :.I r I ;.' y r - 1 } ;.:.R - + O - I :.5.+.Q b b ! >.8.:.o.+.1.,.:.>.6.7.:.:.' ' X.5.5.5.5.1.6.8.8.5.6.8.8.y.8.6.6.6.7.1.:.,.>.:.} } 5.1.:.>.5.t.,.Y I s r 1 ; - - - + + + O O O O O O - O O : s { w.8.8.7.e.5.8.I @ @ , O.8.8.8.6.5.5.5.6.5.1.u.8.t.[ } 1.8.6.t.6.5.5.t.8.t.t.5.+.6.8.s.t.t.s.t.t.8.t.8.1.:.5.8.t.>.:.5.5.5.6.8.8.8.5.6.8.8.8.8.6.6.i.t.6.6.6.6.8.u.u.8.8.6.8.8.8.8.u.8.8.i.6.t.6.6.5.8.8.t.8.6.5.5.5.6.5.5.+.X.:.X.+.+.+.+.} R } +.+.<.+.' ' :.1.;.7.} x o.5.x X.' >.5.>.8.>.[ 5.6.5.5.5.1.1.} +.8.:.} 5.1.1.^ Q X.X.^ X.+.+.X.:.8.X.Q ' } ;.+.1.:.5.>.:.+.>.5.6.6.6.6.7.8.7.8.5.,.1.1.:.v @ @ @ E 0.2.$.2.$.2.^ u } 2.} D W 2.8.1.2.2.>.2.2.^ d > : $ . : : + $ : $ : ; $ @ @ $ @ 1 0 0 3 3 3 7 7 q u g q j G z j w j w j w p w z g = : > < < = & & 0 p i m Z ` W ` ` $.z.z.~.S z.r.&.J H l f j j g q w q 6 5 5 = ; = ; ; = 2 2 2 ",
":.>.+.:.:.:.:.<.1.:.>.>.>.1.:.>.1.1.:.o.:.:.1.1.1.1.1.>.:.1.1.o.X.X.} X.o.:.:.5.I ;.:.<.<.:.:.<.;.o.X.} I ' +.,.1.7.5.;.1.1.<.1.1.:.:.5.1.1.5.1.;.R ! ;.1.1.1.5.5.5.5.7.5.1.:.X.' X.<.R 1 a x r 1 r ^ ;.7.:.:.c + r r + x c M I ;.t.7.7.1.+.:.1.1.:.1.1.1.,.<.:.X.:.5.6.1.7.6.6.5.6.7.,.,.:.X.X.X.} } } X.' ' +.:.,.5.} :.6.>.5.,.! N t t t ; ; ; - + + + O O O O O O O   O - y ~ 5.6.2.4.8.8.8.w.+.d R y O M 1.8.5.5.5.7.6.8.6.8.t.8.6.} +.5.8.6.8.8.5.6.t.6.8.i.8.:.1.8.8.8.8.8.u.t.8.1.:.1.6.8.6.u.7.:.;.1.5.8.8.t.8.6.1.1.8.6.8.6.5.5.8.6.6.8.t.t.t.8.8.8.8.8.8.8.u.8.t.6.8.6.t.5.8.8.7.5.7.8.8.t.8.7.5.>.>.:.' ! X.6.5.1.8.5.1.6.6.7.8.7.>.>.o.[ :.:.' ' M X.x R ' ' <.:.:.} o.1.8.8.5.1.:.6.X.} 5.:.} 5.X.+.} U } 5.+.o.>.>.X.+.:.} ' :.:.5.>.8.>.>.1.7.5.6.6.6.6.7.5.6.8.8.6.5.5.5.,.5.^ 8 % X > V $.2.2.2.$.$.b u D ^ E D U ] 2.2.2.&.1.$.E d > ; : n u > > ; > > 2 : ; $ - + ; > t t t 7 7 7 t 0 0 q q u l z z w j p g g j w l w & > > > > = # # 7 g > 5 g J J 9.r.r.e.9.~.#./.&.&.z j j 9 l g j w 0 q 9 < < < 5 < > & < 7 < > ",
":.>.1.:.:.>.>.1.>.1.>.1.1.:.1.:.+.X.+.:.+.:.:.1.:.>.1.1.:.1.:.:.<.1.:.;.} ' ' } I M M ! ' ! ! ! X.o.;.:.o.' I Q ' X.o.o.<.<.:.1.:.1.<.<.5.7.7.R N } 5.5.1.5.5.1.1.1.1.1.5.1.1.:.^ } :.o.a r r r ; r x ^ ' { { I r a x r + O r I ;.1.5.;.' } +.:.1.5.1.:.1.<.7.' } 6.6.6.8.8.1.6.5.;.} } o.:.5.8.6.7.5.6.6.7.5.8.5.:.>.[ ' :.;.} N x x t t 2 - - - - + O + O O O O     O 2 I ;.5.2.1.2.8.7.7.4.p.' s { 8.E : % +.5.5.1.1.8.y.i.6.8.8.u.1.X.1.6.8.8.6.8.5.5.t.7.8.8.t.5.1.6.8.t.p.u.i.8.6.>.:.6.i.s.6.8.6.5.,.1.6.8.t.t.8.8.:.1.8.6.8.1.1.1.8.t.8.8.t.t.t.y.8.8.8.8.8.8.t.u.6.6.6.5.5.+.1.:.1.5.+.o.1.1.:.+.+.+.:.+.7.:.[ >.5.8.>.:.:.1.:.>.5.7.1.1.>.' ' :.' ^ ' M x V o.' ' ' :.1.+.+.5.<.5.:.} 1.+.} +.o.:.<.} } X.X.+.5.:.} ;.;.X.X.' ' X.X.X.5.1.8.:.1.1.t.7.7.6.6.5.5.5.t.8.8.8.5.5.1.,.6.+.) r + + o y ( 6.8.1.$.( u ^ $.E ( U i R | 2.1.$.$.E d > : ; E >.n > > 2 2 1 : @ $ + + + ; 1 t t 7 6 7 t u q 0 0 6 q k l w j j p g f 7 u 7 > > > > ; ; ; $ 7 f 7 > 9 j H r.z.m...&.M..._.` / j w 6 5 z g z j q 9 5 < < < 5 u < = < < < < ",
"1.>.>.:.:.>.:.:.>.1.1.:.:.:.+.X.+.+.:.1.:.:.1.:.<.:.:.1.1.1.<.<.1.1.:.1.<.5.<.:.{ I I X.;.:.:.<.:.1.1.:.5.:.<.} ! R V I :.<.1.1.1.1.1.1.,.' I ! 1.1.:.1.5.1.1.1.1.<.5.1.:.1.<.<.:.o.X.X.s r 1 + - 1 1 r a a x x ; - I X.' x - ; r r I } } +.1.<.5.8.5.1.1.o.;.N Q X.} X.X.} +.} Q } :.5.t.t.7.6.8.5.5.8.7.5.:.,.7.6.5.>.;.} Q x r r t t t ; - + + O O O O O O     O 2 I +.7.t.7.7.7.8.8.6.8.4.1.F +.1.3.6.B   N 5.8.5.7.6.t.t.8.8.t.8.X.+.:.8.8.5.5.8.8.5.8.8.8.6.8.8.1.:.5.8.8.6.6.5.6.8.8.8.8.8.s.u.8.7.6.6.7.8.8.t.8.8.1.5.s.y.5.+.5.u.t.8.8.8.t.8.t.8.8.5.8.8.8.y.t.t.t.t.6.2.5.1.5.1.5.s.5.+.:.1.1.5.5.5.6.6.:.>.;.+.o.+.:.;.1.1.:.>.5.6.8.6.5.;.! X.:.} +.Q 2 s X.R ^ X.o.5.1.:.:.X.5.<.} >.:.+.+.:.O.} } } 1.7.:.o.7.7.+.:.' o.o.:.} :.:.t.8.t.:.1.:.5.5.6.7.5.5.5.7.8.8.8.8.6.7.,.1.8.5.O.a : @ @ + 3 D ( 1.2.6.n d ..1.( [ E t d R | 1.$.R s > : $ D >.o.! t 3 t 7 2 1 ; $ + + + ; > t 7 3 7 6 0 0 5 < 5 7 p f p p p w u u 7 7 < : 5 7 7 > = = : 7 k h q < 9 z H K 4.` ..r.m./.A A z j 9 5 z g z z w 5 0 q < 0 7 l u < , > = < ",
":.:.:.:.:.<.:.:.:.;.+.O.} } X.X.:.:.:.:.1.:.:.:.>.1.:.1.1.1.,.:.,.:.:.1.1.1.5.} ;.^ Q ! X.:.:.<.5.:.1.<.>.:.1.1.:.1.' I :.1.1.5.1.:.7.:.R U X.1.5.:.:.<.<.1.2.1.5.1.1.1.1.1.1.1.o.:.} x 1 1 : a T } ;.T I M x I a - r a I } r r I I r y x ^ o.:.;.o.} ^ N V V c I ' ! [ ' ' ! [ ' ! ^ X.1.6.8.7.8.8.6.6.5.1.5.5.:.;.5.:.' x y 3 r 2 2 7 ; - - + O O O O   O O + r I ;.5.6.t.t.7.7.8.4.7.8.8.t.1.1.5.7.7.s.} - 1 +.1.1.5.8.u.8.i.t.8.>.Q 6.+.8.6.:.1.8.8.6.t.8.8.8.8.t.5.+.:.5.5.>.,.8.6.6.t.t.8.t.8.8.8.6.7.t.8.8.8.6.8.8.1.5.t.6.:.1.6.5.1.5.5.6.8.t.t.8.8.8.8.8.8.6.t.t.8.t.8.5.5.1.6.1.:.5.5.1.5.8.8.8.7.5.>.+.1.7.>.5.;.X.! ' 5.6.5.1.>.>.5.5.1.7.' Q } o.} <.N - Q ;.} ;.{ 5.<.5.1.X.1.1.+.>.+.+.} } ;.X.} o.t.7.:.X.7.5.:.7.o.:.+.:.' +.X.6.5.8.:.5.>.5.5.5.6.6.6.5.5.5.y.t.8.6.7.5.:.<.' x 7 1 > @ $ 3 7 7 d D | Q s y ( | ( } | ..! n R ..U t : $ @ s $.+.0...s : 2 2 : ; ; ; $ + $ ; > < 7 , 7 0 0 < < < 5 q g p g u q t 6 t 7 = $ 2 7 7 2 7 > 5 7 p l g w 9 9 9 * G H &.m.~.r.w z z G g # w g w j g w j u 9 w p q 0 < < < * < ",
"[ :.>.:.:.:.:.+.+.o.o.+.+.;.:.:.1.<.:.:.:.:.<.<.:.:.:.o.} } ' Q I b x x M M M N I ' X.! M ' :.:.1.1.<.:.7.1.1.1.<.1.:.R ' 5.5.o.5.7.o.I U >.7.5.;.<.>.1.+.5.1.3.1.1.1.1.1.1.5.1.+.{ v 1 1 - d X.<.{ Q I c I x x R 1 r c x r r r ' :.} :.x r a I b c v I o.1.t.>.,.5.5.5.5.6.6.6.6.5.,.' I ' :.5.8.8.t.:.;.1.6.8.7.<.^ d r r 3 2 2 1 ; ; $ @ O           O @ t / 2.u.2.>.5.1.6.8.w.7.4.8.4.7.8.t.8.8.s.8.8.4.a @ ! 6.t.:.X.} :.>.:.:.' ! 1.1.1.1.:.:.8.5.5.5.8.8.t.8.6.5.5.6.8.t.8.6.6.6.6.6.8.t.8.8.t.8.8.t.6.t.6.t.t.6.t.:.7.8.5.6.8.6.6.t.i.8.t.t.t.t.8.t.8.t.6.8.6.t.t.t.6.5.7.6.i.y.t.1.6.6.7.8.t.t.t.t.t.t.5.8.8.8.5.5.:.X.>.[ +.5.7.5.1.>.:.[ X.;.^ M M ^ :.X.: Q X.R O.<.8.1.+.5.' o.:.+.:.+.' ^ ' X.5.} +.X.;.:.;.1.t.>.1.X.X.7.>.R +.:.8.5.t.:.:.:.6.8.5.1.6.7.,.6.t.6.7.5.5.7.<.<.{ b 3 1 : 1 3 > y 3 7 1 7 t c B 5 D o.$.1.2.2.0.$.D b n 7 : ; $ t | $.$.2.6.N 7 ; : $ - $ ; + ; ; = < < < 5 8 < < < < 7 y d h d i 7 7 2 7 7 > > 7 t t t 2 > 6 7 y w j z w 5 5 # * w @./.m.H p l k A w # 9 g H w w w G j w p f < * * 5 = 5 * ",
"' V U ' } X.+.:.<.o.:.;.:.:.:.:.:.<.1.1.<.5.<.;.' I a r - - - + + @ O @ + + + - ; ; 1 a y 1 M ' ;.:.1.<.:.5.1.>.1.1.1.} M 1.:.t.o.R ! o.1.:.5.<.+.1.<.1.1.1.2.1.&.<.&.<.1.5.$. .R y 3 : % a N V c I R [ :.;.Q I ^ ! O a I Q I I ! ! } 1.o.^ N a x X.;.7.7.:.1.1.1.1.5.5.7.5.6.6.8.5.5.y.7.o.' ' ;.,.;.,.t.7.7.7.:.^ x a r , 2 % : $ $ + O O .         @ 2 U ,.8.2.2.2.2.6.6.8.8.7.8.8.8.8.7.8.t.8.8.8.0.6.y.^ M :.6.6.5.1.>.5.6.8.5.o.+.:.6.1.+.<.:.5.:.1.5.8.8.t.8.5.5.5.6.8.8.8.8.8.6.6.6.6.8.8.t.t.8.8.8.t.6.8.8.8.t.5.1.8.5.5.6.t.6.t.t.8.8.8.8.t.t.8.t.8.8.t.8.6.t.t.t.6.6.6.8.8.8.5.6.t.6.8.8.8.t.t.8.8.8.5.8.t.8.8.5.1.1.7.5.:.+.;.>.5.1.1.;.:.:.X.' I M ' o.a ~ o.} F 1.+.7.+.$.:.+.} } 5.7.} c [ :.:.' :.:.1.1.5.:.>.1.<.o.+.:.:.' 1.>.5.5.t.:.:.:.5.5.5.5.7.1.1.6.6.6.7.1.>.:.5.;.b 2 : @ > D ( } N k 2 : 7 7 t y 1 c [ ..&.>.$.$.1.$.| U t > $ ; O D $.2.>.2.,.! s 2 $ ; + ; $ - @ = & : < < < < = , > < 0 d p d u 7 2 2 2 7 > ; 2 6 t 6 2 > 2 7 q 7 j z w e * * * 5 G ^.&.z w l k p 0 # * 0 H j j z H j q p j & & < 9 * 5 * ",
":.' ^ ' } } } } } O.o.o.+.o.+.:.:.;.:.:.:.} R x 1   + 1 r a a M I I I V M x a ; + O   O + - - - x R ;.7.>.1.1.:.1.:.1.:.x ;.:.7.U } 7.:.o.>.5.:.X.1.:.1.1.2.2.3.1.&.1.1.5.o.R b 3 2 1 X I +.N b ! X.7.7.X.' Q R ;.{ r I 7.7.,.:.[ c N ' 5.t.:.X.Q Q :.5.+.6.7.1.1.5.5.5.5.7.6.8.8.5.5.,.,.7.5.>.I I :.y.7.5.5.:.I a y i , , : % + @ . O O O O . .     u o.2.6.2.6.2.$.>.6.2.2.8.8.8.4.8.8.8.8.8.w.8.8.8.6.s.8.6.t.6.7.6.7.8.t.t.8.:.' 5.:.>.1.1.5.5.5.1.8.t.7.t.8.8.8.8.8.7.5.6.8.8.6.6.6.,.6.6.8.t.t.t.6.t.6.t.t.6.t.8.8.1.1.1.6.8.0.6.t.8.y.8.t.t.8.t.t.8.8.8.6.6.6.6.t.u.t.6.6.6.6.6.5.t.t.t.t.t.8.t.8.t.6.6.8.t.8.8.5.5.t.8.5.t.t.6.>.+.+.>.7.1.:.X.+.5.:.M N } d c $.+._ ~ O.&.5.o.;.' ' 1.X.:.V I +.;.X.^ :.6.5.:.5.:.X.:.5.} } 1.>.' 5.>.1.>.5.+.:.5.8.7.6.7.1.>.5.6.6.6.y.7.5.:.' M r - 2 y ' 5.2.&.| >.V 7 > 2 y y : $ h ^ | 2.1.1.2.>.$.+.s 2 @ $   h | $.$.1.$.,.#.M ; + + $ ; @ @ @ & & < < , , & < & & 3 y u s a 3 > ; ; > 2 2 > 1 t 6 ; > 7 6 7 5 w z j j w 9 9 * 9 r.z p q k m 5 & & < * g j m H G z p j g < * < < 5 9 < ",
"' } :.:.;.:.+.+.o.X.o.o.o.o.o.X.} ;.:.R x - O + r N Q } :.:.:.:.<.:.:.;.X.X.X.X.' I I c r - - - @ 1 c ! :.1.1.1.1.:.:.<.R I :.:.:.;.1.1.o.o.:.:.+.+.o.>.1.&.2.7.2.1. .} E b y 2 1 @ - V ' V R X.X.{ X.X.:.;.X.' ! X.I r y.;.^ { } ' X.+.1.5.:.o.} X.^ :.7.<.1.5.5.1.5.5.,.7.6.6.8.7.8.8.5.7.5.5.,.} ' X.,.1.[ M d a r 3 2 : @ X . + + . + + O     2 N >.8.0.2.u.0.8.6.>.2.6.2.6.8.8.8.8.8.w.4.7.6.8.8.8.8.7.5.8.6.6.t.t.5.t.8.8.8.o.X.6.5.1.:.+.1.5.5.1.8.8.8.8.t.8.6.8.8.6.6.6.8.8.8.y.8.8.6.6.t.8.8.8.8.t.t.6.6.t.8.t.1.^ 1.u.t.8.8.u.8.u.8.8.6.8.t.8.6.t.8.t.t.8.6.6.t.t.t.8.t.t.8.8.8.6.6.t.8.8.8.8.6.8.8.6.8.t.8.8.5.6.8.6.5.5.8.t.6.>.:.;.X.1.5.1.1.7.:.t.Q Q V d ) 2.X.{ ^ ' 1.} :.5.;.<.1.[ N ' ' } +.;.1.:.+.:.1.1.>.X.:.} } ;.;.} 5.>.:.1.:.} :.6.5.5.6.5.:.:.1.6.6.t.5.:.X.Q x r ; 3 I :.5.5.o.R ..6.2.] D h t 2 2 > ; > d ( $.2.$.$.$...u : @ $ o $ h R ] +.#.>.,.+.c ; - + $ ; $ @ @ & & < < , & & @ & > 7 y y u y > > ; > ; > > > 2 2 t t t 7 7 6 9 H H z z w e 9 9 H g Z E g u 5 * 5 9 5 0 j z ` ) j j l w 9 9 < < < 9 5 ",
"+.5.+.X.+.+.<.<.:.:.<.:.<.:.:.<.+.} V - O r V ^ X.1.:.1.1.:.:.>.<.<.:.;.o.1.1.:.:.1.7.>.X.' d % + - 1 a R ;.:.<.:.:.:.:.X.x :.:.:.7.:.1.+.[ 1.1.1.} } +.$.$.%.1. .F M s 3 : % - X @ d R R +.1.1.+.^ } 5.X.} 1.1.' I I r I Q ^ ;.6.X.X.5.5.:.>.5.+.1.o.^ ' 5.5.1.1.1.5.1.5.5.6.6.8.7.8.8.5.1.5.u.:.5.;.} X.~ M a r r 1 1 % @ % X o O X     O   @ h ] 8.q.,.8.2.2.8.8.8.8.2.,.2.6.6.0.6.8.8.8.8.8.5.6.8.6.6.6.8.t.6.t.t.6.t.6.t.t.5.[ 1.5.8.5.:.X.>.8.8.1.6.8.u.8.8.8.8.8.8.8.8.8.8.8.u.8.8.t.6.t.t.8.y.8.8.8.8.8.8.t.8.5.X.! 5.t.8.t.6.t.8.8.8.6.8.8.8.8.t.8.8.t.8.8.6.8.8.t.8.8.t.t.8.8.t.6.6.8.t.6.8.8.6.t.t.6.8.8.8.8.t.t.5.6.8.5.8.8.t.t.t.,.+.X.:.5.>.5.5.+.;.Q M y E <. .<.R F R } 7.7.;.;.:.I R } +.X.:.8.8.5.:.1.1.5.5.X.} ' X.;.o.} 1.>.:.5.+.X.>.7.1.5.5.5.;.+.1.6.8.5.' I b y 1 - r ^ 6.1.2.2.} / >.$.1.$.| ( R b > : : > > t B ^ >.2.>.6.n > @ + . : b 0 a | } ] ] 8.E 7 t 1 + ; ; @ $ @ & & > & > : @ # : < 3 3 y y 2 ; : > > ; 2 7 7 7 t p h 0 0 * 9 H Z z A j w 9 w 9 9 H _ j p i < 7 g p 6 w f | ` w q q 0 w 0 < < 5 5 < ",
"+.+.+.:.:.<.+.;.;.:.:.;.o.:.:.o.I 1 - 1 N } o.X.:.+.1.:.1.1.1.1.<.1.:.;.X.:.:.1.1.<.:.1.5.:.;.I ; - - r a I ;.:.:.:.:.:.:.x ^ 5.1.:.5.5.1.:.;.:.:.^ ~ { ) X. .} B , : @ @ - - @ @ a ~ X.1.5.5. .' ;.+.' X.+.5.5.:.M c r Q :.,.:.>.+.+.5.5.8.:.7.1.>.1.+.R ^ :.5.1.5.5.5.5.5.5.8.8.8.6.5.8.8.5.1.<.<.8.:.T x a r r 1 : : - @ @ X .         O > N o.,.8.2.2.8.2.,.2.,.,.2.,.$.$.6.8.8.8.8.8.4.8.4.1.1.8.8.6.6.t.6.5.t.6.7.t.t.t.t.:.+.d.i.8.1.5.6.1.1.5.5.8.6.6.8.t.t.t.8.8.t.t.8.y.6.8.8.t.t.t.6.8.t.6.8.8.8.8.8.7.t.5.o.>.5.t.8.t.8.7.t.8.8.8.8.6.6.8.8.8.8.8.6.8.t.8.6.6.8.8.8.t.8.8.8.t.8.t.6.t.t.8.6.t.6.t.6.8.8.t.6.7.6.t.6.7.8.8.8.6.6.5.t.i.>.:.>.>.5.7.5.t.:.o.r R R | ) ^ d Q Q <.t.:.o.M R o.;.} :.1.8.8.1.+.5.5.1.1.:.+.R ' :.:.} 7.5.1.5.:.+.5.8.5.5.6.5.+.:.1.6.6.:.R a r r r I ;.5.>.,.>.6.^ #.,.2.1.5.5.+.} | R d ; : 3 7 7 5 s ^ | } b > $ $ $ 1 ] +.G b ^ } ^ E ^ D N c 7 2 > ; # @ $ & & : > & o @ : > > 3 3 7 7 5 : > > > ; t 7 7 t s h u q 5 w H z z H H j w H 9 * 4 p l / H & 5 w m m u h l G 0 q < < q q < = 5 5 < ",
"X.o.:.<.+.O.+.:.:.:.:.:.:.X.Q y - - d ' X.X.o.X.:.+.1.>.>.>.:.1.<.:.;.+.;.1.:.1.1.>.1.1.1.:.:.:.^ M - - r a c ' } ' ' +.8.X.x ' <.:.X.' Q N y M x r a c y s v s 2 : , X X O @ , a R <.1.1.+.X.+.1.+.' [ 1.1.<.<.' ^ R - ' <.<.5.1.+.:.5.5.:.+.8.1.8.1.1.5.} ! 5.5.5.5.5.5.5.5.8.6.8.6.8.2.7.7.7.t.:.' I x r r 1 1 : - @ @ X X X       . O u ^ ,.6.2.2.,.9.,.8.8.,.$.q.5.6.>.[ 2.8.8.8.8.6.8.7.t.5.+.1.8.6.t.t.6.6.6.8.6.t.u.t.6.} 5.6.t.t.5.:.8.5.} X.:.6.t.8.8.8.t.8.t.t.8.8.t.8.8.t.8.t.6.t.8.8.t.t.8.6.6.8.7.i.:.o.:.t.6.6.t.6.8.t.8.8.t.8.6.8.8.8.t.8.8.8.y.8.8.6.6.6.8.8.8.8.8.y.6.6.t.6.t.6.6.6.t.8.t.8.t.8.6.8.8.8.8.6.8.8.8.6.t.8.8.8.8.8.5.1.:.X.:.t.7.7.5.5.y ~ V m } E ^ } ^ ;.<.{ R x ' 1.5.:.8.1.5.5.<.:.5.1.:.:.<.6.[ Q :.+.o.t.6.1.:.X.X.6.6.6.5.5.+.o.>.1.5.1.>.' x x R X.1.7.1.1.1.>.X.^ ,.>.>.1.2.6.5.X.E _ ( h 1 3 y t > 1 7 3 7 t > $ @ @ $ V 0.6.$.E b D D E ! D +.( s ; : & @ @ $ & > 3 : @ & & : 3 > 3 t t t 2 > 2 ; ; 6 t 7 2 u u h k p w A A z J / J z ` j * < < g *.( # 0 h / | q 7 > 5 9 < < & < 5 < 5 > > = ",
":.;.+.+.;.+.:.:.o.;.<.o.! x - - a R :.1.:.' X.:.<.:.:.:.>.>.1.1.1.:.o.:.:.1.1.>.>.>.1.>.:.:.:.<.7.X.a - + - r b } ;.;.<.+.:.' r r 1 r d N I N I } ' } ~ M v 8 : % X   : 3 3 s ~ } { } ^ E X.+.5.+.R ' 5.8.1.;.^ I <.M + c 5.<.5.1.+.:.8.5.+.+.t.5.7.5.1.6.5.^ 5.5.5.5.6.6.6.6.5.6.6.6.8.5.7.8.7.+.^ b a 1 r 1 1 : - - X X             : b o.2.2.0.2.,.2.8.8.2.8.>.X.2.2.2.+.| $.1.6.8.4.7.p.1.t.w.2.5.5.>.>.6.7.8.t.t.t.t.t.t.6.+.6.6.6.t.8.>.1.8.:.>.>.>.6.8.8.8.8.8.8.8.8.8.8.u.6.y.8.8.t.6.8.u.8.8.8.8.8.:.t.>.X.6.t.8.1.1.1.>.6.8.8.8.8.8.8.6.8.8.8.6.y.8.8.8.t.8.6.6.6.t.y.8.u.8.8.t.8.8.6.6.t.t.6.t.6.t.8.8.t.t.6.8.8.8.8.8.8.8.6.8.8.8.6.6.1.5.1.' [ 6.1.8.7.5.s b +.) B R } +.X.M :.[ M o.X.:.:.X.+.8.8.5.:.X.+.1.1.5.6.6.>.Q X.' } 7.5.7.:.} +.5.8.8.1.>.:.1.:.>.5.5.>.:.X.;.:.:.1.1.5.,.>.5.] +.6.,.,.2.+.| ] ! ] $.>.( t $ y 7 1 > > : > > 1 > $ $ + u $.1.6.,.>.x t U U c +.>.$.t : @ : 1 : 3 > 3 > @ @ & 1 > > 3 y t t t > ; > = > 7 t 7 7 u p l z w z H H H ` r./ #.H q 9 5 p &.E = 0 k &.0.7 # & & < < = & = < < 5 & > $ ",
":.:.+.o.;.:.;.;.:.X.I x ; - a R ;.:.<.1.1.^ X.:.:.:.:.:.:.1.1.1.<.:.:.:.1.1.,.1.1.,.1.1.>.:.o.X.^ X.;.^ a - - - a R :.5.:.! M N ^ } o.+.o.O.o.! R I R I a r , % % X 3 F Q T } +.^ E ^ | %.1.<.o.' ' 1.:.+.X.:.:.{ 5.I - a 5.5.5.1.:.1.5.5.:.:.6.1.5.5.5.1.5.+.+.5.5.5.8.5.7.8.8.5.5.5.6.7.5.$.} I x y 3 - 1 - - - + @ X O         . 2 R >.8.2.2.6.5.2.6.6.2.2.8.2.2.>.2.8.>.,.$.&.5.6.4.t.7.2.4.8.8.6.2.:.,.8.6.8.8.6.t.8.t.t.,.+.7.6.8.6.7.8.1.6.1.8.5.1.6.6.8.8.6.8.8.8.8.8.8.6.8.8.t.8.8.8.t.8.t.6.t.6.5.1.} ' >.7.1.:.X.:.5.5.5.8.8.t.t.t.6.8.6.8.8.6.t.8.t.y.6.8.8.6.8.8.8.8.y.8.8.u.8.6.t.t.t.8.8.8.8.8.6.y.6.8.8.8.6.8.8.t.6.6.6.8.8.6.5.1.5.1.5.1.:.+.X.5.5.1.b d o.O.V E ~ X.{ ! ! M ' <.X.;.1.;.+.5.:.:.} I 1.5.8.8.8.6.5.! X.U X.5.1.5.+.X.:.7.8.8.1.+.:.8.:.,.5.1.1.1.:.o.X.o.;.:.5.1.1.1.E X.>.>.>.#.>.>.o.! R U D ^ ( D p > ; > > : > > > 1 : $ $ : } &.1.$.+.$.U 7 s s b [ o.$.s : o : : ; < 2 3 $ @ $ : 1 3 3 y t 7 t 7 > 1 6 ; $ 6 t 7 u 0 p m j j H j j G r./ &.` z l q k ..m = p k #.$.2 = $ = 5 5 : & & = & > & & # ",
"+.+.+.<.;.:.<.<.! a + - a I O.;.:.:.:.1.:.Q X.:.+.:.:.>.>.>.1.:.:.1.1.1.:.>.>.1.:.1.:.:.1.:.:.;.X.Q ' <.T r - 1 - r b N b I ;.:.:.:.;.<.5.;.' I M s Q X.M r , @ X @ b E R } $.^ R ^ } } | 1.1.X.+.1.:.7.5.1.:.:.;.:.R O I <.y.<.+.+.1.6.5.7.5.1.5.5.6.8.6.5.o.o.1.5.5.5.5.5.5.6.5.6.8.4.1.X.~ M s 3 : 1 : % - - - @ @ O   X       u ] 8.q.8.8.8.8.0.2.2.>.2.8.2.2.6.>.,.q.8.8.6.2.1.2.6.8.5.7.8.6.8.w.8.>.5.t.6.t.8.8.8.t.6.8.:.:.7.6.t.6.8.t.8.5.:.1.5.6.8.8.8.6.t.6.t.8.8.8.8.8.8.t.8.6.t.6.y.8.6.6.t.7.:.X.' +.5.>.5.:.:.>.5.5.6.t.t.6.6.6.6.6.8.y.8.t.8.8.8.8.t.t.6.8.8.8.8.8.8.6.u.8.8.t.u.t.8.8.8.8.6.8.t.6.8.8.8.8.y.8.8.8.6.t.6.8.8.6.5.5.8.t.6.8.t.:.o.} X.<.V a O.B m  .N R Q M M ! 1.' } } :.1.:.<.} R ' :.1.5.5.5.7.1.t.} X.[ o.6.5.:.X.+.:.:.1.1.1.+.:.7.>.5.5.5.6.5.1.+.X.<.<.:.1.>.>.>.Q +.,.,.2.,.} ! U N ( 2.1.2.8.$.} b 1 : ; $ : : : > > ; > $ k ( } $.u.$.,.[ d ; t c | ( o.b : : > : : > > ; @ $ : > 3 3 3 u t t t > > ; ; ; ; > 7 u 0 q z z w z * 5 j / W -...` ..G W H p < m m V f = > $ = > : # & & = & : & < 5 ",
":.:.<.:.;.X.R a ; ; a I X.<.:.;.+.:.:.:.:.' +.:.+.>.>.>.:.>.:.<.1.:.<.:.1.1.1.1.1.1.1.1.>.:.:.:.7.;.' ;.;.X.x - + ; - O r ^ <.5.<.:.;.X.' R R ' :.Q V b 2 % X   X b X.} ~ Q ~ R ) +.1.<.1.5.O.o.1.1.1.:.:.:.7.<.:.o.' 1 a { :.:.+.:.1.7.1.5.8.5.5.5.5.5.5.6.5.} 1.1.1.5.1.1.5.5.6.5.6.1._ N d r 2 1 : : 1 - - + @ O X O       @ s o.,.2.2.6.8.6.2.5.2.2.,.2.6.6.8.8.>.>.8.>.2.2.1.o.$.7.6.4.8.8.6.8.8.8.:.5.t.8.6.8.6.t.8.8.6.:.1.8.t.8.8.8.8.8.8.1.:.5.8.6.8.8.6.8.6.8.8.8.8.8.8.8.8.8.t.8.8.8.t.t.6.t.:.[ [ 7.5.6.6.t.8.7.1.:.:.>.5.7.6.5.6.6.8.8.6.8.8.t.t.8.8.8.6.8.8.8.6.8.8.6.u.8.8.t.6.8.8.t.8.8.8.8.8.8.8.8.6.6.8.8.8.8.8.t.8.8.8.8.6.7.5.8.6.5.>.1.>.>.' :.5.T 3 B V X.E  .V V Q M { 5.} 1.R { 1.5.} +.:.+.>.:.1.1.5.5.1.7.:.' ' :.5.5.:.+.:.:.1.5.>.+.:.>.:.1.>.6.5.5.1.<.:.} 1.1.5.1.1.>.] U ^ } X.:.] ! ^ [ >.1.1.2.&.$.1.6.$.E h 3 > : ; > > 2 2 ; > 7 V 1.2.>.o.$.2.+.D c t n ^ ( ! y @ @ $ : : : $ $ $ : 3 t 3 > 7 u t t t 7 > 1 > ; ; > 3 0 w k j 5 9 * * < j #.m.W ..r.*.*.w 9 5 W h < = ; ; = : 5 5 : > = < & > # > 6 ",
"o.:.1.} I r + 1 a Q o.:.<.:.:.X.} +.<.;.:.^ :.>.:.>.1.1.1.1.:.1.:.1.:.1.:.1.<.:.:.1.1.:.:.1.5.1.<.;.Q ^ { ' I s 1 + + @ - 1 x ^ <.o.Q ^ ' :.5.:.o.' M r :   @ X : R +.R R  .o.1.O.X.$.+.1.} X.1.7.1.1.1.:.1.1.;.:.} ;.N I b ! ;.8.6.:.+.:.6.8.5.1.5.5.1.5.5.5.X.:.1.1.5.5.5.5.5.8.5.O.! M u 8 2 1 : : - O O X   @ O X       % V ,.6.2.5.6.6.6.6.6.6.6.6.6.5.2.6.8.8.2.$.$.,.2.6.&.X.+.7.7.6.t.8.8.6.8.8.:.5.t.8.t.7.6.t.t.t.8.+.t.6.t.6.8.8.8.8.8.1.+.:.y.5.i.6.t.6.8.8.8.8.6.8.8.8.8.8.6.t.t.6.6.t.8.5.' X.5.6.t.8.8.8.t.t.8.6.5.>.5.6.t.6.5.6.i.8.6.6.8.t.8.8.6.8.u.6.8.8.5.8.6.i.6.6.i.6.8.8.6.6.8.8.8.8.8.8.8.8.y.8.8.8.8.8.8.8.8.8.8.8.8.6.6.5.5.5.5.5.7.1.o.} X.Q @ N R ^ R ^ +.} b ! ;.{ +.<.+.;.+.X.O.;.:.' :.7.1.1.1.+.+.:.:.! I >.7.:.1.5.>.;.5.8.>.+.>.6.>.:.:.:.1.5.1.5.;.} <.5.1.5.,.:.' +.>.+.:.6.' ;.>.o.+.1.&.1.2.1.1.2.2.1.+.V 7 1 > ; $ : 3 > 3 > 1 s | 1.2.6.,.] ( ^ U c t U +.( y $ + ; $ ; $ : $ : 3 7 7 3 > t t t t t t 6 2 ; ; > & 8 y w w 5 * & & # p 4.m.G %.m.m.O.i < u E 0 $ ; $ $ : : > > > : & : < & $ > u ",
"o.^ d : @ ; d ^ } } :.:.:.:.<.:.o.X.:.;.+.' <.:.<.:.:.<.:.1.:.1.>.>.1.:.<.1.1.:.:.:.:.>.1.:.:.1.:.:.~ c V R ' [ ! b r + O O - 1 s x T ;.<.<.:.:.<.^ x 1 % @ X @ m  .| R { 6.1.+.1.1.+.<.o.O.1.1.1.1.5.1.1.5.>.X.+.:.:.M :.x X.:.:.5.5.1.:.1.1.1.5.5.5.5.5.6.6.o.! +.8.:.7.5.5.<.<.} T b a , , : : % % % X   X o X   O     1 ^ 8.t.6.7.5.6.6.8.8.6.8.5.5.>.:.+.+.+.o.:.:.+.+.:.:.s.8.;.6.t.6.6.t.6.6.8.5.:.8.8.8.t.6.8.8.7.6.:.;.s.8.t.8.8.8.8.8.t.6.>.:.t.5.t.8.t.8.8.8.6.y.8.8.8.6.6.t.6.8.t.t.6.t.t.! [ 1.7.8.t.8.6.t.t.t.7.6.6.6.t.8.6.5.5.5.6.t.8.8.t.8.8.8.8.8.8.6.7.6.1.t.6.t.8.6.8.8.t.8.8.8.8.8.8.6.8.8.t.8.8.t.6.6.6.8.6.t.8.8.8.8.8.6.6.6.6.5.5.6.6.5.7.;.X.Q ; M o.<.} I ' ^ R M } ;.1.:.o.^ } 5.<.o.5.X.} 5.<.1.5.1.:.;.:.' V 6.1.:.<.5.1.+.5.1.<.1.1.5.5.<.<.+.:.1.1.:.X.' o.:.5.<.;.>.} ;.:.:.X.} o.:.o.:.1.<.&.1.1.1.1.&.<.1.1.+.E s > 1 > : 2 > 3 > $ $ s ] 2.,.+.} >.2.} E N 1 c [ ] a . + @ : $ @ : : 3 y q 2 > 3 y t 7 t t t 7 > : : @ < 0 0 q 5 : & = & f $...W 9.e.e.D u p h D > o $ $ : = : : > : : : < , & & 7 f ",
"a @ : r c } :.:.^ X.:.:.:.:.:.:.o.} ;.:.o.^ <.+.1.:.:.:.X.:.;.1.>.>.:.1.,.:.<.,.1.1.1.:.+.1.<.o.X.R M I } } { ! ' <.:.I 1 O + + - 1 a I } ;.5.5.:.I r : @ @ @ v } ^ ! O.+.&.1.6.1.2.1.) o.1.5.1.5.5.1.1.5.1.o.} +.5.' b ;.N +.<.:.+.:.1.1.1.5.5.5.1.5.5.7.5.6.>.} X.5.8.5.7.7.o.Q N d y , : % % % % @ X X         @   @ 1 ^ p.1.6.6.7.6.6.6.8.8.6.6.6.8.6.5.>.5.5.5.1.8.8.8.5.<.:.:.:.5.5.5.6.6.6.6.5.5.1.8.t.6.6.6.6.7.5.6.o.:.t.8.8.8.8.8.t.8.6.t.6.:.:.5.6.8.6.8.8.8.8.6.8.8.8.t.6.6.8.t.6.6.6.t.+.Q 1.8.6.t.t.t.t.8.6.6.5.5.6.6.6.6.6.7.5.5.5.6.8.6.t.8.8.8.6.8.8.6.5.7.1.1.8.6.6.t.6.t.6.6.8.8.8.8.8.y.8.8.8.8.8.6.6.8.7.t.6.6.8.8.8.8.6.8.8.6.6.7.5.5.6.5.7.,.:.[ r x X.o.:.o.I X.o.x M ! ;.<.} R { <.7.;.5.o.} <.5.5.5.5.5.:.5.:.I 1.;.:.:.5.1.+.:.1.:.:.1.1.1.;.1.:.:.5.5.:.X.+.:.+.X.;.1.:.} 1.X.X.} ' :.o.;.5.:.1.1.1.1.1.1.1.<.+.:.&.+.| D y : > 2 2 2 1 1 > @ 7 N ] 2.2.2.o.] ] U b 1 2 U V 3 ; $ : $ @ ; : : : t 7 7 3 y u t y t t t 3 > $ & & < 0 7 7 5 # & < s S h } m.$.( q g J E / 5 $ = ; & ; > > > : : > & > & < 7 f ",
"@ s R o.<.<.;.O.^ o.1.:.>.:.:.>.:.} ' ' ;.R <.1.<.;.:.:.X.:.:.:.>.1.>.:.:.1.<.:.:.:.1.1.1.X.Q Q ! I ^ ' ^ ^ o.<.7.:.[ Q I x - O + + - - a I { <.Q r - + @ % 1 E } } 5.1.X.$.5.6.1.1.| X.2.1.1.5.5.1.5.5.6.1.+.+.+.Q Q Q M R ;.<.>.:.+.;.1.1.5.8.5.1.1.5.5.1.1.+.7.} X.8.1.1. .Q c d s 8 1 % @ @ @ @ X     X     X     @ ' 7.<.t.5.6.6.6.6.6.8.8.8.5.8.8.5.5.1.7.8.8.1.5.5.1.5.8.;.' X.:.5.5.5.6.6.7.7.5.5.8.6.7.7.6.8.5.5.6.>.:.5.8.8.8.8.8.7.6.8.8.y.>.X.>.t.8.6.t.8.6.8.6.8.8.8.8.8.6.8.t.t.6.t.o.! ,.6.6.6.t.6.8.t.6.8.6.7.6.7.7.6.8.6.8.8.8.6.5.5.5.t.8.8.5.6.8.6.6.6.1.:.} 5.6.7.t.t.t.6.8.6.8.8.8.8.8.8.8.8.8.6.8.8.6.8.6.6.6.6.8.8.6.8.y.6.6.5.5.5.5.5.5.5.1.7.5.N a ' Q ^ ' I X.7.o.x { ' ! } o.Q ' o.o.5.:.:.o.5.5.1.5.7.X.5.8.R :.;.1.1.5.1.;.+.:.:.:.t.1.+.} 1.1.:.1.5.:.X.1.<.1.:.o.' } ' :.^ Q } 1.1.+.:.1.:.5.1.5.1.1.&.<.+.1.1.<.>.2.2.| c 2 > 7 2 > 1 2 ; + ; b | 5.1.2.+.} | D R M 1 2 b 1 : 3 d 1 o : : ; 2 7 t 2 y d u s t 3 y u 7 $ : < & 3 0 u 5 $ > > 6 s q G z.2.D u A | ` D 7 = & & ; : > 1 > > > : & & & < i p ",
") +.+.<.:.:.:.:.R ' 1.:.>.:.:.:.:.:.o.} R V ' :.<.:.:.:.X.:.1.1.>.:.>.>.1.:.:.:.1.:.:.X.' ' o.+.! I ' ;.+.:.;.X.} ' ' } :.;.' I a - + - - + 1 s a r ; - @ @ v ) ..O.O.1.$.O.<.4.+._ O.+.1.1.7.2.1.1.5.5.1.:.:.o.' ^ <.:.a R 7.1.:.5.5.:.+.X.X.:.1.1.1.5.5.1.1.1.5.1.:.:.:.^ M x d a y , & @ o @ @ X   X     X X   X 8 T o.5.1.5.5.6.6.8.8.6.6.6.8.8.8.8.5.7.6.6.8.8.5.5.1.:.1.5.1.} ! +.>.5.5.7.8.4.5.1.5.6.6.6.t.8.5.8.8.5.6.5.1.5.8.8.8.8.8.8.8.8.8.6.+.5.t.6.8.6.6.y.8.8.6.6.8.8.6.6.7.t.t.6.:.! :.t.5.t.6.6.8.t.6.t.t.6.5.5.5.t.8.8.6.8.6.t.t.5.1.,.5.8.t.8.6.t.6.6.6.5.5.X.:.7.6.5.t.7.8.6.6.6.8.8.8.8.8.8.8.8.6.8.6.6.6.6.6.8.8.6.6.6.8.6.8.6.6.6.5.7.6.8.6.5.1.1.' r [ t.{ R I I } ;.x :.;.' ' X.Q ! ' ! <.;.o.} o.5.5.8.6.! >.6.' 1.5.5.7.1.1.1.;.} } +.+.:.o.} 1.5.1.:.5.;.} 5.1.5.1.1.:.} } o.' } +.1.7.<.;.1.1.5.1.5.3.1.<.1.&.+.1.+.>.2.2.>...U u 2 > 7 t 7 : : ; 2 t U >.1.&.1.} [ } ] D c d 7 & 1 D E 7 $ $ : > 2 7 1 t u y u y 7 t p y : < 3 @ & < 7 7 > = & > > 7 0 ( | D A E &.$.n : $ # $ ; = > 3 1 > > > & & & 0 h 7 ",
"O.1.+.:.;.o.o.:.! I ;.:.:.:.:.X.X.:.X.} } ' N ' +.<.:.:.} <.:.:.>.>.>.>.:.:.<.:.o.' R ' X.X.X.I R ' ;.;.<.{ Q I Q } :.7.:.<.5.1.;.^ : O - - - - + 1 1 + + r E ^ O.+.O.&.+.+.O.o.E O.<.1.5.1.1.5.5.5.>.5.1.:.>.' ! 1.6.;.b :.5.5.1.5.1.5.:.1.5.5.5.5.1.5.6.5.1.1.1.1.1._ T x d y 3 3 2 : % @ X @ X X X X   X X   @ M :.:.X.:.8.5.5.7.6.6.6.6.7.6.6.y.8.8.5.5.6.6.8.8.1.5.8.8.8.8.1.1.5.o.' t.7.6.8.5.1.5.5.5.7.6.t.8.5.6.8.:.6.8.:.1.5.t.8.8.8.8.t.t.5.t.>.5.6.t.8.8.8.8.8.8.8.y.8.8.8.8.6.t.8.7.} ;.t.6.8.8.7.6.6.8.t.6.6.6.5.>.5.6.6.6.8.8.8.6.6.t.6.1.;.5.6.6.t.t.5.>.1.:.1.1.;.1.8.8.8.8.8.6.6.6.6.6.y.6.8.8.8.8.8.7.6.6.8.6.7.7.6.6.8.8.8.8.8.8.6.6.6.6.7.6.1.1.1.t.o.2 I 7.:.:.o.Q d M x I ' 5.t.:.^ ! :.} X.X.+.;.' 1.7.5.5.I 5.5.' ' t.5.7.<.:.1.} X.+.o.+.X.+.X.:.1.1.1.1.} ' 1.:.5.<.X.' ' Q X.1.1.o.:.;.{ 1.5.1.5.5.5.1.1.1.;.:.5.1.:.1.2.1.2.2.$.] x 2 t t t 2 ; 2 2 2 t b X.1.1.&.} ^ o.! B ] d < $ 3 ( W d : : $ > 3 7 t y a y y u 7 u u 1 > 7 > & $ > u 7 ; = > & > > q u n #.| ( | n 5 > ; @ = > 3 3 3 < < : & & = t f > ",
"&.+.<.<.:.X.;.:.:.! +.<.1.:.+.} } } X.+.o.:.:.' R Q ^ } ' ' X.:.+.+.} X.X.{ ' I V I } ;.X.! ' Q { X.;.{ Q I Q X.:.:.1.:.<.:.:.1.<.<.R - - 1 1 1 - - @ + r <.+.F 1.%.+.+.+.&.} V ^ %.+.&.1.1.5.1.1.5.5.>.:.:.^ ' 5.1.t.o.r 5.1.1.5.5.5.6.1.5.5.5.6.8.8.6.1.+.+.+.1.+.~ M d a a y r 1 1 % @ X X X X   X         % T 4.8.7.:.+.:.1.6.5.6.6.8.6.6.8.6.5.8.8.5.6.6.6.5.8.5.+.5.5.5.8.1.1.:.1.} [ 5.7.8.1.>.6.7.5.6.6.8.5.5.5.5.1.>.8.t.1.:.>.5.8.5.8.6.8.6.t.:.7.t.6.8.t.8.8.8.6.8.8.8.8.8.8.5.t.6.:.' 5.8.5.8.8.t.8.8.8.6.6.,.:.+.:.5.7.1.>.t.8.7.8.t.6.6.6.5.:.5.1.>.6.6.5.7.t.5.>.:.+.:.8.8.6.8.8.5.6.u.6.,.t.6.8.6.6.5.8.8.7.5.6.5.t.6.1.,.8.8.7.t.8.1.+.} X.+.>.1.7.t.t.5.a s <.:.<.5.:.Q M s M t.X.1.o.} R ;.;.} R X.1.o.X.7.5.5.I 5.>.X.R >.1.8.+.5.:.' +.+.<.+.o.1.1.<.<.:.:.1.{ } ^ 1.:.1.o.R ' <.5.5.1.1.;.;.:.1.1.1.1.,.1.5.1.1.1.1.1.5.5.,.2.>.$.$.>.,.$.^ s 2 7 2 2 > 2 7 2 > 7 N ] >.6.} E E U b h : $ o 3 u c u > ; : > < 3 y a 0 0 y y 7 u 0 , 3 u 7 > $ 5 u 7 $ ; = $ : > 7 p $.&.l n 6 > ; ; $ ; > 3 1 : : : @ & @ ; 7 t > ",
":.+.:.} <.X.{ :.:.' o.+.+.+.O.} ^ X.<.:.<.+.:.:.:.+.o.o.^ I X.' ' } ' Q Q I R ! } ! ' X.X.<.I } :.{ ! I R ;.:.5.:.:.:.1.:.:.:.:.;.O.;.I 1 - r 1 - + - 1 I <.<.)  .$.2.+.5.o.R W $.1.1.1.1.+.1.5.5.1.1.7.+.^ } 1.5.,.1.! b :.1.1.5.5.6.7.5.7.5.5.7.6.8.5.+.o.X.>.} G d a y 3 2 2 : : % % o X X       X X     : R 5.4.4.t.8.:.:.<.>.5.5.5.6.6.6.6.6.6.8.5.5.6.6.6.7.8.5.:.:.5.8.5.1.5.1.;.} ' o.t.1.1.1.5.5.6.6.6.5.5.:.7.1.:.8.5.6.5.:.;.,.5.5.y.t.6.t.6.:.5.t.6.8.t.8.8.6.6.8.8.8.8.8.t.7.5.:.^ <.6.6.6.8.8.8.8.8.8.6.6.>.+.+.:.+.} 5.6.6.6.5.8.6.6.6.8.t.5.1.:.5.>.1.1.:.:.,.7.7.1.o.} 1.8.8.8.t.6.6.5.6.i.8.6.5.6.5.8.6.5.6.1.5.6.,.:.:.:.5.8.1.+.+.+.>.:.X.! ' ;.7.6.t.c r 1.:.1.5.5.+.' I s R M I I ! { X.{ 1.X.M } 8.+.:.5.1.V 5.7.;.' 1.5.7.5.} } ' 5.8.+.} >.1.1.5.5.1.5.<.^ o.} 1.:.X.' } o.X.5.8.1.:.+.1.1.5.1.1.1.5.1.1.1.1.1.1.5.5.5.2.6.,.>.$.+.+.>.>.} N 2 t ; ; 2 t 2 ; - ; y U ;.>.| ( ( W m > @ . > $ > t 7 > > 3 3 3 y y 3 < 0 0 3 0 u y 3 , y d 7 ; 7 t 6 ; $ $ $ : 7 q m A p n > # - # # ; 5 , > : & & : & & : 5 5 # ",
"+.<.+.o.+.o.X.} +.} ' X.+.X.+.o.o.} X.:.+.;.;.:.;.o.:.:.:.! ;.:.} } ' } X.o.o.o.} ' o.:.:.} ~ ;.^ I ! ! X.5.:.<.1.1.1.1.:.:.:.X. .;.<.^ 1 - 1 - + - - x  .;.<.%.^ | 1.2.<.~ ~ 1.1.1.1.1.1.$.5.6.1.>.>.X.^ :.8.1.1.:.7.U ' +.>.1.5.6.5.5.6.5.5.5.5.5.5.>.+.o.} R N v d i y , % % @ X X X   X X   X X X   X , R 4.1.6.6.5.8.1.:.1.1.1.>.5.5.7.5.5.6.6.6.>.5.5.6.8.6.8.8.1.:.1.7.5.:.8.1.+.:.[ U ' +.1.5.5.5.5.6.5.5.5.:.8.:.1.5.1.5.8.5.1.7.5.6.6.6.6.6.6.+.5.6.6.8.8.8.8.6.6.y.8.8.6.6.t.1.1.! :.6.8.6.8.8.8.8.8.8.8.t.6.>.+.5.6.1.X.o.:.1.5.8.6.5.8.t.t.8.5.5.:.i.7.6.t.5.5.>.:.+.1.6.:.X.X.1.5.5.5.6.6.5.,.,.,.5.5.6.5.5.6.5.>.,.:.o.:.>.:.;.:.;.+.5.6.5.5.7.5.+.' ! X.:.R r X.;.5.<.t.5.<.;.M r ^ o.<.:.! } ;.! ' } R } ' :.6.>.M 5.7.o.' } :.:.} ' } +.5.1.X.1.7.:.1.5.5.5.5.5.} 1.;.o.<.X.' :.+.o.+.5.:.o.5.1.1.1.1.5.1.1.,.1.1.1.1.1.1.1.1.,.2.>.,.,.>.$.+.+.:.o.] s t 2 ; 2 7 2 2 ; ; ; Y ..,.$.o.( ^ u > o > > : 3 3 s y 3 , : 3 < : & , < 3 7 a h u ; > u d 7 > ; 7 7 5 & + $ 5 > > < 7 S t @ $ ; $ ; ; : > : @ & < & & > > : ; ",
"1.&.O.X.:.+.+.X.' I I [ o.X.>.1.;.{ ^ ' { +.;.+.+.+.:.o.<.! ' { R R Q ' } { ! ! ;.:.1.+.:.I ^ Q } } X.' +.5.5.1.1.:.;.:.:.:.:.X.;.;.<.~ 1 - - - -   3 } 1.1.1.+.) E O.{ R | O.o.1.1.1.5.1.1.1.1.t.>.} ' :.8.5.5.7.:.,.Q [ ;.>.5.6.5.5.5.5.5.6.5.5.5.5.>.>.} U d i y y 3 , 1 : @ @ X     X X X X   X   X d _ &.1.1.3.6.2.4.5.:.<.1.1.5.5.5.1.5.5.8.8.6.:.5.5.5.8.6.5.5.5.5.:.1.5.:.5.:.:.1.5.} Q 8.5.8.5.1.5.5.6.1.5.>.1.' :.1.5.5.5.8.6.8.8.6.8.8.5.8.5.X.5.5.6.8.8.6.6.6.8.8.8.8.6.t.t.6.^ :.>.,.8.6.6.8.8.8.6.8.8.t.7.;.o.:.:.:.>.1.:.+.+.>.;.+.1.5.<.5.5.5.:.t.6.8.6.6.8.8.5.1.o.:.7.5.>.+.+.>.:.[ o.:.X.[ X.>.5.5.,.1.7.7.y.+.! :.7.8.8.+.[ :.1.8.t.8.5.5.5.8.7.;.' ' V : Q :.5.8.8.+.X.X.V r 1.:.:.>.X.I o.+.' ' } ' } ' ;.+.N 1.7.:.' X.' X.^ :.X.:.1.:.:.:.:.:.1.5.1.5.5.7.[ 1.1.} ;.;.' :.5.! o.;.:.1.5.1.1.1.5.,.5.1.1.7.1.5.1.5.1.5.1.,.,.,.5.5.>.+.X.X.;.,.,.o.D u 2 1 2 2 : ; : : : y N ..8.1._ u & & < u > b ^ | ..} h > > 7 7 & & & 3 3 0 h b 3 : 7 t f y 5 5 7 t $ $ $ : & > & & f t & $ $ $ $ $ > 3 > ; : , & : < < & > ",
"+.+.} ! X.X.} +.! ' X.} +.1.1.1.1.1.X.Q x V R I R I V R M I c N M R I I ' ' :.1.<.o.;.o.M V ^ ;.7.;.Q Q <.:.;.1.1.;.X.o.<.:.o.o.;.;. .N r - - - - @ R 7.&.&.1.1.$. .E V X.o.^ 5.1.3.1.3.1.&.7.5.} ' o.5.7.:.1.1.:.1.' ' [ +.1.5.5.5.5.5.5.5.5.5.,.1.>.;.] N a t 3 , : : % % % @ o X X           o X @ d X.w.1.+.1.1.2.6.t.7.<.o.1.>.1.5.5.1.5.6.6.8.5.+.7.5.5.8.5.5.5.6.5.1.1.o.X.:.+.:.1.5.>.I 1.<.>.5.<.1.5.5.:.X.:.:.} <.<.5.6.5.6.5.5.7.5.8.8.5.8.5.X.5.5.6.8.8.6.6.6.8.8.8.8.8.t.t.:.^ 6.:.1.t.8.6.8.8.8.6.6.y.t.1.} +.:.:.1.6.s.u.>.:.6.6.5.5.1.:.+.+.1.+.>.6.t.8.8.5.8.8.t.8.:.:.:.:.;.' U ! ' +.+.+.:.:.! ' [ [ } X.' ' I ! 8.>.>.>.;.:.5.6.5.>.:.:.>.1.+.>.6.6.1.' 2 M :.X.} +.+.>.>.N + ! 6.t.1.7.! ^ :.} ! I } ' Q ^ ! M :.1.:.' 1.} o.:.:.} 7.+.:.<.:.;.1.1.5.5.5.5.1.' >.t.o.} { } :.7.! ! 1.5.:.8.5.5.5.5.5.5.5.5.1.5.5.5.1.5.1.5.1.5.5.,.,.>.>.+.>.>.>.$.2.>.^ s 7 2 2 : : : ; > : t B _ &.| k 0 & o , 1 3 > B ! | | N > 3 b q : & , y 7 y d y - : 7 t p t t 7 p 7 $ $ = # # # & t 7 $ $ $ : $ $ ; 2 > : & , > = > > > = ",
"$.O.} ! ^ X.} _ } } X.I T ^ ^ ' ' ' ' ' } ;.:.+.:.o.o.^ c ' ' ^ Q Q V I ! X.X.;.:.X.' N c o.:.<.:.:.' N o.1.<.:.o.} X.:.<.:.o.o.;.X.I ; 1 - - - O c +.5.1.1.:.5.<.X.R } +.+.+.1.1.1.1.1.5.1.o.} } :.7.>.:.7.1.,.5.5.U ;.[ +.5.5.6.5.1.5.,.6.5.,.,.>.;.^ M t 2 2 , , 1 $ @ @ & @ X                 , E O.+.+.1.1.1.7.6.7.5.t.5.o.:.>.1.1.>.>.5.7.8.8.8.+.5.5.1.5.8.1.5.6.5.8.5.} } +.;.>.1.5.6.! :.1.5.7.:.:.5.8.5.X.1.:.X.:.1.1.5.5.6.6.8.8.6.8.6.7.8.,.X.1.7.8.8.8.6.6.,.8.8.8.8.6.8.1.! 1.+.5.5.8.t.7.6.8.7.t.8.6.8.{ } :.7.5.6.6.5.7.6.6.5.6.8.8.8.8.8.5.1.X.} } +.1.5.1.5.8.5.5.:.+.o.:.>.5.5.5.5.7.5.5.7.>.5.5.1.:.:.+.} Q Q X.6.7.5.>.,.6.>.6.8.5.:.5.6.1.1.:.:.+.;.o.r r [ ;.;.>.1.t.5.I a x } } o.;.+.R +.:.+.' ^ ;.' } [ N 5.5.7.! ;.} } 7.+.o.:.} 5.:.+.:.1.5.5.5.1.5.,.X.1.7.:.^ ' o.7.;.' o.+.o.:.+.1.1.1.5.1.1.1.5.,.5.,.1.5.5.7.1.1.>.,.1.1.1.1.:.+.+.>.>.>.,.,.o.c > 1 > ; ; > > & : : 3 k b 0 : o 3 k 0 < > $ d b m G 7 3 u p 0 < , 0 d y y 0 : : 7 7 t 7 u d f p > . & ; $ $ & 5 o o $ $ $ : $ & < : $ & , , = > > & = ",
"+.$.+.o.O.O.} }  .+.+.+.o.O.o.+.+.:.:.1.o.:.:.+.X.' X.! { o.o.X.;.o.X.X.! M c I c a M I } :.+.o.<.:.} R ^ +.o.;.;.:.:.o.o.X.o.:.:.I r - - - - O 3 I ^ } O.<.:.:.~ T } o.1.<.+.&.2.1.+.7.+.} X.+.1.1.:.1.1.1.1.1.5.:.I 1.' :.5.5.5.5.5.5.6.6.5.5.>.o.! U M t 2 5 3 , & $ @ @ @ @ o X             v _ 1.$.%.1.1.1.&.1.8.7.7.7.5.:.>.5.7.1.X.X.:.5.t.8.5.o.1.1.:.5.5.:.5.5.1.5.1.:.+.+.1.>.7.:.>.' +.:.1.5.+.+.6.8.5.+.5.:.X.+.1.1.5.5.8.8.7.8.8.6.6.8.8.;.X.5.t.8.8.6.6.,.,.8.8.8.5.8.8.X.X.1.5.:.1.6.6.6.6.t.t.6.6.8.:.] ,.7.6.8.5.6.6.7.6.6.8.6.6.8.8.8.6.5.5.5.1.1.:.+.X.} X.+.5.8.1.1.8.6.6.6.5.5.1.,.7.6.1.+.+.;.} [ } } 1.8.5.+.:.1.:.7.6.6.6.5.6.5.>.>.5.5.5.:.:.;.X.:.a r } 7.t.6.1.1.:.U x r U X.X.1.1.' ' ;.+.+.} R } X.I x 5.<.:.' 1.:.X.>.1.+.+.} +.+.+.1.5.1.5.5.5.1.:.X.1.1.:.^ R ;.1.' :.t.o.' <.5.1.5.5.5.5.8.7.1.5.5.7.7.5.1.,.1.5.1.1.,.1.1.1.>.>.:.,.>.>.>.>.2.o.N 2 ; : : > : : > & $ : , > & > h D d u y d : 3 d b ( W d 7 b k < 3 u u 7 : & $ 7 t 7 7 y s s d 0 @ @ ; > $ @ & o o $ & & & = > : & & < & , & > > # = ",
"$.+.+.$.+.+.o.| +.o.+.+.%.$.<.+.;.:.+.+.:.+.} X.X.{ X.X.:.:.+.:.:.;.;.:.X.' ! Q N I ' ! o.o.+.<.1.+.X.} I I ' ' o.+.+.+.o.} ' } I r - - - + - 2 ! } ' { ' ^ ~ Q N } O.o.O.&.1.+.+.1.+.G N ^ :.5.,.:.:.1.<.1.:.1.1.' } :.+.1.6.5.5.5.,.5.6.,.,.,.} E D M c 7 : : : ; $ $ o @ @ o + . .     X @ d 1.4.<.:.+.>.6.6.>.:.1.5.5.5.1.1.1.1.6.5.:.+.;.} +.X.+.1.7.1.:.5.5.+.1.5.5.5.5.+.o.o.1.>.1.:.<.' +.>.5.1.+.+.8.8.:.X.1.:.o.:.;.5.5.6.8.6.8.8.6.8.8.6.8.;.X.7.6.6.8.5.6.1.6.6.y.6.,.y.:.} 7.>.5.o.5.t.7.5.6.t.5.5.5.1.[ >.8.5.6.t.6.8.8.8.7.8.6.6.8.8.8.8.1.5.8.6.6.5.5.5.:.X.:.+.+.+.1.5.8.8.7.5.5.5.5.5.5.5.5.:.1.5.:.' } 1.+.1.:.5.^ ;.5.8.t.5.8.5.5.5.5.1.1.7.7.1.<.:.:.1.N : ' 6.5.5.:.<.;.R ! x M o.:.+.+.X.^ :.<.:.o.:.I ! ' a o.y.>.! 7.6.:.' :.X.X.+.X.1.X.1.5.5.5.7.6.5.:.} <.:.1.} I ;.' ' ;.' ' :.1.<.1.1.1.1.1.1.1.1.,.1.1.7.5.,.5.5.5.1.1.1.1.5.1.1.,.>.>.>.,.,.>.>.2.$.D 3 : ; : & & & $ : $ : < > 8 E | n h k d 0 $ $ i ( ..O.G d k h 3 3 u 0 : @ $ 3 i 0 7 7 y d k d < & > 3 < @ + @ + $ $ $ : > < & : < < < , & & : & * ",
"+.$.+.$.+.O.o.O.<.$.+.$.+.+.+.:.:.:.+.X.} X.+.:.;.X.o.:.:.o.o.:.;.X.X.X.' Q ! ! R R I I X.} ' X.:.o.' Q R ! X.;.o.+.;.:.<.:.' M r - - - - - - ! <.7.7.1.1.1.X.' } 1.1.o.+.1.1.1.O.' ! V } 1.1.:.:.:.1.1.1.1.1.1.:.I 1.+.:.7.5.5.5.5.5.5.5.6.,.;.Q N c s t ; ; ; $ $ $ @ o o . @ + .       , V $.$.2.<.5.1.+.:.1.1.5.7.5.7.5.>.1.<.1.1.1.:.5.7.<.1.X.^ } :.<.,.5.5.+.1.1.:.1.1.X.+.:.7.5.:.1.:.! +.1.5.1.o.;.5.7.+.X.1.;.:.1.X.5.6.6.6.8.8.8.8.6.7.t.8.o.X.5.,.6.8.5.5.1.,.6.8.6.8.1.R +.1.5.7.>.1.8.7.>.5.6.7.t.:.} >.6.t.6.6.6.8.8.8.8.8.8.8.8.8.8.8.6.1.7.8.8.8.5.1.1.5.8.8.:.>.+.+.:.5.5.8.6.5.6.5.5.1.>.>.>.+.<.8.1.X.+.>.>.>.5.o.' 7.7.7.1.5.5.5.6.6.>.:.5.1.1.7.5.5.5.Q @ I 7.5.1.<.:.:.R ' ' a ;.t.8.+.} X.o.>.<.p.<.7.o.N r U o.:.I >.1.:.' ' :.{ :.} +.} 1.5.5.1.5.5.5.:.' 5.1.1.} ' ' ^ +.! Q o.1.<.5.5.5.1.<.>.7.7.1.1.1.1.5.7.1.1.1.1.1.1.5.5.1.>.1.>.>.>.>.$.>.,.,.>.>.$.U y 3 $ $ < $ $ $ @ & > , , u n G D ^ d > : 7 n , k R _ _ N b n 0 3 0 3 & $ : u a 7 7 q u h h u t 8 3 0 3 $ = o $ : > > > > > 0 < : & = < > & & & ",
"%.:.+.<.+.X.} %.+.+.O.+.%.+.+.+.X.} } X.;.:.:.:.o.X.<.<.X.' } ;.o.X.' [ X.[ { ! ' ' I o.:.X.' ' ' } :.} R b } :.5.<.<.:.<.;.R r 1 - + - O 1 ' 1.5.5.,.7.1.^ ^ +.} :.:.1.1.1. .^ ! ) } 1.<.+.:.:.1.1.:.1.5.1.1.1.X.Q 8.X.>.6.5.5.5.5.5.5.,.2.o.Y M s 7 ; @ @ ; ; $ @ @ o @ + . + . X     , F &.3. .2.7.<.1.6.>.:.+.:.1.>.1.1.>.5.:.:.1.:.+.X.} ! } ;.:.[ :.5.5.5.5.+.1.1.1.5.5.+.:.5.t.6.1.7.;.Q +.+.:.1.:.:.1.<.X.} :.o.:.:.:.5.6.6.8.6.8.8.6.8.6.8.5.o.+.>.:.7.5.1.5.5.,.t.6.,.1.' ! 6.>.6.,.1.>.6.6.6.t.7.t.:.I ' 6.5.7.6.8.8.8.8.8.8.8.8.8.6.8.8.8.6.5.5.5.6.6.8.5.:.6.8.5.t.8.8.1.+.+.1.8.8.5.5.1.1.1.>.5.6.8.:.:.1.:.:.t.1.5.:.6.' :.6.1.5.5.1.5.6.5.>.:.5.8.5.1.5.7.7.' @ N 5.7.1.1.:.<.' I } 1 ;.>.5.7.;.X.R X.:.:.5.+.:.! a ! ' I M :.>.>.:.! :.X.;.} ^ X.1.1.1.1.1.1.5.:.} 5.7.:.' Q s V ' ! } 1.5.:.;.1.:.+.X.} ' o.1.8.7.1.5.1.5.5.8.6.>.>.>.:.:.:.1.,.$.>.>.>.>.,.2.>.>.1.&.^ u : > u u $ $ : & > , 3 3 7 3 d k G b > @ B W 1 & k | | b n i 0 y u 3 < $ 0 d y < 3 y i u d b k 7 u i 7 7 : $ > < & & > < 0 8 & & < 8 < & # & ",
"+.%.+.+.O.| } +.+.$.+.$.<.+.o.o.X.+.:.:.:.:.:.X.X.;.:.o.} } } } ' ' X.X.{ X.X.! R ' } <.1.<.;.:.o.X.' } R Q R X.1.:.:.<.:.R r ; 1 + - O 1 I :.5.5.1.6.1.X.o.1.1.o.X.+.&.%.o. .| X.) | 2.1.1.1.1.1.1.1.1.1.1.7.:.' o.:.:.7.1.6.5.5.5.5.5.5.+.U t t : @ O $ $ ; $ @ $ @ @ o . . o . o X : G 3.1.1.+.$.1.1.5.7.7.5.+.X.:.1.5.1.1.5.:.X.:.:.:.:.+.+.:.X.+.! ^ o.o.o.o.X.X.X.X.X.' Q } } o.:.5.8.o.! } } 1.:.:.:.;.X.} ' o.X.:.o.<.1.1.6.6.6.6.8.8.6.8.6.;.X.:.:.>.5.1.:.1.6.6.6.6.,.o.U +.} o.[ X.[ [ [ X.o.[ +.' ' ' :.6.6.5.7.6.6.6.8.6.6.8.6.8.8.8.8.8.6.5.5.5.5.8.8.1.1.5.8.6.8.5.8.6.5.:.X.o.5.t.6.5.5.7.5.6.8.8.5.+.;.<.+.' Q U ! Q M I >.5.:.1.1.8.7.>.>.:.:.8.5.1.5.:.<.Q + M 5.5.1.1.:.<.:.V X.r ^ <.:.5.o.! ' I } ;.} } } ' x I } ' M +.:.1.1.;.' +.X.' } 5.:.1.1.5.1.1.5.:.' 1.:.' ' I M R ' :.:.} R N a r 1 2 1 2 2 r M U [ :.:.5.6.>.[ ! Q U I R ^ o.:.,.>.>.$.$.$.2.>.$.2.1.1.2.o.b , y p < $ $ $ & : , 0 u u y u u d u u & u ( V 3 3 k E G d u a u 0 7 & > u 7 > > y i 0 u V G 0 3 u t t q 7 > : : & & < < < & , < < < & & % ",
"$.+.+.<.|  .} +.O.1.%.+. .X.X.o.X.+.:.+.+.1.:.o.:.;.X.+.:.o.} } o.:.X.} ' :.^ ^ V c Q <.:.1.:.:.:.:.:.:.} R Q I :.;.} 1.Q r ; 1 - O + + M <.:.1.1.,.1.:.X.:.1.5.:.X.^ 1.&.5.1.^ ! 1.1.+.&.1.1.1.1.1.<.1.1.>.1.7.R <.:.:.5.5.5.5.7.7.5.6.,.U t 2 > ; @ $ $ $ $ + @ + @ o . . @ . . + , V &.&.<.1.>.} +.1.6.t.8.8.5.:.X.:.5.6.5.:.>.X.+.8.:.+.:.1.7.5.>.X.I R ^ 1.;.<.X.^ X.+.M Q } Q I R I ! ^ +.X.;.;.:.:.<.+.{ ' X.O.o.;.o.>.:.>.8.6.5.8.8.6.5.7.7.>.+.1.:.1.5.5.:.1.:.5.5.1.1.R ! t.,.:.1.7.5.:.+.1.7.8.:.X.R I ' :.7.7.5.7.:.5.5.5.7.5.7.6.6.8.6.6.7.8.5.5.1.5.8.5.1.8.t.6.8.8.8.8.8.8.5.o.} :.t.1.t.>.8.8.5.5.1.:.1.! M N I I ' ' ' I I } :.+.5.5.y.5.;.} ' 8.8.5.1.5.X.' 1 x t.1.8.1.:.1.1.} Q I a ;.:.o.{ X.:.1.' >.5.:.1.} V :.} :.V } :.} X.1.^ ^ +.^ X.1.:.1.<.o.1.o.:.;.' X.^ ' 7.R o.;.X.:.^ s r - O O   O O O O O - + ; 1 x x x a r - + - + + @ 1 c ! } :.:.;.+.:.,.$.>.>.>.$.E D u u 2 : $ o o & : & , u 0 3 y i h b p n 3 3 _ $.V < $ u m 0 > 3 & < 7 3 3 d : < 3 a i p n E d & 0 u 0 d u , & & : , = & & , < < < , = & & ",
"$.+.+.O.) o.<.$.o.X.| +.+.+.+.+.:.:.:.:.1.;.} O.:.:.:.X.} } ' +.:.o.o.o.} X.R M Q R M :.5.:.1.1.1.>.1.1.:.X.o.R R ! Q R a 2 ; - + - + x :.<.:.1.7.:.;.:.1.7.1.>.1.1.! } <.o.! E } ..o.o.+.<.:.:.1.1.1.1.1.7.:.' ! 1.:.;.5.5.5.8.,.1.5.;.M t s h 3 $ $ $ @ $ $ $ + o + o . .   + . 7 W 1.6.1.&.O.>.;.:.+.:.>.5.5.1.:.:.;.1.:.1.5.X.} X.+.X.:.:.:.:.;.' ^ X.;.^ ' ! ^ Q I R [ ^ :.5.7.8.6.:.U I a ^ <.X.o.:.o.:.:.X.+.o.X.+.1.,.1.5.5.7.8.8.5.5.5.6.1.} } ;.:.5.5.5.:.1.:.8.o.1.' I o.7.1.1.5.5.1.o.o.7.>.} +.} :.;.} } o.>.5.t.5.8.8.8.8.6.6.8.6.6.6.6.6.1.1.5.1.5.8.7.1.1.8.8.8.8.8.6.6.5.5.8.5.o.+.:.,.:.>.1.6.8.5.' I U :.>.} } [ <.1.7.} N R } 1.6.1.5.:.} ' o.1.:.8.p.<.Q d a 1.t.<.1.:.X.7.' I ' 2 Q X.:.} :.<.1.' :.7.5.;.:.V 1.:.{ I ^ >.1.:.X.} ' ^ ' X.:.:.1.:.o.1.;.:.X.V R X.5.:.M ^ ;.:.;.c 2 + - a x I I R I I I r - O O O + @ - @ + + - - ; 1 @   - t x N +.X.o.,.>.+.] E n t 2 $ $ $ $ $ @ i u @ & 3 3 3 7 0 y i u b h d u 0 h E R m u 3 < 3 : @ : 3 , y u h : 5 p d 0 u V m : & u 3 u a 0 & : : , , & & = , < * & & & & ",
"%.+.$.$.' X.| } | | o.+.+.+.+.+.:.:.+.;.+.} +.<.:.o.} } X.o.:.:.:.:.+.:.:.o.M V :.} V Q <.:.:.:.1.:.:.:.1.,.1.:.R I x a r 1 - + - O r o.;.7.:.1.:.} X.:.<.1.5.1.>.:.+.o._ ^ { X.1.O.+.+.1.1.<.1.1.1.1.1.1.5.<.R o.5.o.;.5.1.1.7.5.1.>.Y s d s a 3 : ; $ $ @ $ o + o + o . . $ + 7 } 8.8.2.1.7.6.7.6.8.,.>.,.;.o.5.t.1.1.5.:.1.1.' :.+.} ' } X.:.>.:.+.} :.8.;.5.>.+.[ X.:.} ' ;.1.8.8.1.+.5.>.X.c X.O.' X.o.o.;.;.} ' X.1.:.1.1.8.5.5.t.8.5.5.5.5.6.' X.+.1.5.1.:.>.5.5.<.o.:.V ' +.<.1.1.5.1.5.5.:.X.U ! ' I +.;.+.1.:.:.:.5.6.5.5.1.1.1.1.1.1.>.5.6.6.t.8.5.>.:.>.6.5.1.t.6.8.8.8.8.5.5.5.8.7.7.o.! U ' ' ! ! [ Q U :.5.1.>.5.X.' Q :.,.5.:.Q N ~ 7.1.;.:.} I Q :.;.1.:.8.X.N 3 o.5.5.:.X.,.;.! b +.d c o.:.X.7.1.1.o.! 1.<.1.7.R X.5.1.} M :.1.5.5.X.' I R ' 1.+.5.5.X.X.1.^ R ! <.:.1.o.M ' :.;.I 1 - c ' +.X.X.;.;.;.,.<.<.X.I c r 2 ; 3 a c I X.;.[ ' V r - O   - c ,.o.$.+.N a : ; > @ o     . @ 0 } &.m < > < 0 7 < 3 0 d h p i b b 0 3 u u d n b h u > . & & 7 y m , < p h y 0 d m 8   0 3 0 u 0 1 : & & < , & , , , , & & & & ",
"O.O.o.| ! X.| X.+.o.+.:.$.O.+.+.:.+.:.:.X.} +.o.' { o.;.:.:.:.+.;.<.<.:.;.:.I ' <.;.} ^ } :.<.1.1.:.:.1.<.1.:.:.} ^ r 1 - - - + @ : Q I Q ^ <.<.;.X.:.1.1.:.1.<.;.:.:.T ^ X.| +.3.1.1.<.&.:.1.1.1.1.1.1.1.:.o.^ :.<.[ ;.5.1.5.1.7.1.! c c c 7 1 > ; $ $ $ o $ o o . o + o o   y } 2.2.6.4.5.5.6.5.y.7.5.6.6.5.X.X.:.5.<.1.<.;.+.+.:.+.+.[ +.>.1.1.5.5.+.X.<.:.1.} X.} +.+.' +.:.1.7.5.;.} +.:.:.{ V V X.5.+.;.' } ^ ' :.1.+.>.:.5.5.5.6.5.1.:.5.5.>.X.5.:.<.1.<.+.5.>.5.;.1.! R :.X.:.1.1.1.5.6.7.:.[ ' >.7.+.1.X.+.+.1.>.' ' >.5.5.5.5.7.5.5.5.1.1.5.5.6.1.1.:.1.:.1.:.+.8.8.8.8.8.6.6.6.5.5.1.} ;.7.7.t.t.8.' M } :.8.5.5.t.8.:.o.o.! } ' ' o.' x ^ +.} ' X.} I ^ } o.5.1.;.V r I <.:.1.} } :.R M 1.! a :.;.:.7.1.1.7.' ' 1.1.5.7.I 5.+.y.Q V X.;.+.1.:.R V ' :.<.5.7.1.R I ! X.X.:.:.<.R R ^ o.} c r r ' :.X.X.;.:.7.7.,.<.<.5.5.5.:.:.X.} +.<.:.5.<.:.1.7.+.Q c 2 O + s ! U c > ; : $   o > 0 u 7 < 0 E o.| ^ m 0 3 3 , 3 0 7 0 p i d m B 0 $ , 0 d h k V B u & @ > 0 h d 7 y h i < 0 d d & < i 3 u 0 , & & & = < = , & , & & , : : ",
"X.X.| ) | o.O.+.O.+.$.+.%.+.&.:.+.:.:.X.' } X.} X.X.:.:.+.+.:.:.;.:.<.:.o.} R X.o.:.X.:.' } ;.:.<.1.1.1.:.:.;.<.R r - - O O + + r } o.;.} Q M M ! ;.:.5.1.:.,.:.^ ' Q +.+.} O.6.1.1.1.&.:.;.:.:.1.1.5.1.1.:.' } :.,.} } 7.1.7.7.:.! M x u 2 1 1 : $ $ $ $ o . o . . . . . + u } &.1.1.5.8.7.5.7.5.6.5.5.7.1.1.>.o.} X.} :.1.:.1.5.5.:.:.X.:.1.5.>.1.1.+.+.1.:.:.' X.X.+.+.! +.:.1.1.5.+.+.7.:.o.X.o.M T :.} o.} Q ^ +.:.+.:.+.:.>.5.6.5.1.;.:.7.5.} :.7.1.:.1.:.+.5.+.5.:.:.I +.;.X.1.:.,.7.7.5.:.:.+.1.5.>.5.t.1.1.;.+.;.R N +.1.5.5.8.8.6.8.6.6.5.5.1.6.1.1.1.>.1.5.+.} :.+.5.7.8.5.6.8.5.1.X.:.8.6.6.7.6.:.' ' 1.8.5.1.y.1.1.8.;.' } } ;.:.} ' V d o.6.:.5.1.} } X.{ X.;.:.V r r ^ 5.:.5.} } x Q +.} y Q ;.1.>.1.1.5.t.R :.;.1.i.+.b ;.<.;.V I ' o.;.:.:.V R ' ;.:.o.} V } ;.:.:.1.+.O.I } I { I 1 - x ' } :.;.:.<.1.<.<.<.7.5.5.<.:.1.<.+.X.;.;.<.7.5.>.>.1.:.1.X.x @ + 1 > 3 @ O ; u B ( ( ..+.( h & y ! ] $.$.| ( B 0 > : 3 3 3 y u s h u u 3 : 3 0 d h p i , & o @ , p u 7 k n i 3 0 i 3 , d u 0 0 , 1 & , , < , , & = & & & , , ",
"o.+.X.X.o.o.O.5.o.$.$.+.+.+.+.+.+.;.o.^ ^ O.X.X.:.+.X.+.:.:.+.+.:.<.:.o.<.Q M ;.;.X.} ;.1.' ^ :.:.1.<.:.:.1.<.I r ; 1 + + + O 1 ^ o.<.<.o.X.Q } ! I R } } ' Q R R } 8.:.O.^ X.4.5.1.1.1.1.<.1.1.1.1.1.>.:.7.^ o.>.7.} X.7.1.5.8.' x d x 7 : 2 $ @ : $ @ $ o . .     . . + y | 2.2.2.2.2.5.5.5.5.5.5.,.y.5.:.5.:.:.1.X.^ 1.5.;.>.:.1.1.+.+.8.5.6.1.>.6.5.} o.[ 7.<.} X.X.X.^ 7.8.1.+.+.+.6.:.5.} ;.} Q c ! o.R ! T Q o.1.+.} X.1.:.1.8.6.7.>.:.8.>.' 5.5.1.:.:.+.+.8.+.y.<.[ ^ 5.} ' V I U I I N >.y.+.5.t.5.5.5.5.5.t.6.:.^ ' t.:.>.1.8.8.6.5.5.5.6.6.6.8.6.t.5.:.:.:.X.} +.X.X.;.:.+.<.5.o.Q +.8.1.1.1.5.7.[ >.1.1.>.6.5.5.5.1.1.7.:.;.} Q ! :.1.<.M } y.1.7.8.+.;.<.5.:.^ v b y r 1 { t.;.:.M a 1.} 6.M y :.6.:.5.:.>.t.' I 1.>.1.8.Q ^ 5.:.' R M R 1.X.[ ! <.! o.;.X.:.Q +.:.:.:.7.5.X.c +.Q o.V - 1 V :.7.>.:.<.1.1.<.;.7.<.<.5.:.:.<.;.1.1.;.X.;.<.7.>.>.6.5.:.X.! D O O - 1 @ ; n >.6.8.$.+.| o.E u > u ( ....$.>.2.$.D 3 0 y u 0 7 u u u u i 7 1 > 0 u y 0 0 3 & o , < 3 & p m b 7 y 0 7 : u i 3 0 3 : & & & = < < & & & & & , * ",
"| } X. .$.<.+.+.<.+.+.$.1.+.o. .| } ^ ^  .| O.O.+.+.:.:.:.+.:.:.o.:.o.:.' R R X.:.} ' ' o.+.} ' o.:.:.:.1.;.Q r ; - + + - + 1 I o.;.<.:.X.X.} :.<.:.X.' ' o.} ' } :.:.:.} +.<.X.:.1.1.1.1.1.>.1.,.1.1.7.5.' ' ;.:.<.o.;.5.1.<.{ V d a a 2 > : ; $ @ @ $ o o     o   o . u } 2.2.5.6.5.5.5.5.5.5.5.5.5.5.5.5.7.1.1.1.1.O.} +.>.>.5.1.:.[ :.5.5.7.6.6.6.7.;.' ' 1.+.X.o.o.' ^ :.<.1.} X.1.>.1.:.7.X.' { ! a ' N ! } >.:.1.:.X.:.1.5.5.5.5.1.>.;.:.o.:.5.5.<.:.+.;.5.1.1.5.o.M Q Q a I M V X.I ! ' ^ ! ! 6.6.:.:.5.1.7.8.<.:.N X.5.6.1.1.5.5.6.5.5.5.5.5.5.8.1.5.>.:.1.:.1.6.>.:.6.7.8.5.1.:.X.} 5.5.5.8.7.5.} X.6.1.1.5.6.6.5.1.5.7.>.o.o.} ;.! X.:.} I y I ! R ! R I b R I v d d s M V 3 R 5.^ x o.w.1.+.I r } :.5.,.5.>.1.;.R } 5.1.5.5.' ' t.<.} I M N ! ' ;.7.' ' :.o.o.} ^ <.1.7.5.1.} ! <.Q I a 1 y ^ o.5.X.X.<.5.5.<.!.7.<.7.<.<.:.:.X.:.:.:.:.o.o.:.:.1.<.:.;.X.;.] t - r s b [ +.o.>.+.>.$...>.o.E y : a ^ >.$.&.$.+...} ] b y 0 3 3 7 s d c u 0 > : 7 y d h p < @ @ & & o & u n i p p y < > p i 0 3 % & % * = , , & & % & * * , ",
"^ X.o.o.O.O.+. .} { ) } ^ R ^ | o.} ^ } +.+.+.+.+.+.:.;.:.+.:.:.:.<.o.o.' ~ ^ Q <.:.o.' } } } } } o.o.;.X.! y : - - + + O ; I ;.+.1.:.o.X.} } +.<.5.1.1.7.1.:.o.:.1.1.+.^ 5.5.:.:.1.1.1.1.1.1.,.1.1.5.:.<.I +.;.:.1.:.;.7.5.:.^ M s r 1 & : $ $ @ @ $ o o .       o . 5 | 2.2.1.2.6.5.5.5.5.5.5.5.5.5.5.5.5.:.1.1.5.5.:.' ^ :.7.1.1.:.} >.5.5.5.5.7.5.7.5.} ! :.1.;.X.R ^ ^ +.1.1.+.X.X.+.+.:.6.5.I o.{ N r I [ :.5.<.1.:.>.:.;.6.5.1.8.8.7.:.} [ 5.6.5.:.o.X.:.>.8.1.p.V 1 d I } :.' ' } X.:.5.5.6.[ } :.:.1.5.5.5.1.;.o.N ,.7.1.5.5.1.1.5.5.5.8.6.8.7.6.8.5.>.+.:.5.8.6.6.>.>.:.5.1.8.5.1.X.5.6.5.7.8.X.X.8.5.1.1.5.7.6.8.t.5.5.7.:.:.} ;.:.X.' M a y a r r r s y a 2 1 x N b v d v M r b v d <.+.5.o.+.r U <.:.5.>.5.5.X.:.R 1.:.8.5.:.Q } 5.:.;.I M M M o.1.{ ' 1.X.<.5.' :.:.;.y.1.R o.8.X.x r - N ! ' ' R X.o.<.<.<.<.<.<.;.<.<.;.:.X.:.:.:.<.:.} [ +.>.:.X.o.:.} ! r x X.>.>.>.+.o.+.} 5.1...+.+.X.V 3 1 y ^ | 2.1.| o.....| ^ R b 3 ; 7 7 y t d t : @ : y m i q q = @ . .   @ 0 u i d i < $ y u 0 , & & & & , = = * & & & & & & ",
"| O.| } ^ ^ ) } } X.^ R V R X.1.O.^ } $.$.<.+.$.+.+.<.:.:.+.:.:.:.:.+.X.} ^ } Q +.+.:.+.O.X.X.}  .+.<.} b r 1 : - - O O - I <.<.:.:.o.O.} X.+.1.1.1.:.1.1.<.X.+.1.1.:.Q ;.1.:.1.<.>.1.1.1.<.>.1.1.1.1.1.} ' 1.:.<.7.;.X.<.:.^ I d y 8 3 : % ; $ $ @ + + o .     . . # D 2.2.2.,.8.6.5.5.5.6.5.5.5.5.5.5.6.5.:.;.X.:.:.' 1.} R +.6.5.5.X.,.5.5.5.6.6.5.6.5.+.' X.:.X.;.T Q } ;.5.5.>.<.X.X.+.X.:.:.R ;.} } a R ! ' o.o.<.;.O.>.>.1.1.>.+.5.6.1.} [ 1.7.1.>.:.:.o.8.1.7.X.x Q >.o.o.:.:.o.[ :.:.t.5.8.:.1.+.;.5.5.6.8.5.:.} N 1.7.5.6.6.5.5.5.5.5.6.6.5.7.5.8.5.7.1.5.7.8.8.6.5.+.X.o.+.1.+.+.X.5.6.6.8.:.o.7.5.1.5.5.5.5.5.>.+.X.' [ } X.:.7.:.! x N M ' } ' ' :.+.! 1.^ E ) W V b v a d r : 8 a X.{ 1.+.o.b a <.5.5.1.1.} ' :.Q ' 1.:.1.7.:.I :.:.5.o.' x I I t.' I ' o.5.5.<.R :.1.X.} I 1.5.' a - 2 ' ;.>.;.+.{ ~ ~ { ~ ~ T T ~ ^ ^ ;.O.O.;.O.:.:.1.1.^ { o.+.:.<.1.:.x a ' 1.;.:.O.X.+.X.;.o.$.>.>.,.>.] t ; a U ^ ] $.| o.......$.>.$.} B c t 2 7 y t u t ; @ < 0 p u 0 0 &   X   @ 0 a u 0 3 3 , u 0 3 > & & & = = , & & & & , , & ",
"! X.^ } } }  .| O.^ ) R ^ +.+.<. .^ o.+.+.O.O.+.$.+.+.+.:.:.:.:.:.:.:.' X.^ } X.} o.+.:.X. .X.+.;.:.} M r ; 1 @ O O O - I ;.1.<.<.o.o.;.o.o.:.1.1.1.1.1.1.1.:.+.1.:.' ' 5.;.5.:.1.1.1.:.1.1.1.1.1.1.1.:.Q 1.>.:.,.,.:.;.;.! x a 3 3 r r 3 : & ; $ $ o .   .         c $.>.2.2.5.2.2.6.5.5.5.5.6.5.5.5.5.5.5.t.,.X.+.:.+.X.1.:.' :.5.5.+.>.5.6.5.6.5.6.6.,.;.' ! :.o.5.^ ^ o.1.5.6.7.7.} ^ +.o.1.;.' ' X.5.a R ! ^ :.;.:.5.+.X.:.>.} } :.>.1.6.+.' 1.5.5.>.:.1.X.5.>.>.d ' :.:.>.5.:.} } ' o.} 7.5.8.5.8.1.+.+.1.5.8.7.1.' ^ 5.>.7.5.7.6.6.6.5.5.5.5.5.5.8.5.1.5.:.5.5.5.5.1.1.8.:.>.:.>.o.X.+.8.6.5.>.o.5.5.7.6.1.5.6.5.o.' +.>.:.;.o.o.' R R ! 1.+.' ^ ' } } } } X.5.1.' ^ ~ R N d d d r : % 1 V +.R } O.} r X.7.:.1.<.R ! ' } V 1.:.1.:.1.o.R 5.:.:.} R M I I I ! ;.;.1.o.R c I ' X.I ' 7.X.b 1 1 Q ;.:.>.:.6.<.;.;.<.O.;.<.<.<.<.<.<.;.O.X.;.:.1.5.;.:.X.} :.:.1.;.! s [ ;.' } ;.5.5.+.I M b D ^ ] [ o.] M r 7 s U U ( | >.>.$.o.>.+.| | E +.] D s u t u h t 3 @ , 0 u p i < # @ o o o : < , 3 u : i i < , > , = , = , & , = & & & & ",
", R X.X.| o. .} _ } X.} o.+.+.1.X.^ +.O.<.&.1.+.+.+.:.:.+.:.:.1.1.:.:.' X.! X.+.^ +.<.<.<.o.+.+.:.{ x 1 ; - @ O O O ; N X.:.:.<.o.;.} } :.<.1.1.1.1.<.:.:.1.:.o.1.;.! :.1.<.1.>.1.1.:.1.<.1.,.1.1.1.1.} } 1.1.;.,.7.:.;.^ M a r r r r 3 : : @ - o o . . .         5 $.,.>.8.2.2.5.2.6.5.5.5.5.6.5.5.5.5.5.5.5.,.} X.+.:.:.1.5.<.' +.:.o.5.5.5.5.5.6.5.5.5.1.} Q X.;.1.R } <.:.5.6.5.5.o.' ' ;.5.{ ! { [ ' a x ! } 1.1.1.5.:.:.+.1.} ^ 1.;.5.1.1.^ ,.5.7.5.:.5.X.o.:.U M +.5.7.1.+.X.' } o.+.+.5.5.5.5.8.1.+.+.+.:.1.:.5.Q +.8.:.1.5.5.5.6.5.6.5.5.5.7.6.6.1.1.5.:.5.5.5.1.5.5.1.>.5.5.8.5.;.1.5.6.:.[ 1.>.6.5.5.6.6.1.:.+.:.t.6.1.8.5.} s ' 5.y.+.1.<.1.} o.} } ! } O.1.1.{ ) <.O.E s r i a 2 : - v N T +.X.y R 1.:.1.1.R ' X.:.I ' 1.1.1.:.<.' R <.o.:.:.x I I x ^ o.:.<.^ M o.:.I V I } 1.Q r - a ' { X.+.+.5.<.{ ;.{ ~ <.<.<.<.<.<.O.{ ;.{ ;.:.<.1.:.:.:.} +.:.:.} a X.7.1.1.+.^ Q { :.o.! I b c t t y a t t 2 > x M D ^ $.>.1.$.$.$.$.$.R ( E } ( U D c u u h u , > u d u u 0 , & & . # : > < 7 < u h < < , < : < & & = : & , & & & ",
"% b  .X. .X.} X.o. .} X. .o.O.&.| R +.&.+.$.+.+.+.:.+.;.:.:.:.+.:.;.+.' 1.E }  .} +.$.+.%.+.$.$.^ v 1 : 1 - X X O ; I X.o.o.:.o.o.o.} } ;.1.5.1.<.1.5.1.1.5.+.o.:.[ } 1.:.1.:.5.>.>.<.1.1.1.1.>.7.>.;.Q 1.:.5.:.,.y.:.' I s r r r 3 2 % @ $ $ @ . .             > E 2.>.4.,.,.2.2.5.5.,.5.5.5.,.1.5.5.5.5.5.5.6.:.+.:.:.5.1.1.5.:.+.;.[ :.>.7.5.5.5.6.5.7.1.+.' } } :.Q } <.:.5.6.5.1.:.o.X.' ' R ! o.[ R x I 5.X.:.5.8.7.5.+.>.' +.1.+.X.1.5.1.^ >.5.5.5.:.:.+.[ ! x o.:.1.>.+.<.' X.;.+.+.X.1.5.7.5.8.:.:.:.:.1.:.o.1.N :.7.o.1.1.5.5.5.6.6.5.5.5.6.8.5.1.5.:.+.5.5.5.5.8.5.1.5.5.5.6.:.:.1.5.>.} :.:.5.5.7.5.6.:.X.+.5.6.6.7.7.t.[ U } :.5.5.7.>.>.:.' Q :.t.o.X.{ } } ~ G ^ ) X.d 3 2 : 1 1 % : d V V D r x +.5.:.! o.:.7.:.' ! 8.,.5.>.<.:.V R 5.{ <.R M :.! I I R { V I Q M R ^ ;.:.:.x : ; I X.;.X.} o.;.;.{ ;.{ T { <.{ <.<.O.X.{ ;.} O.:.:.:.:.1.<.;.^ X.I I X.1.>.<.1.1.1.X.Q ! ;.:.X.] X.$.X.X.Q t M x r ; 7 t h ( $.$.>...o.| E V E ^ | U E o.+.^ n b d 0 < : < y p i 8 & & @ $ $ $ & : < 3 y 3 3 < > < : < , & , & & & & & ",
"@ 1 ^ X.| o.O.o.}  . .| o.+.o.$.} E } +.+.$.+.$.<.&.1.<.:.:.:.:.:.1.o.[ :.! } O.o.| +.+.1.+.<.} M r : : : @ @   @ G o.X.;.X.} :.o.' +.o.:.1.:.1.1.1.1.1.1.1.1.+.} ^ :.1.<.>.<.1.>.1.>.1.1.1.5.>.1.+.U Q 5.1.5.<.7.<.X.I x a r y y 1 : @ $ $ @ +           .     b $.$.2.,.2.5.5.,.5.5.1.5.1.5.1.1.5.1.5.5.1.>.<.:.+.X.:.5.1.1.5.5.>.:.} X.' >.>.5.6.5.:.:.X.' ' ' } ;.' } 7.} ' ! ' ' V R V V ! M ! I M x I I :.' +.1.:.:.+.X.;.X.1.>.1.:.+.1.8.R ' 6.5.1.1.X.7.' a I 7.1.<.<.:.} } o.1.X.+.' 5.8.1.8.6.;.:.1.1.5.1.:.:.N :.1.X.,.5.>.5.6.6.5.6.7.6.6.6.6.1.1.1.:.5.5.6.6.5.+.1.1.1.1.1.X.:.1.<.[ [ :.>.1.1.6.6.6.1.+.>.6.5.5.t.t.X.Q X.:.>.5.6.5.1.+.o.X.R } :.+.5.o.^ ! N d R G i 1 a a d V d : % 1 2 r N x - M X.7.I X.' 8.:.} I 1.y.:.:.o.:.<.' X.X.' N x o.1.:.' M x x c [ :.1.o.} ' x 1 O s [ [ o.+.+.[ >.{ X.;.<.~ X.~ ~ ;.{ { X.~ Q {  .X.+.:.1.1.>.:.' R R ;.7.:.1.>.>.:.:.5.6.' I ' ,.,.} o.2.+.>.U ] +.N s t > ; t R o.8.$.[ ( ^ ..o._ ..^ } | | $.$.o.G h u 3 $ , 3 < 3 7 > @ o o o @ $ & : < 3 , < 3 < > , > , < : , , , % ",
"X @ G O.o.X.| X.} } X.| +.O.o.+.O.^ ^ O.+.+.$.+.+.+.:.+.;.:.:.:.+.:.+.} 1.^ ^ +.O.^  .%.| _ E b 3 , , 2 : @ @ , F  .+.<.:.o.;.<.+.X.:.;.X.<.:.>.:.1.:.>.1.>.1.+.^ ' 1.<.1.1.1.1.1.>.1.<.1.1.>.1.1.:.Q X.5.1.5.1.<.X.Q c a r y r 1 : - ; & @ @ .               u o.>.1.2.2.,.,.5.5.,.5.,.,.5.5.5.5.1.5.1.1.5.1.1.1.:.X.+.5.5.1.5.5.5.>.:.:.' +.6.5.6.5.:.>.X.^ ! ' :.R o.o.<.' } :.;.' } X.X.:.+.X.;.^ I a x x X.X.+.:.:.+.X.} ' +.:.X.+.+.+.X.1.:.I >.6.:.1.;.1.I x :.5.1.:.:.} ' X.+.1.;.+.} 5.6.5.5.1.+.1.5.5.5.1.1.;.I ,.:.:.:.7.1.5.8.5.5.6.7.5.6.6.6.1.1.>.:.6.6.6.8.6.:.:.1.8.5.+.X.;.:.+.X.7.6.5.>.5.8.6.5.t.7.5.6.7.5.8.' R :.1.} 1.6.8.:.1.:.+.5.1.' ' X.5.+.^ T R G V k v ! | } 3.7.<.V 3 1 , 3 x I r 2 N x V :.5.+.X.o.x Q X.} X.O.X.;.! s V R Q ! I :.<.,.:.! I a X.<.7.1.' M r - a ! o.U ] ] >.^ [ X.X.;.O.' O.{ X.O.<.{ } } X.X.{ o.+.:.1.>.<.+.+.R ;.<.7.<.1.1.>.:.:.:.:.1.1.^ Q [ >.+.[ ;.,.+.U >.$.>.D 7 > 7 2 3 b D _ ..} } | | $.^ _ o.| | $.:...} Q N u > : 3 0 1 > : : $ o o o @ & > > > > 0 n d , 3 < , < , & * * ",
": - a R X.+.+. .} | O.+.O...O.O.o.} E ) o.o.+.%.+.:.<.<.:.+.;.:.O.:.+.} o.R ~ E G B n b d y i 3 , 8 8 2 % X @ i ! |  .X.X.+.<.X.:.1.1.:.+.+.1.:.:.:.:.:.1.:.:.>.} X.o.:.:.:.:.:.1.:.1.,.1.1.>.7.:.;.R 1.1.>.5.7.;.R M a a a 2 1 : : : : $ o                 3 ^ 2.2.2.>.,.2.2.,.5.,.5.5.1.,.,.5.1.5.5.1.5.1.1.1.1.5.:.X.+.5.5.5.5.:.;.+.7.+.! 5.6.5.7.5.1.1.,.' ' :.N ' } 1.} :.;.:.1.} +.6.5.' ;.' ^ ! c I b I +.5.5.5.1.o.o.} ' } +.:.:.X.' 1.5.Q ' 5.:.:.1.R x ' ;.8.1.+.:.R :.} o.;.O.} X.5.6.5.1.+.:.5.1.5.5.<.1.+.I 6.5.1.;.1.,.5.6.5.6.5.6.5.6.6.6.6.5.:.:.7.6.5.5.8.1.+.:.t.6.} X.1.} ' X.o.+.X.X.:.5.7.5.6.6.6.6.5.5.X.! ;.5.:.Q :.5.5.5.5.1.:.+.;.' ' } <.R m M b R ~ I ~ 1.O.| o.<.<.1.R 2 1 1 a r r r } ! r ' o.1.1.1.I ^ } ' Q ^ Q ^ X.' M c ;.:.M ' 5.:.7.X.{ a I :.[ ' I r 1 1 ^ :.+.X.' ] +.} R { ;.;.{ ~ ;.{ ;.O.<.}  .:.<.:.! ^ :.1.:.:.:.X.:.{ X.:.:.1.,.1.>.:.:.:.5.:.:.1.:.] I ! } } ;.,.U >.>.+.2.( d u t 3 7 s b R ] | | } $.} ^ | $.$.o...$.$.....] V u $ : 3 0 < > : $ o o o @ & & : & 3 R ( u < 3 3 7 < : , % ",
"@ @ X @ 3 B E ! } | +.+.+.+.+.+.+.O.} { } X.O.+.+.:.+.+.+.:.o.o.X.X.' M d 3 , : @ %   @ % : , i y y r , : X , T E } $.^ } <.o.;.>.>.:.1.1.+.1.:.:.:.:.:.1.:.+.>.o.:.+.o.o.o.:.1.1.1.>.1.>.1.1.1.:.} ' 7.1.1.1.1.^ x a a a r 1 1 : : : @ . .               @ D 7.>.1.,.>.6.6.,.2.,.5.1.5.5.5.5.1.5.1.5.5.1.5.1.1.5.5.5.;.X.;.5.5.5.1.+.X.5.:.Q } 6.5.7.1.:.1.7.' ! ' I ! ' [ ' :.+.:.1.o.} >.5.:.X.~ :.! ^ :.{ x ^ +.5.5.5.+.+.} ^ ^ 1.1.1.>.} [ 5.:.' 1.7.1.;.a I 5.;.t.:.} o.^ 1.' +.:.+.X.+.>.5.:.+.:.1.5.1.1.1.:.:.} R 5.6.>.X.:.:.5.5.5.5.6.5.5.8.6.5.8.1.:.o.1.1.6.6.1.X.5.:.:.+.X.:.5.' } ,.:.:.>.5.:.+.5.8.6.7.8.5.5.:.I X.8.:.:.' +.X.X.:.+.+.<.+.1.+.' R x d x ) ) } $.| R } 7. .X.5.7.1.<.~ r 1 1 1 1 r a o.x Q ' Q +.1.I X.6.} Q ^ } o.;.<.I M X.;.} c ;.,.1.:.:.M x x I R x 1   V { } o.t.Q >.[ X.[ T { O.T { { { ~ ~ O.;.;.,.<.{ ! [ +.:.X.+.:.1.+.:.:.5.:.1.1.:.<.>.1.<.+.1.5.:.>.:.;.Y U ] ] ;.U U >.5.+...6...V y > : 7 k ! ..$.$.$.$.$.U ( $.| >.o.o.| $.>.+...R u : ; > < 3 , : & o o @ $ & : & i | G , < , 8 < , , * ",
"^ I 3 X X : 1 1 1 y d b T ~ ' } +.+.1.+. .o.+.+.$.+.+.+.X.' R I x r 1 + X : @ : < 3 8 y B v r 8 8 s i y r , d $.O.E  .+. .o.1.1.:.:.1.1.:.1.:.:.:.+.+.+.+.:.1.+.;.1.:.:.<.:.:.1.1.1.1.:.,.<.1.:.1.' o.1.1.5.+.^ b y r 1 r r 1 : % % @ @ X               X d +.2.$.2.>.5.2.1.5.,.5.5.,.5.,.5.1.5.1.5.1.5.1.1.5.1.1.5.5.5.X.' :.7.1.5.X.1.1.>.+.' <.6.1.5.1.:.:.o.^ M ' ! ' ' o.:.5.:.+.+.:.:.X.;.R X.<.I +.<.} ^ x R :.7.1.:.;.;.;.{ 1.7.:.1.+.' +.8.} +.7.>.x c <.1.:.} ;.;.' o.X.X.;.<.<.:.;.o.1.X.+.5.1.5.>.5.1.;.:.' Q 1.7.1.:.X.:.<.1.5.6.6.7.5.6.6.5.5.1.1.o.:.1.1.1.1.+.t.<.:.:.;.1.X.R } :.5.5.1.6.6.>.:.1.1.6.6.7.5.^ Q 1.7.5.+.[ :.1.:.;.X.} o.' ' ^ I R b I } >.X._ +._ O.^ o.$.} +.1.2.1.1.{ i : : 1 1 : x ^ x } ' Q Q I ! I ! :.:.:.M Q ! ~ I R :.o.Q M o.1.;.;.I r 3 R I 3 1 r ^ X.+.^ +.' ^ +.:.^ ! V R x ^ ~ ^ B I ^ ;.O.:.<.' X.:.:.:.o.>.>.:.1.1.:.:.7.1.1.1.:.:.:.<.1.:.:.1.:.:.:.:.;.' I R ^ I [ >.$.X.o.$.( b V b y 7 u c D U E ( } / Q } o.o.$.$.>...| | +.$.} E t $ : 7 t 7 < $ @ @ @ $ $ & & h R u > $ > 7 3 > = ",
"O.X.} I a % - @ O O     X : 2 s b N V T ^ } } ' R B b s r 2 - - : 1 r I Q E V R } ! { R B a 3 1 r 8 y 8 3 8 ~  . .~ | } X.+.1.+.&.<.1.1.1.<.$.:.<.1.1.:.>.$.:.:.<.>.1.1.1.<.1.,.<.,.1.1.1.:.5.1.:.Q :.:.1.1.^ b y r 3 1 2 1 : % % @ @ @ X X         X   3 } 2.1.1.,.1.1.,.5.5.5.1.5.5.5.1.5.5.5.1.1.5.,.1.7.5.5.5.1.5.5.5.X.X.1.>.<.:.1.1.:.5.^ } 8.1.1.8.:.' o.R N ' ! I } ;.1.:.5.+.+.5.7.+.' I Q { M ;.' X.1.^ x :.1.7.;.{ ' [ o.;.1.t.5.1.X.} 5.} ' :.Q a [ :.:.;.^ } } [ { } o.:.<.+.} } { 1.:.:.5.5.1.,.1.1.1.8.Q ' 1.5.1.1.+.:.:.1.5.5.7.5.6.6.6.8.1.5.5.:.:.1.:.:.1.X.5.5.o.X.:.:.Q } 1.5.5.6.1.7.6.>.' ! +.' ;.X.} R ' 7.:.>.' +.X.:.;.5.1.1.o.I ^ ' o.;.} ' :.} ^ X.} R 1.! } +.O.^ <.1.7.$.1.+.E r @ 1 1 : a M Q 3.} Q x M } :.5.o.;.V R ' ;.;.Q I :.:.V x <.<.^ T r 3 { x : , ^ O.$.X.+.} ^ b o.X.Q Q R b b R V I ' Q ! { ! ' [ { ;.:.;.o.X.>.<.1.1.1.1.,.>.1.1.1.:.:.>.:.:.:.:.:.:.:.:.:.;.;.o.[ M t I } +.} $.( ] ( >.$.b 1 t t 7 2 t 7 t t s N ( E E E E [ $.>...} | +...h $ + > u 3 y 0 $ @ $ @ $ : : 7 i & : : 3 t 0 7 ",
"| o.O.X.X._ ^ R R M d r 2 % @ @ % - % : : : : % - - - 1 r a x I R { +.} } o.{ ^ O.}  .o.T 8 2 : % : , : & , m } O.) | } O.$.&.:.<.<.+.1.&.1.:.1.>.>.>.:.:.<.:.:.>.>.1.:.,.1.1.1.,.1.<.,.:.1.1.1.} ! <.1.1.O.V s y 3 8 8 1 : % % @ @ o @ O O           @ G 2.2.5.1.5.,.5.,.1.,.5.5.1.1.1.1.5.5.1.1.1.5.:.:.5.5.1.1.1.5.5.5.o.^ } 5.:.+.5.1.>.1.1.^ 1.1.5.1.1.X.:.R I o.} R I } <.1.1.} X.:.1.+.! ' R ! I ' ' :.:.5.U ' :.1.:.+.o.:.7.:.:.1.8.7.1.^ ' 1.I I y } :.X.+.1.X.X.' ' X.} X.+.+.;.o.X.X.o.:.1.5.>.>.5.>.1.:.5.} I 7.:.7.1.1.1.1.5.7.5.6.5.6.5.6.5.8.5.>.o.o.5.5.>.1.+.<.:.1.:.o.' X.:.8.6.1.5.5.6.1.>.X.X.5.1.:.+.I X.>.:.1.' ' >.1.:.:.' ' Q Q ' 1.X.' } X.+.<.o.o.+.O.} 7.+.X.1.$.E O.$.1.2.1.<.X.~ y - % : % 1 s X.+.' b N ' R ^ X.o.' o.R R <.1.N I ;.X.R V V ' v 2 a F i @ d +.1.3.<.&.} [ R b ^ } R N b ! T R } ;.X.{ Q I X.:.:.o.;.:.:.:.:.1.1.1.>.1.>.1.1.>.>.>.>.:.:.:.:.:.:.:.:.:.:.:.<.} o.X.^ M M X.] ( ! +.$.$.$.} V u 2 1 > @ ; ; : 1 1 t y 7 t 7 2 u n U ^ ( ( | $.B 3 $ : u a p 1 $ $ $ $ $ @ : > ; : : > 7 y y ",
"O.+.+.X.O.$.+.+.$.+.+.O.) T B N d a y , , 3 r d M T ' } +.+.1.<.;.:.} } +.<.o.^  .+.+.<.M 1 1 : % @ % % @ @ i } 1.}  .) o.+.<.+.$.$.1.1.:.<.1.+.>.:.1.>.1.:.1.>.:.>.,.1.<.,.:.1.1.:.1.,.:.5.1.1.R X.1.5.+.~ i r r r 3 3 , % @ @ % % @ X X           O x 2.1.1.1.5.1.1.1.1.5.5.1.1.5.5.1.>.1.1.1.1.5.5.:.>.5.5.5.1.<.5.5.5.<.} ' +.:.:.1.5.1.1.5.^ ;.7.1.X.:.1.8.} } :.I ' N X.<.1.+.' ;.:.5.o.I ' { ! ' o.:.1.} +.! y a Q X.7.t.5.7.1.1.;.5.+.;.o.X.} V r R <.X.X.<.<.5.} Q X.o.' { } ;.o.} } } ' +.+.:.5.5.>.5.<.+.1.5.M :.:.1.:.+.+.:.5.5.6.5.6.5.6.5.6.8.,.7.<.} >.:.} o.1.1.+.o.} ' ^ 1.8.8.7.5.5.5.6.>.1.:.;.5.<.1.+.! 1.7.+.t.^ ' ' } ' } ' ! o.+.>.5.} ^ ^ :.:.:.+.<.:.X.+.1.1.1.} $. .} %.+.7.<.} T X.:.x O % 1 , : c V x M } } I } :.:.' ' } I } ;.:.M I 7.X.c x V s 3 _ V , X b } _ } } } ..X.) M ' ~ b V ~ ^ +.{ } ^ ' o.Q :.:.{ ' X.o.o.o.<.:.1.:.1.1.>.1.>.>.1.1.>.>.>.:.>.:.>.:.1.:.:.;.:.<.:.X.} ;.[ M N N M ( >.} | o.$.+.^ D U N s 2 ; ; ; @ > ; ; ; ; ; $ + $ : 7 u s b c b h @ + > a 7 : ; $ $ $ $ ; $ $ $ : : 3 y 7 ",
"o.$.+.&.+.+.O.X.} X._ } O.<.1.+.+.+.| | } | X.o.O.:.:.+.:.:.o.X.:.:.{ ;.+.1.o.) ^ +.O.1.d : 1 - : % % @ % X 3 } O.} } | +.$.+.$.:.:.+.:.&.<.<.<.:.1.>.:.1.<.>.:.1.1.>.1.:.1.,.1.1.1.,.<.1.1.:.:.Q :.7.:.R b y 3 3 , 3 , % % @ @ @ @ @ @             a O.7.1.1.5.,.5.1.1.1.5.,.1.1.1.5.1.:.:.<.1.>.1.5.>.:.5.5.1.1.:.1.5.1.1.1.} Q +.1.1.1.5.5.+.{ X.5.;.X.:.<.1.' X.:.R ' M ' :.>.} } :.<.o.} } ^ ;.R ;.{ ;.<.' ' ! M V d a x I ! ;.<.<.;.:.:.:.+.;.R V a 1.} ;.:.1.:.:.{ I } 5.' +.X.o.^ } X.I ^ :.1.1.7.5.1.5.:.o.;.7.N R o.o.;.:.1.5.8.8.5.6.6.5.5.6.5.5.5.6.} I ' 1.1.:.5.1.1.<.o.} X.1.8.5.6.6.5.,.5.5.5.:.5.5.+.1.I ;.5.1.+.:.' ^ Q +.X.:.o.;.<.X.:.:.} } } 1.O.:.+.1.+.} +.:.5.4. .} X.E $.1._ ^ } +.o.1.X.d @ : 2 : r y I ' X.[ ' Q ^ ' X.^ X.! ! <.<.} b ~ ' o.Q b 1 M O.b & a ) } _  .| o.| +. .! u v R ^ <.' R ' } ~ } { R :.:.X.X.+.o.} X.:.:.1.<.:.:.1.1.>.1.>.>.<.1.:.:.<.>.:.1.:.,.:.X.;.<.+.X.X.>.+.Q D R b n V ! o.$.5.$.( Q } >.} ] ^ V k s s 1 2 > > : ; $ ; @ ; : 2 2 7 7 c 3 . @ ; : > > : $ $ @ $ ; $ $ : ; > 7 , ",
"O.+.o.o.+.+.$.+.X.X. .+.:.+.+.o.+.+.O.+.o.+.o.+.O.} +.o.+.+.:.+.:.X.} :.1.<.$. .! o.&.+.3 1 % 1 @ % @ @ % @ , } O._  .o.$.<.+.%.%.$.<.&.:.1.$.$.+.1.1.>.>.1.>.>.<.>.1.,.1.1.1.:.:.1.,.1.:.1.:.o.' 1.1.^ v 0 , 3 , 3 2 3 , % % % @ @ o X         O % ) 7.<.2.1.5.5.5.1.5.2.>.>.>.1.1.1.>.:.:.:.+.1.1.1.:.>.5.5.5.1.1.1.5.:.1.5.+.' ' :.1.1.1.1.} } ' ;.:.1.5.1.1.Q } +.X.} I ' :.:.X.:.+.<.;.;.o.I X.! ;.X.;.o.7.o.o.[ o.:.} ' x 2 x R :.<.;.:.<.:.<.^ r I :.o.:.1.+.1.:.;.o.' ! ' X.} } ^ :.1.' ! 5.6.7.5.7.5.1.;.} +.} M } 1.:.1.1.8.8.5.5.6.5.5.6.7.5.6.8.7.:.' ' o.:.1.+.1.1.:.' ' :.1.:.8.5.7.6.5.>.1.1.5.+.1.5.1.' I :.<.+.X.Q ^ ' } 1.:.7.:.+.X.X.7.;.X.<.+.:.' ;.:.1.:.' +.+.1.1.5.X.X.X.X.} { o.) T ^ } O._ b : 1 1 : % M } ;.} ;.<.' R ^ ^ o.o.c ;.<.5.;.s V o.' V : R ) i , ^ +.) ^ | +. .O.1.} E a  .o.{ &.O.{ } X.~ ' R } ;.o.:.<.<.<.<.:.:.1.:.:.:.:.>.1.>.<.1.1.>.>.1.>.>.:.>.:.:.:.;.X.o.:.:.o.} X.>.[ c d ^ } ] E N V ] $.>.} Q ] $.o.+.+.1.>...R D Q E n u u 7 > $ @ $ 2 > > 3 y > : $ $ : ; : $ + $ @ @ @ @ ; $ : > > ",
"+.+...o.o.+...+.+.+.+.O.+.+.O.+.+.+.O.$.X. ...+.O.O.+.+.+.+.:.:.o.;.1.<.<.+.$.$.!  .<.} 1 : % 1 % : @ % @ X d %...} O.1.%.$.+.:.$.+.&.+.:.<.1.+.>.>.1.1.1.1.>.:.:.1.>.1.1.:.,.<.1.1.<.,.1.1.1.} [ <.X.V a , , 3 , 3 , , , : % - @ X X X         @ c <.2.5.1.1.1.1.5.>.1.1.>.>.>.1.:.1.1.1.>.;.X.>.1.5.:.:.5.1.1.1.:.>.:.:.+.+.+.:.I :.1.1.1.:.;.o.R } 5.7.1.1.5.Q o.;.} ;.' R } ' } ;.' X.+.7.,.' T R :.O.;.:.<.! Q :.1.,.7.:.! x 1 : a ^ :.:.;.} :.R a :.7.} ,.8.X.X.;.:.1.X.I I } :.1.<.o.:.5.' 5.6.5.5.6.5.5.:.} o.} I t.1.:.X.+.6.8.5.7.5.7.5.7.5.5.5.8.,.X.:.:.' ;.7.+.1.:.1.} :.8.1.X.8.5.6.5.>.>.1.1.1.X.5.1.8.R +.1.:.+.<.} 1.5.+.:.+.;.8.5.+.O.1.+.:.5.X.X.^ :.1.1.+.[ O.+.<.&.5.+. .R R +.X.|  .| o.O.1.5.+.x : 1 : @ : x { [ ! ' 5.X.I ' <.o.' I :.;.o.T s ' X.v @ T ! y % ) $.) ^ _ +.O.^ o.+.R b } 1.X.<.1.} ' ' ! } M Q X.o.1.+.o.5.5.1.:.:.:.:.:.:.:.>.1.1.:.>.1.1.1.>.>.>.1.:.:.:.;.X.} o.:.o.} X.o.+.U y | } +.+.o.] U V Q +...n U +.$...o.} $.>.Q ^ | 1.2.$.| R n h 7 > ; > o 2 y y > $ @ @ @ @ @ $ $ @ $ @ $ : : : & ",
"O.O.+.O.o.O.+.+.+.+.O...+.+.+.+.+.O.O.o.o.| O.o.o.o.o.+.+.:.o.X.O.;.:.:.:.+.<.+.} ! X.) r 1 1 1 @ : @ % o % E $.} | O.$.+.1.+.+.+.1.<.1.1.+.5.+.1.<.>.>.:.>.>.>.1.>.>.:.1.:.1.,.1.:.1.1.1.1.1.^ ;.X.V d s a 3 , , 2 , : : % @ @ @ O X         X y } 1.1.1.1.3.5.5.1.5.5.5.1.:.>.1.+.:.1.>.:.:.} :.>.>.>.:.5.>.>.1.+.X.>.:.+.<.1.>.^ X.:.:.1.+.+.:.R ,.7.1.5.1.1.Q X.;.:.} :.I X.' X.:.o.' >.5.7.X.c ^ ;.} <.:.X.} ' X.:.:.' U R :.' x M 1 x ' ' } :.M b :.:.' 1.1.:.:.1.O.;.' ! } Q 1.5.:.} ;.5.} >.t.5.6.6.5.5.;.+.1.' I t.5.:.+.>.5.6.8.5.5.5.,.,.o.' [ X.X.X.5.1.;.+.:.;.:.:.} ^ 1.5.8.:.:.8.8.7.>.6.5.7.:.X.1.:.X.^ 5.1.:.1.;.+.1.5.+.X.:.1.5.1.1.:.:.+.X.1.} o.X.:.1.5.X.} +.:.o.+.5.&.<.| E } O.+.1.o.| 5.5.<.<.T r % X @ ; r b ' ' X.<.<.+.I ! X.X.I ' :.' ! ' a I M 2 b R , , ^ <.} } F W $.X. .O.b R ^ X.} 1.:.<.X.' ' } I ^ } :.<.+.:.1.<.1.:.+.;.:.:.1.1.1.1.1.:.:.>.:.:.>.:.:.:.1.1.:.,.+.} } :.:.} } o.$.^ s ^ o...+...>.$.[ ] D R U Q N ] >.>.$.o.| ( ( o.$.>...$.1.>.$.o.( U t u 7 3 2 > : $ $ $ $ : ; $ o o @ $ $ ; & $ ",
"+.O.+.O.O...+.+...O.%.O.+.O.+.+.+.O.+.O.+...o.O.O.+.+.+.+.o.O.o.+.:.:.<.:.<.o.1.o.) } ) r 3 1 : % % o %   i X.} } %.$.%.+.+.O.1.+.O.1.^ E +.+.<.:.>.>.>.>.:.>.>.:.>.>.>.>.>.1.>.<.1.>.1.1.1.5.^  .V i b i 8 , , , : , : @ @ X X             X : { %.1.1.1.1.1.1.1.5.1.5.1.5.:.1.:.:.:.<.:.>.1.+.5.>.+.;.:.1.<.1.1.+.+.+.;.:.+.:.:.+.' 1.:.X.X.} ;.^ o.5.5.1.<.1.Q ' o.<.X.1.I ;.;.o.<.} { ,.1.7.' a ' ' I ' I Q ' ' ;.{ Q ! :.o.! :.I ;.! r x x } ' r ' +.;.' 5.8.o.o.<.} ' ' } 1.' ;.+.:.X.o.7.} +.5.5.6.8.>.5.+.<.1.x ! 7.5.:.:.5.8.5.8.5.+.} Q Q ' +.1.;.t.5.+.:.:.<.1.:.;.5.I ' t.1.7.;.:.8.t.8.1.1.5.1.} :.+.5.I } 7.+.o.X.} +.;.X.X.+.5.1.:.:.1.1.:.' ' X.' 1.:.+.:.1.} +.1.1.:.+.1.$.1.%.O.R O.X.:.R <.$.1.X.d T | N @   O - 1 x ' ;.<.<.<.^ R I ' R M :.I [ 1.R r r r s N , : ) %.+.&.^ n R 1. .( i ^ ! | { 1.&.$.{ ' ' ' I X.' ' ;.;.o.:.:.:.:.:.;.X.+.:.1.>.1.1.>.>.1.1.:.>.:.>.>.>.:.<.<.:.X.' :.o.' X.o.>.^ c U [ +.] } X.>.>.,.+.} D c t u V ^ ] $.>.2.] E o.+.$.$.$.$.o.$.>.$.B ^ ..E 7 $ : +   o @ > 7 > @ + o + @ $ $ @ ",
"+.| +...+.+.+.+.+.+.+...+.+.+.+.+...+.+.+.O...+.+.o.+.+.+.o.X.+.:.:.:.:.+.+.o.5.$.o.+.^ 2 1 : : : X @ @   V  .~  .&.$.+.$.<.+.o.<.$.R M E <.<.:.>.>.>.<.>.1.>.>.>.>.>.>.>.1.>.1.1.1.1.>.1.+.1.! ^ v y 8 < , o o % % % % @ X X X             @ V 1.1.&.<.1.1.1.5.5.1.5.1.5.1.:.1.;.+.<.1.1.1.1.:.:.>.X.X.+.<.1.1.:.o.:.X.+.o.X.:.;.o.R 1.5.o.:.o.1.' ^ :.5.1.1.7.Q } :.5.} 1.R } 5.1.} Q ' } :.:.Q M ;.' } ' [ :.o.o.[ R [ ;.<.;.! X.I ' ! M r a I x c +.} } ' +.5.<.o.:.} ! } ;.:.o.' X.1.<.o.:.X.X.1.5.5.5.5.5.X.:.' b ;.1.+.} >.5.5.8.1.X.} ;.1.5.1.8.7.:.1.1.:.:.+.1.+.:.7.X.X.:.5.5.<.o.X.+.:.7.8.5.5.X.X.:.:.o.! >.>.;.+.1.:.>.1.o.} X.:.<.>.6.7.:.;.o.X.} } :.[ [ +.;.} :.:.X. .o.1.5.1.1.<.^ } } E X.2.1.~ V ^ +.1.| R 3 O - - ; x { <.;.X.;.;.^ V o.R x b Q ;.<.I 1 1 b ~ v y } } O.$.O.~ V E } V v ! O.| ^ O.1.o.} } { R x ' ' } :.:.o.1.:.1.:.<.:.} +.:.1.1.1.1.<.>.>.>.1.>.1.1.1.1.:.1.;.:.:.' ;.o.X.:.+.+.c D D U ] #.#.] [ ] [ ] X.} } N : d V m N M D E U E $.$.$.$.>.$.$.>.#.V E X.U 2 > h N u ; + + : : > ; $ o + $ $ $ ",
"+.+.+.+.+.O.O.+.+.+.O.+.%.+.+...+.+.+.+.+.+.+.+.+.+.+.+.+.+.+.+.:.:.:.:.+.+.$.&.o.o.} v : : 1 % @ X @ X , ) E ) +.$.O.+.1.%.+.2.{ b M ) 5.1.$.:.:.:.:.>.>.>.>.>.>.>.<.>.:.1.1.>.1.<.1.$.1.1...R V d 8 : : % % @ @ % @ @ X X                 r O.+.1.1.$.&.1.1.5.5.1.1.5.1.1.<.:.} X.1.1.1.1.1.:.X.1.:.+.X.;.:.1.<.O.X.' X.:.1.1.+.;.R } 1.X.<.o.:.X.Q +.X.o.o.:.Q o.:.1.O.<.' o.5.X.} +.} Q ' ' x c I ' :.' ' } 1.' ! o.+.+.1.5.1.X.I I ' 1.R - r : R o.' ^ } } X.X.' ' ' R X.<.o.} Q ^ X.:.+.o.X.o.:.5.5.5.7.:.:.X.s ' 5.:.X.} >.1.6.>.^ ' 5.t.<.:.:.8.1.5.:.1.7.1.+.1.} +.1.+.+.:.1.1.5.:.+.:.+.+.+.:.1.X.5.+.+.' ' 7.5.+.X.:.+.+.:.1.+.X.+.1.8.6.7.>.;.:.+.} ;.o.! Q } [ ! } X.^ ! R ^ +.&.1.} ) } 1.+.O.} I E 5.2.7.1.} o.^ r + + - 1 I  .;.' } ;.<.' b O.N r a I ! c d : y ) ) v ^ ) } 1.3.F T V R ^ s ^ } } ^ ! } <.+.X.} R M X.X.o.:.;.o.1.1.5.:.1.+.X.:.:.:.5.<.1.:.:.>.:.:.:.1.1.1.:.:.:.+.o.o.} o.o.:.,.+.+.u E c M ^ ,.$.$.$.o.| +...] V d b ] 1.o.} ( ^ A n s n N ^ ( o.$.| } ] b a u 2 t R o.2.| D y : $ + ; 2 : $ @ o o $ ",
"..+.+.+.+.+.o.o.+.+.+.+.O.+.+.+.+.%.+.+.+.+.%.+.+.+.:.+.+.+.+.+.+.+.+.;.+.+.+.+.<.o.~ 2 : % : @ @ @ o   d  .F | +.&.O.&.<.+.1.) d M } $.+.<.%.:.:.>.>.:.:.>.:.1.>.>.>.>.>.>.1.>.1.1.<.1.:.<.' N 8 y , , : o % & & % @ o X                 : ~ 5.1.<.1.<.&.1.1.1.1.5.5.,.1.1.>.:.' X.1.1.1.1.:.1.X.:.>.1.+.;.+.;.+.X.;.o.o.:.7.1.:.1.} ' 1.:.+.' +.+.~ ;.X.o.} X.I o.:.+.;.5.{ } X.X.:.7.:.X.! ' x I M [ X.o.X.} ! Q :.<.+.1.5.<.5.7.X.R } ' ! x ; - I :.' R ;.1.+.} X.Q ' ' +.<.' } ' X.X.:.1.} +.:.;.5.5.7.t.:.<.V I 1.+.;.:.X.+.1.:.U Q >.1.5.5.8.5.8.5.1.+.>.5.<.:.1.X.:.o.} :.;.5.<.7.:.1.8.1.;.X.' X.' X.' } V ^ :.1.:.:.>.1.1.1.:.o.:.1.1.5.7.<.:.:.o.' ^ } } o.} :.<.:.5.2.5.5.! R ' Q X.O._ ^ O.O.R s R $.+.O.1.<. .o.1.^ a 1 ; - - M ;.Q Q }  .X.R M M 1 x X.' c I x , b R k v R ) | _ V F T V ! s ~ } { F N } :.;.} } ' I X.o.;.X.}  .1.1.1.:.1.+.o.1.1.:.1.:.1.:.:.:.:.:.:.>.1.:.:.1.:.:.o.} X.X.o.o.>.+.+.t ] u b ] >.>.>.$.&.:.+.o.} a N o.+.$.$.o.+.o.} | +.D m b n d d d u c < 7 U ( | $.$.| $.$.E h t ; o $ ; > : $ @ @ ",
"O.+.%.+...+.+...O.+.+.+.+.+.O.+.%.+.+.&.%.+.+.%.+.+.+.+.$.+.+.+.:.+.$.+.$.$.$.%.+.} v : : % % @ @ o @ @ G ) R 1.O...O.%.$.1.T a R $.<.$.<.1.+.1.:.>.:.>.,.<.,.:.1.:.,.1.1.1.,.1.1.1.<.1.<.^ V i 3 8 : 2 , 3 1 1 : @ @ X X   o           @ V +.:.1.$.1.<.:.:.1.1.,.1.1.1.1.:.:.;.o.X.:.1.1.>.<.:.o.+.1.1.;.1.:.' ' } 1.7.:.:.8.<.:.:.:.! 1.:.+.' X.o.R :.;.<.X.} Q ' } X.:.<.o.I U :.o.:.;.1.o.I I X.} R N R Q I X.} 1.5.:.>.1.5.:.1.} Q { { X.Q a 1 a ^ ' ^ >.5.7.,.8.Q } :.;.o.' ' 5.7.;.' X.I o.t.' 1.7.7.7.5.' x :.1.X.' o.+.X.[ N I >.8.5.5.5.6.5.5.5.+.+.:.1.5.+.1.:.8.+.[ 1.:.:.:.5.+.5.1.5.5.5.:.+.o.X.} ;.I } >.' +.:.<.5.:.+.o.+.+.>.5.6.6.>.1.:.X.' } o.<.:.<.1.+.1.5.1.1.1.o.o.+.} [ ~ V N M b a I x N T V Q T M ! ^ ' I 1 - - - 1 c :.' ^ X.{ ^ M v - r  .O.V ' B 8 : r b i B F R ^  .| ^ V R d T I v b ^  .+.X.+.' } I ' :.;.} } +.;.<.1.:.1.+.+.:.1.<.:.:.,.:.;.:.<.+.:.<.<.:.:.:.:.:.X.^ +.' ] } [ X.o.a ^ s y ! ,.,.,.>.$.+.$.1.| h o.o.o.| o.| | $...] $.( ^ ( $.] ..| ..| E b | $.$.o.$...+.o.o.D t u 7 : @ $ ; : $ $ ",
"+.+.+.+.+.+.+.O...+.+.O.+...+.+.+.+.+.+.+.+.+.+.+.O.+...+.O.+.<.+.+.%.+.+.O.+.+.+.E 8 & % @ @ o   X X 8  .R {  .$.1.+.$.1.b a | 1.$.1.1.1.:.&.+.>.:.:.>.:.1.:.1.:.:.1.1.,.<.1.:.<.1.1.1.{ M d 8 8 3 r , , 3 , & & @ @ X X X           X d +.1.1.1.1.+.<.:.:.1.1.<.,.1.1.:.:.o.} X.} } <.8.1.;.o.+.} :.<.:.<.1.:.X.+.1.:.1.+.:.5.1.X.1.^ X.:.1.<.:.} V o.<.<.} I Q o.} ' ' ' Q a I :.o.:.:.+.:.V ;.:.} } :.+.M ! t.:.:.5.1.<.5.7.:.1.' ' :.X.;.X.! r - c [ X.5.,.7.:.X.I } :.<.<.X.;.;.I y 1 r 1 a ' } 7.<.:.,.:.x R ;.} 5.X.{ } N b ' 5.8.5.1.1.1.1.1.1.1.X.:.>.1.1.1.:.X.1.:.:.X.+.' :.>.+.6.5.8.5.1.:.:.<.:.:.} } +.X.' X.:.>.<.+.+.X.X.+.1.5.6.5.>.1.+.+.+.:.1.5.+.1.:.:.5.:.<.1.>.:.<.1.:.1.:.:.+.Q Q ' :.' +.5.<.X.R ' I M I I I r O + - 1 c } ;.<.:.o.~ s - O V } R ^ b s i y y y , V |  .+.O.R | ^ v y r b R X.+.o.} } X.^ I ! +.X.} +.1.1.1.:.:.1.+.1.1.>.:.1.1.:.1.:.o.+.+.:.:.:.+.+.+.+.:.X.R +.! Q I Q ,.} t } x r ! ,.>.$.$.$.>.$...} p | $.$.o.| } ( ] +.$.| ] / N ( o.o.$.$.o.^ h | o.| $.+...$.+.E d t t u t $   . @ o $ ",
"o.o.O.+.%.+.+.O.+.+.+.+.O.+.+.%.+.+.+.+.+.+.+.+.+.+.+.1.O.+.:.%.+.$.:.+.+.O.$.O. .d % & % % @ @ o X @ R +.n | &.O.$.O.^ d v } O.+.1.&.1.1.$.+.1.>.:.>.>.:.<.:.1.<.,.1.:.:.1.:.1.$.+.1.o.T b v d 3 , 8 2 , , , % @ X X X X X           : ^ 8.>.1.1.1.+.+.1.:.1.1.:.:.1.1.1.:.:.o.;.:.} } X.:.1.+.' ! o.:.} } :.^ M I ' o.1.:.:.;.:.:.:.{ ;.:.+.:.X.X.^ } o.o.;.V R :.<.;.X.5.:.s ' :.:.1.:.+.O.V :.X.Q ' +.! [ X.1.:.:.} :.5.1.>.,.5.X.:.<.:.<.:.;.! r ; N U :.5.7.:.' ' 7.' ! o.;.I r a I ' I ' t r t x I X.:.} r ' 7.:.^ ' R N R } 6.8.5.>.1.1.1.1.1.1.+.X.1.1.:.1.1.:.} :.1.5.+.1.X.1.+.+.7.5.8.1.1.:.1.5.+.1.} 1.+.' +.+.:.:.:.+.:.;.o.o.7.>.5.7.5.>.+.<.1.:.+.<.;.1.X.+.1.+.+.1.+.<.>.1.1.1.+.:.X.Q ' +.o.! X.+.X.} ^ >.+.X.X. .;.} s - - - - s x R O.:.X.a @ O s R Q ) R v 8 d v B 3 d ^ X.} O.} } ^ y b v b N F +.} } X.{ ' b I } X.X.:.>.:.1.:.+.5.+.<.;.+.;.<.:.:.:.:.X.' +.+.:.+.+.+.+.+.:.} I +.X.+.} ^ U ^ x ] c ; Q ,.>.>.>.;.>.$.>.[ h } ..$.....| ( } ( | ] ] ^ D b ] $.| o.$.^ u | | $.o...o.R c b ( c 3 2 3 7 3 + . + + ",
"O.o...+.+.+.+.+.%.+...+.+.+.+.+.%.+.+.O.&.+.+.%.+.+.O.o.o.+.+.+.%.+.+.%.$.$.%.$.R : : % % @ o X @   i +.| V <.%.O.1.E y a | +.+.5.<.<.1.1.$.:.:.:.>.:.>.1.:.:.:.:.:.:.1.:.:.1.:.1.5.$.! b i 8 8 2 : , , % : : @ @ X X X           X @ ! :.1.:.1.:.5.+.o.:.1.:.:.:.:.>.1.1.:.:.:.1.1.5.+.' X.:.} ' Q o.o.} o.+.} } ^ R ' ' ^ o.} :.o.;.' +.' X.X.o.+.R } :.o.' c Q } ;.1.o.5.1.M +.+.:.1.;.} ^ ! ;.{ :.;.X.} +.+.+.:.:.X.' 1.5.5.1.:.[ :.5.7.<.:.:.:.T - 1 x [ 5.:.X.' :.t.X.o.' r r ! :.7.5.' [ I } } x a r y r d ;.} I s V o.1.>.1.1.+.1.+.>.5.5.1.5.6.:.:.1.1.+.:.:.X.X.:.:.<.:.+.1.+.:.+.5.5.5.<.1.:.1.1.:.<.+.:.+.} ;.o.X.:.+.:.:.;.o.o.5.>.1.1.5.1.+.1.<.+.o.1.1.7.:.X.:.+.5.1.1.1.:.>.1.+.X.} ' +.1.:.<.^ +.1.:.<.:.X.} X.;.;.O.;.{ s + - - @ 1 1 R +.E r @ O r d T } <.V 8 r , d % : 8 B  .) } E 3 d ^ O.V d b ! V R ^ U R x [ :.:.1.1.1.:.>.<.:.1.X.' } +.:.:.:.:.:.:.+.Q +.:.:.;.1.:.+.;.:.o.I +.;.+.o.X.U X.c X.s ; ^ >.>.>.+.$.o.$.1.U D $.o.$.+.+.$.| o.| ^ G E } | c S $.| o.$.( d | | $.o.>.E 7 s D V > u h 2 h c 7 $ $ $ ",
"| o.| o.o.O.O.+.+.+.+...+.O.+.+.$.$.+.+.+.O.$.%.+.+.O.+.+. .+.+.+.$.+.+.<.$.$. .d @ : % @ @ @ X X @ G 1.X.E O.$. .V y b o.O.$.1.<.$.1.1.1.<.$.:.:.:.<.:.<.>.:.:.>.:.,.:.<.:.:.:.:.:.^ x r 3 , 2 , 1 & % @ @ @ X @ o X X             s <.1.+.<.1.:.5.:.X.o.1.:.<.:.:.:.1.>.1.:.+.:.:.:.1.:.X.o.:.X.^ ' } +.1.:.} [ ' X.:.;.Q R ' ' ! I M :.<.:.:.! X.Q ' <.<.} I ^ T Q { ' } ! x X.:.5.<.o.o.R +.} { :.:.X.' :.+.+.1.+.5.' } 1.5.1.:.} >.7.6.:.>.5.1.:.N ; r x I Q R ! :.X.I x r V X.:.:.:.7.:.' ' :.1.' X.<.x - a r r x Q 7.5.;.:.<.<.:.o.1.1.1.5.5.5.7.5.:.1.1.:.+.o.} o.:.<.<.5.} 1.+.5.o.:.5.1.:.1.1.1.:.;.:.<.:.1.1.} X.X.+.' X.<.o.;.o.1.5.1.5.5.1.+.1.:.;.;.1.:.<.1.} ;.:.,.,.1.5.1.1.1.1.1.;.+.:.:.:.1.' :.7.1.;.:.o.} 1.5.1.:.;.:.} x ; - @ 1 - v +.R 1 @ % v s i N E v d 8 , V V i 2 8 i m { y b V V { V b V ^ } ~ Q R x b [ +.:.+.<.>.:.:.1.1.+.} } o.:.:.:.;.:.:.+.:.' X.<.:.o.<.:.:.;.<.+.R ;.<.:.X.:.o.+.s ^ r c ] ;.,.:.;.>.+.| U V ..+.o.$.O.+.+.....} ( ` o.| ..] D } ..+.$.| c ( o.$.+.E 7 > k V ! Q V d s u s h y > O ",
"| o.o. .| o.o.+.O.+.+.+.O.$...+.O.+.+.%.$.+.+.+.+.+.+.+.| R ) $.+.%.%.+.+.+.O.~ , % @ @ @ @ @ X X 0  .&.| V ~ ) v 8 N $. .$.1.1.1.<.1.1.&.$.$.:.:.:.:.<.:.:.:.:.:.:.:.:.:.<.:.<.<.[ x y r 2 2 2 : % @ @ o @ X X X X @ X           % _ 1.$.5.<.1.:.>.1.+.} :.1.<.:.+.:.:.:.1.:.+.,.5.5.7.:.o.o.:.o.' ' ;.<.+.;.+.{ X.;.[ X.:.:.[ ' ! } ! ! 5.} <.! { ' Q o.X.Q I ! ' ' ;.} ^ I r I :.<.} X.;.N O.{ ;.<.o.+.;.X.+.} 8.o.5.} ' o.5.1.:.} >.6.t.1.:.:.5.7.;.a 1 r a b b x I c - x X.1.1.5.:.>.1.1.^ ^ ' o.X.' Q a ! I I d M ;.<.<.<.:.:.:.:.[ :.1.1.7.7.6.6.:.X.+.:.<.+.X.} o.;.1.:.1.:.:.:.:.o.:.<.5.:.:.7.5.X.:.<.1.1.:.1.' 1.:.o.R } 1.X.<.;.:.5.1.5.5.:.+.5.:.:.+.<.;.:.:.^ +.1.<.7.<.1.1.1.1.1.:.+.:.:.1.1.:.} 1.1.:.:.<.+.o.5.>.<.1.1.:.;.o.x O - + : @ a b % @ % ^ b r r 8 y 2 , b E +. .B 3 3 8 r d I Q T { R V E R O.} O.^ R a o.} X.X.:.>.:.:.:.:.X.} :.;.o.:.:.:.:.:.:.+.o.{ +.:.X.X.o.:.o.:.:.R o.:.5.o.;.' X.M a x } } X.>.,.;.>.>.R c  .$.|  ...+...%.| ^ ^ ..+.o...} } R D o...+.+.n ^ $.| / t a ^ ......$.( h u t a h b h ; ",
"o.O.O.o.O.| | O.+.+.+.+.O.+.O.+.+.+.O.+.O.+.+.+.O.$.O.+.+.V V } 1.| $.+.$.$.E 3 : @ % @ % X @ X : V $.O.$.R : %   , G } X.O.O.+.$.+.&.+.+.<.<.+.;.:.<.<.1.>.:.1.1.:.:.,.:.;.<.;.X.M y r 3 1 , , : % @ @ % @ o @ X @ X X         X G 1.+.:.1.1.1.1.<.>.1.;.o.;.5.+.:.:.<.;.>.+.:.:.1.1.:.<.1.o.+.:.' ^ ! :.o.' ' X.:.X.X.Q { t.<.;.o.1.o.I o.Q Q I I } ' ;.:.c ' ;.;.X.X.' ;.[ c x ' :.} ' Q M } +.X.:.<.1.<.:.o.' } <.+.1.X.X.X.5.:.} :.6.1.1.1.1.1.1.Q ! x 2 r r r a M I M ;.<.1.5.5.5.:.1.5.:.I I X.' ! r R ' I ' ;.I Q ;.<.;.} o.1.o.o.1.1.1.>.>.5.:.X.:.:.:.1.5.} R +.:.1.1.:.:.} 5.;.' } :.1.1.1.1.o.o.5.<.1.1.5.1.X.' 1.+.O.Q +.} +.:.+.1.1.1.1.:.:.5.+.X.1.:.o.:.^ ' +.7.1.5.1.1.1.5.1.1.5.:.+.1.5.:.;.+.1.<.:.5.5.o.:.1.1.1.1.>.:.:.:.X.x + - - @ @ - - - @ ~ R 2 r 8 1 % X 1 V ^ W F B , 3 y d T ^ ) } ) ~ ! X.} } o.^ } V ;.:.o.} :.<.:.>.:.:.^ +.+.<.o.} :.;.:.O.+.+.' } [ +.} o.X.X.o.o.:.Q } :.o.o.:.X.[ Q t ] +.o.X.} } X.X.^ V ( %.+.%.O.| %.O.^ _ D ( +.+...| o.| | V R o.$.$.h ^ $.( y s } | $.+...$.( N u u u h b c t ",
"| O.o. . .o.| o.O.+...+.+.+.+.+.+.+.+.O...+.+.+.+.O.&.o.O.^ r R 1.O.<.+.+.%.b % % % % o o @ X X y X.O.O.R y @ % % % % : 2 r d b B T R ! ) ' { } X.X.;.;.1.1.1.1.1.:.1.:.5.:.<.X.I r r r : @ : 8 8 , % @ @ X @ X X             X v +.&.<.:.<.1.:.,.1.:.1.1.:.} 1.} +.1.1.;.>.+.:.>.<.<.1.5.:.:.} ' } ^ ' ' >.<.' I ' ' ' Q { <.;.:.;.o.} I R X.X.{ N M ! o.X.I X.;.<.{ ;.I X.I I N R I Q ' c Q ;.<.:.o.:.1.:.1.:.;.Q Q :.:.5.+.' :.1.[ +.1.5.1.5.1.5.Q X.:.' r ' R x x x Q I X.7.>.1.:.1.8.1.+.1.+.N ' X.r s ;.' R ;.} X.X.I I { o.R R ' :.1.:.:.5.:.X.+.:.:.1.:.:.:.;.} ;.:.+.7.1.<.o.:.:.} X.{ :.1.<.;.o.:.5.1.1.1.1.1.+.} ;.:.5.X.X.} O.:.1.1.5.5.1.:.:.1.o.+.:.:.:.o.^ } X.5.5.1.,.5.1.1.1.5.5.:.+.1.1.5.+.:.1.:.<.1.5.:.1.:.:.>.>.1.1.:.:.+.;.I - % @ @ % @ @ @ a r , @ 1 @ % , @ % 0 B ^ F 3 , y 2 s N } ^ ^ ^ R +.! ! ^ ' o.I o.:.:.:.:.:.+.+.;.+.' :.:.X.} o.o.:.:.;.+.;.^ ! ^ +.X.X.o.} X.o.:.Q ' :.:.<.;.X.' c x ^ ^ U U D U Y R R ) | O. .O. .$.} ^ O.} } X.| | o.%.| o.O.E k R o...V n ( y y ] | +.+.$.$.| ^ ^ c u p h c n n ",
"o.X.X.o.o.X.| o.+.o.+.+.O...+.+.+.O.+.+...+.O.+.+.+.+.+.$.+.d v X.O.1.+.+.^ r % : % @ X X X X @ T  .F y % o y F b y 8 % X X X X O @ @ @ @ : 3 r r a x c I Q ' } :.1.,.:.,.,.X.M r : 1 : % , 3 i i , : @ @ o o . X X           , | 1.&.1.>.:.>.>.:.1.1.:.1.1.o.:.} :.>.>.:.:.:.:.>.>.1.1.1.1.:.} R } ' ' ' } } ;.' R Q X.! I ' 5.} } R } { I o.o.:.X.r I X.I ^ 5.<.o.;.<.R Q c b M ;.^ N I x } :.;.:.X.:.:.1.5.5.X.o.R Q } ;.<.+.[ 1.;.:.:.5.1.5.1.R } 8.o.:.a ' ;.' ' I [ I R 7.5.<.1.+.:.1.:.1.+.X.! r a ^ ' R I Q ! } } } } Q b b R ' +.1.:.1.5.+.} +.+.;.:.} o.5.:.o.5.5.1.:.:.6.5.;.1.o.;.} 1.8.:.X.:.7.5.1.5.>.5.1.:.X.X.:.1.;.o.o.X.1.5.<.1.1.1.:.1.:.+.+.:.:.:.X.;.:.} :.7.1.1.1.1.1.1.1.1.:.:.1.5.7.X.:.5.:.1.1.1.1.1.:.:.:.1.>.1.:.:.7.7.<.M 1 @ @ % @ @ @ - X , 3 V d 3 d y 8 i @ % @ y ~ V d 2 y ~ +.} R F O.{ Q R ' +.! o.X.:.:.:.:.+.o.X.X.X.+.:.X.' X.o.:.:.:.o.:.' Q ' X.X.o.;.' X.X.;.Q Q :.+.o.;.! x t s N ^ ^ $.+.>.+.R ^ o.|  .%. .%.) ~ %.%.| +...X._ }  .| O.o.O.l 7 ( } E d B 3 ^ $.$.>.o.+.o.( ^ | ^ s t d c b c ",
" .O.| O.| X. .o.+...O.+.$.+.+.+.+.+.+.O.+.O.%.+.+.O.| O.o.O.Q y N ' &.+.$.d , : % @ @ X X X o 3 b , , < v ^ $. .$.1. .} } ' R V M v d a y 3 1 1 1 ; - - + : 1 2 a I ;.:.<.;.^ a r 3 2 : 1 r , : : & o @ @ @ o               X G 3.o.<.o.1.1.<.1.1.1.1.<.1.1.:.X.' <.1.>.:.1.:.<.>.1.5.:.1.1.o.:.' ' ^ R } O.' } [ ' ' :.5.X.I ! ' ^ } O.;.R ' ;.:.:.c b 5.V ' :.<.} <.} { M ! I I :.} ' M M :.1.:.+.+.:.<.1.+.+.X.o.X.} I ' +.1.' } <.X.} 5.5.<.^ I 1.:.1.:.M ! X.;.:.Q X.I I 1.5.:.:.1.1.:.:.+.X.' x a X.;.I M ' ' o.+.X.o.X.' } o.<.:.>.>.+.5.:.+.>.1.>.:.:.} } :.:.X.1.;.1.1.<.1.1.+.5.O.<.o.:.5.} } :.8.5.1.5.5.1.5.1.:.' +.:.o.o.<.X.:.8.:.:.1.>.:.5.:.:.X.:.1.X.X.:.1.' ;.1.1.1.1.5.1.1.1.1.<.>.1.1.:.X.>.5.:.1.<.1.1.5.1.:.:.>.>.1.:.1.1.;.<.O.N 2 - - @ % @ @ - N V O.^ i i s 8 { ) R d N F E { i 3 r Q ^ ^ X.R o.Q V } o.' } o.:.:.<.:.:.+.X.} +.+.X.} ' ' } o.:.<.o.:.X.U R ' } ;.:.^ X.} +.Q R :.:.:.:.I r U N V X.+.+.+.$.! ! o. .|  . . .) ~ { %.O.$.O.O.|  .} } | |  .$.^ 2 n o.U : 0 n +.| $.| ..| } ^ } | ..( c y s h h ",
"o.| | O. .o.o.o.+.O.o.O.O.+...+...O.+.+.+.+...+.+.+.+.+.O.+.X.b y d ~ O.^ , % : @ % X @ + X : : : 3 E $.$.O. .1. .| 1.$.:.+.+.o.O.+.1.&.<.+.o.:.X.^ T I b s r : ; - r I 5.' c a a r 1 3 3 3 , @ @ @ . @ o @ .             X d O.5.%.&.X.>.:.>.1.1.1.1.1.1.:.:.:.' +.5.>.;.:.:.1.1.:.1.1.1.:.+.1.:.I I R ' :.:.;.Q N ' ;.;.X.R I R { ! ;.1.:.Q :.;.7.;.r V ! o.5.:.' :.Q R M Q N Q } ' { I ' 5.5.:.X.+.:.1.:.X.} o.:.;.+.o.R Q :.} ^ 5.:.:.5.} Q I R 5.1.:.o.^ ' o.:.;.I I r c R ^ o.} :.5.+.} O.o.y r I :.Q ^ ^ ' } 7.1.' ' O.<.1.X.+.o.:.:.+.+.[ [ } X.1.:.>.5.:.;.o.X.1.+.:.1.1.:.o.} +.X.:.<.:.1.X.X.;.1.1.5.1.5.5.1.<.:.' } :.:.} ;.X.o.5.1.:.1.:.:.1.X.:.X.+.:.X.X.:.:.X.:.5.1.1.5.1.1.1.1.1.:.1.1.1.+.o.1.5.1.1.1.1.1.:.:.:.:.>.:.1.:.1.:.1.:.:.O.M 2 - @ @ : O a ^ ~ { %.^ d 8 3 E +.|  . .^ ^ E V s : % v V o.R <.} V { } ' ' :.;.o.:.:.+.X.+.^ ' } X.' ' } o.} o.:.:.;.+.! R ' } :.:.' o.} o.^ R o.o.:.} M M } Y M o.] ] +.1.V } +.O.}  .O.) ~ O.%. .%.%.+.+.%.+...|  .| | } } k 1 D b @ b ( } | ....+.| ] } | | $.+.( n u u u ",
"X.O.o. .o.|  .o.O.o.+.O.+.$.+.+.+.%.+.+.+.+.+.O.+.O.O.o.o.$.} R a y a T v 2 - % o @ X X @ . 1 3 M } O.+.o.&.+.O.$.$.O.+.+.+.+.%.+.+.+.O.+.+.+.:.:.:.:.:.<.:.X.' I r + ; I c a x s r y a r 1 % % @ @ @ . @ o .             , } 1.o.&.+.o.>.:.:.>.<.1.:.:.:.:.:.1.' X.5.1.:.:.<.1.:.1.1.1.:.:.1.:.;.{ a N } :.:.o.' ' X.;.<.;.' X.Q ! X.7.:.5.! } 5.<.X.a x 1.o.+.;.X.} R R Q R M x ^ o.;.b +.1.<.:.;.5.<.5.5.+.:.<.:.1.:.1.} I ' X.Q 5.X.} Q b Q 1.[ :.:.o.:.R ' ;.<.:.I r 1 r r r V X.} :.1.o.1.N r } ! ! I ' ' I X.X.! +.+.:.1.X.} ;.X.X.+.:.X.;.:.:.1.1.5.1.>.5. .} ' +.:.:.:.:.<.:.} ' } :.;.o.+.:.1.<.:.1.1.5.1.5.7.1.:.} ' +.+.X.o.} X.1.5.:.1.:.:.1.} +.;.X.o.:.} <.:.;.1.1.1.1.,.5.1.1.1.:.1.1.1.<.} +.5.1.1.1.1.1.<.;.;.:.:.<.1.:.,.:.5.7.1.<.<.O.M 2 : - - O b ^ I  .E $.! d 3 i +.&.O.^  .7.^ } ~ V % y b $.X._ } R X.} ' R o.X.} o.:.+.;.+.^ } X.;.! ' <.:.:.{ o.:.:.:.} ! ' :.;.X.' o.{ X.R Q o.' } M r ] ;.U c ,.] ] ' ! d } }  ._ ~ ~ T  .O.%.O.%.O.O.O...+.O. .| |  .! ( ^ u 2 3 3 E | [ } } O.X._ | | ....+.| +.] n s t ",
"o.| O.X. .o.| o. .o.| O.+.+.+.+.O.+.+.+.+.| +.+...O.+.+.O.X.} ) } T y r 3 : : - - @ @ O   % k } O.+.<.+.+.+.+.+.+.+.$.+.%.+.<.$.$.$.$.<.+.1.&.<.:.:.+.:.+.;.+.X.X.X.! a c a y a r y n s 2 $ ; $ + # - + + @ .           % F 1.<.+.+.+.} :.:.;.:.<.1.:.1.:.+.:.:.X.} :.:.o.<.1.1.>.1.1.1.:.:.:.<.:.X.' M ' X.;.1.X.I ' :.1.:.;.! Q <.X.;.1.;.' R <.X.' a I :.<.;.:.<.Q ^ ' ^ X.x x X.;.{ I 1.<.:.+.:.1.1.1.:.:.1.5.<.5.:.+.X.X.V R Q ' X.X.Q ' ;.:.X.X.:.;.:.Q R <.:.5.Q 3 @ 2 3 r r I } O.} +.Q a { O.;.M M I ^ V ' } ' } X.:.:.:.1.:.X.} o.X.:.5.1.1.:.:.5.1.1.5.o.} ' :.5.1.1.O.+.1.:.! R :.} ' +.:.5.1.1.1.1.5.1.5.6.5.:.:.[ ' ;.<.1.+.} +.1.<.;.:.+.:.X.:.;.^ } +.} 5.o.R { <.1.1.:.<.1.1.:.>.1.5.1.:.X.+.1.5.5.:.:.1.>.:.:.:.1.1.:.>.:.1.>.1.5.>.:.:.+.M 1 % - + a { Q ^ T } } G , 8 } &.1.$. ._ $. .E ^ G i , b ) ^ T ! +.O.! F } } +.+.O.+.+.' X.+.X.' Q { ;.O.;.;.X.o.:.:.} ^ ! X.o.} } ;.X.} V { :.{ x 1 c X.;.! c ! >.} | E V | ^ _ ^ W ^ | O. . . .O.%.+...%...+...+.O.O.} | O.k : 3 % R O.O._ E ^  .} | o.$.o.o.} o.+.| R i ",
" .o. .o.o.X.O.X.o.X.o.o.o.o.O.+.+.+.+.O.+.+.+.+.+.O.O.X.| } +.1.+.O.T 3 1 : : % @ @ X O X r } 1.$.$.$.+.%.+.$.%.<.+.+.%.+.$.+.+.+.<.<.$.<.1.1.<.:.>.:.:.:.:.:.X.+.1.<.M s 2 t 2 3 t t > $ ; ; $ ; # + $ # . .           h +.1.<.<.+.} { ;.:.o.:.1.<.,.:.:.+.:.X.} X.} ;.} <.1.1.1.1.1.1.1.1.1.:. .;.:.Q ' X.:.o.X.I Q :.:.:.^ I } :.o.7.5.} } I o.{ { I I :.:.;.+.} R +.' o.:.M I ;.:.M I y.:.X.:.1.>.5.:.+.:.1.5.1.1.+.+.X.o.^ } ' ' 5.' } :.+.:.+.} :.:.1.! R 5.1.1.} ! v % % 3 3 y M } O.<.d x <.;.Q ' R X.' ^ +.5.5.:.7.7.>.:.:.X.' +.;.+.1.5.5.:.:.;.:.>.5.<.o.} ' 5.5.5.:.+.;.1.:.' V o.X.} :.1.1.1.1.5.5.5.1.5.7.5.>.+.X.' 1.+.5.+.} ;.1.5.:.:.' X.X.o.} Q ^ } ^ o.' Q o.:.1.5.:.:.1.1.>.>.5.1.1.1.1.:.+.:.7.1.1.1.1.1.,.X.+.:.:.1.:.>.1.1.:.1.1.:.o.! x : - + 1 I ' R T ~ { ^ i : B 1.1.1.O.} $.1. .^ O.^ < % d v B ) o. .! M ^ ) O.O. .X.} ' X.:.X.^ ' { X.;.O.O.{ o.<.;.' } } ' X.' { +.} ' I ;.' I 1 a X.Q X.! U c } +.+.^ ^ &.+.+.O. . .O. . .{  .O.O.+.+.+.+.O.+.+.+.+. .} ^ i 3 8 , V } O.o. ._ } } | | | | >.....$.+.| W ",
"o.X.o. .| O.O.| | X. .| |  .o.o...o...+.+.O.+.+.+.O.o.| }  .+.$.} } I r % % : - @ X X   X V :.:.+.+.%.+.+.+.+.$.+.+.+.$.+.+.+.+.+.:.+.+.:.:.>.1.>.>.:.:.:.;.+.:.:.X.V a 3 3 t > 1 1 > + $ 2 > $ @ . # . + .           > ' 1.$.<.;. .}  .{ :.} ;.1.1.<.1.<.+.:.+.' X.Q } } ;.:.5.1.<.1.1.1.:.1.1.:.o.X.X.' I 5.' Q Q R } X.[ [ ! { :.o.X.<.;.} R I ;.X.I I ;.X.o.} ' I ^ R R } Q I ' ' x ' o.o.o.:.1.1.1.+.+.:.:.1.;.:.+.1.+.X.:.;.' ' ! ;.<.o.<.5.X.' ;.:.<.^ I 1.5.<.' <.1.Q y 3 r 3 r v X. .c I O.X.I ;.^ 5.X.;.:.5.1.1.5.5.o.^ } +.X.+.;.:.1.1.6.5.5.+.:.5.1.:.:.o.' 1.1.1.1.:.1.1.1.X.Q ' ' X.;.5.<.:.<.5.5.1.>.5.5.5.5.>.+.} } +.:.:.X.X.>.<.5.1.} +.X.X.} X.} { ' X.+.:.:.X.+.<.;.:.:.:.:.>.1.1.1.>.1.:.:.:.1.7.1.1.1.1.1.+.' X.5.1.:.>.5.1.<.<.<.:.;.^ d 1 + - - x } ! V ) } ^ v 3 y  .&.1.%.&.+.O.&.) } ) y 1 : 3 M T ~ o...! ) } } +.+.{ } ' } o.O.} } X.X.;.X.} { ;.:.o.Q { ;.' ' ! { X.' ^ I ! c ; r ' [ ' ' } ! c ( >...D E ..+.+.+.X._ O.O. . .%.%.%.O...+.+... .O... .} F y i d y i i k R E }  ._ _ ] ( ( | ..o...| o...+.",
"O.O.| o.X.o.O.X.O.X.O.X.X.X. .X.O.o.O.+.+.+...%.+.| |  .o.<.O.} <.^ y : : : - - @ @ O   2 } <.&.+.+.:.%.+.:.%.+.$.:.%.+.%.+.$.<.+.%.+.$.+.&.+.<.+.+.:.+.:.o.X.:.X.V d r 2 3 2 > ; @ @ + ; > $ $ .   . . . . . .     o R &.o.+.:.<.;.X. .{ O.} O.1.1.>.1.1.:.+.O.' o.^ R ^ :.:.1.<.1.<.1.1.:.:.5.o.X.5.<.! V ^ ' { :.R [ :.:.^ I ' Q ;.X.o.X.^ } Q <.<.~ N o.} X.' ' X.1.! Q :.' r X.{ x Q ' :.5.1.:.>.:.+.:.1.;.:.' X.:.<.X.o.:.1.o.a } <.o.<.5.<.o.' ' ' ;.' R 1.1.;.} 1.+.7.:.x 3 a 3 r d <.r ' ' Q ;.X.' :.! X.:.5.1.:.:.X.' [ +.7.>.+.1.5.5.5.5.5.5.X.1.8.:.:.7.<.' 5.5.:.:.1.1.:.1.;.} ! R +.X.:.:.+.1.1.<.1.5.1.5.1.1.1.o.' M ^ ' X.' R } :.7.5.o.5.:.o.^ :.;.X.} t.<.;.:.X.X.:.:.:.:.:.:.:.:.1.1.>.:.:.1.:.:.1.>.:.:.:.1.1.:.^ } 5.:.:.1.1.<.;.;.o.:.} c 1 - - O r R { ~ E W } N i < R O.$.$.O.<.| O.^ B ^ d : 0 :   % i M R ^ ^ 7.+.O.;.} ^ } X.X.o.} X.;.X.X.' } ' o.:.o.' ' ! } ! R ! O.! x 1 r + r Q ;.X.:.' } U n N } | b ^ +.+.&.1.O. .O._ {  . .O.%...+.%.+.O.| &.&.O._ V B b b i 8 , y y i b E ^ | | | } [ | X.| | o...+.",
"| X. .o.| O.O.o.O.X.O.X.X.X.X.O.o.O.+.+.+.O.+.+.+.O.| +.+.O.O.+.X.M : : - - - @ @ X @ - V +.+.O.O.+.%.+.:.+.:.+.+.%.%.+.$.+.+.+.+.$.+.+.+.$.+.+.:.+.:.:.;.+.o.X.I d 3 1 2 2 ; ; $ $ ; ; ; # + $ . . . . . .         u | | o.O.$.<.<. .{ ;.}  .O.;.1.<.1.1.:.+.} o.' ' ' ' X.:.5.<.<.+.;.:.:.:.+.{ { :.<.' I c R :.5.[ ! ^ ' Q R X.I ^ ' } <.5.:.! ^ ;.} x ;.} ^ R ^ } ' ! ;.{ ! b R x x :.:.1.7.5.5.>.:.:.1.1.+.} Q } :.+.X.:.7.1.X.M } :.o.1.7.1.;.^ ' } :.' I 1.:.X.+.1.:.+.&.{ d 1 8 r 3 ~ r R R ' ;.X.! ! ! o.:.1.1.>.} } ;.+.:.5.5.5.1.7.5.1.1.5.1.+.>.6.:.1.6.5.[ 1.6.<.+.:.5.1.5.<.X.' R +.X.} o.:.5.:.1.1.5.5.1.1.5.>.6.[ Q o.;.} X.} ' :.1.1.X.;.+.<.^ :.>.;.X.1.<.;.1.o.} o.<.:.;.+.:.:.:.:.:.>.1.:.1.<.:.:.>.1.:.:.1.1.:.O.{ [ o.;.:.:.<.:.o.{ ' { I r 1 - - O a ! ' E ~ } F a , B $.O.$.$.%.$.%. .b F b , R _ N y 2 3 2 r v R }  .{ ! ! X.{ ' ;.} X.;.;.{ { ' ! { :.o.' X.! ' Q R Q R a ; + - a R X.;.o.:.+.] ! R B ( ] b } $.+.&.o.+.| ) W {  . . .O.O.%.+.O.+.O.O.o.) T k 8 , 3 3 v E E V v d v N R E } } } | } _ ( } | +.",
"o.O.o.X.o.X.O.| O.| | o.O.| | o.| o.| | | +.+.O.o.^ _ | | o.+.+.{ r % : % : X - O @ O s +.+.$.O.+.$.+.:.+.$.%.+.+.+.+.+.:.%.%.+.%.+.o.O.&.$.+.:.:.+.+.+.+.+.o.! v r 3 r 2 2 > $ ; > > ; $ @ + + . . . . . .   .   1 ^ X.o.<.$.<.<.<.;.} } ;.;.;.:.:.1.<.:.,.;.} ;.^ R ' X.Q 1.<.;.o.+.+.:.:.:.:.:.' Q ^ ! x M b :.' R ' ^ b ;.' M I ' X.1.<.:.7.' T ;.;.M } ^ ^ ' ^ ^ ^ <.1.o.M V :.a [ 1.5.1.1.1.:.+.;.:.1.:.:.o.' o.:.X.+.5.1.;.' o.' ' +.1.<.1.:.^ X.' ' ' I 7.:.} X.+.+.X. .+.O.y 2 y 1 1 - a Q ;.' ! ' I ^ } :.:.1.} +.5.:.X.+.5.1.1.;.1.1.1.1.1.1.+.>.1.:.,.7.1.} 1.;.;.} :.1.:.1.:.} X.} ^ :.' o.:.:.:.5.1.1.1.1.:.>.1.>.X.[ ;.:.} :.:.' X.:.:.X.o.o.+.{ X.<.X.} :.:.+.1.o.1.} :.:.+.+.+.+.:.:.1.1.1.1.:.:.:.X.:.>.+.:.1.+.X.:.+.[ ' X.;.o.o.X.:.X.' ' R r 1 - - O 1 a ^ ) V E B u 8 i O.$.&.$.O.O.+.$.^ ~ ~ 3 V $.+.^ E c 3 % 1 2 i d d M I M x x M I ^ ^ R R I I R X.;.' ! { X.^ I I I x - O + x ' ' :.} } 5.+.! [ ' R b o.b o.$.$.O.+.&.O.^ ) O. .{ { _ } &.%.} } .. .R b i 1 @ 8 8 { } $. . .} E b k h b m D ( | | | ^ ( ( | ",
"X.O.o.O. .O.O.X.o.O.O. .o.O.O. .O.| O.O.+.+.O.o.X.^ +.+.+.| +.| c : : : - - @ O X O - I 1.+.&.+.$.+.+.+.%.+.%.$.<.$.+.$.+.$.+.+.+.+. .+.:.+.$.<.:.o.+.:.+.X.' I s r 8 3 2 7 > > > > = $ @ @ # + . . .     . .   $ n ....$.$.:.<.<.;.<.O.} { ~ ~ X.1.:.:.1.:.:.X.o.X.! R X.^ X.X.;.O.+.+.:.:.;.:.;.1.;.} :.! I M ' ' ' o.{ ! ' ;.Q I 1.1.1.:.<.+.:.' b R r ' ' ;.} ^ ^ :.<.;.o.R N o.b ;.:.1.1.5.1.:.:.+.1.1.o.o.:.:.[ +.X.:.1.1.X.X.1.' R ! o.7.:.:.' ' ' o.[ R 8.o.o.:.+.o.o.+.1.2.) y 2 2 r - r } <.o.Q R ' } I o.:.' o.:.1.o.' :.5.5.1.:.5.5.1.:.:.1.1.:.1.1.1.7.5.X.1.:.:.} 1.5.5.1.:.X.V ' Q ' X.+.:.+.:.1.1.1.1.>.>.>.5.:.+.+.:.+.:.:.:.+.} :.:.:.+.o.X.} X.+.X.X.<.:.:.<.X.1.o.} X.} [ X.+.:.:.1.1.:.1.:.1.:.X.X.:.+.:.:.+.+.;.:.X.X.X.O.o.;.X.o.;.X.! ! a r - - @ 1 1 d m B V b a 8 3 } %.$.<.$.&.+.+.) ~ b 1 ^ $.$. .^ } { ' y : 1 - r ; 1 1 y - - r a r r r 1 1 r a x x a x M M r s r - O r I { :.<.' } ;.' ' Q Q ] ] U D b | +.$.+.+.$.%.) }  . . .{ ) | | O. .{ E b u : , u R ^ i ^ O.| | X.| O.} E V h s y p R R E E E E ^ ",
"| O.X.| o.| X.o.X.| X.o.X.| X.o.O.o. .o.+.| +. .} } O.O.+.+.O.R 1 % 1 - % @ @ O @ X y } +.+.:.o.+.%.$.%.+.:.+.+.+.+.%.+.+.+.%.:.+.O.o.O.+.o.+.<.+.+.:.:.} ! I b s r , , 7 7 > = ; $ $ + # . + . . .   .   . . . u } >.:.+.+.<.<.<.<.<.<.;.;.;.~ ^ o.} } :.;.+.:.} } ! I } I ' } O.+.+.:.<.;.;.:.:.:.:.X.X.R I x { o.' ! ' :.! +.+.R 5.1.1.:.:.:.<.^ ' I ; ~ Q <.} ! X.<.+.;.;.' N ! I 1.:.<.1.<.1.:.:.+.<.5.;.} } +.! ' } :.>.' ' :.:.} } X.^ X.o.Q ^ +.1.1.' V o.^ } :.:.1.&.<.1.1.1.V , r , % 1 o.<.:.! Q Q Q R :.o.Q +.:.:.:.o.:.1.1.5.1.1.1.:.+.:.5.>.+.1.1.1.7.>.X.1.1.1.+.+.:.5.5.:.' ' o.X.^ +.;.:.;.1.1.>.1.>.1.1.>.>.+.+.:.X.} 1.>.O.+.X.<.;.5.o.O.} ;.+.X.O.+.1.;.o.+.X.5.X.Q } X.} X.:.:.>.:.1.:.:.1.1.:.+.+.+.:.+.:.:.;.:.o.+.+.X.} o.:.o.<.X.;.o.Q r r - - - r 1 8 i B R N d 8 3 ' $.<.$.%.$.%.$.{  .B , _  .+.<.R +.:.:.} M s r a r r r c a @ - 1 1 - + O - - + + - - + ; 1 : 1 @ O - I X.{ [ ;.[ } [ ' } ^ ^ [ o.X.b h | ......+.O.O.}  .O.O. . . . .+.o.E B i : @ 8 B | O._ v ^ | O.| |  . .X.| | ( R c y : i b s y u s "
};
