/* XPM */
static char *_19cee45390048bece38a7b4aae9435f21KbLklkMC4gVxEw[] = {
/* columns rows colors chars-per-pixel */
"640 640 168 2 ",
"   c #7B7B7B",
".  c #7C7C7C",
"X  c gray49",
"o  c #7E7E7E",
"O  c gray50",
"+  c #808080",
"@  c #838383",
"#  c #848484",
"$  c gray52",
"%  c #868686",
"&  c gray53",
"*  c #888888",
"=  c #898989",
"-  c gray54",
";  c #8B8B8B",
":  c gray55",
">  c #8D8D8D",
",  c #8E8E8E",
"<  c gray56",
"1  c #909090",
"2  c gray57",
"3  c #929292",
"4  c #939393",
"5  c gray58",
"6  c #959595",
"7  c gray59",
"8  c #979797",
"9  c #999997",
"0  c #989898",
"q  c gray60",
"w  c #9A9A9A",
"e  c #9B9B9B",
"r  c gray61",
"t  c #9D9D9D",
"y  c gray62",
"u  c #9F9F9F",
"i  c #A1A19F",
"p  c #A0A0A0",
"a  c gray63",
"s  c #A2A2A0",
"d  c #A3A3A1",
"f  c #A2A2A2",
"g  c gray64",
"h  c #A4A4A2",
"j  c #A5A5A3",
"k  c #A4A4A4",
"l  c #A5A5A5",
"z  c #A6A6A4",
"x  c #A7A7A5",
"c  c gray65",
"v  c #A7A7A7",
"b  c #A8A8A6",
"n  c #A9A9A7",
"m  c gray66",
"M  c #A9A9A9",
"N  c #AAAAA8",
"B  c #AAAAAA",
"V  c gray67",
"C  c #ACACAC",
"Z  c gray68",
"A  c #AEAEAC",
"S  c #AEAEAE",
"D  c #AFAFAF",
"F  c #B1B1AF",
"G  c gray69",
"H  c #B1B1B1",
"J  c #B2B2B2",
"K  c gray70",
"L  c #B4B4B4",
"P  c gray71",
"I  c #B6B6B6",
"U  c #B7B7B7",
"Y  c gray72",
"T  c #B9B9B9",
"R  c gray73",
"E  c #BBBBBB",
"W  c #BCBCBC",
"Q  c gray74",
"!  c #BEBEBC",
"~  c gray",
"^  c gray75",
"/  c #C0C0C0",
"(  c #C1C1C1",
")  c gray76",
"_  c #C3C3C3",
"`  c gray77",
"'  c #C5C5C5",
"]  c #C6C6C6",
"[  c gray78",
"{  c #C8C8C6",
"}  c #C9C9C7",
"|  c #C8C8C8",
" . c gray79",
".. c #CACACA",
"X. c #CBCBCB",
"o. c #CCCCCA",
"O. c #CDCDCB",
"+. c gray80",
"@. c #CDCDCD",
"#. c #CECECC",
"$. c #CECECE",
"%. c gray81",
"&. c #D0D0D0",
"*. c gray82",
"=. c #D2D2D0",
"-. c #D3D3D1",
";. c #D2D2D2",
":. c LightGray",
">. c #D4D4D2",
",. c #D5D5D3",
"<. c gray83",
"1. c #D5D5D5",
"2. c #D6D6D4",
"3. c #D7D7D5",
"4. c gray84",
"5. c #D7D7D7",
"6. c #D8D8D6",
"7. c #D9D9D7",
"8. c #D8D8D8",
"9. c gray85",
"0. c #DADAD8",
"q. c #DBDBD9",
"w. c #DADADA",
"e. c gray86",
"r. c #DCDCDA",
"t. c #DDDDDB",
"y. c gainsboro",
"u. c #DDDDDD",
"i. c #DEDEDC",
"p. c #DFDFDD",
"a. c gray87",
"s. c #DFDFDF",
"d. c #E0E0DE",
"f. c #E1E1DF",
"g. c gray88",
"h. c #E1E1E1",
"j. c #E2E2E0",
"k. c #E3E3E1",
"l. c #E2E2E2",
"z. c gray89",
"x. c #E4E4E2",
"c. c #E5E5E3",
"v. c #E4E4E4",
"b. c gray90",
"n. c #E6E6E4",
"m. c #E6E6E6",
"M. c #E7E7E7",
"N. c #E8E8E6",
"B. c gray91",
"V. c #E9E9E9",
"C. c #EBEBE9",
"Z. c #EAEAEA",
"A. c gray92",
"S. c #ECECEC",
"D. c gray93",
"F. c #EEEEEE",
"G. c #EFEFEF",
"H. c gray94",
"J. c #F1F1F1",
"K. c gray95",
"L. c #F3F3F3",
"P. c #F4F4F4",
"I. c gray96",
"U. c #F6F6F6",
"Y. c gray97",
"T. c #F8F8F8",
"R. c #F9F9F9",
"E. c gray98",
/* pixels */
"I.G.Z.G.J.J.J.J.G.J.J.J.J.J.J.J.G.G.J.J.J.J.J.G.J.J.G.G.G.G.J.I.I.I.J.J.J.J.J.J.J.J.J.J.J.J.J.J.J.J.J.J.J.J.J.J.G.G.G.J.J.J.G.G.J.J.J.J.J.J.J.J.I.G.I.I.I.J.T.e.e.J.Z.J.Z.G.G.G.G.G.G.G.G.G.G.G.G.G.G.G.G.G.G.G.J.G.G.G.G.G.G.G.G.G.G.G.G.Z.Z.M.G.M.g.Z.G.Z.G.J.J.G.G.G.G.G.G.G.G.G.G.G.G.G.G.G.G.G.G.G.G.G.G.G.G.Z.Z.G.M.G.I.:.s.J.J.J.I.Z.G.Z.J.J.J.J.J.J.J.J.J.J.J.J.J.J.J.J.I.I.I.J.J.J.J.J.J.G.G.J.J.I.J.J.J.J.J.J.J.J.J.J.G.G.G.J.J.J.J.J.I.J.J.J.J.J.J.J.J.J.J.J.J.J.J.J.Z.G.I.J.G.G.T.%.s.J.J.G.J.G.I.J.J.J.J.J.J.J.J.J.G.G.Z.Z.J.J.J.J.J.J.J.J.J.J.J.J.J.J.J.J.J.J.J.J.I.J.J.J.J.J.J.I.J.J.J.J.J.J.G.G.J.J.J.J.J.J.J.I.J.J.J.J.J.J.J.J.G.J.J.J.G.I.I.:.M.Z.J.J.J.J.J.J.I.I.I.I.I.I.J.J.J.J.J.J.J.J.J.J.G.G.G.G.J.J.J.J.J.J.J.J.J.J.G.G.J.J.I.I.Z.s.g.J.J.J.J.J.J.J.J.J.G.J.J.J.G.G.G.J.J.J.J.J.J.J.J.J.J.I.I.I.G.I.I.%.Z.G.J.I.I.J.G.G.J.G.G.G.J.J.J.I.J.J.J.J.J.J.J.J.J.J.J.I.I.J.G.Z.G.J.I.I.J.J.J.I.G.J.J.G.G.G.J.J.J.J.J.G.G.G.G.G.G.G.G.G.G.G.G.G.G.G.G.G.G.G.G.G.G.J.J.J.G.J.J.:.J.G.G.J.I.J.J.I.J.J.J.J.J.J.J.J.J.J.J.J.J.J.J.J.J.J.J.J.J.J.J.J.J.J.J.J.J.J.J.J.J.J.J.J.J.J.J.J.J.G.G.G.G.J.J.J.I.J.J.J.J.J.J.J.I.J.J.J.G.G.J.J.I.J.G.G.G.J.Z.:.Z.G.J.J.G.G.J.J.Z.G.G.G.J.J.J.J.J.I.I.J.J.J.G.G.J.J.J.J.J.J.J.J.J.J.J.J.J.J.J.J.J.J.I.I.J.J.J.J.G.G.J.J.J.J.J.J.J.J.J.J.J.J.J.J.J.J.J.J.J.J.J.J.G.J.J.J.J.I.J.' ",
"J.Z.M.M.Z.Z.M.Z.M.Z.Z.Z.Z.Z.Z.Z.M.M.Z.Z.Z.Z.M.M.M.M.M.g.g.M.M.M.Z.Z.Z.Z.Z.Z.Z.Z.Z.Z.Z.Z.Z.Z.Z.Z.Z.Z.Z.Z.Z.Z.Z.Z.M.M.M.Z.Z.Z.M.M.M.M.Z.Z.Z.Z.M.M.Z.M.Z.M.Z.M.Z.' <.G.M.Z.g.M.g.M.g.M.g.M.M.M.M.M.M.M.M.M.M.M.M.M.M.M.M.M.M.M.M.M.M.M.M.M.M.g.g.g.M.g.s.g.M.g.M.Z.M.M.M.M.M.M.M.M.M.M.M.M.M.M.M.M.M.M.M.M.M.M.M.M.M.g.g.M.s.g.M.Y s.G.M.Z.Z.M.M.M.Z.Z.Z.Z.Z.Z.Z.M.Z.Z.Z.Z.Z.Z.Z.Z.Z.Z.Z.Z.M.M.M.M.Z.M.M.M.Z.Z.Z.M.Z.Z.Z.Z.Z.Z.Z.Z.M.M.M.Z.Z.Z.Z.Z.Z.Z.Z.Z.Z.Z.M.M.Z.M.M.M.M.M.M.M.M.g.Z.M.M.M.Z.Y s.G.M.M.M.M.Z.Z.M.M.M.M.M.M.M.M.Z.M.g.M.Z.Z.Z.Z.Z.Z.Z.Z.Z.Z.Z.Z.Z.Z.Z.Z.Z.Z.Z.Z.Z.Z.Z.Z.Z.Z.Z.Z.Z.Z.Z.Z.Z.Z.M.M.M.M.M.M.M.M.Z.Z.Z.Z.Z.M.M.Z.Z.Z.M.Z.M.Z.g.M.g.Y M.M.Z.Z.Z.Z.Z.Z.Z.Z.Z.Z.Z.Z.Z.Z.M.M.Z.Z.Z.Z.M.M.M.M.M.M.Z.Z.Z.Z.Z.Z.Z.Z.Z.Z.M.M.G.Z.Z.Z.M.s.g.Z.M.Z.Z.Z.Z.M.M.M.M.Z.Z.M.M.g.M.Z.Z.Z.Z.Z.Z.Z.Z.Z.M.Z.M.Z.g.M.g.Y G.Z.M.g.M.M.M.M.M.M.M.M.M.M.M.Z.Z.Z.Z.Z.Z.Z.Z.Z.Z.Z.Z.Z.Z.Z.M.g.M.M.Z.Z.Z.M.Z.Z.M.Z.Z.M.M.M.Z.Z.Z.Z.Z.M.M.M.M.M.M.M.M.M.M.M.M.M.M.M.M.M.M.M.g.g.M.Z.M.Z.g.M.g.^ G.Z.Z.Z.Z.Z.Z.Z.Z.Z.Z.Z.Z.Z.Z.Z.Z.Z.Z.Z.Z.Z.Z.Z.M.M.M.M.M.M.M.Z.Z.Z.Z.Z.Z.Z.Z.Z.M.M.M.M.Z.Z.Z.M.M.M.M.M.M.M.Z.Z.Z.Z.Z.M.M.Z.Z.Z.Z.Z.M.M.M.M.M.M.Z.M.M.M.M.Z.e.^ Z.Z.Z.M.M.M.M.M.M.M.M.M.Z.Z.Z.Z.Z.Z.Z.Z.Z.M.M.M.Z.Z.Z.Z.Z.Z.Z.Z.Z.Z.Z.Z.Z.Z.Z.Z.Z.Z.Z.Z.Z.M.M.M.M.M.M.Z.Z.Z.Z.Z.Z.Z.Z.Z.Z.Z.Z.Z.M.Z.Z.Z.Z.Z.Z.Z.M.Z.M.M.M.Z.e.v ",
"J.M.g.s.g.s.s.s.s.g.g.g.g.g.g.g.g.g.g.g.g.g.s.s.s.s.s.s.s.s.s.s.g.g.g.g.g.g.g.g.g.g.g.g.g.g.g.g.g.g.g.g.g.g.g.g.s.g.g.g.g.g.g.s.s.g.g.g.g.g.g.s.s.s.g.e.s.s.s.J :.Z.s.g.e.s.e.e.e.s.s.s.s.s.s.s.s.s.s.s.s.s.s.s.s.s.s.s.s.s.s.s.s.s.s.s.s.s.e.e.g.e.e.s.s.e.e.s.s.s.s.s.s.s.s.s.g.s.s.s.s.s.s.s.s.s.s.s.s.s.e.e.s.e.e.g.e.s.<.v g.Z.s.s.g.s.g.g.g.g.g.g.g.g.g.g.g.g.g.g.g.g.g.g.g.g.s.s.s.s.g.g.g.g.s.g.g.g.s.s.g.g.g.g.g.g.g.g.g.g.g.g.g.g.g.g.g.g.g.g.g.g.g.g.g.g.g.s.s.s.s.s.g.e.s.e.s.s.s.v g.G.s.e.s.s.M.g.s.s.s.s.s.s.s.s.g.g.s.s.g.M.M.g.g.g.g.g.g.g.g.g.g.g.g.g.g.g.g.g.g.g.g.g.g.g.g.g.g.g.g.g.g.g.s.s.s.s.s.s.s.s.s.s.s.s.s.s.s.g.g.g.g.g.g.M.s.g.<.V M.M.g.g.s.s.g.g.g.g.g.s.s.s.s.s.g.g.g.g.g.g.g.g.g.g.g.g.g.g.g.g.g.g.s.g.g.g.g.s.M.s.s.g.M.g.g.g.s.g.g.g.g.g.g.g.s.g.g.s.s.s.s.g.g.g.g.g.g.g.g.g.g.g.g.g.s.g.e.V G.M.s.e.s.g.g.g.s.s.s.s.s.s.s.g.g.g.g.g.g.g.g.g.g.g.g.g.g.g.s.s.s.g.g.g.g.s.g.g.g.g.g.g.s.s.g.g.g.g.g.g.g.s.s.s.s.g.g.g.g.g.g.s.s.s.s.s.s.s.s.s.g.g.s.g.e.e.<.V Z.M.g.g.g.s.s.g.g.g.g.g.g.g.g.g.g.g.g.g.g.g.g.g.s.s.s.s.s.s.s.g.g.g.g.g.g.g.g.g.g.g.g.g.g.g.g.g.g.s.s.s.s.s.g.g.g.g.g.s.s.g.g.g.g.g.s.s.s.s.g.g.g.s.g.g.s.s.%.S Z.M.g.s.s.s.s.s.s.s.s.s.g.g.g.g.g.g.s.s.s.s.s.s.g.g.g.g.g.g.g.g.g.g.g.g.g.g.g.g.g.g.g.g.s.s.s.s.s.s.g.g.g.g.g.g.g.g.g.g.g.g.g.g.s.g.g.g.g.g.s.s.M.M.s.g.g.M.%.: ",
"J.Z.s.s.s.s.s.s.s.s.g.g.s.s.s.s.g.g.g.g.g.s.s.s.s.s.s.s.s.s.s.s.g.g.g.s.s.g.s.s.s.s.s.s.s.s.s.s.g.g.s.s.s.s.g.g.s.s.g.g.g.g.s.s.g.g.g.g.g.g.g.g.e.s.g.e.g.M.g.S <.Z.s.g.e.e.e.e.s.s.s.s.s.s.s.s.s.s.e.e.e.e.e.e.e.e.e.e.s.s.s.s.s.s.s.s.s.s.s.s.s.s.s.s.s.e.e.e.e.s.s.s.s.s.e.e.s.s.s.s.e.s.s.s.s.s.s.s.s.e.e.e.s.e.e.g.e.g.e.v g.Z.s.e.g.s.g.g.g.g.g.g.g.g.g.g.s.s.s.s.g.g.g.g.g.g.s.s.s.s.g.g.g.g.s.g.g.g.g.s.g.g.s.s.s.s.s.s.s.s.s.g.g.g.g.g.g.g.g.g.g.g.g.g.g.g.g.g.s.s.s.s.g.e.s.e.g.g.s.v M.G.s.e.g.s.g.s.s.s.s.s.s.s.s.s.g.g.s.s.g.g.g.g.g.g.g.g.g.g.s.s.g.g.g.g.g.g.g.g.g.g.g.s.s.g.g.g.s.g.g.g.s.s.s.s.s.s.s.s.s.s.s.s.s.s.s.s.s.s.g.g.g.g.g.M.g.M.e.V M.M.g.s.s.s.g.g.g.g.g.g.s.s.s.s.g.g.g.g.g.g.g.g.s.s.s.s.s.s.s.s.s.s.s.s.g.g.g.s.g.s.s.g.M.g.g.g.s.g.g.g.g.g.g.g.s.g.g.g.s.s.s.g.g.g.g.g.g.g.g.g.g.g.s.g.g.M.e.V Z.M.g.s.g.g.g.s.s.s.s.s.s.s.s.g.s.s.s.g.g.g.s.s.g.g.g.g.g.g.g.g.g.g.g.g.g.s.g.g.g.g.g.s.s.s.s.g.g.g.g.s.s.s.s.s.s.s.s.g.g.s.s.s.s.s.s.s.s.s.s.s.g.s.e.g.s.s.<.V G.M.g.s.s.s.s.g.s.s.s.s.s.s.s.s.g.g.g.g.g.g.g.g.s.s.s.s.s.s.s.g.g.g.g.g.g.g.g.g.g.g.g.g.g.g.g.g.g.g.s.s.s.s.g.g.g.s.s.s.s.s.s.g.g.g.g.g.g.g.g.g.g.s.g.g.s.s...V G.M.s.s.s.s.s.s.s.s.s.s.g.g.s.g.s.s.s.s.s.s.s.s.g.g.g.g.g.g.g.g.s.s.s.s.g.g.g.s.g.g.s.s.e.e.e.s.s.g.g.g.g.g.g.g.g.g.g.g.g.g.g.g.s.s.s.s.s.s.s.s.g.g.s.g.M.M.%.- ",
"J.Z.g.s.s.s.s.g.s.g.g.g.g.s.s.s.g.g.g.g.g.g.s.s.s.g.g.g.g.g.g.g.g.g.g.g.g.g.g.g.g.g.g.g.g.g.g.g.g.g.g.g.g.g.g.g.g.g.g.g.g.g.g.g.g.g.g.g.g.g.g.M.s.g.M.s.M.Z.M.S <.Z.s.g.e.s.s.s.g.g.s.s.s.s.s.s.s.s.s.e.e.e.e.s.e.e.s.s.s.s.s.s.s.s.s.s.s.s.s.s.s.s.s.s.s.s.e.s.s.s.s.s.s.s.s.s.s.s.s.s.s.s.s.s.s.s.s.s.s.s.s.s.g.s.s.g.s.M.s.V g.Z.s.s.g.g.g.s.g.g.g.g.g.g.g.g.s.s.s.g.g.g.g.g.g.g.s.s.s.g.g.g.g.g.s.g.g.g.g.g.g.g.g.g.g.g.g.g.g.g.g.g.g.g.g.g.g.g.g.g.g.g.g.g.g.g.g.g.g.g.g.g.s.e.g.g.g.g.g.V M.Z.s.s.M.g.M.g.g.g.g.g.g.g.g.g.g.g.g.g.g.g.g.g.g.g.g.g.g.g.g.g.g.g.g.g.g.g.g.g.g.g.g.g.g.g.g.g.g.g.g.g.g.g.g.s.g.g.g.g.g.g.g.g.s.s.s.s.s.g.g.g.g.g.s.g.g.M.e.V Z.M.g.s.s.g.g.M.g.g.g.g.g.g.g.g.g.g.g.g.g.g.g.g.g.g.g.g.g.g.g.g.s.s.s.g.g.g.g.g.g.g.g.g.g.g.g.g.g.g.g.M.g.g.g.g.g.g.g.g.g.g.g.g.g.g.g.g.g.g.g.g.g.g.s.s.s.g.e.V g.g.g.g.s.s.s.s.g.g.g.g.g.g.g.g.s.s.g.g.g.g.g.g.M.g.g.g.g.g.M.g.g.M.g.g.g.g.g.g.g.g.g.g.s.s.g.g.g.g.g.g.g.g.g.g.g.g.g.g.g.g.g.g.g.g.g.g.g.g.g.g.g.s.s.g.g.g.<.V G.M.s.s.g.g.g.g.g.g.g.g.g.g.g.g.g.g.g.g.g.g.g.g.g.g.g.g.g.g.g.g.g.g.g.g.g.g.g.g.g.g.g.g.g.g.g.g.g.g.g.g.g.g.g.g.g.g.g.g.g.g.g.g.g.g.g.g.g.g.g.g.g.s.g.g.s.s.%.S J.M.e.s.g.g.g.g.g.g.g.g.g.g.g.g.g.g.s.s.s.s.g.g.g.g.g.g.g.g.g.g.g.g.g.g.g.g.g.g.g.g.g.s.s.s.s.s.g.g.g.M.g.g.g.g.g.g.g.g.g.g.g.g.g.g.g.g.g.g.g.s.s.g.s.s.g.M.%.: ",
"J.Z.g.s.g.g.g.g.s.g.g.g.g.s.s.s.g.g.g.g.g.g.s.g.s.s.g.g.g.g.g.g.g.g.g.g.g.g.g.g.g.g.g.g.g.g.g.g.g.g.g.s.s.g.g.g.g.g.g.g.g.g.g.g.g.g.g.g.g.g.g.g.g.M.M.s.M.M.g.S <.Z.e.g.e.g.s.s.s.s.s.s.s.s.s.s.s.s.e.s.e.s.s.s.s.s.s.s.s.s.s.s.s.s.s.s.s.s.s.s.s.s.s.s.s.e.e.s.s.s.s.s.s.s.s.s.s.s.s.s.s.s.s.s.s.s.s.e.e.e.e.e.g.s.s.s.e.g.s.v s.Z.s.s.M.s.g.s.g.g.g.g.g.g.s.s.s.g.g.g.g.g.g.g.g.g.s.s.s.s.s.g.s.s.s.s.g.g.g.g.g.g.g.g.g.g.g.g.g.g.g.g.g.g.g.g.g.g.g.g.g.g.g.s.g.g.g.g.g.g.g.g.g.s.M.g.g.s.s.V g.Z.s.s.M.g.g.g.g.g.g.g.g.g.g.g.g.g.g.g.g.g.g.g.g.g.g.g.g.g.g.g.g.g.g.g.g.g.g.g.g.g.s.s.s.s.g.g.g.g.g.g.g.g.g.g.g.g.g.g.g.g.g.g.g.g.s.s.g.g.g.g.M.M.s.g.s.M.e.V Z.M.g.s.s.g.g.g.g.g.g.g.g.g.g.g.g.g.g.g.g.g.g.g.g.g.g.g.g.g.g.g.s.s.s.g.g.g.g.g.s.g.g.g.g.s.s.g.g.g.g.g.g.g.g.g.s.s.s.s.s.s.g.g.g.g.g.g.g.g.g.g.M.g.s.g.s.g.<.v M.M.g.s.e.e.s.g.g.g.g.g.g.g.g.g.s.g.g.g.g.g.g.g.g.g.s.s.g.g.g.g.g.g.g.g.s.g.g.g.g.g.g.g.s.s.g.g.g.g.g.g.g.g.g.g.g.g.g.g.g.g.g.g.g.g.g.g.g.g.g.g.g.g.s.g.g.g.<.V G.M.s.s.g.g.g.g.g.g.g.g.g.g.g.g.g.g.g.g.g.g.g.g.g.g.g.g.g.g.g.g.g.g.g.g.g.g.g.g.g.g.g.g.g.g.g.g.g.g.g.g.g.g.g.s.g.g.g.g.g.g.g.g.s.g.g.g.g.g.s.s.s.s.s.s.s.s.%.J J.M.e.s.g.g.g.g.g.g.g.g.g.g.g.g.g.g.g.g.g.g.g.g.g.g.g.g.g.g.g.g.g.g.g.g.g.g.g.g.g.g.g.g.s.s.s.g.g.g.g.g.g.g.g.g.g.g.g.g.g.g.g.g.g.g.g.g.g.g.g.g.s.M.g.s.s.g.%.: ",
"J.Z.g.s.g.g.s.g.s.g.g.g.s.s.s.s.g.g.g.g.g.g.g.g.s.s.s.g.g.g.g.g.g.g.g.g.g.g.g.g.g.g.g.g.g.g.g.g.g.g.s.s.s.s.g.g.g.g.g.g.g.g.g.g.g.g.s.s.s.s.g.g.g.g.M.s.M.g.s.S :.M.e.g.s.g.s.s.s.s.s.s.s.s.s.e.e.e.e.s.s.s.s.s.s.s.s.s.s.s.s.s.s.s.s.s.s.s.e.e.e.s.s.s.e.e.s.s.s.s.s.s.s.s.s.s.s.s.s.s.s.s.s.s.s.s.e.e.e.e.s.e.s.s.s.s.<.g.s.v e.Z.g.g.g.s.g.g.g.g.s.s.s.s.s.s.g.g.g.g.g.g.g.g.g.g.s.s.s.s.s.s.s.s.s.s.s.g.s.s.g.g.g.g.g.g.g.g.g.g.g.g.g.g.g.g.g.g.g.g.g.s.s.s.g.g.s.s.s.s.s.s.g.s.M.g.g.s.s.V g.Z.s.s.M.s.g.g.g.g.g.g.g.g.g.g.s.g.g.g.g.g.g.g.g.g.g.g.g.g.g.g.g.g.g.g.g.g.g.g.g.g.s.s.s.s.g.g.g.g.g.g.g.g.g.g.g.g.g.g.s.s.s.s.g.g.g.g.g.g.g.g.g.M.g.g.g.M.e.V M.M.g.s.s.s.s.s.g.g.g.g.g.s.s.s.g.g.g.g.g.g.g.s.g.g.g.g.g.s.s.s.g.s.s.g.g.g.g.s.g.g.g.g.g.g.s.s.g.g.g.g.g.g.s.s.s.s.s.s.s.s.g.g.s.s.s.s.s.s.s.s.s.g.g.g.g.g.e.V Z.Z.g.s.s.g.g.M.g.g.g.g.g.g.s.s.s.g.g.g.g.g.g.g.g.s.s.s.g.g.g.s.g.s.s.s.s.g.g.g.g.g.g.g.s.s.s.g.g.g.g.g.g.g.g.g.g.g.g.g.g.g.g.g.g.g.g.g.g.g.g.g.g.g.s.g.s.s.<.V G.M.s.s.g.g.g.g.g.g.g.g.g.g.g.g.s.s.s.s.s.s.s.s.g.g.g.g.g.g.g.g.s.s.s.s.s.s.s.s.g.g.g.g.g.g.g.g.g.g.g.g.g.s.s.s.g.g.g.g.g.g.g.g.s.g.g.g.g.s.s.s.s.s.g.g.s.s.%.J G.g.s.s.g.s.s.g.g.g.g.g.g.g.g.g.g.g.g.g.g.g.g.g.s.s.s.s.s.s.s.s.g.g.g.g.g.g.g.g.s.g.g.g.g.g.s.g.g.g.g.g.g.g.s.s.g.g.g.g.g.g.g.g.g.g.g.g.g.g.g.g.g.Z.g.g.s.M.%.: ",
"J.Z.g.g.g.g.s.s.g.g.g.g.g.s.s.s.s.s.g.g.g.g.g.g.g.g.g.g.g.g.g.g.g.g.g.g.g.g.g.g.g.g.g.g.g.g.g.g.g.g.s.s.s.s.g.g.g.g.g.g.g.g.g.g.g.g.g.g.g.g.g.g.s.s.g.s.M.g.g.P :.M.e.g.s.g.s.s.g.g.s.s.s.s.s.s.e.e.s.s.s.s.s.s.s.s.s.s.s.s.s.s.e.s.s.s.s.e.e.e.e.e.s.e.e.e.s.s.s.s.s.s.s.s.s.s.e.e.e.e.s.s.s.s.s.s.s.s.s.s.s.s.s.s.g.g.e.g.s.V e.Z.g.g.g.s.g.g.g.g.g.g.g.g.g.g.g.g.g.g.g.g.g.g.g.g.g.g.g.g.s.s.g.g.s.g.g.g.g.s.g.g.g.g.g.g.g.g.g.g.g.g.g.g.g.g.g.g.g.g.g.g.g.s.g.g.g.g.g.s.s.s.M.s.g.g.g.g.g.V g.Z.s.s.g.e.g.g.g.g.g.g.g.g.g.g.g.g.M.M.g.g.g.g.g.g.g.g.g.g.g.g.g.g.g.g.g.g.g.g.g.g.g.g.g.g.g.g.g.g.g.g.g.g.g.g.g.g.g.g.g.g.g.g.g.g.g.g.g.g.g.g.s.g.g.g.g.g.e.V M.M.g.g.g.s.s.e.g.g.g.g.g.g.g.g.g.g.g.g.g.g.g.g.g.g.g.g.g.s.s.s.g.g.g.g.g.g.g.s.g.g.g.g.g.g.g.s.g.g.g.g.g.g.g.g.g.s.s.s.g.g.g.g.g.g.g.g.g.g.g.g.<.s.s.M.g.g.e.V Z.M.s.s.g.g.g.s.g.g.g.g.g.g.g.s.s.g.g.g.g.g.g.g.g.g.g.g.g.g.g.g.g.g.s.s.g.g.g.g.g.g.g.g.s.s.s.g.g.g.g.g.g.g.g.g.g.g.g.g.g.g.g.g.g.g.g.g.g.g.g.g.s.g.g.M.g.g.e.S G.M.s.g.g.g.s.s.g.g.g.g.g.g.g.g.g.g.g.g.g.g.g.g.g.g.g.g.g.g.g.g.g.g.g.g.g.g.g.g.g.g.g.g.g.g.g.g.g.g.g.g.g.g.g.g.s.g.g.g.g.g.s.s.g.g.g.g.g.g.g.s.s.g.g.M.g.g.%.J J.M.s.g.g.s.s.g.g.g.g.g.g.g.g.g.s.g.g.g.g.g.s.s.g.g.g.g.g.g.g.g.g.g.g.g.g.g.g.g.s.g.g.M.g.g.g.g.g.g.g.g.g.g.g.g.g.g.g.g.g.g.g.g.g.g.g.g.g.g.g.g.s.M.g.s.s.M.%.- ",
"J.M.g.g.g.g.s.g.s.g.g.g.g.s.s.s.g.g.g.g.g.g.g.g.g.g.g.g.g.g.g.g.g.g.g.g.g.g.g.g.g.g.g.g.g.s.s.s.g.g.g.g.g.g.g.g.g.g.g.g.g.g.g.g.g.g.g.g.g.g.g.g.g.g.g.g.g.s.M.S <.Z.s.g.e.g.s.s.g.s.s.s.s.s.g.g.s.s.s.s.s.e.e.e.s.s.s.s.s.s.s.s.s.s.s.s.s.s.s.s.e.e.e.e.e.e.e.e.s.s.s.s.s.s.s.s.s.s.s.s.s.s.s.s.s.s.s.s.s.s.s.s.s.e.g.s.g.s.s.V s.Z.g.g.g.s.g.g.g.g.g.g.g.g.g.g.g.g.g.g.g.g.g.g.g.g.g.g.g.g.g.g.g.g.g.g.g.g.g.g.g.g.g.g.g.g.g.g.g.g.g.g.g.g.g.g.g.g.g.g.g.g.s.s.g.g.g.s.s.s.s.s.g.s.M.s.s.g.g.V s.M.g.s.g.g.s.g.g.g.g.g.g.g.g.g.g.g.g.g.g.g.g.g.g.g.g.g.g.s.s.e.s.s.g.g.g.g.g.g.g.g.g.g.g.g.g.g.g.g.g.g.g.g.g.g.s.g.g.g.s.s.g.g.g.g.g.g.g.g.g.g.g.g.g.g.g.M.e.S M.M.g.s.s.s.s.s.g.g.g.g.g.g.g.g.g.g.g.g.g.s.s.s.g.g.g.s.s.g.g.g.g.g.g.g.g.g.g.g.g.g.g.g.g.g.g.g.g.g.g.g.g.g.g.g.g.g.g.g.g.g.g.g.g.g.s.s.s.s.s.s.s.g.s.g.g.M.e.V Z.M.g.g.g.g.g.g.g.g.g.g.s.g.g.g.g.g.g.g.g.g.g.g.g.g.g.g.g.g.g.g.g.g.g.g.g.g.g.g.g.g.g.g.g.g.g.g.g.g.g.g.g.g.g.g.g.g.g.g.g.g.g.g.g.g.g.g.g.g.g.g.g.g.s.s.g.M.:.S G.M.s.s.g.s.s.g.g.g.g.g.g.g.g.g.g.g.g.g.g.g.g.g.g.g.g.g.g.g.g.g.g.g.g.g.g.g.g.g.g.g.g.g.g.g.g.g.g.g.g.g.g.g.g.g.g.g.g.g.s.s.s.s.s.s.g.g.g.g.g.g.g.g.g.g.g.M.:.J G.g.g.g.g.g.g.g.s.s.s.s.s.s.s.s.g.g.g.g.g.g.g.s.s.s.g.g.g.g.g.g.g.g.g.g.g.g.g.g.g.g.g.g.g.g.g.g.g.g.g.g.g.s.s.s.s.s.s.s.s.g.g.g.g.g.g.g.g.g.g.g.g.g.g.g.s.g.:.: ",
"J.M.g.g.g.g.s.g.s.g.g.g.g.s.s.s.g.g.g.g.g.g.g.g.g.g.g.g.g.g.g.g.g.g.g.g.g.g.g.g.g.g.g.g.g.s.s.s.g.g.g.g.g.g.g.g.g.g.g.g.g.g.g.g.g.g.g.g.g.g.g.g.g.g.g.g.g.s.M.S <.Z.s.g.e.g.s.s.s.s.s.s.s.s.s.g.s.s.s.s.s.e.e.e.s.s.s.s.s.s.s.s.s.s.s.s.s.s.s.s.s.s.s.s.s.s.s.s.s.s.s.s.s.s.s.s.s.s.s.s.s.s.s.s.s.s.s.s.s.s.s.s.s.e.g.s.s.s.s.V e.Z.s.g.g.s.g.g.g.g.g.g.g.g.g.g.g.g.g.g.g.g.g.g.g.g.g.g.g.g.g.g.g.g.g.g.g.g.g.g.g.g.g.g.s.s.g.g.g.g.g.g.g.g.g.g.g.g.g.g.g.g.s.s.g.g.g.s.s.s.s.s.g.s.M.s.s.g.g.V g.M.g.s.g.g.s.g.g.g.g.g.g.g.g.g.g.g.g.g.g.g.g.g.s.g.g.g.s.s.e.e.s.s.g.g.g.g.g.g.g.g.g.g.g.g.g.g.g.g.g.g.g.g.g.g.s.g.g.g.s.s.g.g.g.g.g.g.g.g.g.g.g.g.s.g.g.M.e.S M.M.g.s.s.s.s.s.g.g.g.g.g.g.g.g.g.g.g.g.g.g.s.s.g.g.g.s.s.g.g.g.g.g.g.g.g.g.g.g.g.g.g.g.g.g.g.g.g.g.g.g.g.g.g.g.g.g.g.g.g.g.g.g.g.g.g.s.s.s.s.g.s.g.s.g.s.g.e.V Z.M.g.g.g.g.g.g.g.g.g.s.s.g.g.g.g.g.g.g.g.g.g.g.g.g.g.g.g.g.g.g.g.g.g.g.g.g.g.g.g.g.g.g.g.g.g.g.g.g.g.g.g.g.g.g.g.g.g.g.g.g.g.g.g.g.g.g.g.g.g.g.g.g.g.s.s.M.:.S G.M.s.s.g.g.s.g.g.g.g.g.g.g.g.g.g.g.g.g.g.g.g.g.g.g.g.g.g.g.g.g.s.g.g.g.g.g.g.g.g.g.g.g.g.g.g.g.g.g.g.g.g.g.g.g.g.g.g.g.s.s.s.s.s.s.g.g.g.g.g.g.g.g.g.s.g.M.:.S Z.g.g.g.s.g.g.s.g.g.g.g.g.g.g.g.g.g.g.g.g.g.s.s.s.s.g.g.g.g.g.g.g.g.g.g.g.g.g.g.g.g.g.g.g.g.g.g.g.g.g.g.g.s.s.s.s.s.s.s.g.g.g.g.g.g.g.g.g.g.g.g.g.g.g.g.s.g.:.: ",
"J.M.g.g.g.g.s.g.g.g.g.g.g.s.s.s.g.g.g.g.g.g.g.g.s.s.g.g.g.g.g.g.s.s.g.g.g.g.g.g.g.g.g.g.g.g.s.s.g.g.g.g.g.g.g.g.g.g.g.g.g.g.g.g.g.g.s.s.s.s.g.g.g.g.g.g.g.s.M.S <.Z.e.g.e.g.s.s.s.s.s.s.s.s.s.s.s.s.s.s.e.e.e.s.s.s.s.s.s.s.s.s.s.s.s.e.e.e.s.s.s.s.s.s.s.s.s.s.s.s.s.s.s.s.s.s.s.s.e.s.s.s.s.s.e.e.e.e.s.s.s.s.g.e.g.s.s.s.s.v s.Z.g.g.g.s.g.g.g.g.g.g.g.g.g.g.s.s.g.g.g.g.s.s.g.g.g.g.g.g.g.g.g.g.g.g.g.g.g.g.s.s.g.s.s.s.s.s.g.g.g.g.g.g.g.g.g.g.g.g.g.g.s.s.g.g.s.s.s.s.s.g.g.s.M.s.s.g.s.V g.M.g.s.g.g.s.g.g.g.g.g.g.g.g.g.g.g.g.g.s.s.s.g.s.s.g.s.s.s.s.s.s.s.g.g.g.g.g.g.g.g.g.g.g.g.g.g.g.g.g.g.g.g.g.g.s.g.g.g.s.s.g.g.g.g.g.g.g.g.g.g.g.g.s.g.g.M.e.V M.M.g.s.s.s.s.s.g.g.g.g.g.g.g.g.g.g.g.g.g.g.s.s.g.g.g.s.s.g.g.g.g.g.g.g.g.g.g.g.g.g.g.g.g.g.g.g.g.g.g.g.g.g.g.g.g.g.g.g.g.g.g.g.g.g.g.s.s.g.g.g.g.g.s.g.s.g.e.V Z.M.g.g.g.g.g.g.g.g.s.s.s.s.g.g.g.g.g.g.g.g.g.g.g.g.g.g.g.g.g.g.g.g.g.g.g.g.g.g.g.g.g.g.g.g.g.g.g.g.g.g.g.g.g.g.g.g.g.g.g.g.g.g.g.g.g.g.g.g.g.g.g.g.s.s.s.M.:.S G.M.s.s.g.g.s.s.g.g.g.g.g.g.g.g.g.g.g.g.g.g.g.g.g.g.g.g.g.g.g.g.s.g.g.g.g.g.g.g.g.s.s.s.s.s.g.g.g.g.g.g.s.g.g.g.g.g.g.g.s.s.s.s.s.s.g.g.g.g.g.g.g.g.g.s.s.g.%.S Z.g.s.g.s.s.g.s.g.g.g.g.g.g.g.g.g.g.g.g.g.s.s.s.s.s.g.g.g.g.g.g.g.g.g.g.g.g.g.g.g.g.g.g.g.g.g.s.g.g.g.s.s.s.s.g.g.g.g.g.g.g.g.g.g.g.g.g.g.g.g.g.g.g.g.M.s.g.:.: ",
"J.M.g.g.g.g.s.g.g.g.g.g.s.s.s.s.g.g.g.g.g.g.s.s.s.s.g.g.g.g.g.g.s.s.s.g.g.g.g.s.g.g.g.g.g.g.g.g.g.g.g.g.g.g.g.g.g.g.g.g.g.g.s.s.g.s.s.s.s.s.s.g.g.s.s.s.g.s.M.S <.Z.e.g.e.g.s.s.s.s.s.s.s.s.s.s.s.s.s.s.e.e.s.s.s.s.s.s.s.s.s.s.s.s.e.e.e.e.e.s.s.s.s.s.s.s.s.s.s.s.s.s.s.s.s.s.s.s.e.e.s.s.s.s.e.e.e.e.e.e.s.s.g.e.g.s.s.s.s.v s.Z.g.g.g.s.g.g.g.g.g.g.s.g.g.g.s.s.s.g.g.s.s.s.g.g.g.g.g.g.g.g.g.g.g.g.g.g.g.g.s.g.s.s.s.s.s.s.g.g.g.g.g.g.g.g.g.g.g.g.g.g.s.s.s.s.s.s.s.g.g.g.g.s.M.s.s.s.s.v g.M.g.s.g.g.s.g.g.g.g.g.g.g.g.g.g.g.g.s.s.s.s.s.g.g.g.g.g.g.g.s.s.s.g.g.g.g.g.g.g.g.g.g.g.g.g.g.g.g.g.g.g.g.g.g.s.g.g.g.s.s.g.g.g.g.g.g.g.g.g.s.g.g.s.g.s.g.e.V M.g.g.s.s.g.g.s.g.g.g.g.g.g.g.g.g.g.g.g.s.s.s.s.g.g.g.s.s.g.g.g.g.g.g.g.g.g.g.g.g.g.g.g.g.g.g.g.g.g.g.g.g.g.g.g.g.g.g.g.g.g.g.g.g.s.s.s.s.g.g.g.g.g.s.g.s.g.e.V Z.M.g.g.g.g.g.g.g.g.g.s.s.s.g.g.g.g.g.g.g.g.s.s.g.g.g.g.g.g.g.g.s.g.g.g.g.g.g.g.g.g.g.g.g.g.g.g.g.g.g.g.g.g.g.g.g.g.g.g.g.g.g.g.g.g.g.g.g.g.g.g.g.s.s.s.s.g.:.S G.M.s.s.s.s.s.s.s.s.s.s.s.s.s.s.g.g.g.g.g.g.g.g.g.g.g.g.g.g.g.g.s.s.g.g.g.g.g.g.s.s.s.s.s.s.g.g.g.g.s.s.s.s.g.g.g.g.g.g.s.s.s.s.s.s.g.g.g.g.g.g.g.g.g.s.s.g.%.V Z.s.s.g.s.s.g.s.g.g.g.s.s.g.g.g.g.g.g.g.g.s.s.s.s.s.g.g.g.g.g.g.g.g.g.g.g.g.s.s.s.s.g.g.g.g.s.s.g.g.s.s.s.s.s.g.g.g.g.g.g.g.g.g.s.s.g.s.s.s.g.g.g.g.g.M.s.g.:.: ",
"J.M.g.g.g.g.s.g.g.g.g.g.s.s.s.s.g.g.g.g.g.s.s.s.s.s.g.g.g.g.g.g.s.s.s.s.g.g.s.s.g.g.g.g.g.g.g.g.g.g.g.g.g.s.s.s.g.g.g.g.s.s.s.s.g.s.s.s.s.s.s.g.s.e.e.s.g.s.M.S <.Z.e.g.e.s.s.s.s.e.s.s.s.s.e.e.s.s.s.s.e.e.s.s.s.s.s.e.e.s.s.s.s.s.e.e.e.e.e.s.e.e.e.e.s.s.s.s.s.s.s.s.s.s.s.s.s.e.e.e.s.s.s.s.e.e.s.s.e.e.s.s.g.e.s.s.s.s.s.V s.Z.g.s.g.s.g.g.g.g.s.s.s.g.g.g.s.s.s.g.g.s.s.s.g.g.g.g.g.g.g.g.g.g.g.g.g.g.g.g.s.s.s.s.s.s.s.s.g.g.g.g.g.g.g.g.g.g.g.g.g.g.s.s.s.s.s.s.s.s.s.s.g.s.M.s.s.s.s.v g.M.g.s.g.g.s.g.g.g.g.g.g.g.g.g.g.g.g.g.s.s.s.s.s.g.g.g.g.g.g.g.s.s.g.g.g.g.g.g.g.g.g.s.s.g.g.g.g.g.g.g.g.g.g.g.s.g.g.g.s.s.g.g.g.g.g.g.g.s.s.s.g.g.s.g.s.g.e.V M.g.g.s.s.g.g.g.g.g.g.g.g.g.g.g.s.s.s.s.s.s.s.s.g.g.g.s.s.g.g.g.g.g.g.s.s.g.g.g.g.g.s.s.g.g.g.g.g.g.g.g.g.g.g.g.g.g.g.g.g.s.s.s.s.s.s.s.s.s.g.g.g.g.s.g.s.g.e.V Z.M.g.g.g.g.g.g.s.s.s.s.s.s.g.g.g.g.g.g.g.s.s.s.g.g.g.g.g.g.g.g.s.s.s.g.g.g.g.g.g.g.g.g.g.g.g.g.g.g.g.g.g.g.g.g.g.g.g.g.g.g.g.g.g.g.g.g.g.g.g.g.g.s.s.s.g.M.:.S Z.g.e.e.s.s.s.s.s.s.s.s.s.s.s.s.g.g.g.g.g.g.g.g.g.g.g.g.g.g.g.g.s.s.g.g.g.g.g.g.s.s.s.s.s.s.g.g.g.g.g.s.s.s.g.g.g.g.g.s.s.s.s.s.s.s.g.g.g.g.g.g.g.s.s.s.s.g.%.V Z.s.s.g.s.s.g.s.g.g.g.s.s.g.g.g.s.g.g.g.g.s.s.s.s.s.g.g.g.g.g.g.g.g.g.g.s.s.s.s.s.s.g.g.g.s.s.s.g.g.s.s.s.s.s.g.g.g.g.g.g.g.g.g.g.s.s.s.s.s.g.g.g.g.g.g.s.g.:.: ",
"J.M.g.g.g.g.s.g.g.g.g.s.s.s.s.g.g.g.g.g.s.s.s.s.s.s.g.g.g.g.s.s.s.s.s.g.g.g.s.s.s.s.g.g.g.g.g.g.g.g.g.g.s.s.s.s.g.s.s.s.s.s.s.s.g.s.s.s.s.s.s.g.e.e.e.s.g.s.M.S <.Z.e.g.e.s.s.s.s.s.s.s.e.e.e.e.s.s.s.s.e.s.s.s.s.s.e.e.e.e.s.s.e.e.e.e.s.e.e.e.s.s.s.s.s.s.s.s.s.s.s.s.s.s.s.s.s.e.e.e.s.s.s.s.s.e.s.s.s.s.s.s.g.e.s.e.s.s.s.V s.Z.g.s.g.s.g.s.s.s.s.s.s.g.g.g.s.s.g.g.g.g.s.s.g.g.g.g.g.g.g.g.g.g.g.g.g.g.g.g.s.s.s.s.s.s.s.s.g.g.g.g.g.g.g.g.g.g.g.g.g.g.s.s.s.s.s.g.g.s.s.s.g.s.M.s.s.s.s.v g.M.g.s.g.g.s.g.g.g.g.g.g.g.g.g.g.g.g.g.s.s.s.s.s.s.s.s.s.s.s.s.s.s.g.g.g.g.g.g.g.g.s.s.s.s.g.g.g.g.g.g.g.g.g.g.s.g.g.g.s.s.g.g.g.g.g.g.s.s.s.s.g.g.s.g.s.g.<.v M.g.g.s.s.g.g.g.g.g.g.g.g.g.g.g.s.s.s.s.s.s.s.s.s.s.g.g.g.g.s.s.g.g.s.s.s.s.g.g.g.g.s.s.s.s.g.g.g.g.g.g.g.g.g.g.g.g.g.g.s.s.s.s.s.s.s.s.s.s.s.s.g.g.s.g.s.g.e.V Z.M.g.g.g.g.g.g.s.s.s.s.s.s.g.g.g.g.g.g.s.s.s.s.g.g.g.g.g.g.g.g.s.s.s.s.g.g.g.g.g.g.g.g.g.g.g.g.g.g.g.g.g.g.g.g.g.g.g.g.g.g.g.g.g.g.g.g.g.g.g.g.g.s.s.s.s.M.:.S Z.g.e.e.s.s.s.s.g.g.g.g.g.g.g.g.g.g.g.g.g.g.g.g.g.g.g.g.g.g.g.g.s.s.s.g.g.g.g.g.s.s.s.s.s.s.g.g.g.g.g.s.s.s.g.g.g.g.g.s.s.s.s.s.s.s.g.g.g.g.g.g.g.s.s.e.s.g.%.V Z.g.s.g.s.s.g.s.g.g.g.g.g.g.g.g.s.s.s.s.s.s.s.s.g.g.g.g.g.g.g.g.g.g.g.s.s.s.s.s.s.s.g.g.g.s.s.s.g.s.s.s.s.s.s.g.g.g.g.g.g.g.g.g.s.s.s.s.s.s.g.g.g.g.g.g.s.g.:.: ",
"J.M.g.g.g.g.s.g.s.s.s.s.s.s.s.g.s.s.s.s.s.g.g.g.g.g.g.g.g.s.s.s.s.s.g.g.g.g.g.g.s.s.s.g.g.g.g.g.g.g.g.g.s.s.s.s.s.s.s.s.s.s.s.s.s.s.s.s.s.s.s.s.s.s.s.s.g.s.M.S <.M.e.s.e.s.s.s.s.e.e.e.e.e.s.s.s.e.s.s.s.s.s.s.s.s.e.e.s.s.s.s.e.e.s.s.s.e.e.e.s.s.s.s.s.s.s.s.e.e.e.e.e.e.s.s.e.e.e.e.s.s.s.e.s.s.s.s.s.s.s.s.g.e.s.e.s.s.s.V s.Z.s.s.g.s.g.s.s.s.s.s.s.g.g.g.g.g.g.g.g.g.g.g.g.g.g.g.g.g.g.g.g.g.g.g.g.g.g.g.g.g.s.s.s.s.g.g.s.s.s.s.s.s.s.s.g.g.g.g.g.g.s.s.s.s.s.g.g.g.s.s.g.s.M.s.s.s.s.v g.M.g.s.g.g.s.g.s.s.s.s.s.s.s.s.g.g.g.g.s.s.g.g.g.s.s.s.s.s.s.s.s.s.g.g.g.g.g.g.g.g.s.s.s.s.g.g.g.g.g.g.g.g.g.g.s.g.g.g.s.s.g.g.g.g.g.s.s.s.s.s.s.g.s.g.s.g.<.v M.g.s.s.s.g.g.g.s.s.s.s.s.s.s.s.s.s.s.s.s.s.s.s.s.s.s.g.g.s.s.s.g.g.s.s.s.s.g.g.s.s.s.s.s.s.s.g.s.s.s.s.s.s.s.s.g.g.g.g.s.s.s.s.s.s.s.s.g.g.s.s.s.g.s.g.g.g.e.V Z.M.g.g.g.g.g.g.s.s.s.s.s.s.g.g.s.s.s.s.s.g.g.g.g.g.g.g.g.g.g.g.s.s.s.s.s.g.g.g.g.g.g.g.g.g.g.g.s.s.s.s.s.s.s.s.s.s.s.s.s.s.s.s.s.s.s.s.s.s.s.s.g.s.s.s.s.M.:.S G.g.s.s.s.s.s.s.g.g.g.g.g.g.g.g.s.s.s.s.s.s.s.s.s.s.s.s.s.s.s.s.s.s.s.g.g.g.g.s.s.s.s.s.s.s.g.g.s.s.s.s.s.s.s.s.g.g.s.s.s.s.s.s.s.s.g.g.g.g.g.g.s.s.s.e.s.g.%.V Z.g.g.g.s.g.g.s.g.g.g.g.g.g.g.g.s.s.s.s.s.g.s.s.g.g.g.g.s.g.g.g.g.g.g.s.s.s.s.s.g.g.g.g.g.s.s.s.s.s.s.s.s.s.s.s.g.g.s.s.g.g.g.g.g.s.s.s.s.g.g.g.g.g.g.g.s.g.:.: ",
"J.M.g.g.g.g.s.g.s.s.s.s.s.s.g.g.s.s.s.s.s.g.g.g.g.g.g.g.s.s.s.s.s.s.g.g.g.g.g.g.s.s.s.g.g.g.g.g.g.g.g.g.s.s.s.s.s.s.s.s.s.s.s.s.s.s.g.g.g.g.s.s.g.g.g.g.g.s.M.S <.M.e.s.e.s.s.s.s.e.e.e.e.e.s.s.e.e.s.s.s.s.s.e.s.e.e.e.e.s.s.s.e.e.s.s.s.s.e.<.s.s.s.s.s.s.s.s.e.e.e.e.e.e.s.s.s.e.e.e.s.s.s.e.s.s.s.s.s.s.s.s.g.e.s.e.e.e.s.V s.Z.g.s.g.s.g.s.s.s.s.s.s.g.g.g.g.g.g.g.g.g.g.g.g.g.g.g.g.g.g.g.g.g.g.g.g.g.g.g.g.g.g.g.g.g.g.g.s.s.s.s.s.s.s.s.g.g.g.g.g.g.s.s.s.s.g.g.g.g.s.s.g.s.M.s.s.s.s.p g.M.g.s.g.g.s.g.s.s.s.s.s.s.s.s.g.g.g.g.g.g.g.g.g.g.g.g.g.g.g.g.s.s.g.g.g.g.g.g.g.s.s.s.s.s.s.g.g.g.g.g.g.g.g.g.s.g.g.g.s.s.g.g.g.g.g.s.s.s.s.s.s.g.s.g.s.g.<.v M.g.s.s.s.g.g.g.s.s.s.s.s.s.s.s.g.g.g.g.g.g.g.g.s.s.s.g.g.s.s.s.g.s.s.s.s.s.s.g.s.s.s.s.s.s.s.g.s.s.s.s.s.s.s.s.g.g.g.g.s.s.s.s.s.g.g.g.g.g.g.g.s.g.s.g.g.M.e.V Z.M.g.g.g.g.g.g.s.s.s.s.s.s.g.g.s.s.s.s.s.g.g.g.g.g.g.g.g.g.g.g.s.s.s.s.s.g.g.g.g.g.g.g.g.g.g.g.s.s.s.s.s.s.s.s.s.s.s.s.s.s.s.s.s.s.s.s.s.s.s.s.g.s.s.s.s.g.:.S G.M.s.s.g.g.s.g.g.g.g.g.g.g.g.g.s.s.s.s.s.s.s.s.s.s.s.s.s.s.s.s.s.s.s.g.g.g.s.s.s.s.s.s.s.g.g.g.s.s.s.g.g.s.s.s.g.g.s.s.s.s.s.s.s.s.g.g.g.g.g.g.s.s.s.e.s.g.%.S G.g.g.g.g.g.g.g.s.s.s.s.s.s.s.s.e.s.s.s.s.g.g.g.g.g.g.s.s.s.g.g.g.g.s.s.s.s.s.s.g.g.g.g.s.s.g.g.s.s.s.s.s.s.s.s.s.s.s.s.s.g.g.g.g.g.s.s.g.g.g.g.g.g.g.g.s.g.:.: ",
"J.Z.g.s.g.s.s.s.s.s.g.s.s.s.s.g.s.s.s.s.s.s.s.s.s.s.s.s.s.s.s.s.g.g.g.g.g.g.g.s.s.s.s.s.s.s.s.s.g.g.s.s.s.s.s.s.s.s.s.s.s.g.g.g.s.s.s.g.g.g.g.g.g.e.g.s.g.s.g.S :.Z.e.s.s.s.e.s.s.s.e.<.<.e.s.s.s.s.s.s.s.s.s.s.e.e.s.s.s.e.e.e.s.s.s.s.s.s.e.e.s.s.s.e.e.e.e.e.e.e.e.s.s.s.s.s.e.e.e.e.s.s.e.e.s.s.s.s.s.e.e.e.s.<.s.e.s.s.s.v s.Z.s.s.g.s.g.s.s.s.s.s.s.s.s.s.g.g.g.g.g.g.g.g.s.s.g.g.g.g.g.g.g.g.g.g.g.g.g.g.s.s.s.s.s.s.s.s.s.s.s.s.s.s.s.s.g.g.g.s.s.s.s.s.s.s.s.g.g.g.s.s.s.e.g.s.s.g.g.V s.Z.s.s.g.s.g.s.s.s.s.g.g.g.g.g.g.g.g.g.g.g.g.g.s.s.s.s.s.s.g.g.g.g.g.s.s.s.s.s.g.g.g.g.g.s.s.s.s.s.s.s.s.s.s.s.s.s.s.g.g.g.g.g.s.s.s.s.g.g.g.g.g.g.s.g.s.g.<.V Z.M.g.s.s.s.s.s.g.g.g.g.g.g.g.g.g.g.g.s.g.g.g.s.s.s.s.s.s.s.s.s.g.g.g.g.g.g.g.s.s.s.e.e.e.s.s.s.s.s.s.s.s.s.s.s.s.s.s.s.s.s.s.g.g.g.g.s.s.s.s.g.s.g.s.g.s.g.e.V Z.g.s.s.g.g.g.g.s.g.g.g.g.g.g.g.g.s.s.s.s.s.g.g.g.g.g.g.g.g.g.s.s.s.s.s.g.g.g.g.s.s.s.s.s.s.s.s.s.s.s.g.g.g.g.g.s.s.s.g.g.g.s.s.g.g.s.s.g.g.g.g.g.s.g.s.s.g.%.S G.M.s.s.g.g.s.s.g.s.s.s.s.s.g.g.s.s.s.g.s.s.g.g.g.g.g.s.s.s.s.s.s.s.s.s.s.g.g.g.g.g.g.g.g.g.g.g.s.s.s.g.s.g.s.s.g.g.s.s.s.s.s.s.s.s.s.s.s.s.s.s.s.s.g.s.s.g.%.S G.g.s.g.s.g.g.s.s.s.s.s.s.s.s.s.s.s.s.s.s.g.g.g.g.g.g.g.g.g.g.s.g.g.s.s.s.s.s.s.s.s.s.s.s.s.s.g.s.g.g.g.g.g.g.g.s.s.g.g.g.g.s.s.s.s.g.g.g.g.g.g.s.s.s.g.s.g.%.- ",
"J.Z.g.s.g.s.s.s.s.s.g.g.s.s.s.g.s.s.s.s.s.s.s.s.g.s.s.s.s.s.s.g.g.g.g.g.g.g.s.s.g.s.s.s.s.s.s.s.g.g.g.s.s.s.s.s.s.s.s.s.g.g.g.g.s.s.s.g.g.g.g.g.g.e.g.s.g.s.g.S :.Z.e.s.s.s.e.s.s.s.e.e.e.e.s.s.s.s.s.s.s.s.s.s.e.e.s.s.s.s.e.s.s.s.s.s.e.e.e.e.s.s.s.s.e.e.e.e.e.e.e.e.s.s.s.s.s.s.s.s.s.s.e.e.s.s.s.s.s.s.e.e.s.<.s.e.s.s.s.v s.Z.s.s.g.s.g.g.g.g.g.g.g.g.g.g.g.g.g.g.g.g.g.g.s.s.g.g.g.g.s.s.g.g.g.g.g.g.g.g.s.s.s.s.s.s.s.s.s.s.s.s.s.s.s.s.g.g.g.s.s.s.s.s.s.s.s.g.g.s.s.s.s.e.g.s.s.g.g.V g.Z.s.s.g.s.g.s.g.g.g.g.g.g.g.g.g.g.g.g.g.g.g.g.s.s.s.g.g.g.g.g.g.g.s.s.s.s.s.s.g.g.g.g.g.s.s.s.s.s.g.g.s.s.s.s.g.g.g.g.g.g.g.g.s.g.g.g.g.g.g.g.s.g.s.g.s.g.<.V M.g.s.s.s.s.s.s.g.s.s.s.s.g.g.g.g.g.s.s.s.g.s.s.s.s.s.s.s.s.s.s.g.g.g.g.g.g.s.s.s.s.s.e.s.s.s.g.s.s.s.s.s.s.s.s.s.s.s.s.s.s.s.g.g.g.g.s.s.s.s.g.s.g.s.g.s.g.e.V G.M.s.s.g.g.s.g.s.s.g.g.g.g.g.g.g.s.s.s.s.g.g.g.g.g.g.g.g.g.s.s.s.s.s.s.g.g.g.g.s.s.s.s.s.s.s.s.s.s.s.g.g.g.g.g.s.s.s.g.g.g.g.g.g.g.s.s.g.g.g.s.g.s.g.s.s.g.%.S G.M.s.s.g.g.s.s.g.g.g.g.s.s.s.s.s.s.s.g.s.s.g.g.g.g.g.s.s.s.s.s.s.s.s.s.s.g.g.g.g.g.g.g.g.g.g.g.s.s.g.g.s.s.s.s.g.g.g.g.s.s.s.s.g.g.g.g.g.g.g.g.s.s.g.s.s.g.:.S G.g.s.g.s.g.g.s.s.s.s.s.s.s.s.s.s.s.s.s.s.g.g.g.g.g.g.g.g.g.s.s.g.g.s.s.s.s.s.g.s.s.g.s.s.s.g.g.s.s.g.g.g.g.g.g.s.s.g.g.g.g.s.s.s.s.g.g.g.g.g.g.s.s.s.g.s.g.%.- ",
"J.Z.g.g.g.g.s.s.s.s.g.g.s.s.g.g.s.s.s.s.s.s.s.s.g.g.g.g.g.g.g.g.g.g.g.g.g.s.s.s.g.g.g.g.g.s.s.s.g.g.g.g.s.s.s.s.s.g.g.g.g.g.g.g.s.s.g.g.g.g.g.g.g.e.g.s.g.s.g.S :.Z.e.s.s.s.e.s.s.s.s.s.e.e.s.s.s.s.s.s.s.s.s.s.s.s.s.s.s.s.s.s.s.e.e.e.e.e.e.e.s.s.s.e.s.s.s.s.e.e.e.e.s.s.s.s.s.s.s.s.s.s.s.s.s.s.s.s.s.s.e.e.g.e.s.e.s.s.s.v s.Z.s.s.g.s.g.g.g.g.g.g.g.g.g.g.g.g.g.g.g.g.g.g.s.s.s.s.s.s.s.s.s.s.s.g.g.g.g.g.s.s.s.s.s.s.s.g.s.s.s.s.s.s.s.s.g.g.g.s.s.s.s.s.s.s.s.s.s.s.s.s.g.s.g.s.s.g.g.V g.Z.g.s.g.s.s.s.g.g.g.g.g.s.s.s.g.g.g.g.g.g.g.g.g.g.g.g.g.g.g.g.s.s.s.s.s.s.s.s.g.g.g.g.s.s.s.s.g.g.g.g.g.g.s.s.g.g.g.g.g.s.s.s.g.g.g.g.g.g.s.s.s.g.s.g.s.g.e.V M.g.s.s.s.g.g.g.s.s.s.s.s.s.s.s.g.s.s.s.s.s.s.s.s.s.s.s.s.s.s.s.g.g.g.g.g.s.s.s.s.s.s.s.s.s.s.g.s.s.s.s.s.s.s.s.s.s.s.s.s.s.s.g.g.g.g.s.s.s.s.g.s.g.s.g.s.g.e.V G.M.g.g.g.s.s.s.s.s.s.g.g.g.g.g.g.g.s.s.g.g.g.g.g.g.g.g.g.s.s.s.s.s.s.s.g.g.g.g.s.s.s.s.g.g.s.g.s.s.s.g.g.g.s.s.e.s.s.s.g.g.g.g.g.g.s.s.s.g.s.s.g.s.g.s.s.g.%.S G.M.s.s.g.s.s.s.g.g.g.g.g.s.s.e.s.s.s.g.s.s.s.s.g.g.s.s.s.s.s.s.s.s.s.s.s.g.g.g.g.g.g.g.g.g.g.g.g.g.g.g.s.s.s.s.s.s.g.g.g.g.g.s.g.g.g.g.g.g.g.g.s.g.g.s.s.g.:.S J.g.s.g.s.s.g.s.g.g.g.g.g.g.g.g.g.g.g.g.g.g.g.g.g.g.g.g.g.s.s.s.s.s.s.s.s.s.s.s.s.g.g.g.s.s.g.g.s.s.s.g.g.g.g.g.s.s.g.g.g.g.s.s.s.s.g.g.g.g.s.g.s.s.s.g.s.M.:.: ",
"J.Z.g.g.g.g.s.g.s.s.g.g.g.g.g.g.s.s.s.s.s.s.s.s.g.g.g.g.g.g.g.g.g.g.g.g.s.s.s.s.g.g.g.g.g.g.g.g.g.g.g.g.g.g.s.s.g.g.g.g.g.g.g.g.s.g.g.g.g.g.g.g.g.e.g.s.g.s.g.S :.Z.e.s.e.s.e.s.s.s.s.s.s.s.s.s.s.s.s.s.s.s.s.s.s.s.s.s.s.s.s.s.s.s.e.e.e.e.e.e.s.s.s.e.s.s.s.s.e.e.e.s.s.s.s.s.s.s.s.s.s.s.s.e.s.s.s.s.s.s.e.e.g.e.g.e.s.s.s.V s.Z.s.s.g.s.g.g.g.g.g.s.g.g.g.g.s.s.s.s.s.s.s.s.s.s.s.s.s.s.s.s.s.s.s.s.g.g.g.g.s.s.s.s.s.g.g.g.s.s.s.s.s.s.s.s.g.g.g.s.s.s.s.s.s.s.s.s.s.s.s.s.g.s.g.s.s.g.g.V s.Z.s.s.g.s.g.s.g.g.g.g.s.s.s.s.s.s.s.s.s.s.s.s.g.g.g.g.g.g.g.g.s.s.s.s.s.s.s.s.g.g.g.g.s.s.s.s.g.g.g.g.g.g.s.s.g.g.g.g.s.s.s.s.s.s.s.s.s.s.s.s.s.g.s.g.s.g.e.V M.g.g.s.s.g.g.g.s.s.s.s.s.s.s.s.s.s.s.s.s.s.s.s.s.s.s.s.s.s.s.s.g.g.g.g.s.s.s.s.g.s.s.s.s.s.g.g.s.s.s.s.s.s.s.s.s.s.s.s.s.s.s.g.s.g.g.s.s.s.s.g.s.g.s.s.s.g.e.V Z.M.g.g.g.s.s.s.s.s.s.g.g.g.g.g.g.s.g.g.g.g.g.g.g.g.g.g.s.s.s.s.s.s.s.s.s.g.g.g.s.s.s.s.g.g.g.g.s.s.s.s.s.s.s.s.e.e.s.s.g.g.g.g.g.g.s.s.s.s.s.s.g.s.g.s.s.g.%.S G.M.s.s.g.s.s.s.g.g.g.g.s.s.s.e.s.s.s.s.s.s.s.s.g.g.s.s.s.s.s.g.s.s.s.s.s.g.g.g.s.s.s.s.s.s.s.s.g.g.g.g.s.s.s.s.s.s.s.g.g.g.g.s.g.g.g.g.g.g.g.g.g.g.g.s.g.g.:.J J.g.s.g.s.s.g.s.g.g.g.g.g.g.g.g.g.g.g.g.g.g.g.g.g.g.g.g.s.s.s.s.s.s.s.s.s.s.s.s.s.s.s.s.s.s.s.g.s.s.s.s.g.g.g.g.s.s.g.g.g.g.s.s.s.s.g.g.g.g.s.s.s.s.s.g.s.M.:.: ",
"J.M.g.g.g.s.s.g.s.s.s.s.g.g.g.g.s.s.s.s.s.s.s.s.g.g.s.s.s.s.g.g.g.g.s.s.s.s.s.s.g.g.g.g.g.g.g.g.g.g.g.g.s.s.g.g.g.g.g.g.g.s.s.s.s.s.s.g.g.g.g.s.g.e.g.s.g.s.g.S :.Z.e.s.e.s.e.s.s.s.s.s.s.s.s.s.s.s.s.s.s.s.s.s.e.s.s.s.s.s.s.s.e.e.e.e.e.e.e.s.s.s.s.s.s.s.s.e.s.s.s.s.s.s.s.s.s.s.s.s.s.s.e.e.e.e.s.s.s.e.e.e.g.e.g.s.s.s.s.V s.Z.s.s.g.s.g.g.g.g.s.s.g.g.g.g.s.s.s.s.s.s.s.s.s.s.s.s.s.s.s.s.s.s.s.s.s.g.g.g.s.s.s.s.s.g.g.g.s.s.s.s.s.s.s.s.g.g.g.s.s.s.s.s.s.s.s.s.s.s.s.s.g.s.g.s.s.s.s.v s.Z.s.s.g.s.g.s.g.g.g.s.s.s.s.s.s.s.s.s.s.s.s.s.g.g.g.g.g.g.s.s.s.s.s.s.s.s.s.s.s.s.s.s.s.s.s.s.g.g.g.g.g.g.s.s.g.g.g.s.s.s.s.s.s.s.s.s.s.s.e.e.s.g.s.g.s.g.e.V M.g.s.s.s.g.g.g.s.s.s.s.s.s.s.s.s.s.s.s.s.s.s.s.s.s.s.s.s.s.s.s.g.g.s.s.s.s.s.s.s.s.s.s.s.g.g.g.s.s.s.s.s.s.s.s.s.s.s.s.s.s.s.g.s.g.g.s.s.s.g.g.s.g.s.g.s.g.<.V M.g.g.g.g.s.s.g.s.s.s.g.g.g.g.s.s.s.g.g.s.g.g.s.g.g.s.s.s.s.s.s.s.s.s.s.s.s.g.g.s.s.s.s.s.s.s.s.s.s.s.s.s.s.s.s.e.s.s.s.s.g.g.g.g.s.s.s.s.s.s.s.g.s.g.s.s.g.%.S Z.g.s.s.s.s.s.s.s.s.s.s.s.s.s.s.s.s.s.s.s.s.s.s.g.s.s.s.s.s.g.g.s.s.s.s.s.g.g.g.s.s.s.s.s.s.s.s.g.g.g.g.g.s.s.s.e.e.s.s.g.g.s.s.s.s.g.g.g.g.g.g.g.g.g.s.g.g.:.J G.g.s.s.e.s.g.s.g.g.g.g.g.g.g.g.s.g.g.g.g.g.s.s.g.g.s.s.s.s.s.s.s.s.s.s.s.s.s.s.s.s.s.s.s.s.s.s.s.s.s.s.s.s.g.g.s.s.g.g.g.g.s.s.s.s.s.g.s.s.s.s.s.s.s.g.s.g.:.: ",
"G.M.s.s.s.s.s.g.s.s.s.s.s.g.s.s.s.s.s.s.s.s.s.s.s.s.s.s.s.s.s.s.s.s.s.s.s.s.s.s.g.g.g.g.g.s.s.s.g.g.s.s.s.s.s.s.g.g.g.s.s.s.s.s.s.s.s.g.g.s.s.s.g.e.g.s.g.s.g.S :.Z.e.s.s.s.e.s.s.e.s.s.s.s.s.s.s.s.s.s.s.s.s.s.e.e.s.s.s.e.s.s.e.e.e.e.e.e.e.s.s.s.s.s.s.s.e.e.e.e.s.s.s.s.s.s.e.e.e.e.e.e.e.e.e.e.s.s.s.s.e.e.g.e.s.s.s.s.s.V s.Z.s.s.g.s.g.g.s.s.s.s.s.s.s.s.s.s.s.s.s.s.s.s.s.s.s.s.s.s.s.s.s.s.s.s.s.s.g.g.s.s.s.s.s.s.s.g.s.s.s.s.s.s.s.s.g.g.g.s.s.s.s.s.s.s.s.s.s.s.s.s.g.s.g.e.s.s.s.v e.M.s.s.g.s.g.g.s.s.s.s.s.s.s.s.s.s.s.s.s.s.s.s.g.g.s.s.s.s.s.s.s.s.s.s.s.s.s.s.s.s.s.s.s.s.s.s.g.g.g.g.g.g.s.s.s.s.s.s.s.s.s.s.s.s.s.s.s.s.e.e.s.s.s.s.s.g.e.V g.s.s.e.e.s.s.s.s.s.s.s.s.s.s.s.s.s.s.s.s.s.s.s.s.s.s.s.s.s.s.s.s.s.s.s.s.s.s.s.s.s.s.s.g.g.g.g.s.s.s.s.s.s.s.s.s.s.s.s.s.s.s.g.s.s.g.s.s.s.g.g.s.g.s.g.s.g.<.V M.g.s.g.s.s.s.g.s.s.s.s.s.s.s.s.s.s.s.g.s.s.s.s.s.s.s.s.s.s.s.s.s.s.s.s.s.s.s.s.s.s.s.s.s.s.s.s.s.s.s.s.s.s.s.s.e.s.s.s.s.s.s.s.s.s.s.s.s.s.s.s.g.s.g.s.s.g.%.S Z.g.s.s.s.s.s.s.s.s.s.s.s.s.g.g.s.s.s.s.s.s.s.s.s.s.s.s.s.s.g.g.s.s.s.s.s.g.g.g.s.s.s.s.s.s.s.s.g.g.g.g.g.s.s.s.e.e.s.s.s.s.s.s.s.s.s.s.s.s.s.s.s.g.g.s.s.g.:.S G.g.s.s.e.s.g.s.g.g.g.g.s.g.g.g.s.s.g.g.g.s.s.s.s.s.s.s.s.s.s.s.s.s.s.s.s.s.s.s.s.s.s.s.s.s.s.s.s.s.s.s.s.s.s.s.s.s.g.g.g.g.s.s.s.s.s.g.s.s.s.s.s.s.s.g.s.g.%.- ",
"G.M.s.s.s.s.s.s.s.s.e.s.s.s.s.s.s.s.s.s.s.s.s.s.s.s.s.s.s.s.s.s.s.s.s.s.s.s.s.s.g.s.s.s.s.s.s.s.s.s.s.s.s.s.s.s.s.s.s.s.s.s.s.s.s.s.s.s.s.s.s.s.g.e.g.s.g.s.g.S :.Z.e.s.s.s.e.s.e.e.e.e.s.s.e.s.e.e.e.e.e.e.e.s.e.e.e.s.e.e.e.e.e.e.e.s.s.s.s.s.s.s.s.s.e.e.e.e.s.s.e.e.e.e.s.s.e.<.e.e.e.e.e.e.e.e.e.s.s.s.e.s.s.e.s.e.s.s.s.v s.Z.s.s.g.s.g.g.s.s.s.s.s.s.s.s.s.s.s.s.s.s.s.s.s.s.s.s.s.s.s.s.s.s.s.s.s.s.s.s.s.s.s.s.s.s.s.s.s.s.s.s.s.s.s.s.g.g.g.s.s.s.s.s.s.s.s.s.s.s.s.g.g.s.g.s.s.s.s.v e.M.s.s.g.s.g.s.s.s.s.s.s.s.s.s.s.s.s.s.s.s.s.s.g.g.s.s.s.s.s.s.s.s.s.s.s.s.s.s.s.s.s.s.s.s.s.s.s.s.g.g.s.s.s.s.s.s.s.s.s.s.s.s.g.s.s.s.s.s.s.e.s.s.s.g.s.g.e.V M.g.s.e.s.s.s.s.s.s.s.s.s.s.s.s.s.s.s.s.s.g.g.s.s.s.s.s.s.s.s.s.s.s.s.s.s.s.s.s.s.s.s.s.s.s.s.s.s.s.s.s.s.s.s.s.s.s.s.s.s.s.s.g.s.s.s.s.s.s.g.g.s.g.s.g.s.g.e.V M.g.s.s.s.e.s.g.s.s.g.s.s.s.s.s.s.s.s.s.s.s.s.s.s.s.s.s.s.s.s.s.g.g.s.s.s.s.s.s.s.s.s.s.s.s.s.s.s.s.s.s.s.s.s.s.s.s.s.s.s.s.s.s.s.s.e.e.s.s.s.s.g.s.g.s.s.g.%.S Z.g.s.s.s.s.s.s.s.s.s.s.s.s.s.g.s.s.s.s.s.s.s.s.s.s.s.s.s.g.g.g.s.s.s.s.s.g.g.g.s.s.s.s.s.s.s.s.s.s.g.g.s.s.s.s.e.s.s.s.s.s.s.s.s.s.s.s.s.s.s.s.s.s.g.s.s.g.%.S Z.s.e.s.e.s.g.g.s.s.s.s.s.s.s.s.s.s.s.g.g.s.s.e.s.s.s.s.s.s.s.s.s.s.s.s.s.s.e.e.s.s.s.s.e.s.s.s.s.s.s.s.s.s.s.s.s.s.g.g.g.g.s.s.s.s.s.s.s.s.s.s.s.s.s.g.s.g.%.- ",
"G.M.s.s.s.s.s.s.s.s.e.e.s.s.s.s.s.s.s.s.s.s.s.s.g.s.s.s.s.s.s.g.s.s.s.s.s.s.s.s.s.s.s.s.s.s.s.s.s.s.s.s.s.s.s.s.s.s.s.s.s.s.s.e.s.s.s.s.s.s.s.s.g.e.g.s.g.s.g.S :.Z.e.s.s.s.e.s.e.e.e.e.e.e.e.e.e.e.e.e.e.e.e.s.e.e.e.e.e.e.e.e.e.e.e.s.s.s.s.s.s.s.s.e.e.e.e.e.s.s.s.e.e.e.s.s.<.<.<.<.e.e.e.e.e.e.e.s.s.s.e.s.s.e.s.e.s.s.s.v s.Z.s.s.g.s.g.g.s.s.s.s.s.s.s.s.s.s.s.s.s.s.s.s.s.s.s.s.s.s.s.s.s.s.s.s.s.s.s.s.s.s.s.s.s.s.s.s.s.s.s.s.s.s.s.s.g.g.g.s.s.s.s.s.g.s.s.s.s.s.s.g.g.s.g.s.s.s.s.v s.Z.s.s.g.s.g.s.s.s.s.s.s.s.s.g.s.s.s.s.s.s.s.s.s.s.s.s.s.s.s.e.e.e.s.s.s.s.s.g.s.s.s.s.s.s.s.s.s.s.s.s.s.s.s.s.s.s.s.s.s.s.s.g.g.g.g.g.s.s.s.s.s.s.s.g.s.g.e.V Z.M.g.s.s.s.s.s.s.s.s.s.s.s.s.s.s.s.s.s.s.g.g.g.s.s.s.s.s.s.s.s.s.s.s.s.s.s.s.s.s.s.s.s.s.s.s.s.s.s.s.s.s.s.s.s.s.s.s.s.s.s.s.g.s.s.s.s.s.s.g.g.s.g.s.g.s.g.e.V M.g.s.s.e.e.e.s.g.g.g.s.s.s.s.e.e.s.s.s.s.s.s.s.s.s.s.s.s.s.s.s.g.g.g.s.s.s.s.s.s.s.s.s.s.e.e.e.s.s.s.s.s.s.s.s.s.s.s.s.s.s.s.s.e.e.e.e.s.s.s.s.g.s.g.s.s.g.%.S Z.g.s.s.s.s.s.s.e.s.s.s.g.s.s.s.s.s.s.s.s.s.s.s.s.s.s.s.s.g.g.g.s.s.s.s.s.g.g.g.s.s.s.s.s.s.s.s.s.s.s.g.g.s.s.s.s.s.s.s.s.s.s.g.s.s.s.s.s.s.s.s.s.s.g.s.s.g.%.S G.s.e.e.e.s.g.g.s.s.s.s.s.s.s.s.s.s.s.g.s.s.s.e.s.s.s.s.s.s.s.s.s.s.s.s.s.s.e.e.s.s.s.s.s.s.s.g.s.s.s.s.s.s.s.s.s.s.g.g.g.g.s.s.s.s.s.s.s.s.s.s.s.s.s.g.s.g.%.- ",
"J.M.g.g.g.s.s.s.s.s.s.s.s.s.s.s.g.g.s.s.s.s.s.s.s.s.s.s.s.s.s.s.s.s.s.s.s.s.s.s.s.s.s.s.s.s.s.s.g.s.s.s.s.s.s.s.s.s.s.e.e.s.s.s.s.s.s.s.s.s.s.s.g.e.g.s.s.s.g.S :.M.e.s.e.s.s.s.s.e.e.e.e.e.e.e.e.e.s.s.s.e.e.e.s.e.e.e.e.e.e.e.e.e.s.s.s.s.e.e.e.e.e.e.s.s.s.s.s.s.s.e.e.e.e.e.<.<.e.e.s.s.s.s.s.s.s.s.s.s.e.e.s.e.s.e.e.e.e.v s.Z.s.s.g.s.g.s.s.s.s.s.s.s.g.g.s.s.s.s.s.s.e.e.s.s.s.g.g.s.s.s.s.s.s.s.s.s.s.s.g.s.s.s.s.s.s.g.g.s.s.s.s.s.s.s.g.g.g.s.s.s.s.s.s.s.s.s.s.s.s.s.s.s.M.g.s.s.s.V g.M.g.s.g.s.e.s.s.s.s.s.s.s.s.s.s.g.g.g.s.s.g.g.s.s.s.s.s.s.s.s.s.s.s.s.s.s.s.s.s.s.s.s.s.s.s.s.s.s.s.s.s.s.s.s.g.g.g.g.s.s.s.s.g.g.s.s.s.s.s.s.s.g.s.g.s.g.e.V M.g.s.s.s.s.s.s.s.s.s.s.s.s.s.s.s.s.s.s.s.s.s.s.s.s.s.s.s.s.s.s.s.s.s.s.s.s.s.s.s.s.s.s.s.s.s.s.g.g.s.s.s.s.g.g.s.s.s.s.s.s.s.g.g.g.s.s.s.s.g.g.s.g.s.s.s.g.e.V Z.g.e.e.s.s.s.s.s.s.s.s.s.s.s.s.s.s.s.s.s.s.s.s.s.s.s.s.s.s.s.s.s.s.s.s.s.s.s.s.e.e.e.e.e.e.e.e.s.s.s.s.s.s.s.s.s.s.s.g.g.s.s.s.e.e.s.s.s.s.s.s.s.s.s.g.s.s.<.V Z.g.s.s.s.s.s.s.s.s.s.s.s.s.s.s.s.s.s.s.e.e.s.s.s.s.s.g.g.g.g.s.g.g.s.s.s.s.s.s.s.s.s.s.s.s.s.s.g.s.s.s.s.s.s.s.s.s.s.s.s.s.s.s.s.s.s.s.s.s.s.s.g.s.g.s.s.s...S Z.s.s.s.s.s.g.s.g.g.g.g.s.s.s.s.s.s.s.s.s.s.s.s.s.s.s.s.s.s.s.s.s.s.s.s.s.s.s.s.s.s.s.s.s.s.s.s.s.s.s.s.s.s.s.s.s.s.s.s.s.s.s.s.g.g.g.s.s.s.s.e.g.s.s.g.s.g.:.: ",
"Z.g.s.s.g.s.s.s.s.s.s.s.s.s.s.s.g.g.s.s.s.s.s.s.s.s.s.s.s.s.s.s.s.s.s.s.s.s.s.s.s.s.s.s.s.s.s.s.g.s.s.s.s.s.s.s.s.s.s.s.s.s.s.s.s.s.s.s.s.s.s.s.g.e.g.s.s.s.g.S :.M.e.s.e.s.s.s.s.e.e.e.e.e.e.e.e.e.e.e.e.e.e.e.s.s.s.e.e.e.s.s.e.e.e.s.s.e.e.e.e.e.e.e.s.s.s.s.s.s.e.e.e.e.e.e.<.<.e.e.s.e.s.s.e.s.s.s.s.e.e.e.s.e.s.e.e.e.e.v s.Z.s.s.g.s.g.s.s.s.s.s.s.s.g.g.s.s.s.s.s.s.s.s.s.s.s.g.g.s.s.s.s.s.s.s.s.s.s.s.g.s.s.s.s.s.s.s.g.s.s.s.s.s.s.s.g.g.g.s.s.s.s.s.s.s.s.s.s.s.s.s.s.s.M.s.s.s.s.v g.M.g.s.g.s.e.s.s.s.s.s.s.s.s.s.s.g.g.s.s.s.g.g.s.s.s.g.s.s.s.s.s.s.s.s.s.s.s.s.s.s.s.s.s.s.s.s.s.s.s.s.s.s.s.s.s.s.g.s.s.s.s.s.g.s.s.s.s.s.s.s.s.g.s.g.s.g.e.V M.g.s.s.s.s.e.e.s.s.s.s.s.s.s.s.s.s.s.s.s.s.s.s.s.s.s.s.s.s.g.g.s.s.s.s.s.s.s.s.s.s.s.s.s.s.s.s.g.s.s.s.s.s.s.s.s.s.s.s.s.s.s.s.g.g.s.s.s.s.g.g.s.g.s.s.s.g.e.V Z.g.e.e.s.s.s.s.s.s.s.s.s.s.s.s.s.s.s.s.s.s.s.s.s.s.s.s.s.s.s.s.s.s.s.s.s.s.s.s.s.s.s.s.s.e.s.s.s.s.s.s.s.s.s.s.s.s.s.g.g.s.s.s.e.e.s.s.s.s.s.s.s.s.e.g.s.s.<.V M.g.e.s.s.s.s.s.s.s.s.s.s.s.s.s.s.g.g.s.s.s.s.s.s.s.s.g.g.g.s.s.g.s.s.s.s.s.s.s.s.s.s.s.s.s.s.s.g.g.s.s.s.s.s.g.s.s.s.s.s.s.s.s.s.s.s.s.s.s.s.s.s.s.s.s.s.s...S Z.s.s.s.s.s.g.s.g.g.g.g.s.s.s.s.s.s.s.s.s.s.s.s.s.s.s.s.s.s.s.s.s.s.s.s.s.s.s.s.s.s.s.s.s.s.s.s.s.s.s.s.s.s.s.s.s.s.s.s.s.s.s.s.g.s.s.s.s.s.s.s.g.s.s.g.s.g.:.: ",
"Z.g.s.s.g.s.s.s.s.s.s.s.s.s.s.s.g.s.s.s.s.s.s.s.s.s.s.s.s.s.s.s.s.s.s.s.s.s.s.s.s.s.s.s.s.s.s.s.s.s.s.s.s.s.s.s.s.s.s.s.s.s.s.s.s.s.s.s.s.s.s.s.g.e.g.s.s.s.g.S <.M.e.s.e.s.e.e.e.e.e.e.e.e.s.s.s.e.e.e.e.e.e.e.s.s.s.s.s.s.s.s.e.e.e.e.e.e.e.e.e.e.e.e.e.e.s.s.s.s.s.e.e.e.e.e.<.e.e.e.s.s.e.e.e.e.s.s.s.s.e.e.s.e.s.e.e.e.e.v e.M.s.s.g.s.g.g.s.s.s.s.s.s.s.g.s.s.s.s.s.s.s.s.s.s.s.s.s.s.s.s.s.s.s.s.s.s.s.s.g.s.s.e.s.s.g.s.g.s.s.s.s.s.s.s.g.g.g.s.s.s.s.s.s.s.s.s.g.s.s.s.g.e.g.e.s.g.s.v g.M.s.e.s.s.e.s.s.s.s.s.s.s.s.s.s.s.s.s.s.s.s.g.s.s.s.s.s.s.s.s.s.s.s.s.g.g.s.s.s.s.s.s.s.s.s.s.s.s.s.s.s.s.s.s.s.s.s.s.s.s.s.s.s.s.s.s.s.s.s.s.s.g.s.g.s.g.e.V g.g.s.s.s.s.s.s.s.s.s.s.s.s.s.s.s.s.s.s.s.s.s.s.s.s.s.s.s.s.s.g.s.s.s.s.s.s.s.s.s.s.s.s.s.s.s.s.s.s.s.s.s.s.s.e.s.s.s.s.s.s.s.s.g.g.s.s.s.s.g.g.s.s.s.g.s.g.<.V M.g.e.e.s.s.s.s.s.s.s.s.s.s.s.s.s.s.s.s.s.s.s.s.s.s.s.s.s.s.s.s.s.s.s.s.s.s.s.s.s.s.s.s.s.s.s.s.s.s.s.s.s.s.s.s.s.s.s.s.s.s.s.s.s.s.s.s.s.s.s.s.s.s.e.g.s.g.<.V M.g.e.s.s.s.e.s.s.s.s.s.s.s.s.s.g.g.g.g.s.s.s.s.s.s.s.g.g.s.s.s.s.s.s.s.s.s.s.s.s.s.s.s.s.s.s.s.g.g.g.s.s.g.g.g.s.s.s.s.s.s.s.s.s.s.s.s.s.s.s.s.s.e.s.s.s.s.%.S G.s.s.s.s.s.g.s.g.g.g.g.s.s.s.s.s.s.s.s.s.s.s.s.s.s.s.s.s.s.s.s.s.s.s.s.s.s.s.s.s.s.s.s.s.s.s.s.s.s.s.s.s.s.s.s.s.s.s.s.s.s.s.s.s.s.s.s.s.s.s.s.g.s.s.g.s.g.:.: ",
"J.M.s.s.g.s.s.s.s.s.s.s.s.s.s.s.s.s.s.s.s.s.s.s.s.s.s.s.s.s.s.s.s.s.s.s.s.s.s.s.s.s.s.s.s.s.s.s.s.s.s.s.s.s.s.s.g.s.s.s.s.s.s.s.s.s.s.s.s.s.s.s.g.e.g.s.s.s.g.S <.M.e.s.e.s.e.e.s.e.e.e.s.s.s.s.s.e.e.e.e.e.e.e.s.s.s.s.e.s.s.s.e.e.e.e.e.e.e.e.e.e.e.e.e.e.e.s.s.s.e.e.e.e.e.e.e.e.e.s.s.s.e.e.e.e.s.s.e.e.e.e.s.e.s.e.e.e.s.v e.M.s.s.g.s.g.g.g.g.s.s.s.s.g.g.s.s.s.s.s.s.s.s.s.s.s.s.s.s.s.s.s.s.s.s.s.s.s.s.g.s.s.e.s.s.g.s.g.s.s.s.s.s.s.s.g.g.g.s.s.s.s.s.s.s.g.g.s.s.s.s.g.e.s.e.s.g.s.v g.g.s.e.s.s.e.g.s.s.s.s.s.s.s.s.s.s.s.s.s.s.s.g.s.s.s.s.s.s.s.s.s.s.s.s.g.s.s.s.s.s.s.s.s.s.s.s.s.s.s.s.s.s.s.s.s.s.s.s.s.s.s.s.s.s.s.s.s.s.s.s.s.g.s.g.s.g.e.V M.g.s.s.s.s.s.s.s.s.s.s.s.s.s.s.s.s.s.s.s.s.s.s.s.s.s.s.s.s.s.g.g.g.g.g.g.g.g.g.s.s.s.s.s.s.s.s.s.s.s.s.s.e.e.e.s.s.s.s.s.s.s.s.g.g.s.s.s.s.g.g.s.s.s.g.s.g.<.v M.g.e.e.s.s.s.g.s.s.s.s.s.s.s.s.s.s.s.s.s.s.s.s.s.s.s.s.s.s.s.s.s.s.s.s.s.s.s.s.s.s.s.s.s.s.s.s.s.s.s.s.s.s.s.s.s.s.s.s.s.s.s.s.s.s.s.s.s.s.s.s.s.s.e.g.s.s.<.V Z.g.s.s.s.s.s.s.s.s.s.s.s.s.s.s.g.g.g.s.s.s.s.g.s.s.s.s.s.s.s.s.s.s.s.s.s.s.s.s.s.s.s.s.s.s.s.s.s.s.s.s.s.s.g.g.s.s.s.s.s.s.s.s.s.s.s.s.s.s.s.s.s.e.s.s.s.s.%.S G.g.s.g.s.s.g.s.s.g.g.g.s.s.s.s.s.s.s.s.s.s.s.s.s.s.s.s.s.s.s.s.s.s.s.s.s.s.s.s.s.s.s.s.s.s.s.s.s.s.s.s.s.s.s.s.g.g.s.s.s.s.s.s.s.s.s.s.s.s.s.s.g.s.s.g.s.g.:.: ",
"J.M.g.g.g.s.s.s.s.s.s.s.s.s.s.s.s.s.s.s.s.s.s.s.s.s.s.s.s.s.s.s.s.s.s.s.s.s.s.s.s.s.s.s.s.s.s.s.s.s.s.s.s.s.s.s.s.g.g.g.s.s.s.s.s.s.s.s.s.s.s.s.g.e.g.s.s.s.g.S <.M.e.s.e.s.e.e.s.s.e.e.e.e.s.s.s.e.e.e.e.e.e.s.e.e.e.e.e.e.e.e.<.e.e.e.e.e.e.e.e.e.e.e.e.e.e.e.e.e.e.e.e.e.e.e.e.e.e.s.s.s.e.e.e.e.e.s.s.s.e.e.s.<.s.e.e.e.s.v e.M.s.s.g.s.g.g.s.s.g.g.g.s.s.s.s.s.s.s.g.g.g.s.s.s.s.s.s.s.s.s.s.s.s.s.s.s.s.s.g.s.s.e.s.s.g.g.g.s.s.s.s.s.s.s.g.g.g.s.s.s.s.s.s.s.g.g.s.s.s.s.g.e.s.e.s.g.s.v g.M.s.e.s.s.e.g.s.s.s.s.s.s.s.s.s.s.s.s.e.e.s.g.s.s.s.e.e.e.s.s.s.s.s.s.s.s.s.s.s.s.s.s.s.s.s.s.s.s.s.s.s.g.g.g.s.s.s.s.s.s.s.s.s.s.s.s.s.s.s.s.s.g.s.g.s.g.<.V M.g.s.s.s.g.g.g.s.s.s.s.s.s.s.s.s.s.s.s.s.s.s.s.s.s.s.s.s.s.s.s.g.g.g.g.g.g.g.g.s.s.s.s.s.s.s.s.s.s.s.s.s.s.e.e.s.s.s.s.s.s.s.s.g.g.s.s.s.s.g.g.s.s.s.g.s.g.<.v M.g.s.s.s.s.s.g.s.s.s.s.s.s.s.s.s.s.s.s.s.s.s.s.s.s.s.s.s.s.s.s.s.s.s.s.s.s.s.s.s.s.s.s.s.s.g.g.s.s.s.s.s.s.s.s.s.s.s.s.s.s.s.s.s.g.g.g.s.s.s.s.s.s.s.g.s.s.:.v Z.g.s.s.s.s.s.g.s.s.s.s.s.s.s.s.s.s.s.s.s.s.s.s.s.s.s.s.s.s.s.s.s.s.s.s.s.s.s.s.s.s.s.s.s.s.s.s.s.s.s.s.s.s.s.s.s.s.s.s.s.s.s.s.s.s.s.s.s.s.s.s.s.s.s.s.s.g.%.J G.g.s.g.s.s.g.s.s.s.s.s.s.s.s.s.s.s.s.s.s.s.s.s.s.s.s.s.s.s.s.s.s.s.s.s.s.s.s.s.s.s.s.s.s.s.s.s.s.s.s.s.s.s.s.s.g.g.g.s.s.s.s.e.s.s.s.s.s.s.s.s.g.s.s.g.s.g.:.: ",
"Z.g.s.s.g.s.s.s.s.s.s.s.s.s.s.s.s.s.s.s.s.s.s.g.s.s.s.s.s.s.s.s.s.s.s.s.s.s.s.s.s.s.s.s.s.s.s.s.s.s.s.g.s.s.s.s.s.s.g.g.s.s.s.s.s.s.s.s.s.s.s.s.g.e.g.s.s.s.g.S <.M.e.s.e.s.s.s.s.s.e.e.e.e.s.s.s.e.e.e.e.e.e.s.e.e.e.e.e.e.e.e.e.e.e.e.e.e.e.e.e.e.e.e.e.e.e.e.e.e.e.e.e.e.e.e.e.e.s.s.s.s.e.e.e.e.e.s.e.e.e.e.s.<.s.e.e.e.s.v e.M.s.s.g.s.s.s.s.s.s.s.s.s.s.s.s.s.s.s.g.g.g.g.s.s.s.s.s.s.s.s.s.s.s.s.s.s.s.s.g.s.s.e.s.s.g.g.g.s.s.s.s.s.s.s.g.g.g.s.s.s.s.s.s.s.s.g.s.s.s.s.g.e.s.e.s.s.s.v g.M.s.e.s.s.s.g.s.s.s.s.s.s.s.s.s.s.s.s.e.s.s.s.s.s.s.e.e.e.e.s.s.s.s.s.s.s.s.s.s.s.s.s.s.s.s.s.s.s.s.g.s.s.s.s.s.s.s.s.s.s.s.s.s.s.s.s.s.s.s.s.s.g.s.g.s.g.<.V g.g.s.s.s.s.s.s.s.s.s.s.s.s.s.s.s.s.s.s.s.s.s.s.s.s.s.s.s.s.s.s.s.s.s.s.s.s.s.s.s.s.s.s.s.s.s.s.s.s.s.s.s.e.e.e.s.s.s.s.s.s.s.s.g.g.s.s.s.s.g.g.s.s.s.g.s.g.<.v Z.g.s.s.s.s.s.g.s.s.s.s.s.s.s.s.s.s.s.s.s.s.s.s.s.s.s.s.s.s.s.s.s.s.s.s.s.s.s.s.s.s.s.s.s.s.g.g.s.s.s.s.s.s.s.s.s.s.s.s.s.s.s.g.g.g.g.g.s.s.s.s.g.g.s.g.s.s.:.v Z.g.e.e.e.e.s.g.s.s.s.s.s.s.s.s.s.s.s.s.s.s.s.s.s.s.s.s.s.s.s.s.s.s.s.s.s.s.s.s.s.s.s.s.s.s.s.s.e.s.s.s.s.s.s.s.s.s.s.s.s.s.s.s.s.s.s.s.s.s.s.s.s.s.s.g.g.g.:.J G.g.s.g.s.s.g.s.s.s.s.s.s.s.s.s.s.s.s.g.s.s.s.s.s.s.s.s.s.s.s.s.s.s.s.s.s.s.s.g.s.s.s.s.s.s.s.s.s.s.s.s.s.s.s.s.g.g.g.s.s.s.s.s.s.s.s.s.s.s.s.s.g.s.s.g.s.g.:.: ",
"Z.g.s.s.g.s.s.s.s.s.s.s.s.s.s.s.s.s.s.s.s.s.g.g.s.s.s.s.s.s.s.s.s.s.s.s.s.s.s.s.s.s.s.s.s.s.s.s.s.s.s.g.g.g.s.s.s.s.s.g.s.s.s.s.s.s.s.s.s.s.s.s.g.e.g.s.s.s.g.S <.M.e.s.e.s.s.s.s.s.s.s.e.e.e.s.e.e.e.e.e.e.e.e.s.e.s.e.e.e.e.<.e.e.e.e.s.s.s.s.e.e.e.e.s.s.s.s.e.e.e.e.e.e.e.e.e.e.s.s.s.s.e.e.s.s.s.e.e.e.e.e.s.<.s.e.e.e.s.v e.M.s.s.s.e.s.s.s.s.s.s.s.s.s.e.s.s.s.s.g.g.s.s.g.s.s.s.s.s.s.g.s.s.s.s.s.s.s.s.g.s.s.s.s.s.g.g.g.s.s.s.s.s.s.s.g.g.g.s.s.s.s.s.s.s.s.s.s.s.s.s.s.s.M.s.s.s.s.v g.M.s.s.g.s.s.g.s.s.s.s.s.s.s.s.s.s.s.s.s.s.s.s.g.s.s.s.e.e.e.s.s.s.s.s.s.s.s.s.s.s.s.s.s.s.s.s.g.g.g.s.s.s.s.s.s.s.s.s.s.s.s.s.s.s.s.s.s.s.s.g.s.g.s.g.s.g.<.V g.g.s.s.s.s.s.s.s.s.s.s.s.s.s.s.s.s.s.s.s.s.s.s.s.s.s.s.s.s.s.s.s.s.s.s.e.e.e.s.s.s.s.s.s.s.s.s.s.s.s.s.s.s.s.s.s.s.s.s.s.s.s.s.g.g.s.s.s.s.g.g.s.g.s.s.s.g.e.V Z.g.s.s.s.s.s.g.s.s.s.s.s.s.s.s.s.s.s.s.s.s.s.s.s.s.s.s.s.s.s.s.s.s.s.s.s.s.s.s.s.s.s.s.s.s.g.g.s.s.s.s.s.s.s.s.s.s.s.s.s.s.s.s.s.s.g.g.g.s.s.s.s.s.s.g.s.s.:.V Z.g.e.e.e.e.s.g.s.s.s.s.s.s.s.s.s.s.s.s.s.s.s.s.s.s.s.s.s.s.s.e.s.s.s.s.s.s.s.g.g.s.s.s.s.s.s.s.e.e.s.s.s.s.s.g.s.s.s.s.s.s.s.s.s.s.s.s.s.s.s.s.s.s.s.s.s.g.%.J G.g.s.g.s.s.g.s.s.s.s.s.s.s.s.s.s.s.g.g.g.g.s.s.s.s.s.s.s.s.s.s.g.g.s.s.s.s.g.g.s.s.s.s.s.s.s.s.s.s.s.s.s.s.s.s.g.g.s.s.s.s.s.s.s.s.s.g.g.g.s.s.g.s.s.g.s.g.:.: ",
"J.M.g.g.g.s.s.s.s.s.s.s.s.s.s.s.s.s.s.s.s.s.g.g.s.s.s.s.s.s.s.s.s.s.s.s.s.s.s.s.s.s.s.s.s.s.s.s.s.s.s.g.g.g.s.s.s.s.s.g.g.s.s.s.s.s.s.s.s.s.s.s.g.e.g.s.s.s.g.S <.M.e.s.e.s.s.s.s.s.s.s.e.e.s.s.e.e.e.e.e.e.e.e.s.s.s.e.e.e.e.e.e.e.e.s.s.s.s.s.e.e.e.e.s.s.s.s.e.e.e.e.e.e.e.e.s.s.s.s.s.s.s.s.s.s.s.e.e.e.e.<.s.<.s.e.s.e.s.v e.M.s.s.s.e.s.s.s.s.s.s.s.s.e.e.s.s.g.g.g.g.s.s.g.g.s.s.s.s.g.g.s.s.s.s.s.s.s.s.g.s.s.s.s.s.g.g.g.s.s.s.s.s.s.s.g.g.g.s.s.s.s.s.s.s.s.s.s.s.s.s.s.s.M.g.s.s.s.V g.M.g.s.g.g.s.g.s.s.s.s.s.s.s.s.s.s.s.s.s.s.s.g.g.g.s.s.s.s.s.s.s.s.g.g.g.g.s.s.s.s.s.s.s.s.s.s.g.g.s.s.s.s.s.e.s.s.s.s.s.s.s.s.s.s.s.s.s.s.g.g.s.g.s.g.s.g.e.V M.g.g.s.s.g.g.g.s.s.s.s.s.s.s.s.s.s.s.s.s.s.s.s.g.g.s.s.s.s.s.s.s.s.s.s.s.s.s.s.s.s.s.s.s.s.s.s.s.s.s.s.s.s.s.s.s.s.s.s.s.s.s.s.g.g.s.s.s.s.g.g.s.g.s.s.s.g.e.V Z.g.s.s.s.s.s.s.s.s.s.s.s.s.s.s.s.s.s.s.s.s.s.s.s.s.s.s.s.s.s.s.s.s.s.s.s.s.s.s.s.s.s.s.s.s.s.g.s.s.s.s.s.s.s.s.s.s.s.s.s.s.s.g.s.s.g.g.g.g.s.s.s.s.s.g.s.s.<.V Z.g.s.e.s.s.s.g.s.s.s.s.s.s.s.s.g.g.g.s.s.s.s.g.s.s.s.s.s.s.s.e.s.s.s.s.s.s.g.g.g.g.s.s.s.s.s.s.s.s.s.s.s.s.g.g.s.s.s.s.s.s.s.s.s.s.s.s.s.s.s.s.s.s.s.s.s.s.%.S G.g.s.g.s.s.g.s.s.s.s.s.s.s.s.s.s.s.g.g.g.g.s.s.s.s.s.s.s.s.s.s.g.g.s.s.s.s.g.g.s.s.s.s.s.s.s.s.s.s.s.s.s.s.s.s.s.s.s.s.s.s.s.s.g.g.g.g.g.g.g.g.g.s.s.g.s.g.:.: ",
"G.M.s.s.s.s.s.s.s.s.s.s.s.s.s.s.s.s.s.s.s.s.s.s.s.s.s.s.s.s.s.s.s.s.s.s.s.s.s.s.s.s.s.s.s.e.e.e.s.s.s.s.s.s.s.s.e.e.s.s.s.s.s.s.s.s.s.s.s.s.s.s.g.e.g.s.s.s.g.S :.M.e.s.<.s.e.e.e.e.e.e.e.e.e.e.e.e.e.e.e.e.e.e.e.e.e.e.e.e.e.e.e.e.e.s.e.e.e.e.e.e.e.e.e.e.e.e.e.e.e.e.e.e.e.e.e.e.e.e.e.e.e.e.e.e.e.e.e.e.e.e.s.<.s.e.s.e.s.v e.M.s.s.g.e.g.s.s.s.s.s.s.s.s.s.s.s.s.e.s.s.s.s.s.s.s.s.s.s.s.e.s.s.s.s.s.s.s.s.e.e.s.s.s.s.s.s.s.s.s.s.s.s.s.s.s.s.s.s.s.s.s.s.g.g.g.s.s.e.s.s.s.s.s.e.g.s.s.V g.M.g.s.g.s.e.s.s.s.s.s.s.s.s.s.s.s.s.s.s.s.s.s.s.s.s.s.s.s.s.s.s.s.s.s.s.s.s.s.g.s.s.s.s.s.s.s.s.s.s.s.s.e.e.e.s.s.s.s.s.s.s.s.s.s.s.s.s.s.s.s.s.g.s.g.s.g.e.V M.g.s.s.s.s.s.s.s.s.s.s.s.s.s.s.s.s.s.s.s.s.s.s.s.s.s.s.s.s.s.s.s.s.s.s.s.s.s.s.s.s.s.s.s.s.s.e.s.s.s.s.s.s.s.s.s.g.g.g.s.s.s.s.s.s.s.s.s.e.s.e.s.s.s.g.s.g.<.V M.g.s.s.s.s.e.s.s.s.e.s.s.s.s.s.s.s.s.s.s.s.s.s.s.s.e.s.s.s.s.s.s.s.s.s.s.s.s.s.e.e.s.s.s.s.s.s.s.s.s.s.s.s.s.s.s.s.s.s.s.s.e.e.s.s.s.s.s.s.s.s.s.s.s.s.s.g.%.S G.s.s.s.s.s.g.s.s.s.s.s.s.s.s.s.s.s.s.s.s.s.s.s.s.s.s.s.s.s.s.s.e.e.e.s.s.s.s.s.s.s.s.s.s.s.s.s.s.s.s.s.s.s.s.s.s.s.s.s.s.s.s.s.s.s.s.s.s.s.s.s.g.s.s.s.s.g.%.S G.s.s.g.s.e.s.s.s.s.s.s.s.s.s.s.g.g.s.s.s.s.s.s.s.s.e.s.s.s.s.s.s.s.s.s.s.s.e.e.s.s.s.s.s.s.s.s.s.s.s.s.s.s.s.s.s.s.s.s.s.s.s.s.s.s.s.s.s.s.s.s.s.s.s.s.e.g.%.: ",
"G.M.s.s.s.s.s.s.s.s.s.s.s.s.s.s.s.s.e.e.e.e.s.s.s.s.s.s.s.s.s.s.s.s.s.s.s.s.s.s.s.s.s.s.s.e.e.e.s.s.s.s.s.s.s.s.e.e.s.s.s.s.s.s.s.s.s.s.s.s.s.s.g.e.g.s.s.s.g.S :.M.e.s.<.s.e.e.e.e.e.e.e.e.e.e.e.e.e.e.e.e.e.e.e.e.e.e.e.e.e.e.s.s.s.s.e.e.e.e.e.e.e.e.e.e.e.e.e.e.e.e.e.e.e.e.e.e.e.e.e.e.e.e.e.e.e.e.e.e.e.e.s.<.s.e.s.e.s.v e.M.s.s.g.e.g.s.s.s.s.s.s.s.s.s.s.s.s.s.s.s.s.s.s.s.s.s.s.s.s.s.s.s.s.s.s.s.s.s.e.e.s.s.s.s.s.s.s.s.s.s.s.s.s.s.s.s.s.s.s.s.s.s.s.s.s.s.e.e.e.s.s.s.s.e.g.s.e.V g.M.g.s.g.s.e.s.s.s.s.s.s.s.s.s.s.s.s.s.s.s.s.s.s.s.s.s.s.s.s.s.s.s.s.s.s.s.s.s.g.s.s.s.s.s.s.s.s.s.s.s.s.e.e.e.s.s.s.s.s.s.s.s.s.s.s.s.s.s.s.s.e.s.e.s.s.g.<.V M.g.s.s.s.s.s.s.s.s.s.s.s.s.s.s.s.s.s.s.s.s.s.s.s.s.s.s.s.s.s.s.s.s.s.s.s.s.s.s.s.s.s.s.s.s.s.e.s.s.s.s.s.s.s.s.s.s.s.s.s.s.s.s.s.s.s.s.s.s.e.e.s.s.s.s.s.g.<.V M.g.s.s.s.s.e.s.s.s.e.s.s.s.s.s.s.s.s.s.s.s.s.s.s.s.e.s.s.s.s.s.s.s.s.s.s.s.s.s.e.e.s.s.s.s.s.s.s.s.s.s.s.s.s.s.s.s.e.s.s.s.e.e.s.s.s.s.s.s.s.s.s.s.s.s.s.g.%.S G.s.s.s.s.s.g.s.s.s.s.s.s.s.s.s.s.s.s.s.s.s.s.s.s.s.s.s.s.s.s.s.s.s.s.s.s.s.s.s.g.g.g.g.g.s.s.s.s.s.s.s.s.s.s.s.s.s.s.s.s.s.s.s.s.s.s.s.s.s.s.s.s.s.s.s.s.g.%.S G.s.s.g.s.e.s.s.s.s.s.s.s.s.s.s.g.g.s.s.s.s.s.s.s.s.e.s.s.s.s.s.s.s.s.s.s.s.s.s.s.s.s.s.s.s.s.s.s.s.s.s.s.s.s.s.s.s.s.s.e.s.s.s.s.s.s.s.s.s.s.s.s.s.s.s.s.g.%.: ",
"G.M.s.s.s.s.s.s.s.s.s.s.s.s.s.s.e.e.e.e.e.e.e.e.s.s.s.s.s.s.s.s.s.s.s.s.s.s.s.s.s.s.s.s.s.s.e.e.s.s.s.s.e.e.e.e.s.s.s.s.s.s.s.s.s.s.s.s.s.s.s.s.g.e.g.s.s.s.g.S :.M.e.s.<.s.e.e.e.e.s.s.e.e.e.e.e.e.e.e.e.e.e.e.e.e.e.e.e.e.e.e.s.s.s.e.e.e.e.e.e.e.e.e.e.e.e.e.s.s.e.e.e.e.e.e.e.e.e.e.e.e.e.e.e.e.e.e.e.e.e.e.s.<.s.e.s.e.e.v e.M.s.s.g.e.g.s.s.s.s.s.s.s.s.s.s.s.s.s.s.s.s.e.s.s.s.s.s.s.s.s.s.s.s.s.s.s.s.s.e.e.s.s.s.s.s.s.s.s.s.s.s.s.s.s.s.s.s.s.s.s.s.s.s.s.s.s.e.e.e.e.s.e.s.e.g.s.e.V g.g.s.e.g.g.s.s.e.s.s.s.s.s.s.e.s.s.s.s.s.s.s.s.s.s.s.s.s.s.s.s.s.s.s.s.s.s.s.s.s.s.s.s.s.s.s.s.s.s.s.s.s.s.e.e.s.s.s.s.s.s.s.s.s.s.s.s.s.s.e.e.e.s.e.s.e.g.<.v M.g.s.s.s.s.s.s.s.s.s.s.s.s.s.s.s.s.s.s.s.s.s.s.s.s.s.s.s.s.s.s.s.s.s.s.s.s.s.s.s.s.s.s.s.s.s.e.s.s.s.s.s.s.s.s.s.s.s.s.s.s.s.s.s.s.s.s.s.s.s.s.s.s.e.s.s.g.<.V M.g.e.s.s.s.s.s.s.s.e.s.s.s.s.s.s.s.s.s.s.s.s.s.s.s.e.s.s.s.s.s.s.s.s.s.s.s.s.s.s.s.s.s.s.s.s.s.s.s.s.s.s.s.s.s.s.s.s.s.s.s.s.e.s.s.e.e.s.e.s.e.s.s.s.s.s.g.%.S G.g.s.s.s.s.g.s.s.s.s.s.s.s.s.s.s.s.s.s.s.s.s.s.e.e.e.e.e.e.e.e.s.s.s.s.e.e.e.e.g.g.s.g.g.s.s.s.s.s.s.s.s.s.s.s.s.s.s.s.s.s.s.s.s.s.s.s.s.s.s.s.s.s.s.s.s.g.%.S G.s.s.g.s.e.s.s.s.s.s.s.s.s.s.s.s.s.s.s.e.e.s.s.s.e.s.s.s.s.s.s.s.s.s.s.s.s.s.s.s.s.s.s.s.s.s.s.s.s.s.s.s.s.s.s.s.s.s.s.e.s.s.s.s.s.s.s.s.s.s.s.s.s.s.s.s.g.:.: ",
"G.M.s.s.s.s.s.s.s.s.s.s.s.e.e.e.e.e.e.e.e.e.e.s.s.s.s.s.s.s.s.s.s.s.s.s.s.s.s.s.s.s.s.s.s.e.e.e.s.s.s.s.s.s.s.s.s.e.s.s.s.s.s.s.s.s.s.s.s.s.s.s.g.e.g.s.s.s.g.S :.M.e.s.<.s.e.e.s.s.e.e.e.e.e.e.e.e.e.e.e.e.e.e.e.e.e.e.e.e.e.e.s.s.s.e.e.e.e.e.e.e.e.e.e.e.e.e.e.e.e.e.e.e.e.e.e.e.e.e.e.e.e.e.e.e.e.e.e.e.e.e.s.<.s.e.s.e.e.v e.M.s.s.g.e.g.s.s.s.s.s.s.s.s.s.s.s.s.s.s.s.e.e.e.s.s.s.s.s.s.s.s.s.s.s.s.s.s.s.e.e.s.s.s.s.s.s.s.s.s.s.s.s.s.s.s.s.s.s.s.s.s.s.s.s.s.s.e.e.s.s.s.e.s.e.g.s.e.V g.g.e.e.g.g.s.g.e.s.s.s.s.s.s.e.s.s.s.s.s.s.s.s.s.s.s.s.s.s.s.s.s.s.s.s.s.s.s.s.s.s.s.s.s.s.s.s.s.s.s.s.s.s.s.s.s.s.s.s.s.s.s.s.s.s.s.s.s.s.e.e.e.e.e.s.e.g.<.v M.g.s.s.s.s.s.s.s.s.s.s.s.s.s.s.s.s.s.s.s.s.s.s.s.s.s.s.s.s.s.s.s.s.s.s.s.s.s.s.s.s.s.s.s.s.s.s.s.s.s.s.s.s.s.s.s.s.s.s.s.s.s.s.e.s.s.s.s.s.s.s.s.s.s.s.s.g.<.V Z.g.e.e.s.s.s.s.s.s.e.s.s.s.s.s.s.s.s.s.s.s.s.s.s.s.e.s.s.s.s.s.s.s.s.s.s.s.s.s.s.s.s.s.s.s.s.s.s.s.s.s.s.s.s.s.s.s.s.s.s.s.s.s.s.s.e.e.e.e.e.e.s.s.s.s.s.g.%.S G.g.s.s.s.s.g.s.s.s.s.s.s.s.s.s.s.s.s.s.s.s.s.s.s.s.s.s.s.s.s.s.s.s.s.s.e.e.e.e.e.e.e.s.s.s.s.s.s.s.s.s.s.s.s.s.s.s.s.s.s.s.s.s.s.s.s.s.s.s.s.s.s.e.s.s.s.g.%.J G.s.s.g.s.e.s.s.s.s.s.s.s.s.s.s.s.s.s.s.e.e.e.e.s.s.s.s.s.s.s.s.s.s.s.s.s.s.s.s.s.s.s.s.s.s.s.s.s.s.s.s.s.s.s.s.s.s.s.e.e.s.s.s.s.s.s.s.s.s.s.s.s.s.s.s.s.g.:.: ",
"G.g.s.s.s.s.s.s.s.s.s.e.e.e.e.e.e.e.e.e.e.s.s.s.s.s.s.s.s.s.s.s.s.s.s.s.s.s.s.s.s.s.s.s.s.s.s.s.s.s.s.s.s.s.s.s.s.s.s.s.s.s.s.s.s.s.s.s.s.s.s.s.g.e.g.s.s.s.g.S :.M.<.s.<.s.e.e.s.s.s.s.e.e.e.e.e.e.e.e.e.e.e.e.e.e.e.e.e.e.e.e.e.e.e.e.e.e.e.e.e.e.e.e.e.e.e.e.s.e.e.e.e.e.e.e.e.e.e.e.e.e.e.e.e.e.e.e.e.e.e.e.e.<.s.e.e.e.e.v e.M.s.s.g.e.g.s.s.s.s.s.s.s.s.s.s.s.s.s.s.s.e.e.e.s.s.s.s.s.s.s.s.s.s.s.s.s.s.s.e.e.s.s.s.s.s.s.s.s.s.s.s.s.s.s.s.s.s.s.s.s.e.e.s.s.s.s.s.s.s.s.s.s.g.e.g.s.e.V g.g.e.e.g.g.s.g.e.s.s.s.s.s.s.e.s.s.s.s.s.s.s.s.s.s.s.s.s.s.s.s.s.s.s.s.s.s.s.s.s.s.s.s.s.s.s.s.s.s.s.s.s.s.s.s.s.s.s.s.s.s.s.s.s.s.s.s.s.e.e.e.s.s.e.s.s.g.<.V g.g.s.s.s.s.s.s.s.s.s.e.e.s.s.s.s.s.s.s.s.s.s.s.s.s.s.s.s.s.s.s.s.s.s.s.s.s.s.s.s.s.s.s.s.s.s.s.s.s.s.s.s.s.s.s.s.s.s.s.s.s.s.s.e.e.s.s.s.s.s.s.s.s.s.s.s.g.<.v M.g.e.e.e.e.s.s.s.s.e.s.s.s.s.s.s.s.s.s.s.s.s.s.s.s.s.s.s.s.s.s.s.s.s.s.s.s.s.s.s.s.s.s.s.s.s.s.s.s.s.s.s.s.s.s.e.s.s.s.s.s.s.s.s.s.s.e.e.e.e.e.s.s.s.s.s.g.%.S G.g.s.s.s.s.g.e.s.s.s.s.s.s.s.s.s.s.s.s.s.s.s.s.s.s.s.s.s.s.s.s.e.s.s.s.s.s.e.e.e.e.e.e.e.e.s.s.e.e.s.s.s.s.s.s.s.s.s.s.s.s.s.s.s.s.s.s.s.s.s.s.s.e.s.s.s.g.%.J G.s.s.g.s.s.s.s.s.s.s.s.s.s.s.s.e.s.s.e.s.e.e.s.s.s.s.s.s.s.s.s.s.s.s.s.s.s.s.s.s.s.s.s.s.s.s.s.s.s.s.s.s.s.s.s.s.s.e.e.e.e.s.s.s.s.s.s.s.s.s.s.s.s.s.s.e.g.:.: ",
"Z.g.s.s.s.s.s.s.e.e.e.e.e.s.s.s.e.e.s.s.s.s.s.s.s.s.s.s.s.s.s.s.s.s.s.s.s.s.s.s.s.s.s.s.s.s.s.s.s.s.s.s.s.s.s.s.e.e.s.s.s.s.s.s.s.s.s.s.s.s.s.s.g.e.g.s.s.s.g.S :.M.<.s.<.s.e.e.e.e.s.s.e.e.e.e.e.e.e.e.e.e.e.e.e.e.e.e.e.e.e.e.e.e.e.e.e.e.e.e.e.e.e.e.e.e.e.e.e.e.e.e.e.e.e.e.e.e.e.e.e.e.e.e.e.e.e.e.e.e.e.e.e.<.s.e.e.e.e.v e.M.s.s.g.e.g.s.s.s.s.s.s.s.s.s.s.s.s.s.s.s.s.e.s.s.s.s.s.s.s.s.s.s.s.s.s.s.s.s.e.e.s.s.s.s.s.s.s.s.s.s.s.s.s.s.s.s.s.s.s.s.e.e.s.s.s.s.s.s.s.s.g.s.g.s.g.s.e.V g.g.e.e.g.g.s.g.e.s.s.s.s.s.s.e.s.s.s.s.s.s.s.s.s.s.s.s.s.s.s.s.s.s.s.s.s.s.s.s.s.s.s.s.s.s.s.s.e.e.s.s.s.s.s.s.s.s.s.s.s.s.s.s.s.s.s.s.s.e.e.e.s.s.e.s.s.g.e.V g.g.s.s.s.s.s.s.s.s.e.e.e.e.s.s.s.s.s.s.s.s.s.s.s.s.s.s.s.s.s.s.s.s.s.s.s.s.s.s.s.s.s.s.s.s.s.s.s.s.s.s.s.s.s.s.s.s.s.s.s.s.s.s.e.e.s.s.s.s.s.s.s.s.e.s.s.g.<.v M.g.e.s.s.e.s.s.s.s.e.s.s.s.s.s.s.s.s.s.s.s.s.s.s.s.s.s.s.s.s.s.s.s.s.s.s.s.s.s.s.s.s.s.s.s.s.s.s.s.s.s.s.s.s.s.e.s.s.s.s.s.s.s.s.s.s.s.s.s.s.e.s.s.s.s.s.g.:.S G.g.s.g.e.s.s.e.s.s.s.s.s.s.s.s.s.s.s.s.s.s.s.s.s.s.s.s.s.s.s.s.e.e.s.s.s.s.s.s.s.s.e.e.e.e.e.e.e.e.s.s.s.s.s.s.s.s.s.s.s.s.s.s.s.s.s.s.s.s.s.s.s.e.s.s.s.g.%.S G.s.s.g.s.s.s.s.s.s.s.s.s.s.s.s.e.e.s.s.s.s.e.e.s.s.s.s.s.s.e.e.s.s.s.s.s.s.s.s.s.s.s.s.s.s.s.s.s.s.s.s.s.s.s.s.s.s.e.e.e.e.s.s.s.s.s.s.s.s.s.s.s.s.s.s.e.g.%.: ",
"Z.g.e.s.s.s.s.s.e.e.e.e.s.s.s.s.s.s.s.s.s.s.s.s.s.s.s.s.s.s.s.s.s.s.s.s.s.s.s.s.s.s.s.s.s.s.s.s.s.s.s.s.s.s.s.s.e.e.s.s.s.s.s.s.s.s.s.s.s.s.s.s.g.e.g.s.s.s.g.S :.M.e.s.<.s.e.e.e.e.e.e.e.e.e.e.e.e.e.e.e.e.e.e.e.e.e.e.e.e.e.e.e.e.e.e.e.e.e.e.e.e.e.e.e.e.e.e.e.e.e.e.e.s.s.s.e.e.e.e.e.e.e.e.e.e.e.e.e.e.e.e.e.<.s.e.e.e.e.v e.M.s.s.s.e.s.s.s.s.s.s.s.s.s.s.s.s.s.s.s.s.s.s.s.s.s.s.s.s.s.s.s.s.s.s.s.s.s.s.e.e.s.s.s.s.s.s.s.s.s.s.s.s.s.s.s.s.s.s.s.e.e.e.s.s.s.s.e.e.s.s.s.s.g.e.g.s.e.V s.g.s.e.s.s.e.s.e.s.s.s.s.s.s.e.s.s.s.s.s.s.s.s.s.s.s.s.s.s.s.s.s.s.s.s.s.s.s.s.s.e.s.s.s.s.s.e.e.e.e.s.s.s.s.s.s.s.s.s.s.s.s.s.s.s.s.s.e.e.e.e.s.s.s.s.s.g.e.V M.g.s.s.s.s.s.s.s.s.e.e.s.s.s.s.s.s.s.s.s.s.s.s.s.s.s.s.s.s.s.s.s.s.s.e.e.s.s.s.s.s.s.s.s.s.s.e.s.s.s.s.s.s.s.s.s.s.s.s.s.s.s.s.e.e.e.s.s.s.s.s.s.s.e.s.s.g.<.v M.g.s.s.s.s.e.s.s.s.e.s.s.s.s.s.s.s.s.s.s.s.s.s.s.s.s.s.s.s.s.s.s.s.s.s.s.s.s.s.s.s.s.s.s.s.s.s.s.s.s.s.s.s.s.s.e.e.s.s.e.e.s.s.s.s.s.s.s.s.s.s.s.s.s.s.s.g.%.S G.g.s.g.e.s.s.e.s.s.s.s.s.s.s.s.s.s.s.s.s.s.s.s.s.s.s.s.s.s.s.s.s.s.s.s.s.s.s.s.g.s.s.s.e.e.e.e.e.e.s.s.s.s.s.s.s.s.s.s.s.s.s.s.s.s.s.s.s.s.s.s.s.e.s.s.s.g.%.S G.s.s.g.s.s.s.s.s.s.s.s.s.s.e.e.e.e.s.s.s.s.s.s.s.s.s.s.s.e.e.e.s.s.s.s.s.s.e.e.s.s.s.s.s.s.s.s.s.s.s.s.s.s.s.s.s.s.s.e.e.s.s.s.s.s.s.s.s.s.s.s.s.s.s.s.e.s.%.- ",
"Z.g.e.e.s.s.s.s.s.e.s.s.s.s.s.s.s.s.s.s.s.s.s.s.s.s.s.s.s.s.s.s.s.s.s.s.s.s.s.s.e.s.s.s.s.s.s.s.s.s.s.s.s.s.s.s.e.e.s.s.s.s.s.s.s.s.s.s.s.s.s.s.g.e.g.s.s.s.g.S :.M.e.s.<.e.e.e.e.e.e.e.e.e.e.e.e.e.e.e.e.e.e.e.e.e.e.e.e.e.e.e.e.e.e.e.e.e.e.e.e.e.e.e.e.e.e.e.e.e.e.e.e.s.s.s.e.e.e.e.e.e.e.e.e.e.e.e.e.e.e.e.e.<.s.e.e.e.e.v e.M.s.s.s.e.s.s.s.s.s.s.s.s.s.s.s.s.s.s.s.s.s.s.s.s.s.s.s.s.s.e.s.s.s.s.s.s.s.s.e.e.s.s.s.s.s.s.s.s.s.s.s.s.s.s.s.s.s.s.s.e.e.e.e.e.s.e.e.e.s.s.s.s.s.e.g.s.e.V s.g.s.s.s.s.e.s.e.s.s.s.s.s.s.e.s.s.s.s.s.s.s.s.s.s.s.s.s.s.s.s.s.s.s.s.s.s.s.s.e.e.s.s.s.s.s.e.e.e.e.s.s.s.s.s.s.s.s.s.s.s.s.s.s.s.s.s.e.e.e.e.e.s.s.s.s.g.<.V M.g.s.s.s.s.s.s.s.e.e.e.e.s.s.s.s.s.s.s.s.s.s.s.s.s.s.s.s.s.s.s.s.s.e.e.e.s.s.s.s.s.s.s.s.s.s.e.s.s.s.s.s.s.s.s.e.e.e.e.e.e.s.s.e.e.s.s.s.s.s.s.s.s.e.s.s.g.<.v M.g.e.s.s.s.e.s.s.s.e.s.s.s.s.s.s.s.s.s.s.s.s.s.s.s.s.s.s.s.s.s.s.s.s.s.s.s.s.s.s.s.s.s.s.s.s.s.s.s.s.s.s.s.s.s.e.e.s.s.e.s.s.g.s.s.s.s.s.s.s.s.s.s.s.s.s.g.%.S G.g.s.g.s.s.s.e.s.s.s.s.s.s.s.s.s.s.s.s.s.s.s.s.s.s.s.s.s.s.s.s.s.s.s.s.s.s.s.s.s.s.e.e.e.e.s.s.e.e.s.s.s.s.s.s.s.s.s.s.s.s.s.s.s.s.s.s.s.s.s.s.s.s.s.s.s.g.%.S G.s.s.g.s.s.s.s.g.s.s.s.s.e.e.e.e.e.s.s.s.s.s.s.s.s.s.s.s.e.e.e.s.s.s.s.s.s.e.e.s.s.s.s.s.s.s.s.s.s.s.s.s.s.s.s.s.s.s.e.e.s.s.s.s.s.s.s.s.s.s.s.s.e.e.s.e.s.%.- ",
"G.M.s.s.s.s.s.g.s.s.s.s.s.s.s.s.s.s.s.s.s.s.s.s.s.s.s.s.s.s.s.s.e.e.e.s.s.s.s.s.s.s.s.s.s.s.s.s.s.s.s.s.s.s.s.s.e.e.e.s.s.s.s.s.s.s.s.s.s.s.s.e.s.g.e.e.g.e.g.S %.M.<.s.<.e.e.s.s.s.s.s.s.s.e.e.s.s.e.e.e.e.s.s.e.e.e.e.e.e.e.e.e.e.e.e.e.e.e.e.e.e.e.e.e.e.e.e.e.e.e.e.e.e.e.e.s.e.e.e.e.e.e.e.e.e.e.e.e.e.e.e.e.<.s.e.s.s.s.v e.M.s.s.g.s.s.s.s.s.s.s.s.s.s.s.s.s.s.s.s.s.s.s.s.s.s.s.s.s.s.s.s.s.s.s.s.s.s.s.s.s.s.s.s.s.s.s.s.s.s.s.s.s.s.s.s.s.s.s.s.s.s.s.s.s.s.s.s.s.s.s.g.e.s.e.s.e.e.v s.g.s.e.g.s.s.g.s.s.s.s.s.s.s.s.s.s.s.s.s.s.s.s.s.s.s.s.s.s.s.s.s.s.s.s.s.s.s.s.s.s.s.s.s.s.s.s.s.s.s.s.s.s.s.s.s.s.s.s.s.s.s.s.s.s.s.s.s.s.e.e.s.s.s.s.s.g.<.V M.g.s.s.s.s.s.s.e.e.s.s.s.s.s.s.s.s.s.s.s.s.s.s.s.s.s.s.s.s.s.s.s.s.s.s.e.s.s.s.s.s.s.s.s.s.s.s.s.s.s.s.s.s.s.s.e.s.s.s.s.s.s.s.s.s.s.s.s.s.s.s.e.e.e.s.e.s.<.v Z.g.s.s.s.s.s.s.s.s.s.s.s.s.s.s.s.s.s.s.s.s.s.s.s.s.s.s.s.s.s.s.s.s.s.s.s.s.s.s.s.s.s.s.s.s.s.s.s.s.s.s.s.s.s.s.e.s.s.s.s.s.s.s.s.s.s.s.s.s.s.s.s.s.s.g.s.s.<.V Z.g.s.s.s.s.s.s.s.s.s.s.s.s.s.s.s.s.s.s.s.s.s.s.s.s.s.s.s.s.e.e.s.s.s.s.s.s.s.s.s.s.s.s.e.e.s.s.s.s.s.s.s.s.s.s.s.s.s.s.s.s.s.e.s.s.e.e.e.s.s.s.s.s.s.s.s.g.%.S G.s.e.g.s.e.s.e.s.s.s.s.s.s.s.s.s.s.s.s.s.s.s.s.s.s.s.e.e.s.s.s.g.s.s.s.s.s.s.s.s.s.s.s.s.s.s.s.s.s.s.s.s.s.s.s.s.s.s.s.s.s.s.s.g.s.s.s.s.s.s.g.g.s.s.s.e.g.%.: ",
"G.g.e.s.s.s.s.s.s.s.s.s.s.s.s.s.s.s.s.s.s.s.s.s.s.s.s.s.s.s.s.s.s.s.s.s.s.s.s.s.s.s.s.s.s.s.s.s.s.s.s.s.s.s.s.s.e.e.e.s.s.s.s.s.s.s.s.s.s.s.s.s.s.g.s.e.g.e.g.S %.M.<.s.<.e.e.s.s.s.s.s.e.s.e.e.s.e.e.e.e.e.e.s.e.e.e.e.e.e.e.e.e.e.e.e.e.e.e.e.e.e.e.e.e.e.e.e.e.e.e.e.e.e.e.e.e.e.e.e.e.e.e.e.e.e.e.e.e.e.e.e.e.<.s.e.s.s.s.v e.M.s.s.g.s.s.e.s.s.s.s.s.s.s.s.s.s.s.s.s.s.s.s.s.s.e.s.e.s.s.s.s.s.s.s.s.s.s.e.s.s.s.s.s.s.s.s.s.s.s.s.s.s.s.s.s.s.s.s.s.s.s.s.s.s.s.s.s.s.s.s.s.e.s.e.e.e.s.V s.g.s.s.g.s.s.g.s.s.s.s.s.s.s.s.s.s.s.s.s.s.s.s.s.s.s.s.s.s.s.s.s.s.s.s.s.s.s.s.s.s.s.s.s.s.s.s.s.s.s.s.s.s.s.s.s.s.s.s.s.s.s.s.s.s.s.s.s.s.e.e.s.s.s.s.s.g.<.V M.g.s.s.s.s.s.s.s.s.s.s.s.s.s.s.s.s.s.s.s.s.s.s.s.s.s.s.s.s.s.s.e.e.s.s.s.s.s.s.s.s.s.s.s.s.s.s.s.s.s.s.s.s.s.s.e.s.s.s.s.s.s.s.s.s.s.s.s.s.s.s.e.e.e.s.e.s.<.v Z.g.s.s.s.s.s.s.s.s.s.s.s.s.s.s.s.s.s.s.s.s.s.s.s.s.s.s.s.s.s.s.s.s.s.s.s.s.s.s.s.s.s.s.s.s.s.s.s.s.s.s.s.s.s.s.e.s.s.s.s.s.s.s.s.s.s.s.s.s.s.s.s.s.s.g.s.s.<.v Z.g.s.s.s.s.s.s.s.s.s.s.s.s.s.s.s.s.s.s.s.s.s.s.s.s.s.s.s.s.e.e.s.s.s.s.s.s.s.s.s.s.s.s.e.e.s.s.s.s.s.s.s.s.s.s.s.s.s.s.s.s.s.s.s.s.e.e.e.s.s.s.s.s.s.s.s.s.%.S Z.s.e.g.s.s.s.s.s.s.s.s.s.s.s.s.s.s.s.s.s.s.s.s.s.s.e.e.e.s.s.s.s.s.s.s.s.s.s.s.s.s.s.s.s.s.s.s.e.e.e.s.s.s.s.s.s.s.s.s.s.s.s.s.s.s.s.s.s.s.g.g.s.s.s.s.e.g.%.: ",
"G.M.s.e.e.e.e.s.s.s.s.s.s.s.s.s.s.s.s.s.s.s.s.s.s.s.s.s.s.s.s.s.s.s.s.s.s.s.s.s.s.s.s.s.s.s.s.s.s.s.s.s.s.s.s.s.e.e.e.s.s.s.s.s.s.s.s.s.s.s.s.s.s.g.e.e.g.e.g.S :.M.<.s.<.e.e.e.e.e.e.e.e.e.e.e.e.e.e.e.e.e.e.e.e.e.e.e.e.e.e.e.e.e.e.e.e.e.e.e.e.e.e.e.e.e.e.e.e.e.e.e.e.e.e.e.e.e.e.e.e.e.e.s.e.e.e.e.e.e.e.e.s.<.s.e.s.e.e.v e.M.s.s.g.e.s.e.s.s.s.s.s.s.s.s.s.s.s.s.s.s.s.s.s.s.e.e.e.s.s.s.g.g.s.s.s.e.e.e.s.s.s.s.s.s.s.s.e.e.e.s.e.s.s.s.s.s.s.s.s.s.s.s.s.s.s.s.s.s.s.s.s.<.s.e.s.s.s.V g.M.s.s.g.s.s.g.s.s.s.e.s.s.s.s.s.s.e.s.s.s.s.s.s.s.s.s.s.s.s.s.s.s.s.s.s.s.s.s.s.s.s.s.s.s.s.s.s.s.s.s.s.s.s.s.s.s.s.s.s.s.s.s.s.s.s.s.s.s.s.e.s.s.s.s.s.g.<.V M.g.s.s.s.s.s.s.s.s.s.s.s.s.s.s.s.s.s.s.s.s.s.s.s.s.s.s.s.s.s.s.e.e.s.s.s.s.s.s.s.s.s.s.s.s.s.s.s.s.s.s.s.s.s.s.e.s.s.s.s.s.s.s.s.s.s.s.s.s.e.e.e.e.e.s.e.s.<.v Z.g.s.s.s.s.s.s.s.s.s.s.s.s.s.s.s.s.s.s.s.s.s.s.s.s.s.s.s.s.s.s.s.s.s.s.s.s.s.s.s.s.s.s.s.s.s.s.s.s.s.s.s.s.s.s.e.s.s.s.s.s.s.s.s.s.s.s.s.s.s.s.s.s.s.g.s.s.:.v Z.g.s.s.s.e.e.s.s.s.s.s.s.s.s.s.s.s.s.s.s.s.s.s.s.s.s.s.s.e.e.e.s.s.s.s.s.s.s.s.s.s.s.s.s.e.s.s.s.s.s.s.s.s.s.s.s.s.s.s.s.s.s.s.s.s.e.e.s.s.s.s.s.s.s.s.s.s.%.S Z.s.e.g.s.s.g.s.s.s.s.s.e.e.e.s.s.s.s.s.s.s.s.s.s.s.s.e.e.s.s.s.s.s.s.s.s.s.s.s.s.s.s.s.s.s.s.s.e.e.e.e.s.s.s.s.s.s.s.s.s.s.s.s.e.s.s.s.s.s.g.g.s.s.s.s.e.g.%.: ",
"G.M.s.e.e.e.e.s.s.s.s.s.s.s.s.s.s.s.s.s.s.s.s.s.s.s.s.s.s.s.s.s.s.s.s.s.s.s.s.s.s.s.s.s.s.s.s.s.s.s.s.s.s.s.s.s.s.e.e.s.s.s.s.s.s.s.s.s.s.s.s.s.s.g.e.e.g.e.g.S :.M.e.s.<.e.e.e.e.e.e.e.e.e.e.e.e.e.<.<.e.<.e.e.e.e.e.e.e.e.e.e.e.e.e.e.e.e.e.e.e.e.e.e.e.e.e.e.e.e.e.e.e.e.e.e.e.e.e.e.e.e.e.s.e.e.e.e.e.e.e.e.s.<.s.e.e.e.e.p e.M.s.s.g.e.s.e.e.s.s.s.s.s.s.e.s.s.s.s.s.s.s.s.e.s.s.e.s.s.s.s.s.s.s.s.s.e.e.e.s.s.s.s.s.s.s.s.e.e.e.e.e.s.s.s.s.s.s.s.s.s.s.s.s.s.s.s.s.s.s.s.s.e.s.e.s.s.s.V g.M.g.s.g.s.e.s.s.s.e.e.s.s.s.s.s.s.e.s.s.s.s.e.s.s.s.s.s.s.s.s.s.s.s.s.s.s.s.s.s.s.s.s.s.s.s.s.s.s.s.s.s.s.s.s.s.s.s.s.s.s.s.s.s.s.s.s.s.s.s.e.s.s.s.s.s.g.<.V M.g.s.s.s.s.s.s.s.s.s.s.s.s.s.s.s.s.s.s.s.s.s.s.s.s.s.s.s.s.s.s.e.e.s.s.s.s.s.e.e.e.e.e.e.e.e.e.s.s.s.s.s.s.s.e.s.s.s.s.s.s.s.s.s.s.s.s.s.s.e.e.e.s.e.s.s.s.<.v Z.g.s.s.s.s.s.s.s.s.s.s.s.s.s.s.s.s.s.s.s.s.s.s.s.s.s.s.s.s.s.s.s.s.s.s.s.s.s.s.s.s.s.s.s.s.s.s.s.s.s.s.s.s.s.s.s.s.s.s.s.s.s.s.s.s.s.s.s.s.s.s.g.s.e.s.s.s.:.v Z.g.s.s.s.s.e.s.s.s.s.s.s.s.s.s.s.s.s.s.s.s.s.s.s.s.s.s.s.s.s.s.s.s.s.s.s.s.s.s.s.s.s.e.e.s.s.s.s.s.s.s.s.s.s.s.s.s.s.s.s.s.s.s.s.s.e.e.s.s.s.s.s.e.s.s.s.s.%.S Z.s.e.g.s.s.g.s.s.s.s.e.e.e.e.s.s.s.s.s.s.s.s.s.s.s.s.s.s.s.s.s.s.s.s.s.s.s.s.s.s.s.s.s.s.s.s.s.e.e.s.s.s.s.s.s.s.s.s.s.s.s.s.s.e.s.s.s.s.s.s.s.s.s.s.s.e.g.:.: ",
"G.M.s.s.s.s.s.s.s.s.s.s.s.s.s.s.s.s.s.s.s.s.s.s.s.s.e.e.s.s.s.s.s.s.s.s.s.s.s.s.s.s.s.s.s.s.s.s.s.s.s.s.s.s.s.s.s.s.s.s.s.s.s.s.e.e.e.s.s.s.s.s.s.g.s.e.g.e.g.S :.M.e.s.<.e.e.e.e.e.e.e.e.e.e.e.e.e.<.<.<.<.e.e.e.e.e.e.e.e.e.e.e.e.e.e.e.e.e.e.e.e.e.e.e.e.e.e.e.e.e.e.e.e.e.e.e.e.e.e.e.e.e.s.e.e.e.e.e.e.e.e.s.<.s.e.s.e.e.p e.M.s.s.g.s.s.s.s.s.s.s.s.s.e.e.s.s.s.s.s.s.s.s.e.e.e.s.s.s.s.s.e.e.e.s.e.e.e.e.s.s.s.s.s.s.s.s.e.e.e.s.s.s.s.s.s.s.s.s.s.s.s.s.s.s.s.s.s.s.s.s.s.e.g.s.s.s.s.v g.g.s.e.s.s.e.s.s.e.e.e.s.s.s.s.s.s.s.s.s.s.e.e.s.s.s.s.s.s.s.s.s.s.s.s.s.s.s.s.s.s.s.s.s.s.s.s.s.s.s.s.s.s.s.s.s.s.s.s.s.s.s.e.e.s.s.s.s.s.s.s.s.s.s.s.s.g.<.V g.g.s.s.s.s.s.s.s.s.s.s.s.s.s.s.s.s.s.s.s.s.s.s.s.s.s.s.s.s.s.e.e.s.s.s.s.s.e.e.e.e.e.e.e.e.e.s.s.s.s.s.s.s.s.e.s.s.s.s.s.s.s.s.s.s.s.s.s.s.s.e.e.s.s.g.s.g.<.v M.g.s.s.s.s.s.s.s.s.s.s.s.s.s.s.s.s.s.s.s.s.s.s.s.s.s.s.s.s.s.s.s.s.s.s.s.s.s.s.s.s.s.s.s.s.s.s.s.s.s.s.s.s.s.s.s.s.s.s.s.s.s.s.s.s.s.s.s.s.s.s.g.s.e.s.e.s.:.v Z.g.s.s.s.s.e.s.s.s.s.s.s.s.s.s.s.s.s.s.s.s.s.s.s.s.s.s.s.s.s.s.s.s.s.s.s.s.s.s.s.s.e.e.s.s.s.s.s.s.s.s.s.s.s.s.e.e.s.s.s.s.s.s.s.s.s.s.s.s.s.s.s.e.s.s.s.s...S Z.s.e.g.s.s.g.s.s.s.s.s.e.e.e.s.s.s.s.s.s.s.s.s.s.s.s.s.s.s.s.s.s.s.s.s.s.s.e.e.s.s.s.s.s.s.s.s.s.s.s.s.s.s.s.s.s.s.s.s.s.s.s.s.s.s.s.s.s.s.s.e.e.s.s.s.s.g.:.: ",
"G.M.s.s.s.s.s.s.s.s.s.s.s.s.s.s.s.s.s.s.s.s.s.s.s.s.e.e.s.s.s.s.s.s.s.s.s.s.s.s.s.s.s.s.s.s.s.s.s.s.s.s.s.s.s.s.s.s.s.s.s.s.s.s.e.e.e.s.s.s.s.s.s.g.s.e.g.e.g.S :.M.e.s.<.e.e.e.e.e.e.e.e.e.e.e.e.e.e.<.<.e.e.e.e.e.e.e.e.e.e.e.e.e.e.e.e.e.e.e.e.e.e.e.e.e.e.e.e.e.e.e.e.e.e.e.e.e.e.e.e.e.e.e.e.e.e.e.e.e.e.e.e.<.s.e.s.e.e.v e.M.s.s.g.e.s.s.e.e.s.s.s.s.e.e.s.s.s.s.s.s.s.s.e.e.s.s.s.s.s.s.e.e.e.s.s.s.s.s.s.s.s.s.s.s.s.s.e.e.s.s.s.s.s.s.s.s.s.s.s.s.s.s.s.s.s.s.s.s.s.s.g.e.g.s.s.s.e.v s.g.s.e.s.s.e.s.s.e.e.e.s.s.s.s.s.s.s.s.s.s.e.e.s.s.s.s.s.s.s.s.s.s.s.s.s.s.s.s.s.s.s.s.s.s.s.s.s.s.s.s.s.s.s.s.s.s.s.s.s.s.s.s.e.e.s.s.s.s.s.s.s.s.s.s.s.g.<.V g.g.s.s.s.s.s.s.s.s.s.s.s.s.s.s.s.s.s.s.s.s.s.s.s.s.s.s.s.e.e.e.s.s.s.s.s.e.e.e.s.s.s.s.s.s.s.s.s.s.s.s.s.s.s.s.s.s.s.s.s.s.s.s.s.s.s.s.s.s.s.s.s.s.s.g.s.g.<.v M.g.s.s.s.s.s.s.s.s.s.s.s.s.s.s.s.s.s.s.s.s.s.s.s.s.s.s.s.s.s.s.s.s.s.s.s.s.s.s.s.s.s.s.s.s.s.s.s.s.s.s.s.s.s.s.s.s.s.s.s.s.s.e.s.s.s.s.s.s.s.s.s.s.e.s.e.s.:.v Z.g.s.s.s.s.e.s.s.s.s.s.s.s.s.s.s.s.s.s.s.s.s.s.s.s.s.s.s.s.s.s.s.s.s.s.s.s.s.s.s.s.e.e.s.s.s.s.s.s.s.s.s.s.s.s.e.e.e.e.s.e.s.s.s.s.s.e.e.s.s.s.s.e.s.s.s.s...V Z.s.e.g.s.s.g.s.s.s.s.s.e.e.e.s.s.s.s.s.s.s.s.s.s.s.s.s.s.s.s.s.s.s.s.s.s.s.s.s.s.s.s.s.s.s.s.s.s.s.s.s.s.g.g.g.s.s.s.s.s.s.s.s.s.s.s.s.s.s.e.e.e.e.s.s.s.g.%.- ",
"Z.g.s.s.s.s.s.s.s.s.s.s.s.s.s.s.s.s.s.s.s.s.s.s.s.s.e.s.s.s.s.s.s.s.s.s.s.s.s.s.s.s.s.s.s.s.s.s.s.s.s.s.s.s.s.s.s.s.s.s.s.s.s.s.e.e.e.s.s.s.s.s.s.g.s.e.g.e.g.S %.M.e.s.<.e.e.s.e.e.e.e.e.e.e.e.s.e.e.e.e.e.e.s.e.e.e.e.e.e.e.e.e.e.e.e.e.e.e.e.e.e.e.e.e.e.e.e.e.e.e.e.e.e.e.e.e.e.e.e.e.e.e.e.e.e.e.e.e.e.e.e.e.<.s.e.s.e.e.v e.M.s.s.g.s.s.s.s.s.s.s.e.e.e.s.s.s.s.s.s.s.s.s.e.e.s.s.s.s.s.s.e.s.s.s.s.s.s.s.s.s.s.s.s.s.s.s.s.s.s.s.s.s.s.s.s.s.s.s.s.s.s.s.s.s.s.s.s.s.s.s.s.e.s.s.s.s.s.v s.g.s.e.g.s.e.s.s.e.e.e.s.s.s.s.s.s.s.s.e.e.e.e.s.s.s.s.s.s.s.s.s.s.s.s.s.s.s.s.s.s.s.s.s.s.s.s.s.s.s.s.s.s.s.s.s.s.s.s.s.s.s.e.e.e.s.s.s.s.s.s.s.s.s.s.s.g.<.V g.g.s.e.s.s.s.s.s.s.s.s.s.s.s.s.s.s.s.s.s.s.s.s.s.s.s.s.s.s.s.s.s.s.s.s.s.s.s.s.s.s.s.s.s.s.s.s.s.s.s.s.s.s.s.s.s.s.s.s.s.s.s.s.s.s.s.s.s.s.s.s.s.g.s.g.s.g.<.v M.g.s.s.s.s.s.s.s.s.s.s.s.s.s.s.s.s.s.s.s.s.s.s.s.s.s.s.s.s.s.s.e.e.s.s.s.s.s.s.s.s.s.s.s.s.s.s.s.s.s.s.s.s.s.s.s.s.s.s.s.s.s.e.s.s.s.s.s.s.s.s.s.s.e.s.e.s.<.V Z.g.s.s.s.s.s.s.s.s.s.s.s.s.s.s.s.s.s.s.s.s.s.s.s.s.s.s.s.s.s.s.s.s.s.s.s.s.s.s.s.s.e.e.s.s.s.s.s.s.s.s.e.s.s.s.e.e.e.s.s.s.s.s.s.s.e.e.e.s.s.s.s.s.s.s.s.s...V Z.s.e.g.s.s.s.s.e.s.s.s.s.s.s.s.s.s.s.s.s.s.s.s.s.s.s.s.s.s.s.s.s.s.s.s.s.s.s.s.s.s.s.s.s.s.s.s.s.s.s.s.s.s.s.s.s.s.s.s.s.s.s.s.s.s.s.s.e.e.s.e.s.s.s.g.s.g.%.- ",
"M.s.e.s.g.s.s.s.s.s.s.s.s.s.s.s.s.s.s.s.s.s.s.s.s.s.s.s.s.s.s.s.s.s.s.s.s.s.s.s.s.s.s.s.s.s.s.s.s.s.s.s.s.s.s.s.s.s.s.s.s.s.s.e.e.e.e.s.s.s.s.s.s.g.s.e.g.e.g.S %.M.e.s.<.e.e.s.e.e.e.e.e.e.e.e.s.s.e.e.e.e.s.s.e.e.e.e.e.e.e.e.e.e.e.e.e.e.e.e.e.e.e.e.e.e.e.e.e.e.e.e.e.e.e.e.e.e.e.e.e.<.<.e.e.e.e.e.e.e.e.e.e.<.s.e.s.s.s.v e.M.s.s.g.s.s.s.s.s.s.e.e.e.s.s.s.s.s.s.s.s.s.s.s.s.s.s.s.s.s.e.s.s.g.g.s.s.s.s.s.s.s.s.s.s.s.s.s.s.s.s.s.s.s.s.s.s.s.s.s.s.s.s.s.s.s.s.s.s.s.s.s.e.s.s.g.s.s.v s.g.s.s.g.s.s.g.s.e.e.e.s.s.s.s.s.s.s.e.e.e.e.e.s.s.s.s.s.s.s.s.s.s.s.s.s.s.s.s.s.s.s.s.s.s.s.s.s.s.s.s.e.e.e.e.s.s.s.s.s.s.s.e.e.e.s.s.s.s.s.s.s.s.s.s.s.g.<.V g.g.s.e.s.s.s.s.e.e.s.s.s.s.s.s.s.s.s.s.s.s.s.s.s.s.s.s.s.s.s.s.s.s.s.e.s.s.s.s.s.s.s.s.s.s.s.s.g.s.s.s.e.s.s.s.s.s.s.s.s.s.e.s.s.s.s.s.s.s.s.s.s.g.s.g.s.g.<.V M.g.s.s.s.s.s.s.s.s.s.s.s.s.s.s.s.s.s.s.s.s.s.s.s.s.s.s.s.s.s.s.e.e.e.s.s.s.s.s.s.s.s.s.s.s.s.s.s.s.s.s.s.s.s.s.s.s.s.s.s.s.e.e.s.s.s.s.s.s.s.s.s.s.e.s.e.e.<.V Z.g.s.s.s.s.s.s.s.s.s.s.s.s.s.s.s.s.s.s.s.s.s.s.s.s.s.s.s.s.s.s.s.s.s.s.s.s.s.s.s.s.e.e.e.e.s.s.s.s.s.s.e.s.s.s.e.e.s.s.s.s.s.s.s.s.e.e.e.s.s.s.s.s.s.s.s.s...V G.s.e.g.s.e.s.e.e.s.s.s.s.s.s.s.s.s.s.s.s.s.s.s.s.s.s.s.s.s.s.s.s.s.s.s.s.s.s.s.s.s.s.s.s.s.s.s.s.s.s.s.s.s.s.s.s.s.s.s.s.s.s.s.s.s.s.e.e.e.s.s.s.s.s.g.s.g.%.- ",
"M.s.e.s.g.s.s.s.s.s.s.s.s.s.s.s.e.e.s.s.s.s.s.e.s.s.s.s.s.s.s.s.g.g.s.s.s.s.s.s.s.s.s.s.s.s.s.s.s.s.s.s.s.s.s.s.s.s.s.s.s.s.s.s.s.s.s.s.s.s.s.s.s.e.g.e.s.s.s.V %.g.<.s.<.s.s.s.e.e.e.e.e.e.e.e.s.e.e.e.e.e.e.s.e.e.e.e.e.e.e.e.s.e.e.e.e.e.e.e.e.e.e.e.e.e.e.e.<.e.e.e.s.e.e.e.e.e.e.e.e.e.e.e.e.e.e.e.e.e.e.e.s.<.s.e.s.e.s.v e.M.s.s.s.e.s.s.s.s.s.s.s.s.s.s.s.s.s.s.s.s.s.s.s.s.s.s.s.s.s.s.s.s.s.s.s.s.s.s.s.s.s.s.s.s.s.s.s.s.s.s.s.s.s.s.s.s.s.s.s.s.s.s.s.s.s.s.s.s.s.s.s.e.g.e.s.s.s.p s.M.s.e.g.s.g.s.s.s.e.e.e.e.s.s.s.s.s.s.s.e.e.e.e.e.s.s.s.s.s.s.e.e.s.s.s.s.s.e.s.s.s.s.s.s.s.s.s.s.e.e.e.s.s.s.e.s.s.s.s.s.s.s.s.e.s.s.s.s.s.s.e.s.e.s.s.g.<.v M.g.s.s.s.s.s.s.e.e.e.e.e.s.s.s.e.e.e.s.s.s.s.s.e.s.s.s.s.s.s.s.s.s.s.s.s.s.s.s.s.s.s.s.s.s.s.s.e.e.e.s.s.s.s.s.e.e.s.s.e.e.e.s.s.s.s.s.s.s.s.s.s.s.s.s.s.g.<.V M.g.s.s.s.s.s.s.s.s.s.s.s.s.s.s.e.s.s.s.s.s.s.s.s.s.s.s.e.e.s.s.s.s.s.s.s.s.s.s.s.s.s.s.e.e.s.s.e.s.s.s.s.s.s.s.s.s.s.s.s.s.s.s.s.s.s.s.s.s.s.s.s.s.e.s.e.s.<.V Z.g.e.s.s.s.e.e.s.s.s.s.s.s.s.s.s.s.s.s.s.s.s.s.s.s.s.s.s.s.s.s.s.s.s.s.s.s.s.s.s.e.e.s.s.s.s.e.s.s.s.s.s.s.e.e.s.s.s.s.s.s.s.s.s.s.s.s.s.s.s.s.s.e.s.s.s.s...V Z.s.s.s.e.s.s.e.s.s.s.s.s.s.s.e.s.s.s.s.s.s.s.s.s.s.e.e.s.s.s.s.s.s.s.s.s.s.s.s.s.s.s.e.e.e.e.e.s.s.s.s.s.s.s.s.e.s.s.s.s.e.e.e.s.s.e.e.e.s.s.s.e.s.e.e.s.g...: ",
"Z.g.s.s.s.s.e.e.s.s.s.e.e.s.e.e.e.e.s.s.s.s.s.e.s.s.s.s.s.s.s.s.s.s.s.s.s.s.s.s.s.s.s.s.s.s.s.s.s.s.s.s.s.s.s.s.s.s.s.s.s.s.s.s.s.s.s.s.s.s.s.s.s.e.s.e.s.s.s.S :.M.<.s.<.s.e.e.e.e.e.e.e.e.e.e.e.e.e.e.e.e.e.e.e.e.e.e.e.e.e.e.e.e.e.e.e.e.e.e.e.e.e.e.e.e.e.e.<.e.e.e.e.e.e.e.e.e.e.e.e.e.e.e.e.e.e.e.e.e.e.e.e.<.e.<.e.e.e.v e.M.s.s.s.e.s.s.s.s.s.s.s.s.s.s.s.s.s.s.s.s.s.s.s.s.s.s.s.s.s.s.s.s.s.s.s.s.s.e.s.s.s.s.s.s.s.s.s.s.s.s.s.s.s.s.s.s.s.s.s.s.s.s.s.s.s.s.s.s.s.s.s.e.g.e.s.s.s.v s.M.s.e.s.e.s.s.s.s.e.e.e.e.s.s.e.e.e.s.s.s.s.e.e.e.s.s.s.s.s.s.e.e.s.s.e.s.s.s.s.s.s.s.s.s.s.s.s.s.e.e.e.s.s.s.s.s.s.s.s.s.s.s.s.e.s.s.s.s.s.s.e.s.e.s.e.s.<.v M.g.s.s.s.s.s.s.e.e.e.e.e.s.s.s.e.e.e.s.s.s.s.s.s.s.s.s.s.s.s.s.s.s.s.s.s.s.s.s.s.s.s.s.s.s.s.s.e.e.e.s.s.s.s.s.e.s.s.s.e.e.e.s.s.s.s.s.s.s.s.s.s.s.e.s.s.g.<.V M.g.s.s.s.s.e.e.s.e.s.s.s.s.e.s.e.s.s.s.e.s.s.s.s.s.s.e.e.e.s.s.s.s.s.s.s.s.s.s.s.s.s.s.e.e.e.s.e.e.s.s.s.s.s.e.e.e.s.s.s.s.s.s.s.s.s.s.s.s.s.s.s.e.e.s.e.s.<.V Z.g.e.s.s.s.e.e.s.s.s.s.s.s.s.s.s.s.s.s.s.s.s.s.s.s.s.s.s.s.s.s.s.s.s.s.s.s.s.s.s.e.e.s.s.s.s.e.s.s.s.s.s.s.e.e.s.s.s.s.s.s.s.s.s.s.s.s.s.s.s.s.s.e.s.s.s.s...V Z.s.s.s.e.s.s.e.s.s.s.s.s.s.e.e.s.s.s.s.s.s.s.s.e.s.e.s.s.s.s.s.e.e.s.e.s.s.s.s.s.s.s.e.e.e.e.e.s.s.e.e.e.e.e.e.e.s.s.s.s.e.e.e.e.s.e.e.e.s.s.s.e.s.e.e.s.g...: ",
"G.M.s.s.s.e.e.e.s.s.e.s.e.e.e.e.e.e.s.s.s.s.s.e.s.s.s.s.e.e.e.s.s.s.e.e.s.s.s.s.s.s.s.s.s.s.s.s.s.s.s.s.s.s.s.s.s.s.s.s.s.s.s.s.e.e.s.s.s.s.s.s.s.e.s.e.s.s.g.S :.M.<.e.<.s.e.e.e.e.e.e.e.e.e.e.e.e.e.e.e.e.e.e.e.e.e.e.e.e.e.e.e.e.e.e.e.e.e.e.e.e.e.e.e.e.e.e.<.e.e.e.e.e.e.e.e.e.e.e.e.e.e.e.e.e.e.e.e.e.e.e.e.<.e.<.e.e.e.v s.Z.s.s.s.e.s.s.s.s.s.e.e.e.e.e.s.s.s.s.s.s.s.s.e.s.s.s.s.s.s.s.e.e.e.e.e.e.e.e.s.s.s.s.s.s.s.s.s.s.s.s.s.s.s.s.s.s.s.s.s.s.s.s.s.s.s.s.s.s.s.s.s.e.g.e.e.s.s.v e.M.e.e.s.e.s.e.s.s.e.s.e.e.s.s.e.e.e.s.s.s.s.s.e.e.s.s.s.s.s.s.s.e.e.e.e.s.s.s.s.e.e.e.s.e.e.e.s.s.e.e.e.s.s.s.s.s.s.s.s.s.s.s.e.s.s.s.s.s.s.s.e.s.e.e.e.g.<.V M.g.s.e.s.s.s.s.s.s.e.e.e.s.s.s.e.e.e.s.s.s.s.s.s.s.s.s.s.s.s.e.s.s.s.s.s.s.s.s.s.s.s.s.s.s.s.s.e.e.s.s.s.s.s.s.s.s.s.e.e.e.s.s.s.s.s.s.s.s.s.s.s.s.s.s.s.g.<.v M.g.s.s.s.e.e.e.e.e.e.e.e.e.e.e.e.s.s.s.e.e.s.s.s.s.s.e.e.e.e.s.s.s.s.s.s.s.s.s.s.s.s.s.e.s.s.s.e.s.s.s.s.s.s.e.e.e.e.e.e.s.s.s.s.s.s.s.s.s.s.s.s.e.e.s.e.s.:.V Z.g.e.s.s.s.e.e.s.s.s.s.s.s.s.s.s.s.e.s.e.e.e.e.s.s.s.s.s.s.s.s.s.s.s.s.s.s.s.s.s.e.e.e.s.s.s.e.s.s.s.s.s.s.e.e.s.s.s.s.s.s.s.s.s.s.s.s.s.s.s.s.s.e.s.s.s.s...V Z.s.s.s.e.s.s.e.s.s.s.s.s.s.s.s.s.s.s.s.s.e.e.e.e.s.s.s.s.e.e.e.e.e.e.e.e.e.s.s.s.s.s.s.e.e.e.s.s.s.e.e.e.e.e.e.e.s.s.s.s.e.e.e.s.s.s.e.s.s.s.s.e.s.e.s.s.g...: ",
"J.M.s.e.e.e.e.s.s.s.s.s.s.s.s.s.e.e.s.s.s.s.s.e.s.s.s.s.e.e.e.e.e.s.s.e.s.s.s.s.s.s.s.s.s.s.s.s.e.e.e.e.e.e.e.e.s.s.s.s.s.s.s.s.e.e.s.s.s.s.s.s.s.<.s.e.s.s.g.S :.g.<.e.<.e.e.e.e.e.e.e.e.e.e.e.e.e.e.e.e.e.e.e.e.e.e.e.e.e.e.e.e.e.e.e.e.e.e.e.e.e.e.e.e.e.e.e.e.e.e.e.e.e.e.e.e.e.e.e.e.e.e.e.e.e.e.e.e.e.e.e.e.<.e.<.e.e.e.v s.Z.s.s.s.e.s.s.s.s.s.s.e.e.e.e.s.s.s.s.s.s.s.s.e.e.e.s.s.s.s.s.e.e.e.e.e.e.e.e.s.s.s.s.s.s.s.s.s.s.s.s.s.s.s.s.s.s.s.s.s.s.s.s.s.s.s.s.s.s.s.s.s.e.s.e.e.s.s.v e.M.e.e.s.e.s.e.s.s.e.s.e.e.s.s.e.s.s.s.s.s.e.e.e.s.s.s.s.s.s.s.s.s.e.e.e.s.s.s.e.e.e.e.e.e.e.e.s.s.e.e.e.s.s.s.s.s.s.s.s.s.s.s.e.s.s.s.s.s.s.s.s.s.e.e.e.s.<.V M.g.s.e.e.s.s.s.s.s.s.s.e.s.s.s.e.e.e.s.s.s.s.s.s.s.s.s.s.s.e.e.s.s.s.s.s.s.s.s.s.s.s.s.s.s.s.s.s.s.s.s.s.s.s.s.s.s.e.e.e.e.s.s.s.s.s.s.s.s.s.s.s.s.e.s.e.s.<.v M.g.e.s.e.e.<.e.e.e.e.e.e.e.e.e.e.s.s.s.e.e.e.s.s.s.s.e.e.e.e.s.s.s.s.s.s.s.s.e.s.s.s.s.e.s.s.s.e.e.s.s.s.e.e.e.e.e.e.e.e.e.s.s.s.s.s.s.s.s.s.s.e.e.e.s.s.s.<.v Z.g.e.s.s.s.s.s.s.s.s.s.s.s.s.e.s.s.s.s.s.s.s.s.s.s.s.s.s.s.s.e.s.s.s.s.s.s.s.s.s.e.e.e.s.s.s.s.s.s.s.s.s.s.e.s.s.s.s.s.s.s.s.s.s.s.s.s.s.s.s.s.s.e.s.s.s.s...V Z.s.s.s.e.s.s.e.s.s.s.s.s.s.s.e.s.s.s.e.s.e.e.e.e.e.s.s.s.e.e.<.e.e.e.e.e.e.e.s.s.e.s.s.e.e.e.e.s.s.s.s.s.s.s.s.s.s.s.s.s.e.e.e.s.s.s.s.e.s.s.s.e.s.e.s.s.g...: ",
"G.g.e.e.e.s.s.s.s.s.s.s.s.s.e.e.e.e.e.s.s.s.s.s.s.s.e.e.e.e.e.e.s.s.s.s.s.s.s.s.s.s.s.s.s.s.s.s.e.e.e.e.e.e.e.e.s.s.s.s.s.s.s.s.e.e.s.s.s.s.s.s.s.e.s.e.s.s.g.S :.M.<.e.<.s.e.e.e.e.e.e.e.e.e.e.e.e.e.e.e.e.e.e.e.e.e.e.e.e.e.e.e.e.e.e.e.e.e.e.e.e.e.e.e.e.e.e.e.e.e.e.e.e.e.e.e.e.e.e.e.e.e.e.e.e.e.e.e.e.e.e.s.<.s.e.e.e.e.v e.M.s.s.s.e.s.e.s.s.s.s.e.s.s.s.s.s.s.s.s.s.s.s.e.e.s.s.s.s.s.s.e.e.e.e.e.e.e.e.s.s.s.s.s.s.s.s.s.s.s.s.s.s.s.s.s.s.s.s.s.s.s.s.s.s.s.s.s.s.s.s.s.e.s.e.e.s.s.v e.M.e.e.s.e.s.s.s.s.s.s.e.e.s.s.s.s.s.s.s.e.e.e.s.s.s.s.s.s.s.e.s.s.e.e.e.e.s.s.e.e.s.e.e.e.e.e.s.s.s.e.s.s.s.s.s.s.s.s.s.e.s.s.e.e.s.s.s.s.s.s.s.s.e.e.e.s.<.V g.g.s.e.e.s.s.s.s.s.e.e.e.s.s.s.e.e.e.s.s.s.s.s.s.s.s.s.s.s.s.e.s.s.s.s.s.s.s.s.s.s.s.s.s.s.s.s.s.s.s.s.s.s.s.s.s.s.e.e.e.e.s.s.s.s.s.s.s.s.s.s.e.s.e.s.s.g.<.v Z.g.e.e.e.e.e.e.e.e.e.e.e.e.e.e.e.s.s.s.e.e.e.s.s.s.s.e.e.e.s.s.s.s.s.s.s.e.e.e.s.s.s.e.e.e.s.s.s.e.s.e.e.e.e.e.e.e.e.e.e.e.s.s.s.s.s.s.s.s.s.s.e.e.e.s.s.s.:.v Z.g.e.s.s.s.e.s.s.s.s.s.s.e.e.e.s.s.s.s.s.s.s.s.s.s.s.s.s.e.e.e.s.s.s.s.s.s.s.s.s.s.e.e.e.s.s.s.s.s.s.s.s.s.e.e.s.s.s.s.s.s.s.s.s.s.s.s.s.s.s.s.s.e.s.s.s.s...S Z.s.e.s.e.s.s.e.s.s.s.s.s.s.e.e.e.e.e.e.e.e.e.e.e.e.s.s.s.e.e.<.e.e.e.e.e.s.s.s.s.s.s.s.e.e.e.s.s.s.s.s.s.s.s.e.e.s.s.s.s.s.e.e.e.e.e.e.e.s.s.s.e.s.e.s.s.g...: ",
"G.g.e.e.s.s.s.g.e.e.e.e.e.e.e.e.e.e.e.s.s.s.s.e.s.s.s.s.e.e.e.e.s.s.s.s.s.s.s.s.s.s.s.s.s.s.s.s.s.s.s.s.s.s.s.s.s.s.s.s.s.s.s.s.e.e.s.s.s.s.s.s.s.e.s.e.s.s.g.S :.M.e.e.<.s.e.e.e.e.e.e.e.e.e.e.e.e.e.e.e.e.e.e.e.e.e.e.e.e.e.e.e.e.e.e.e.e.e.e.e.<.e.e.<.<.<.<.e.e.e.e.e.e.e.e.e.e.e.e.e.e.e.e.e.e.e.e.e.e.e.e.s.<.s.e.e.e.e.v e.M.e.e.s.e.s.s.s.s.s.s.s.e.s.e.s.s.s.s.s.s.s.s.e.e.s.s.s.s.s.s.e.e.e.s.s.s.s.s.s.s.s.s.s.s.s.s.s.s.s.s.s.s.s.s.s.s.s.s.s.s.e.e.s.s.s.s.s.s.s.s.s.e.g.e.s.s.s.v s.M.e.e.s.e.s.s.s.s.s.s.e.e.s.s.s.s.s.s.s.e.e.e.s.s.s.s.s.s.e.e.s.s.e.e.e.s.s.s.s.e.s.s.e.e.e.e.s.s.e.e.s.s.s.s.s.s.e.e.e.e.e.e.e.s.s.s.s.s.s.s.e.s.e.e.e.s.<.v g.s.s.e.e.s.s.s.s.s.e.e.e.s.s.s.s.e.s.s.s.s.s.s.e.s.s.s.s.s.s.e.s.s.s.s.s.s.s.s.s.s.s.s.s.s.s.s.s.s.s.s.s.s.e.e.s.s.s.e.e.e.s.s.s.s.s.s.s.s.s.s.s.s.e.s.s.g.<.v Z.g.e.e.e.e.e.s.s.s.s.s.s.s.s.e.e.s.s.s.e.e.e.e.s.s.s.s.e.e.s.s.s.s.s.s.e.e.e.e.s.e.e.e.e.e.s.s.s.s.s.s.e.e.e.e.e.e.e.e.e.s.s.s.s.s.s.s.s.s.s.s.e.s.e.g.s.s.:.v Z.g.e.s.s.s.e.e.s.s.s.s.e.e.e.e.s.s.s.s.s.s.s.s.s.s.s.s.e.e.e.e.s.s.s.s.s.s.s.s.s.s.e.e.e.s.s.s.s.s.s.s.s.s.e.e.s.s.s.s.s.s.s.s.s.s.s.s.s.s.s.s.s.e.s.s.s.s...S Z.s.e.s.e.s.s.e.e.e.e.e.s.e.e.e.e.s.e.e.e.e.e.e.e.e.s.s.s.e.e.e.e.e.e.s.s.s.s.s.s.s.s.s.e.s.s.s.e.s.s.s.e.e.e.e.e.s.s.s.s.e.e.e.s.e.e.e.e.s.s.s.e.s.e.s.s.g...: ",
"Z.g.e.e.e.s.s.s.e.e.e.e.e.e.e.e.e.e.e.s.s.s.s.e.s.s.s.s.s.s.s.s.s.s.s.s.e.e.e.e.s.s.s.s.s.s.s.s.s.s.s.s.s.s.s.s.s.s.s.s.s.s.s.s.e.s.s.s.s.s.s.s.g.e.s.e.s.s.s.V :.M.e.s.<.e.e.e.e.e.e.e.e.e.e.e.e.e.e.e.e.e.e.e.e.e.e.e.e.e.e.e.e.e.e.e.e.e.e.e.<.<.<.<.e.e.e.e.e.e.e.e.<.<.<.e.e.e.e.e.e.e.e.e.e.e.e.e.e.e.e.e.s.<.e.e.e.e.e.v e.M.e.e.s.e.s.s.s.s.s.e.e.e.e.e.e.e.e.e.e.e.s.s.e.e.s.s.e.e.e.e.e.e.s.s.s.s.s.s.s.s.s.s.s.s.s.s.s.s.s.s.s.s.s.s.s.s.s.s.s.e.e.e.s.s.s.s.s.s.s.s.s.e.g.e.s.s.s.p s.M.e.e.s.e.s.s.s.s.e.e.e.e.s.s.s.s.s.s.s.e.e.e.s.s.s.s.s.s.e.e.e.e.e.e.e.s.s.s.s.s.s.s.s.e.e.e.e.e.e.e.s.s.s.s.e.e.e.e.e.e.e.e.e.e.s.s.s.s.s.s.e.s.e.s.e.s.<.v g.s.e.e.e.s.s.s.s.e.e.e.e.s.s.s.s.s.s.s.s.s.e.e.e.e.e.s.s.s.e.e.s.s.s.s.s.s.s.s.s.s.e.e.e.e.e.e.s.s.s.s.s.s.e.e.e.s.s.s.s.e.e.s.s.s.s.s.s.s.s.s.e.s.e.s.e.s.<.v Z.g.e.e.e.e.s.s.e.s.s.s.s.s.s.e.e.s.s.e.e.e.e.e.s.s.s.e.e.e.s.s.s.s.s.s.s.s.e.e.e.e.e.e.e.e.s.s.s.s.s.s.s.e.e.e.e.e.s.s.s.s.s.s.e.e.e.s.e.e.e.e.e.s.e.g.s.s.:.v Z.g.e.s.s.s.e.e.s.s.s.e.e.e.s.s.e.e.e.e.s.s.s.e.s.s.s.s.s.s.e.e.s.s.s.s.s.s.s.s.s.e.e.e.e.e.s.s.s.s.s.s.s.s.e.e.s.s.s.s.s.s.s.s.s.s.s.s.s.s.s.s.s.e.s.s.s.s...S Z.s.s.s.e.s.s.e.e.e.e.e.e.e.e.e.e.e.e.s.s.s.e.e.e.e.e.s.s.s.s.s.s.s.s.s.s.s.s.s.e.e.e.e.e.s.s.s.e.e.s.s.e.e.e.e.e.s.s.s.s.s.e.e.s.s.e.e.e.s.s.s.e.s.e.s.s.g...: ",
"G.M.e.e.s.s.s.s.s.s.s.s.e.e.e.e.e.e.e.s.s.s.s.e.s.s.s.s.s.s.s.s.e.e.s.e.e.e.e.e.s.s.s.s.s.s.s.s.s.s.s.s.s.s.s.s.s.s.s.s.s.s.s.s.e.e.s.s.s.s.s.s.g.e.g.e.e.e.s.V :.M.e.s.<.e.e.e.e.e.e.e.e.e.e.e.e.e.e.<.<.e.e.e.e.e.e.e.e.e.e.e.e.e.e.e.e.e.e.<.<.<.e.e.e.e.e.e.e.e.e.<.<.<.<.e.e.e.e.e.e.e.e.e.e.e.e.e.e.e.e.e.e.<.e.<.e.e.e.v <.g.e.e.s.e.s.s.s.s.e.e.e.e.e.e.e.e.e.e.e.e.s.s.s.e.s.s.e.e.e.e.e.e.e.s.s.s.s.s.s.s.s.s.s.s.s.s.s.s.s.s.s.s.s.s.s.s.s.s.e.e.e.e.s.s.s.s.s.s.s.s.e.e.g.e.s.s.s.p s.Z.e.e.s.s.g.s.s.s.e.e.e.e.s.s.e.e.s.s.s.e.e.e.s.s.s.s.s.s.e.e.e.e.e.s.s.s.s.e.s.s.s.s.s.s.s.s.e.e.e.e.s.s.s.s.e.e.e.e.e.<.<.<.e.e.s.s.s.s.s.s.e.e.e.s.e.s.<.v g.s.e.e.e.s.e.s.s.s.e.e.s.s.s.s.s.s.s.s.s.e.e.e.e.e.e.s.s.s.s.s.s.s.s.s.s.s.s.s.s.s.e.e.e.e.e.e.s.s.s.s.s.s.e.e.e.e.s.s.s.e.e.s.s.s.s.s.s.s.s.s.e.s.e.s.e.s.<.v Z.g.e.e.s.s.s.s.e.s.s.s.s.s.e.e.e.s.s.s.e.e.e.e.s.s.s.e.e.e.s.s.s.s.s.s.s.e.e.e.e.e.e.e.e.e.s.s.s.s.s.s.s.e.e.e.s.s.s.s.s.s.s.s.e.e.e.e.e.e.e.s.e.e.e.g.s.s.:.v Z.g.e.s.s.s.e.e.s.s.s.e.e.s.s.e.e.e.e.e.e.e.e.e.s.s.s.s.s.e.e.e.s.s.s.s.s.s.s.s.s.e.e.e.e.e.s.s.s.s.s.s.s.s.e.e.s.s.s.s.s.s.s.s.s.s.s.s.s.s.s.s.s.e.s.s.s.s...S Z.s.s.s.e.s.s.e.e.e.e.e.e.e.e.e.e.e.s.s.s.s.s.e.s.s.s.e.s.s.s.s.s.s.s.e.e.s.s.s.e.e.e.e.e.s.s.s.s.s.s.s.s.s.s.e.e.s.s.s.s.s.e.e.s.s.e.e.s.s.s.s.e.s.e.s.s.g...: ",
"G.M.e.e.e.s.s.s.s.s.s.s.s.s.s.s.s.s.s.s.e.s.s.s.s.s.s.s.s.s.s.s.s.s.e.e.e.e.s.s.s.s.s.s.s.s.s.s.s.s.s.s.s.s.s.s.s.s.s.s.s.s.s.s.s.s.s.s.s.s.s.s.s.e.s.e.s.s.s.V :.M.<.s.<.s.e.e.e.e.e.e.e.e.e.e.e.e.e.e.e.e.e.e.e.e.e.e.e.e.e.e.e.e.e.e.e.e.e.e.e.e.e.e.e.e.e.e.e.e.e.e.e.e.e.e.e.e.e.e.e.e.e.e.e.e.e.e.e.e.e.e.e.<.s.e.e.e.e.v s.Z.s.s.s.e.s.s.s.s.s.s.s.s.s.s.e.s.s.s.s.e.e.e.e.s.s.s.s.s.s.e.s.s.s.s.e.s.s.s.e.s.s.s.s.s.s.e.s.s.s.s.s.s.s.s.s.s.e.e.e.e.e.e.s.s.e.e.s.s.s.e.g.e.s.s.s.s.s.v g.g.s.s.e.e.e.e.s.s.s.s.s.s.s.s.s.s.s.s.s.s.s.s.s.s.s.e.e.s.s.s.s.s.s.s.s.s.s.s.s.s.s.s.s.e.e.e.e.e.e.e.e.e.e.e.e.e.s.e.s.s.s.s.s.s.s.e.e.s.s.s.e.e.s.<.s.e.<.v g.s.s.s.s.s.e.e.e.e.e.e.e.e.e.s.s.s.s.s.s.s.s.e.e.e.e.s.s.s.e.e.s.s.s.s.s.s.s.s.s.s.e.e.s.s.s.s.e.e.s.s.s.s.e.e.s.s.s.s.s.e.e.e.e.e.e.e.e.e.e.e.s.s.s.s.s.g.<.V M.s.e.s.s.s.s.s.s.s.s.s.s.s.s.s.s.s.s.e.e.s.s.s.s.s.s.s.e.e.e.e.e.e.e.e.e.e.e.e.e.e.e.s.s.s.s.s.s.s.s.s.s.e.e.e.s.s.s.s.s.s.s.s.e.e.e.e.e.e.e.e.e.s.s.e.s.s.%.V G.s.s.s.e.e.s.e.s.e.e.e.e.s.s.s.s.s.s.s.s.s.s.s.s.s.s.e.e.s.s.s.e.e.e.e.e.s.s.s.e.e.e.e.s.s.s.s.s.s.e.e.e.s.s.s.s.s.s.s.s.s.s.s.e.e.s.s.e.e.e.e.s.e.s.s.s.s...S Z.s.e.s.e.s.s.e.s.s.s.s.s.e.e.e.s.s.s.s.s.s.s.s.s.s.s.s.s.s.s.s.s.e.e.e.e.e.e.e.s.s.s.s.s.s.s.s.s.s.s.s.s.s.s.s.s.s.s.s.s.s.s.e.s.s.s.s.s.s.s.s.e.s.e.e.s.g...: ",
"G.M.e.e.e.s.s.s.s.s.s.s.s.s.s.s.s.s.s.s.e.s.s.s.s.s.s.s.s.s.s.s.s.s.e.e.e.e.s.s.s.s.s.s.s.s.s.s.s.s.s.s.s.s.s.s.s.s.s.s.s.s.s.s.s.s.s.s.s.s.s.s.s.e.s.s.s.s.s.V :.M.<.s.<.s.e.e.e.e.e.e.e.e.e.e.e.e.e.e.e.e.e.e.e.e.e.e.e.e.e.e.e.e.e.e.e.e.e.e.e.e.e.e.e.e.e.e.e.e.e.e.e.e.e.e.e.e.e.e.e.e.e.e.e.e.e.e.e.e.e.e.e.<.s.e.e.e.e.v s.Z.s.s.s.e.s.s.s.s.s.s.s.s.s.s.e.s.s.s.s.e.e.e.e.s.s.s.s.s.s.e.s.s.s.s.e.s.s.s.s.s.s.s.s.s.s.s.s.s.s.s.s.s.s.s.s.s.e.e.e.e.e.e.s.s.e.e.s.s.s.e.s.e.s.s.s.s.s.v g.g.s.s.e.e.e.s.s.s.s.s.s.s.s.s.s.s.s.s.s.s.s.s.s.s.e.e.e.e.s.s.s.s.s.s.s.s.s.s.s.s.s.s.s.e.e.e.s.e.s.s.e.e.e.e.e.e.s.e.s.s.s.s.s.s.s.e.e.e.s.s.e.e.s.<.s.e.<.v g.s.s.e.e.s.e.e.e.e.e.e.e.e.s.s.s.s.s.s.s.s.e.e.e.e.s.s.s.s.e.e.s.s.s.s.s.s.s.s.s.s.e.e.s.s.s.s.e.s.s.s.s.s.s.e.s.s.s.s.s.e.e.e.e.e.e.e.e.e.e.e.s.s.s.s.s.g.<.V M.g.s.s.s.s.s.s.s.s.s.s.s.s.s.s.s.s.s.s.e.s.s.s.s.s.e.e.e.e.e.e.e.e.e.e.e.e.s.s.e.e.e.s.s.s.s.s.s.s.s.s.s.e.e.e.s.s.s.s.s.s.s.s.e.e.e.e.s.e.e.e.e.s.s.e.s.s.%.V G.s.s.s.e.s.s.e.s.s.e.e.e.e.s.s.s.s.s.s.s.s.s.s.s.s.s.e.e.s.s.s.e.e.e.e.e.e.e.e.e.e.e.e.s.s.s.s.s.s.e.e.e.s.s.s.s.s.s.s.s.s.s.s.e.e.s.s.s.e.e.e.s.e.s.s.s.s...S Z.s.e.s.e.s.s.e.s.s.s.s.s.s.s.s.e.e.s.s.s.s.e.e.s.s.s.s.s.s.s.s.s.e.e.e.e.s.e.e.s.s.s.s.s.s.s.s.s.s.s.s.s.s.s.s.s.s.s.s.s.s.e.e.s.s.s.s.s.s.s.s.e.s.e.e.s.g...: ",
"G.M.e.e.e.s.s.s.s.s.s.s.s.s.s.s.s.s.s.s.e.s.s.s.s.s.s.s.s.s.s.s.s.s.e.e.e.e.s.s.s.s.s.s.s.s.e.e.e.e.e.e.e.e.e.e.e.e.e.s.s.s.s.s.s.s.s.s.s.s.s.s.s.e.s.s.s.s.s.V :.g.<.s.<.s.e.e.e.e.e.e.e.e.e.e.e.e.e.e.e.e.e.e.e.e.e.e.e.e.e.e.e.e.<.e.<.<.e.e.e.e.e.e.e.e.e.e.e.e.e.e.e.e.e.e.e.e.e.e.e.e.e.e.e.e.e.e.e.e.e.e.e.<.s.e.e.e.e.v e.M.s.e.s.e.s.s.s.s.s.s.s.s.s.s.e.s.s.s.e.e.e.e.e.s.s.s.s.s.s.e.e.e.s.s.e.s.s.s.s.s.s.s.s.s.s.s.s.s.s.s.s.s.s.s.s.s.s.e.e.e.e.e.s.s.e.e.s.s.s.e.g.e.s.s.s.s.s.v g.g.s.s.e.e.s.s.s.s.s.s.s.s.s.s.s.s.s.s.s.s.s.s.s.e.e.e.e.s.s.s.s.s.s.s.s.e.e.e.s.s.s.s.s.s.e.e.s.s.s.s.s.s.e.e.e.e.e.e.s.s.s.s.e.s.s.e.s.s.e.e.e.e.s.<.s.s.e.v g.s.s.e.e.e.e.e.e.e.e.e.s.s.s.s.s.s.s.s.s.e.e.e.e.e.e.s.s.s.s.e.s.s.s.s.s.s.s.s.s.s.e.e.s.s.s.s.s.s.s.s.s.s.s.s.s.s.s.s.s.e.e.e.e.e.e.e.e.e.e.e.s.s.s.s.s.g.<.v Z.g.s.s.s.e.e.e.s.s.s.s.s.s.s.s.s.s.s.s.e.s.s.s.s.s.e.s.e.e.e.s.s.e.e.e.e.e.e.e.e.e.s.s.s.s.s.s.s.s.s.s.s.e.e.e.s.s.s.s.s.s.s.s.e.e.s.s.s.s.e.e.s.s.s.e.s.s.%.V G.s.e.s.e.e.s.e.s.s.e.e.e.e.s.s.s.s.s.s.s.s.s.s.s.s.s.e.e.s.s.s.e.e.e.e.e.e.e.e.e.e.e.e.s.s.s.s.s.s.s.e.s.s.s.s.s.s.s.s.s.s.s.s.s.s.s.s.s.s.s.e.s.e.s.s.s.s...S Z.s.e.s.e.s.s.e.e.e.s.s.s.s.s.s.e.e.e.s.s.s.e.e.s.s.s.s.s.s.s.s.s.e.e.e.s.s.e.e.s.s.s.s.s.s.s.s.s.s.s.s.s.s.s.e.s.s.s.s.s.s.s.e.s.s.s.s.s.s.s.s.e.s.e.e.s.g...: ",
"G.M.e.e.e.s.s.s.s.s.s.s.s.s.s.s.s.s.s.s.e.s.s.s.s.s.s.s.s.s.s.s.s.s.e.e.e.e.s.s.s.s.s.s.s.s.e.e.e.e.e.e.e.e.e.e.e.e.e.s.s.s.s.s.s.s.s.s.s.s.s.s.s.e.s.s.s.s.s.V :.g.<.e.<.s.e.e.e.e.e.e.e.e.e.e.e.e.e.e.e.e.e.e.e.e.e.e.<.e.e.e.e.e.e.<.<.<.<.<.e.e.e.e.e.e.s.s.e.e.e.e.e.e.e.e.e.e.e.e.e.e.e.e.e.e.e.e.e.e.e.e.e.<.s.e.e.e.e.v e.M.s.e.s.e.s.s.s.s.s.s.s.s.s.s.s.s.s.s.e.e.e.e.e.s.s.s.s.s.s.s.e.e.s.s.e.s.s.s.s.s.e.e.e.e.s.s.s.s.s.s.s.s.s.s.s.s.s.e.e.e.e.e.s.s.e.e.s.s.s.e.s.e.s.s.s.s.s.v g.g.s.s.e.e.s.s.s.s.s.s.s.s.s.s.s.s.s.s.s.s.s.s.s.e.e.e.e.s.s.s.s.s.s.s.s.e.e.e.s.s.s.s.s.s.s.s.s.s.s.s.s.s.e.e.e.e.e.e.s.s.s.s.s.s.e.e.e.e.s.s.e.e.s.e.s.s.e.v g.g.e.e.e.e.e.e.s.s.s.s.s.s.s.s.s.s.s.s.s.e.e.e.e.e.e.e.s.s.s.s.s.s.s.s.s.s.s.s.s.s.e.e.s.s.s.s.s.s.s.e.e.s.s.s.s.s.s.s.s.e.e.e.s.s.s.s.s.s.s.s.e.s.e.s.s.g.<.v M.g.s.s.s.e.e.e.s.s.s.s.s.s.s.s.s.s.s.s.e.s.s.s.s.s.e.e.e.e.e.s.s.e.e.e.e.e.e.e.s.s.s.s.s.s.s.s.s.s.s.s.s.s.e.e.s.s.s.s.s.s.s.s.s.s.s.s.s.s.s.s.e.s.s.e.s.s.%.V Z.s.e.s.e.e.s.e.s.s.s.e.e.s.s.s.s.s.s.s.s.s.s.s.s.s.s.e.s.s.s.s.e.s.s.s.s.s.s.s.s.s.e.e.e.e.s.e.s.s.s.s.s.s.s.s.s.s.s.s.s.s.s.s.s.s.s.s.s.s.s.s.s.e.s.s.s.s...S Z.s.e.s.e.s.s.e.s.s.s.s.s.s.s.s.e.e.e.s.s.s.s.e.s.s.s.s.s.s.s.s.s.e.e.e.e.s.e.e.s.s.s.s.s.s.s.s.s.s.s.s.s.s.e.e.e.e.s.s.s.s.s.s.s.s.s.s.s.s.s.s.e.s.e.e.s.g...: ",
"G.g.e.e.s.s.s.s.s.s.s.s.s.s.s.s.s.s.s.e.e.s.s.s.s.s.s.s.s.s.s.s.s.s.e.e.e.e.s.s.s.s.s.s.s.s.e.e.s.e.s.e.e.e.e.e.s.s.s.s.s.e.e.e.s.s.s.s.s.s.s.s.s.e.s.s.s.s.g.V :.M.<.s.<.s.e.e.e.e.e.e.e.e.e.e.e.e.e.e.e.e.e.e.e.e.<.<.<.<.<.<.e.<.<.<.<.<.<.<.e.<.e.e.e.e.e.e.e.e.e.e.e.e.e.e.e.e.e.e.e.e.e.e.e.e.e.e.e.e.e.e.e.<.s.e.e.e.e.v e.M.e.e.s.e.s.s.s.s.s.s.s.s.s.s.s.s.s.s.e.e.e.e.e.s.s.s.s.s.s.s.e.e.s.s.s.s.s.s.s.e.e.e.e.s.s.s.s.s.s.s.s.s.s.s.s.s.s.s.e.e.e.e.s.s.e.e.s.s.s.s.s.e.s.s.s.s.e.v g.s.s.s.s.s.s.s.s.s.s.s.s.s.s.s.s.s.s.s.s.s.s.s.s.s.s.e.e.e.s.s.s.s.s.s.s.s.e.e.s.s.s.s.s.s.s.s.e.e.e.e.s.s.s.s.s.s.s.e.e.e.s.s.s.s.s.e.s.s.e.e.e.e.s.e.g.s.e.v g.s.e.<.<.e.e.e.s.s.s.s.s.s.s.s.e.s.s.s.s.s.e.e.s.s.s.s.e.s.s.s.s.s.s.s.s.s.s.s.s.s.s.s.s.s.s.e.s.s.s.s.s.s.s.s.s.s.s.s.s.e.e.e.s.s.s.s.s.s.s.s.e.s.e.s.s.s.<.v M.s.e.e.s.s.e.s.s.s.s.s.s.s.s.s.s.s.s.e.e.s.s.s.s.s.e.e.e.e.s.s.s.s.e.e.e.e.s.e.s.s.s.s.s.s.s.s.s.s.s.s.s.s.s.s.s.s.s.s.s.s.s.s.s.s.s.s.s.s.s.s.s.s.s.e.s.g.%.V Z.s.e.s.e.s.g.s.s.s.s.s.s.s.s.s.s.s.s.s.s.s.s.s.s.s.s.e.e.s.s.s.s.s.s.s.s.s.s.s.s.s.s.s.e.e.e.e.s.s.s.s.s.s.e.e.s.s.s.s.s.s.s.s.s.s.s.s.s.s.s.s.s.e.s.s.s.s.%.S Z.s.e.s.e.s.s.e.s.s.s.s.s.e.e.e.e.s.s.s.s.s.s.s.s.s.s.s.s.s.s.s.s.s.e.e.e.s.s.e.s.s.s.s.s.s.s.s.s.s.s.s.s.s.e.e.e.e.s.s.s.s.e.s.s.s.s.s.s.s.s.s.e.s.e.s.s.g...: ",
"G.g.e.e.s.s.s.s.s.s.s.s.s.s.s.s.s.s.s.e.e.s.s.s.s.s.s.s.s.s.s.s.s.s.e.e.e.e.s.s.s.s.s.s.s.s.e.e.s.s.s.s.s.e.s.s.s.s.s.s.s.e.e.e.s.s.s.s.s.s.s.s.s.e.s.s.s.s.g.V :.M.<.s.<.e.e.e.e.e.e.e.e.e.e.e.e.e.e.e.e.e.e.e.e.e.e.<.<.<.<.e.e.e.e.e.<.<.e.e.e.e.e.e.e.e.e.e.e.e.e.e.e.e.e.e.e.e.e.e.e.e.e.e.e.e.e.e.e.e.e.e.e.<.s.e.e.e.e.v e.M.e.e.s.e.s.s.s.s.s.s.s.s.s.s.s.s.s.e.e.e.e.s.e.s.s.s.s.s.s.s.e.e.s.s.s.s.s.s.s.e.e.e.e.e.s.s.s.s.s.s.s.s.s.s.s.s.s.s.s.s.s.s.s.s.e.e.s.s.s.s.s.e.s.s.s.e.s.v g.s.s.s.s.s.s.s.s.s.s.s.s.s.s.s.s.s.s.s.s.s.s.s.s.s.s.s.e.e.e.e.s.s.s.s.s.s.s.e.e.e.s.s.s.s.s.s.s.s.s.s.s.s.s.s.s.s.s.e.e.e.s.s.s.s.s.s.s.e.e.e.e.e.s.e.g.s.e.v g.s.e.e.e.e.e.e.e.e.s.s.s.s.s.e.e.e.e.e.e.e.s.e.s.s.s.e.e.e.s.s.s.s.s.s.s.s.s.s.s.s.e.s.s.s.s.e.s.s.s.s.s.s.s.s.s.s.s.e.s.s.e.e.s.s.s.s.s.s.s.s.e.s.e.s.s.g.<.v g.s.e.e.s.s.s.s.s.s.s.s.s.s.s.s.s.s.s.e.e.s.s.s.s.s.e.e.e.e.s.s.s.s.s.s.s.s.s.s.s.s.s.s.s.s.s.s.s.s.s.s.s.s.s.s.s.s.s.s.s.s.s.s.s.s.s.s.s.s.s.s.e.s.s.e.s.g.%.V Z.s.e.s.e.s.g.s.s.s.s.s.s.s.s.s.s.s.s.s.s.s.s.s.s.s.s.e.e.s.s.s.s.s.s.s.s.s.s.s.s.s.s.s.s.e.e.e.s.s.s.s.s.s.e.e.s.s.s.s.s.s.s.s.s.s.s.e.e.s.s.s.s.e.s.s.s.s.%.S Z.s.e.s.e.s.s.e.s.s.s.s.e.e.e.e.s.s.s.s.s.s.s.e.s.s.s.s.s.s.s.s.s.s.e.e.s.s.s.s.s.s.s.s.s.s.s.s.s.s.s.s.s.e.e.e.e.e.s.s.s.e.e.e.s.s.s.s.s.s.s.s.e.s.e.s.s.g...: ",
"G.g.e.e.s.s.s.s.s.s.s.s.s.s.s.s.s.s.s.e.e.s.s.s.s.s.s.s.s.s.s.s.s.s.s.e.e.s.s.s.s.s.s.s.s.s.e.e.s.s.s.s.s.e.e.e.s.s.s.s.s.s.s.s.s.s.s.s.s.s.s.s.s.e.s.s.s.s.g.V :.M.<.s.<.s.e.e.e.e.e.e.e.e.e.e.e.e.e.e.e.e.e.e.e.e.e.e.e.e.e.e.e.e.e.e.<.<.e.e.e.e.e.e.e.e.e.e.e.e.e.e.e.e.e.e.e.e.e.e.e.e.e.e.e.e.e.e.e.e.e.e.e.<.s.e.e.e.e.v e.M.e.e.s.e.s.s.s.s.s.s.s.s.s.s.s.s.s.s.e.e.s.s.s.s.s.s.s.s.s.e.e.e.e.s.s.s.s.s.s.e.e.e.e.e.s.s.s.s.s.s.s.s.s.s.s.s.s.s.s.s.s.s.s.s.s.e.s.s.s.s.s.e.s.e.s.e.s.v s.s.s.s.s.s.s.s.s.s.s.s.s.s.s.s.s.s.s.s.s.s.s.s.s.s.s.s.s.s.e.<.s.s.s.s.s.s.s.s.e.e.e.s.s.s.s.s.s.s.s.s.s.s.s.s.s.s.e.e.e.e.s.s.s.s.s.s.s.e.e.e.e.e.s.e.g.s.e.v g.s.s.e.e.s.e.e.e.e.s.s.s.s.s.e.e.e.e.e.e.s.s.s.s.s.e.e.e.e.s.s.s.s.s.s.s.s.s.s.s.s.e.s.s.s.s.e.e.s.s.s.s.s.s.s.e.e.e.e.s.s.s.s.s.s.s.s.s.s.s.s.e.s.e.s.e.s.<.v M.s.e.e.s.e.e.s.s.s.s.s.s.s.s.s.s.s.s.e.e.s.s.s.s.s.s.e.e.s.s.s.s.s.s.s.s.s.s.s.s.s.s.s.s.s.s.s.s.s.s.s.s.s.s.s.s.s.s.s.s.s.s.s.s.s.s.e.e.s.e.s.e.e.s.e.s.g.%.V Z.s.e.s.e.s.g.s.s.s.s.s.s.s.s.s.s.s.s.s.s.s.s.s.s.s.s.e.s.s.s.s.s.s.s.s.s.s.s.s.s.s.s.s.s.s.e.s.s.s.s.s.s.e.e.e.s.s.s.s.s.s.s.s.s.s.s.e.e.e.e.e.s.e.s.s.s.s.%.S Z.s.e.s.e.s.s.e.e.e.e.e.e.e.e.e.s.s.s.s.s.e.e.e.s.s.s.s.s.s.s.s.s.s.e.s.s.s.s.s.s.s.s.s.s.s.s.s.s.s.s.s.s.e.e.e.e.e.e.s.e.e.e.e.s.s.s.s.s.s.s.s.e.s.e.s.s.g...: ",
"G.g.e.e.s.s.s.s.s.s.s.s.s.s.s.s.s.s.s.e.e.s.s.s.s.s.s.s.s.s.s.s.s.s.s.e.e.s.s.s.s.s.s.s.s.s.e.e.s.s.s.s.e.e.e.e.e.e.s.s.s.s.s.s.s.s.s.s.s.s.s.s.s.e.s.e.s.s.s.V :.M.<.s.<.s.e.e.e.e.e.e.e.e.e.e.e.e.e.e.e.e.e.e.s.e.e.e.e.e.e.s.e.e.e.e.e.e.e.e.e.e.e.e.e.e.e.e.e.e.e.e.e.e.e.e.e.e.e.e.e.e.e.e.e.e.e.e.e.e.e.e.e.<.s.e.e.e.e.v <.M.e.e.s.e.s.s.s.s.s.s.s.s.s.s.e.s.s.e.e.e.s.s.s.s.s.s.s.s.s.e.e.e.s.s.s.s.s.s.s.e.e.e.e.e.s.s.s.s.s.s.s.s.s.s.s.s.s.s.s.s.s.s.s.s.s.e.s.s.s.s.s.e.s.e.s.e.s.v s.s.s.s.e.s.s.s.s.s.s.s.s.s.s.s.s.s.s.s.s.s.s.s.s.s.s.g.s.s.e.<.s.s.s.s.s.s.s.s.e.e.e.s.s.s.s.s.s.s.s.s.s.s.s.s.s.s.s.e.e.e.s.s.s.s.s.s.s.e.e.e.s.e.s.e.g.s.e.v s.s.s.s.s.s.e.e.e.e.s.s.s.s.e.e.e.e.e.e.e.s.s.s.s.e.e.e.e.e.s.s.s.s.s.s.s.s.s.s.s.s.e.e.s.s.s.e.e.e.s.s.s.s.e.e.e.e.e.e.s.s.s.s.s.s.e.e.e.e.e.e.e.s.e.s.e.s.<.v M.s.e.e.s.e.e.e.s.s.s.s.s.s.s.s.s.s.s.e.e.s.s.s.s.s.e.s.e.s.s.s.s.s.s.s.s.s.s.s.s.s.s.s.s.s.s.s.e.s.s.s.s.s.s.s.s.s.s.s.s.s.s.s.s.s.e.e.e.e.e.s.s.e.s.e.s.g.%.V Z.s.e.s.e.s.g.s.s.s.s.s.s.s.s.s.s.s.s.s.s.s.s.s.s.s.s.e.e.s.s.s.e.e.e.e.e.e.e.e.s.s.s.s.s.e.e.s.s.s.s.s.s.e.e.e.s.s.s.s.s.s.s.s.s.e.e.e.e.e.e.e.s.e.s.s.s.s...S Z.s.e.s.e.s.s.e.e.e.e.e.e.e.e.e.s.s.s.e.e.e.e.<.s.s.s.s.s.s.s.s.s.s.e.s.s.s.s.s.s.s.s.s.s.s.s.s.s.e.s.s.s.e.e.e.e.e.e.e.e.e.e.e.s.s.s.s.s.s.s.s.e.s.e.s.s.g...: ",
"Z.s.e.e.e.e.e.s.s.s.s.s.s.s.s.s.s.s.e.e.e.s.s.s.s.s.e.s.s.s.s.e.s.s.s.s.s.s.s.s.s.s.s.e.s.s.s.s.s.s.s.e.e.e.e.e.s.s.s.s.s.s.s.s.s.s.s.s.s.s.s.s.s.e.s.e.s.s.s.V :.M.<.s.<.s.e.e.e.e.e.e.e.e.e.e.e.e.e.e.e.e.e.e.e.e.e.e.e.e.e.e.e.e.e.e.e.e.e.e.e.<.e.e.e.e.e.e.e.e.<.<.<.e.e.e.e.e.e.e.e.e.e.e.e.e.e.e.e.e.e.e.e.e.e.e.e.<.s.v e.M.s.s.s.e.s.s.s.s.s.s.s.s.s.s.s.s.s.s.s.s.s.s.s.s.s.e.e.e.e.e.s.s.s.s.s.s.s.s.s.s.e.e.e.e.s.s.s.s.s.s.e.e.s.s.s.s.s.s.e.e.e.e.s.s.e.e.s.s.s.s.s.s.s.e.g.s.e.v e.s.e.e.s.e.e.s.e.s.s.s.s.s.s.e.s.s.s.e.e.e.e.s.e.e.s.s.s.s.e.e.e.s.s.s.s.s.s.s.s.s.s.s.s.s.s.s.s.s.e.e.e.e.s.s.s.s.s.s.s.s.s.s.e.e.s.e.e.e.s.s.s.s.e.s.s.g.<.v M.g.s.e.e.e.e.e.e.e.e.e.e.e.e.e.e.e.s.s.s.s.s.e.e.e.e.e.e.e.s.s.s.s.s.s.s.s.e.e.e.s.s.s.s.s.s.s.s.s.e.e.e.e.e.e.e.s.s.s.s.e.e.e.s.s.e.e.e.s.s.s.s.g.s.s.s.s.<.v M.s.s.s.s.s.e.s.s.s.s.s.s.s.s.s.s.s.s.s.s.s.e.e.g.s.s.s.s.s.e.e.s.s.s.s.s.s.s.s.s.s.s.s.s.s.s.s.s.e.e.e.e.s.s.s.s.s.s.s.e.e.e.e.s.s.s.s.s.s.e.e.s.e.s.s.e.s.%.V M.s.e.<.e.e.s.s.s.s.s.s.s.s.e.e.e.s.s.s.s.e.e.e.s.s.s.s.s.s.s.s.e.e.e.e.e.s.e.e.s.s.s.s.s.s.s.s.s.s.s.s.s.s.e.e.e.e.e.e.e.s.s.s.s.s.e.e.e.e.s.s.s.s.s.s.s.s.%.S Z.s.s.s.e.s.s.e.s.s.s.s.s.s.s.s.s.s.e.e.e.e.s.s.s.s.s.s.s.s.s.s.s.s.s.s.s.e.e.e.e.e.e.e.s.s.s.s.e.e.s.s.s.s.e.e.s.s.e.e.s.s.s.s.s.s.s.s.s.s.s.s.e.s.s.s.s.g...- ",
"Z.g.e.e.e.e.e.s.s.s.s.s.s.s.s.s.s.s.e.e.e.s.s.s.s.s.e.s.s.s.s.e.s.s.s.s.s.s.s.s.s.s.s.e.s.s.s.s.e.e.e.e.e.e.e.e.s.s.s.s.s.s.s.s.s.s.s.s.s.s.s.s.s.e.s.e.s.s.g.V :.M.<.s.<.s.e.e.e.e.e.e.e.e.e.e.e.e.e.e.e.e.e.e.e.e.e.e.e.e.e.e.e.e.e.e.e.e.e.e.e.<.e.e.e.e.e.e.e.e.<.<.<.e.e.e.e.e.e.e.e.e.e.e.e.e.e.e.e.e.e.e.e.e.e.e.e.<.s.v e.M.s.e.s.e.s.s.s.s.s.s.s.s.s.s.s.s.s.s.s.s.s.s.s.s.s.e.e.e.e.e.s.s.s.s.s.s.s.s.s.s.e.e.e.s.s.s.s.s.s.s.e.e.e.e.s.s.s.e.e.e.e.e.s.e.e.e.s.s.s.s.g.s.s.e.s.s.<.p s.g.s.e.s.s.e.s.e.e.s.s.s.s.e.e.s.s.s.e.e.e.e.s.e.e.s.s.s.s.e.e.e.e.s.e.s.s.s.s.s.s.s.s.s.s.s.s.s.s.s.e.s.s.s.s.s.s.s.s.s.s.s.s.e.e.s.e.e.e.s.s.s.s.e.s.s.g.<.v g.g.s.e.e.e.e.e.e.e.e.e.e.e.e.e.e.s.e.s.s.s.s.e.e.e.e.e.e.s.s.s.s.s.s.s.s.s.e.e.e.s.s.s.s.s.s.s.s.e.e.e.e.e.e.e.e.s.s.s.s.e.e.e.s.s.e.e.e.s.s.s.s.s.e.s.e.s.<.v M.s.e.s.s.s.e.s.s.s.s.s.s.s.s.s.s.s.s.s.s.s.e.e.g.s.s.s.e.s.e.e.s.s.s.s.s.s.s.s.s.s.s.s.s.s.s.s.e.e.e.e.e.e.s.s.s.s.s.s.e.e.e.s.s.s.s.s.s.s.e.e.s.e.s.s.e.s.%.v M.s.e.e.s.e.e.s.s.s.s.s.s.s.e.e.s.s.s.s.s.e.e.e.s.s.s.s.s.s.s.s.e.e.e.e.s.s.s.s.s.s.s.s.s.s.s.s.e.s.s.s.s.e.e.e.e.e.e.e.s.s.s.s.s.s.e.e.e.e.s.s.s.s.s.s.s.s.%.S Z.s.e.s.e.s.s.e.s.s.s.s.s.s.s.s.s.s.e.e.e.e.s.s.s.s.s.s.s.s.s.s.s.s.s.s.s.s.s.s.e.e.e.e.s.s.s.e.e.e.s.s.s.s.e.e.s.s.e.e.s.s.s.s.s.s.s.s.s.s.s.s.e.s.s.s.s.g...- ",
"Z.g.e.e.e.e.e.s.s.s.s.s.s.s.s.s.s.s.e.e.e.s.s.s.s.s.s.s.s.s.s.e.s.s.s.s.s.s.s.s.s.s.s.e.s.s.s.s.e.e.e.s.e.e.s.s.s.s.s.s.s.s.s.s.s.s.s.s.s.s.s.s.s.e.s.e.s.s.g.V :.M.<.s.<.e.e.e.e.e.e.e.e.e.e.e.e.e.e.e.e.e.e.<.e.e.e.e.e.e.e.e.e.e.e.e.e.e.e.e.e.e.e.e.e.e.e.e.e.e.<.<.<.e.e.e.e.e.e.e.e.e.e.e.e.e.e.e.e.e.e.e.e.e.e.e.e.<.s.v e.M.e.e.s.e.s.s.s.s.s.s.s.s.s.s.s.s.s.s.s.s.s.s.s.s.s.e.e.e.s.s.s.s.s.s.s.s.s.s.s.s.s.s.s.s.s.s.s.s.s.s.e.e.e.e.e.e.e.e.e.e.e.s.s.s.e.e.e.e.s.s.g.s.s.e.s.e.<.v s.g.s.s.s.s.e.s.s.s.s.s.s.s.s.s.s.s.s.e.e.e.e.s.e.e.s.s.s.s.s.e.e.e.e.e.e.e.e.e.s.s.s.s.s.s.s.s.s.s.e.s.s.s.s.s.s.s.s.s.s.s.s.s.e.e.e.e.e.e.s.s.s.s.e.s.e.s.<.v g.s.s.e.e.e.e.e.s.s.s.s.e.s.e.e.s.s.s.e.e.s.s.s.s.e.e.e.e.s.s.s.s.s.s.s.s.s.e.e.s.s.s.s.s.s.s.e.e.e.e.e.e.e.e.e.e.s.s.s.s.e.e.e.s.s.e.e.e.s.s.s.e.s.e.s.e.s.<.v M.s.s.s.s.s.e.s.s.s.s.s.s.s.s.s.s.s.s.s.s.s.s.e.s.e.e.e.e.s.e.e.s.s.s.s.s.s.s.s.s.s.s.s.s.s.s.s.e.e.e.s.s.s.s.e.s.s.s.e.e.e.e.s.s.s.s.s.s.s.e.e.s.e.s.s.e.s.%.v M.s.e.e.s.s.e.s.s.e.e.e.e.e.s.s.s.s.e.s.e.e.e.e.s.s.s.s.s.s.s.s.e.e.s.s.s.s.s.s.s.s.s.s.s.s.e.e.e.s.s.s.s.e.e.e.e.e.s.s.s.s.s.s.s.s.e.e.e.e.s.s.s.s.s.s.s.s.%.S Z.s.e.s.e.s.s.e.s.s.s.s.s.s.e.e.s.s.e.e.e.e.e.e.s.s.s.s.s.s.s.s.s.s.s.s.s.s.s.s.e.e.e.e.s.s.e.e.e.e.s.s.s.s.e.e.s.s.e.e.s.s.s.e.s.s.s.s.s.s.s.s.e.s.s.s.s.g...- ",
"Z.g.e.e.s.e.e.s.s.s.s.s.s.s.s.s.s.s.e.e.e.s.s.s.s.e.e.s.s.s.s.e.e.s.e.e.e.e.s.s.s.s.s.e.e.s.e.e.e.e.e.e.e.s.s.s.s.s.s.s.s.s.s.s.s.s.s.s.s.e.e.e.s.e.s.e.s.s.g.V :.M.<.s.<.e.e.e.e.e.e.e.e.e.e.e.e.e.e.e.e.e.e.e.<.e.e.e.e.<.<.<.e.e.e.e.e.e.e.<.e.e.e.e.e.e.e.e.e.e.<.<.e.e.e.e.e.e.e.e.e.e.e.e.e.e.e.e.e.e.e.e.e.e.e.e.e.<.s.v e.M.e.e.s.e.s.e.s.s.s.s.s.s.s.s.s.s.s.s.s.s.s.s.s.s.s.e.e.s.s.s.s.s.s.s.s.s.s.s.s.s.s.s.s.s.s.s.s.s.s.e.e.e.e.e.e.e.e.e.e.e.s.s.s.s.e.e.e.e.s.s.s.s.s.<.s.e.e.v s.g.s.e.s.s.e.s.s.s.s.s.s.s.s.s.s.s.s.e.s.e.s.s.e.e.e.s.s.s.e.e.e.e.e.s.s.s.s.e.s.s.s.s.s.s.s.s.s.e.s.s.s.s.s.s.e.e.e.e.s.s.s.e.e.e.e.e.e.e.e.s.e.s.e.s.e.s.<.v g.s.s.e.e.e.s.s.s.s.s.s.s.e.s.e.s.s.s.e.e.e.e.s.e.e.e.e.s.s.s.s.s.s.s.s.s.s.e.e.s.s.s.s.s.s.s.e.e.e.e.e.e.e.s.s.s.s.s.s.s.e.e.e.s.s.e.e.e.s.s.s.e.e.e.s.e.s.<.v M.s.s.s.s.s.e.s.s.s.s.s.s.s.s.s.s.s.s.s.s.s.e.e.s.e.e.e.e.s.s.e.s.s.s.s.s.s.s.s.s.s.s.s.s.s.s.s.e.e.e.s.s.s.s.e.s.s.s.e.e.e.s.s.s.s.s.s.s.s.e.e.s.e.s.s.e.s.%.V M.s.e.s.s.s.s.e.e.e.e.e.e.e.s.s.s.s.s.e.e.e.s.s.s.s.s.s.s.s.s.s.e.e.s.s.s.s.s.s.s.s.s.s.s.s.e.e.e.s.s.s.s.e.e.e.e.e.s.s.s.s.s.s.s.s.e.e.e.e.s.s.s.s.s.e.e.s...S Z.s.e.s.e.s.s.s.s.s.s.s.s.s.e.e.s.s.s.e.e.e.e.s.s.s.s.s.s.s.s.s.e.e.e.s.s.s.s.s.s.e.s.s.s.s.e.e.e.e.s.s.s.s.e.e.s.s.e.e.s.s.s.e.s.s.s.s.s.s.s.s.e.s.s.s.s.g...- ",
"Z.g.e.e.e.e.e.s.s.s.s.s.s.s.s.s.s.s.s.e.e.s.s.s.s.e.e.e.s.s.e.e.e.e.e.e.e.e.e.s.s.s.s.e.e.e.e.e.e.e.e.s.s.s.s.s.s.s.s.s.s.s.s.s.s.s.s.e.e.e.e.e.s.e.s.s.s.s.g.V :.M.e.s.<.e.e.e.e.e.e.e.e.e.e.e.e.e.e.e.<.<.e.e.<.<.e.e.e.e.<.<.e.e.e.e.e.e.e.<.<.<.e.e.e.e.e.e.e.e.e.e.e.e.e.e.e.e.e.e.e.e.e.e.e.e.e.e.e.e.e.e.e.e.e.e.e.<.s.v <.M.s.e.s.e.s.s.s.s.s.s.s.s.s.s.s.s.s.s.s.s.s.s.s.s.s.e.e.e.s.s.s.s.s.s.s.s.s.s.e.s.s.s.s.s.s.e.s.s.s.e.e.e.e.e.e.e.e.e.e.e.s.s.s.s.s.s.e.e.e.e.s.e.e.<.s.s.e.V s.g.s.e.s.s.e.s.s.s.e.e.e.s.s.s.s.s.e.e.s.s.s.e.s.s.s.s.e.e.e.s.s.s.e.s.s.s.s.s.s.s.s.s.s.s.s.s.e.e.s.s.s.s.s.s.e.e.s.s.s.s.e.e.e.e.e.e.e.e.e.s.e.s.e.s.s.g.<.v g.s.e.e.s.s.s.s.s.s.s.s.s.s.s.e.s.s.e.e.e.e.e.e.e.e.e.e.e.s.s.s.s.s.s.s.s.s.e.s.s.s.s.s.s.s.s.e.<.e.e.e.e.s.s.s.e.s.s.s.s.s.e.e.s.s.s.e.s.s.s.s.e.e.e.s.e.s.<.v M.s.s.s.s.s.e.s.s.s.s.s.s.s.s.s.s.s.s.s.s.s.e.e.e.e.e.e.e.s.s.e.s.s.s.s.s.s.s.s.s.s.s.s.s.s.s.s.e.e.s.s.s.s.e.e.s.s.s.e.e.e.s.s.s.s.s.s.s.s.e.e.s.e.s.s.e.g.:.V M.s.e.e.s.s.e.s.s.e.e.e.e.e.s.s.s.s.e.e.e.s.s.s.s.s.s.s.s.s.s.s.s.s.s.s.e.s.s.s.s.s.s.s.s.s.e.e.e.s.s.s.s.s.e.e.s.s.s.s.e.s.s.s.s.s.e.e.e.e.s.s.s.e.s.s.e.s...S Z.s.e.s.e.s.s.e.s.s.s.s.s.s.e.e.s.s.e.e.e.e.s.s.s.s.s.s.s.s.s.s.e.e.e.s.s.s.s.s.s.s.s.s.e.e.e.e.s.e.s.s.s.e.e.s.s.s.s.s.s.s.s.e.s.s.s.s.s.s.s.s.e.s.e.s.s.g...- ",
"G.g.s.e.s.s.s.s.s.s.s.s.s.s.s.s.s.s.e.e.s.s.s.s.s.e.e.e.e.s.e.e.e.e.e.e.s.e.s.s.s.s.s.e.e.e.e.e.s.s.s.s.s.s.s.s.s.s.s.s.s.s.s.s.s.s.e.e.s.e.e.e.s.e.s.s.s.s.g.V :.M.e.s.<.e.e.e.e.e.e.e.e.e.e.e.e.e.e.<.<.<.e.e.e.e.e.e.e.e.e.e.e.e.e.e.e.e.e.<.<.<.e.e.e.e.e.e.e.e.e.e.e.e.e.e.e.e.<.<.e.e.e.e.e.e.e.e.e.e.e.e.e.e.e.e.e.<.s.v <.M.e.e.s.e.s.s.s.s.s.s.s.s.s.s.s.s.s.s.s.s.s.s.s.s.s.e.e.e.s.s.s.s.s.s.s.s.s.s.e.e.e.e.e.e.e.e.s.s.e.e.e.e.e.e.e.e.e.e.s.s.s.s.s.s.s.s.s.e.e.e.e.<.e.<.s.s.e.V e.s.s.e.s.s.e.s.e.e.e.<.e.e.e.e.s.s.e.s.s.s.s.e.s.s.s.e.e.e.s.s.s.s.s.s.s.s.s.s.s.s.s.s.s.s.s.s.e.e.e.e.s.e.e.e.e.e.s.s.s.s.e.e.e.e.s.e.e.e.e.s.e.s.e.s.s.g.<.v g.s.s.e.s.s.s.s.e.e.s.s.e.s.e.e.e.e.e.e.e.e.e.e.s.e.e.e.e.s.s.s.s.s.s.s.s.s.s.s.e.s.s.s.s.s.s.e.e.e.e.e.s.s.s.s.e.s.s.s.s.s.e.e.s.s.e.e.s.s.s.s.e.s.e.s.e.s.<.v M.s.s.s.s.s.e.s.s.s.s.s.s.s.s.s.s.s.s.s.s.s.e.e.e.e.e.e.e.s.s.s.s.s.s.s.s.s.s.s.s.s.s.s.s.s.s.s.e.e.s.s.s.s.s.e.s.s.s.e.e.e.e.s.s.s.s.s.s.s.s.s.g.e.s.s.e.g.:.V Z.g.e.e.s.s.s.s.s.e.e.e.e.s.s.s.e.e.e.e.s.s.s.s.s.s.s.s.s.s.s.s.s.s.s.s.e.s.s.s.s.s.s.s.s.s.e.e.e.s.s.s.s.s.e.e.s.s.s.s.e.s.s.s.s.s.e.e.e.e.s.s.s.s.s.s.e.s...S Z.s.e.s.e.s.g.s.s.s.s.s.s.s.e.e.s.s.e.e.e.e.s.s.s.s.s.s.s.s.s.s.s.s.s.s.s.s.s.s.s.s.s.s.e.e.e.e.s.s.s.e.e.s.s.s.s.s.e.s.s.s.s.e.s.s.s.s.s.s.s.s.e.s.s.s.s.g...- ",
"G.M.s.s.s.s.s.s.s.s.s.s.s.s.s.s.e.e.e.e.s.s.s.s.s.e.e.e.s.s.s.e.s.s.e.e.e.e.e.e.s.s.s.e.s.e.s.s.s.s.s.s.s.s.s.s.s.s.s.s.s.s.s.s.e.e.e.e.e.e.e.e.s.e.s.s.s.s.g.V :.M.e.s.<.e.e.e.e.e.e.e.e.e.e.e.e.e.<.<.<.e.e.s.e.e.e.e.e.e.e.e.e.e.<.<.e.e.e.e.<.<.e.e.e.e.e.e.e.e.e.e.e.e.e.e.e.e.<.<.<.e.e.e.e.e.e.e.e.e.e.e.e.e.e.e.e.<.s.v e.M.e.e.s.e.s.e.s.s.s.s.s.s.s.s.s.s.s.s.s.s.s.s.s.s.s.e.e.e.s.s.s.s.s.s.s.s.s.s.s.s.e.e.e.e.e.s.e.e.e.e.e.e.e.e.e.e.e.s.s.s.s.e.s.s.s.s.s.e.e.e.s.e.s.<.s.s.e.v s.g.s.e.s.s.e.s.s.e.e.e.e.e.e.s.s.e.e.s.s.s.e.e.s.s.e.e.e.e.s.s.e.s.s.s.s.s.s.s.s.s.s.s.s.s.s.s.s.s.s.e.e.e.e.e.e.e.s.s.s.e.e.e.e.s.e.e.e.e.e.s.s.s.e.s.s.g.<.v g.g.s.s.s.s.s.e.e.e.e.e.s.e.e.e.e.e.e.e.e.e.e.e.s.s.e.e.e.s.s.s.s.s.s.s.s.s.s.s.e.s.s.s.s.s.s.e.e.e.e.s.s.s.s.s.e.s.s.s.s.s.e.e.e.e.e.e.s.s.s.s.s.s.e.s.e.s.<.v M.g.s.s.s.s.e.s.s.s.s.s.s.s.s.s.s.s.s.s.s.s.e.s.s.s.e.e.s.s.s.s.s.s.s.s.s.s.s.s.s.s.s.s.s.s.s.s.s.s.s.s.e.e.s.s.s.s.s.e.e.e.s.s.s.s.s.s.s.s.s.s.s.e.s.s.e.g.:.V Z.g.e.e.s.s.e.s.s.s.s.s.e.e.s.s.e.e.e.s.s.s.s.s.s.s.s.s.s.s.s.s.e.s.e.e.e.e.s.s.s.s.s.s.s.s.e.e.e.s.s.s.s.e.e.e.e.s.e.e.e.s.s.s.s.s.s.e.e.s.s.s.s.e.s.s.e.s...V Z.s.e.s.s.s.g.s.s.s.s.s.s.s.e.e.s.s.s.e.e.s.s.s.s.s.s.s.s.s.s.s.s.s.s.s.s.s.s.s.e.e.s.s.s.s.s.s.s.s.s.e.e.s.s.s.s.s.e.e.s.s.s.s.e.e.e.e.e.e.e.s.e.s.s.s.s.g...- ",
"G.M.s.s.s.s.s.s.s.s.s.s.s.s.s.s.e.e.e.e.s.s.s.s.e.e.e.e.s.s.s.e.e.e.e.e.e.e.e.e.s.s.s.e.e.e.s.s.s.s.s.s.s.s.s.s.s.s.s.s.s.s.s.s.e.e.e.e.e.s.s.s.s.e.s.e.s.s.s.V :.M.e.s.<.e.e.e.<.<.<.<.e.e.e.<.e.e.<.<.<.e.e.s.e.e.e.e.e.e.e.e.e.e.<.<.<.e.e.e.e.e.e.e.e.e.e.e.e.e.e.e.e.e.e.e.e.e.<.<.<.e.e.e.e.e.e.e.e.e.e.e.e.e.e.e.e.<.s.v e.M.e.e.s.e.s.e.s.s.s.s.s.s.s.s.s.s.s.s.s.s.s.s.s.s.s.e.e.e.s.s.s.s.s.s.s.s.s.s.s.e.e.<.<.e.e.s.e.e.e.e.e.e.e.e.e.e.s.s.s.s.s.e.s.s.s.s.s.e.e.e.s.e.s.e.g.e.<.p s.g.s.s.g.s.e.s.s.s.e.e.e.s.s.s.s.e.e.s.s.s.e.e.s.s.s.e.e.e.s.s.e.e.e.e.e.e.e.e.s.s.s.s.s.s.s.s.s.s.s.e.e.e.<.<.e.e.e.e.e.e.e.e.e.s.e.e.e.e.s.s.s.s.e.s.s.g.<.v g.g.s.s.s.e.e.e.e.e.e.e.e.e.e.e.<.e.e.e.s.s.e.e.s.s.e.s.s.s.s.s.s.s.s.s.s.s.s.s.e.s.s.s.s.s.s.e.e.s.s.s.s.s.s.s.e.s.s.s.s.s.e.e.e.e.e.e.e.s.s.s.s.g.e.s.s.s.<.v M.g.s.s.s.s.e.s.s.s.s.s.s.s.s.s.s.s.s.s.s.s.e.s.s.s.s.s.s.s.s.s.s.s.s.s.s.s.s.s.s.s.s.s.s.s.s.s.s.s.e.e.e.e.s.s.e.e.s.s.e.e.s.s.s.s.s.s.s.s.s.s.s.e.s.s.e.s.%.v Z.g.e.e.e.e.e.s.s.s.s.s.s.s.s.e.e.e.e.s.s.s.s.s.s.s.s.s.s.s.s.s.e.e.e.e.e.e.s.s.s.s.s.s.s.s.e.e.e.s.s.s.s.s.e.e.e.e.e.e.e.s.s.s.s.s.s.e.e.s.s.s.s.e.s.s.e.s...V Z.s.e.s.s.s.g.s.s.s.s.s.s.s.e.e.s.s.s.e.e.s.s.s.s.s.s.s.s.s.s.s.s.s.s.s.s.e.e.e.e.e.s.s.s.s.s.s.s.s.s.e.e.e.s.s.s.s.e.e.s.s.s.s.e.e.e.e.e.e.e.s.e.s.s.s.s.g...- ",
"Z.M.g.s.s.e.e.s.s.s.e.s.s.s.s.s.s.s.s.s.s.s.s.s.s.s.s.s.s.s.s.s.e.e.e.e.s.e.e.e.e.s.s.e.e.e.e.e.e.e.e.s.s.e.e.s.s.e.e.s.s.s.s.s.s.s.s.s.e.e.e.e.s.<.g.s.s.s.g.S :.g.s.e.s.e.s.e.e.e.<.<.e.e.e.e.e.e.<.e.e.e.e.e.e.e.e.e.e.e.e.e.<.<.e.e.e.e.e.e.e.e.e.e.e.e.e.e.e.e.e.e.e.e.e.s.e.e.e.e.e.e.e.e.e.e.e.e.e.e.e.e.<.e.s.e.e.<.<.v :.M.s.e.s.e.s.e.s.s.s.s.s.s.s.s.s.s.s.s.s.s.s.s.s.s.s.s.s.s.s.s.e.e.e.e.s.s.s.s.s.e.e.<.e.e.s.s.e.e.s.s.s.s.s.s.s.s.s.s.s.s.s.s.e.e.s.s.s.s.s.s.s.e.e.s.e.s.<.p s.g.g.s.e.s.s.e.s.s.s.s.s.s.s.s.e.s.s.s.s.s.s.s.s.s.s.e.s.s.s.s.s.s.e.e.e.e.e.e.s.s.s.s.s.s.s.s.s.s.s.s.s.s.s.s.e.e.e.e.s.s.s.s.s.s.s.s.s.s.e.e.e.s.e.e.e.g.e.v g.g.g.s.e.e.e.<.s.s.e.e.e.e.e.e.e.e.e.e.s.s.s.s.s.s.e.s.s.s.s.s.s.s.s.s.s.s.s.s.s.s.s.s.s.s.s.s.e.s.s.s.e.e.s.s.s.s.s.s.s.s.e.e.s.s.s.s.s.s.s.s.e.s.e.s.s.g.<.v g.g.s.s.s.g.g.s.s.e.e.e.e.e.s.s.s.e.e.<.<.<.e.s.s.s.s.e.e.e.s.s.e.e.e.e.s.e.e.s.s.s.s.s.s.s.s.s.s.e.e.s.s.s.s.s.s.s.s.s.s.s.s.g.s.s.s.s.s.s.s.s.e.s.s.<.<.g.%.V G.s.e.g.s.s.s.s.s.s.s.s.s.s.s.s.e.e.e.e.s.s.s.s.e.e.s.s.s.s.s.s.s.s.s.s.s.s.s.s.e.e.e.e.e.e.e.e.e.e.e.e.e.e.e.e.s.s.e.e.e.s.s.s.s.s.s.s.s.s.s.s.s.s.s.<.<.s.%.V Z.s.s.s.e.e.s.g.s.s.s.s.e.e.e.e.s.s.s.s.s.s.e.e.s.s.s.s.s.s.s.s.e.e.e.e.e.e.e.e.s.s.s.s.s.s.s.s.s.s.s.s.s.s.s.s.s.s.s.s.s.s.s.e.e.e.s.s.s.s.s.s.s.g.s.e.e.s...: ",
"G.M.s.e.s.s.s.s.e.e.e.e.e.e.e.s.e.e.e.e.e.e.e.e.e.e.e.e.e.e.e.e.s.s.s.s.s.s.s.s.s.s.s.s.e.e.s.s.s.s.s.s.s.s.s.s.e.e.e.e.e.s.e.e.e.e.e.e.e.e.e.e.s.e.g.s.s.s.s.S :.g.e.e.s.e.s.e.e.e.e.e.e.e.e.e.e.e.e.e.e.e.e.e.e.e.e.e.e.e.e.e.<.<.<.<.<.<.<.<.e.e.e.e.e.e.s.s.<.<.<.<.e.e.e.e.s.s.s.s.s.s.s.s.e.e.e.e.e.e.e.e.<.<.e.:.<.:.:.p <.M.e.e.s.s.g.e.e.e.e.e.e.e.<.<.e.e.e.e.e.e.e.e.e.e.e.e.e.e.e.e.e.e.s.s.s.s.s.s.s.e.e.<.e.s.s.s.s.s.s.s.s.s.s.s.s.e.e.e.e.e.e.e.e.e.e.e.e.e.e.e.s.e.e.s.<.s.e.v s.g.s.e.e.s.s.s.e.e.e.e.e.e.e.e.e.e.e.e.e.e.e.e.s.s.s.s.s.s.s.s.s.e.e.e.s.s.s.s.e.e.e.e.e.e.e.e.e.e.e.e.e.e.e.e.s.e.e.e.s.s.s.s.s.s.s.s.s.s.s.s.e.g.s.e.e.s.<.v g.g.s.e.e.s.s.e.s.s.s.s.e.e.e.e.s.s.s.s.s.s.s.s.s.s.s.s.s.s.s.s.e.e.e.e.e.e.e.e.e.e.e.e.s.s.s.s.s.s.s.s.s.e.s.s.e.e.e.e.e.e.<.<.e.e.e.e.e.e.e.e.s.s.s.s.e.s.<.v g.s.e.e.e.s.e.e.s.s.s.s.s.s.s.s.g.s.s.s.s.s.g.g.s.s.s.s.s.s.s.s.s.s.s.s.s.s.s.s.e.e.e.e.e.e.e.e.e.e.e.e.e.s.s.e.e.e.e.e.e.e.e.s.e.e.e.e.e.e.e.e.s.s.s.<.<.g.%.V Z.s.s.g.s.s.s.s.e.e.e.e.e.e.e.e.s.e.s.s.s.s.s.s.e.e.e.e.s.s.s.s.e.e.e.s.e.e.e.e.g.g.g.g.g.g.g.g.s.s.g.s.s.s.s.s.s.s.s.s.s.s.s.s.e.e.e.e.e.e.e.e.<.e.s.e.s.g.%.S Z.e.e.s.e.<.e.e.e.e.e.e.<.e.e.e.g.g.g.s.g.g.s.s.e.e.e.e.e.e.e.e.s.s.s.s.s.g.g.g.e.e.e.e.e.e.e.e.e.e.e.e.e.e.e.e.s.s.s.s.s.e.e.e.<.<.<.e.e.e.e.e.<.s.e.s.s.g...- ",
"G.g.<.e.s.s.s.s.s.s.s.s.s.s.g.g.s.s.s.s.g.s.s.s.g.g.g.g.g.g.g.g.s.s.s.s.s.s.s.s.s.s.s.s.e.e.e.e.s.s.s.s.s.s.s.s.g.s.s.g.g.g.g.g.g.s.g.g.s.s.s.s.s.e.g.s.s.s.s.S <.g.e.<.e.e.s.e.e.e.e.e.e.e.e.e.e.e.e.e.e.e.e.e.e.e.e.e.e.e.e.<.e.e.s.s.s.s.s.s.e.e.e.e.e.e.e.e.s.s.s.s.s.s.s.s.<.<.<.<.<.<.<.<.e.e.e.e.e.e.e.e.g.s.s.<.s.e.e.V e.M.e.<.s.e.s.e.s.s.s.s.s.s.s.s.s.s.g.g.g.s.s.s.g.g.g.g.g.g.s.s.s.s.s.s.s.s.s.s.e.e.e.e.e.s.s.s.s.s.s.s.s.s.s.s.g.g.g.g.g.g.g.g.s.s.s.g.g.g.g.g.e.e.e.s.<.s.e.V g.g.s.e.e.s.s.s.s.s.g.g.g.g.g.g.s.s.s.s.s.s.s.s.e.e.e.s.s.s.s.e.e.e.e.e.s.s.s.s.s.s.s.s.s.s.s.s.g.g.s.s.s.s.s.s.e.e.e.e.s.e.s.e.e.e.s.s.s.s.s.s.e.s.e.e.<.s.<.V g.g.s.e.e.s.s.s.s.s.s.s.e.e.e.e.s.s.s.s.s.s.s.s.s.s.s.s.s.s.e.e.s.s.s.s.s.g.g.g.e.s.e.e.s.s.s.s.e.s.s.s.s.s.s.s.g.g.g.g.s.s.s.s.g.g.g.g.g.g.g.g.s.s.s.s.e.s.<.V G.M.s.s.g.g.g.s.s.s.s.s.e.e.s.s.<.<.<.<.<.e.e.e.s.s.s.s.e.e.s.s.s.s.s.s.s.s.s.s.g.g.g.g.g.g.s.s.g.s.s.g.g.g.g.g.s.s.s.s.g.g.g.g.s.s.g.g.g.g.g.g.s.s.e.<.e.g.%.v Z.s.s.g.s.e.s.s.s.g.s.g.g.g.g.s.e.s.e.s.s.s.s.s.e.e.e.e.e.e.s.s.s.s.g.g.g.g.g.g.e.e.e.e.e.e.e.e.e.e.e.e.e.<.<.<.e.e.s.s.s.s.s.s.s.s.g.g.s.s.s.s.<.e.s.s.e.s.%.S G.g.g.M.g.s.g.s.g.g.g.g.s.s.s.s.e.e.<.<.e.e.<.<.g.s.g.g.g.g.g.g.<.<.<.e.e.e.e.e.g.g.g.s.g.g.g.g.s.s.s.s.s.s.s.s.s.s.s.e.e.e.e.e.s.s.s.s.s.g.g.g.e.s.e.s.s.g.' $ ",
"J.M.s.s.s.g.s.s.e.<.<.<.<.e.<.e.<.<.e.e.e.e.e.e.e.e.e.e.e.e.e.e.e.e.e.e.e.e.e.e.s.s.s.s.s.e.s.s.e.e.e.e.e.e.e.e.e.e.e.e.e.e.e.e.e.e.e.e.e.e.e.e.s.e.g.s.s.s.g.J <.M.s.e.s.e.s.e.e.e.<.<.<.e.e.e.<.<.<.<.e.e.e.e.<.<.<.<.e.<.<.<.<.<.<.<.<.<.<.<.<.<.<.<.<.<.<.e.<.<.<.<.<.<.<.<.s.s.s.s.e.e.s.s.e.e.e.e.s.s.e.e.e.<.<.:.e.e.<.p s.Z.s.s.s.e.s.e.e.e.e.e.e.e.e.<.<.<.e.e.e.e.<.<.e.e.e.e.e.e.<.<.e.e.e.e.e.e.e.e.s.s.s.s.s.g.g.s.e.e.e.e.e.e.e.e.e.e.e.e.e.e.<.e.e.e.e.e.e.e.e.e.s.e.s.g.s.g.e.v M.g.g.s.s.s.s.s.e.e.e.e.e.e.e.e.e.e.e.e.e.<.<.<.e.s.s.s.g.s.s.s.e.e.e.e.e.e.s.s.<.<.e.e.e.e.<.<.e.e.e.e.e.e.e.e.e.e.<.e.e.e.e.e.<.<.<.e.e.e.e.e.s.s.e.s.s.g.e.V M.g.s.s.s.s.s.s.s.s.s.s.s.s.s.s.e.e.e.e.e.e.e.e.e.e.e.e.e.<.<.<.<.<.<.<.<.e.e.e.s.s.s.s.s.s.s.s.e.e.e.s.e.e.e.s.e.e.e.e.e.e.e.e.e.e.e.e.e.e.e.e.s.s.e.g.s.g.e.S g.s.e.e.e.e.e.e.e.e.e.e.<.e.e.e.s.s.s.s.g.g.g.g.s.e.e.e.e.e.e.e.e.e.e.e.e.e.e.e.e.e.e.e.e.e.e.e.e.e.e.e.e.e.e.e.<.<.<.<.e.e.e.e.e.e.e.e.e.e.e.e.s.s.e.e.s.M.:.V Z.s.s.M.s.s.g.g.e.e.e.e.e.e.e.e.s.s.s.s.s.s.s.s.e.e.e.e.e.e.e.e.e.e.e.e.e.e.<.e.g.g.g.g.g.g.g.g.g.g.g.g.g.g.g.g.e.e.e.s.s.s.s.e.e.e.e.e.e.e.e.e.g.s.s.s.s.g.:.J Z.e.e.s.e.e.e.e.e.e.e.e.<.<.<.e.g.g.g.s.g.s.s.s.<.e.e.e.e.e.e.e.s.s.s.s.g.g.g.g.e.e.e.e.e.e.e.e.e.e.e.e.e.e.e.e.s.g.g.s.s.s.s.s.<.<.<.e.e.e.e.e.g.g.e.s.s.g...: ",
"Z.g.e.e.e.e.e.e.s.s.s.s.s.s.s.s.s.s.s.s.s.s.s.s.s.s.s.s.s.s.s.s.g.g.g.g.g.g.g.g.e.e.e.e.e.e.e.e.g.g.g.g.g.g.g.g.s.s.s.s.g.g.g.s.s.s.s.s.s.s.s.s.s.<.s.e.e.e.s.V ..e.<.e.e.:.<.e.s.s.s.s.s.s.s.s.e.s.s.s.s.s.s.s.s.s.s.s.s.s.e.e.e.e.s.s.s.s.s.s.s.s.s.s.s.s.s.s.e.e.e.e.s.s.s.s.<.e.<.<.e.e.e.e.<.<.<.<.<.<.<.<.s.e.s.e.g.s.e.v :.g.e.e.e.:.<.e.s.s.s.s.s.s.s.s.s.s.s.s.s.s.s.s.s.s.s.s.s.s.s.s.g.g.g.g.s.s.s.s.<.e.e.s.s.e.e.e.g.g.g.g.s.s.s.s.s.s.s.s.s.s.s.s.s.s.s.s.s.s.s.s.e.<.<.s.e.g.<.u e.s.s.s.e.<.<.e.g.s.g.g.g.g.g.g.s.s.s.s.s.s.s.s.<.e.e.e.e.e.e.e.g.g.g.g.g.g.g.g.s.s.s.s.s.s.s.s.g.s.s.s.s.s.s.s.g.s.s.s.g.g.g.s.s.s.s.s.s.g.g.g.e.e.<.e.e.s.:.p g.s.e.e.e.e.e.e.e.e.e.e.e.e.e.e.s.s.g.g.g.g.g.g.s.g.s.s.s.s.s.s.e.s.s.s.s.s.s.g.e.e.e.e.e.e.e.e.g.g.g.g.g.g.g.g.g.g.g.g.g.s.s.s.s.s.s.s.s.s.s.s.e.e.<.s.s.s.:.p M.g.g.g.g.s.s.g.s.s.s.s.s.s.s.s.e.e.e.e.s.s.s.s.g.g.g.s.g.g.g.g.g.g.g.g.g.g.g.g.g.s.g.s.g.s.s.s.s.s.s.s.g.g.g.s.s.s.s.s.s.s.s.s.s.s.s.s.s.s.s.s.e.<.e.e.s.s...v M.e.e.s.e.<.e.e.s.s.s.s.s.s.g.g.e.e.e.e.e.e.e.e.g.g.g.g.s.s.s.s.s.s.s.s.s.s.s.s.e.e.e.e.e.e.e.e.e.e.e.e.e.e.s.s.s.s.g.g.g.g.g.g.s.s.s.s.s.s.s.s.e.<.<.e.s.s...S G.s.e.g.s.s.g.s.s.g.g.s.s.s.s.s.e.e.e.e.e.e.e.e.s.s.s.s.s.s.s.s.e.e.e.e.e.e.e.e.s.s.s.s.s.s.s.s.g.g.s.g.s.s.s.s.e.e.e.e.e.e.e.e.e.s.s.s.g.g.g.g.<.<.:.e.e.s...: ",
"G.M.g.s.g.s.s.g.s.e.s.s.e.s.s.s.e.e.e.e.e.e.s.e.s.s.s.s.s.s.s.s.e.e.e.e.e.e.e.e.g.g.g.g.g.g.g.g.e.e.e.e.e.e.e.e.s.s.s.s.s.s.s.s.s.s.s.s.s.s.s.s.M.g.M.s.s.s.g.S %.s.e.s.s.<.s.g.<.<.<.<.<.<.<.<.:.:.:.:.:.<.<.<.<.<.<.<.<.<.:.:.e.e.e.e.e.e.e.e.<.<.<.<.<.<.<.<.e.<.e.e.e.e.e.e.e.e.e.e.e.e.e.e.s.s.s.s.s.s.s.s.e.e.e.<.s.e.:.p e.M.g.g.g.e.g.g.s.s.s.e.s.e.e.e.s.s.s.s.e.e.e.s.s.s.s.s.s.s.e.e.<.<.e.e.<.<.<.<.s.g.g.g.g.g.g.g.e.e.e.e.e.e.e.e.s.s.s.s.s.s.s.s.s.s.s.s.s.s.s.s.s.s.s.M.g.M.s.v g.g.g.g.g.s.g.g.s.s.s.s.s.s.s.s.s.s.s.e.e.e.e.e.s.s.g.g.g.g.g.g.s.e.e.e.e.e.e.e.e.e.e.s.e.s.s.s.s.s.e.e.e.e.s.s.e.e.<.e.e.e.e.e.<.<.e.e.e.e.e.e.M.g.s.g.g.M.<.v M.g.s.s.g.g.g.g.g.g.g.g.g.g.g.g.e.e.e.e.e.e.e.e.e.e.e.e.e.e.e.<.s.e.e.s.s.s.s.s.g.g.g.g.g.g.g.g.e.e.e.e.e.e.e.e.s.s.s.s.s.s.s.s.s.s.s.s.s.s.s.s.M.g.s.M.M.g.<.V M.s.s.g.s.e.e.s.e.e.e.e.e.e.e.e.s.s.s.s.s.s.s.s.e.<.<.<.e.e.e.e.e.e.e.e.e.e.e.e.s.s.s.s.s.s.s.s.s.s.s.s.s.s.s.s.s.s.s.s.s.s.s.s.s.s.s.s.s.s.s.e.g.g.g.s.g.g.%.S J.s.s.g.s.s.g.g.s.s.s.s.e.s.s.s.g.g.g.g.g.g.g.g.e.e.e.e.e.e.e.e.s.s.s.s.s.s.s.s.e.e.e.e.e.e.e.e.s.s.s.s.s.s.s.s.<.e.e.e.e.e.e.e.s.s.s.s.s.s.s.s.g.s.g.M.M.g...V Z.e.<.s.e.e.s.s.s.s.s.s.e.e.s.s.s.s.s.s.s.s.s.s.s.s.s.s.s.s.s.s.s.e.s.s.s.s.e.e.e.e.e.e.e.e.e.e.s.s.s.s.s.s.s.s.g.g.g.g.g.g.s.s.e.e.s.s.s.s.s.s.s.s.s.M.M.g...: ",
"J.M.e.<.e.e.e.e.s.s.s.s.s.s.g.g.s.s.s.s.s.s.s.s.s.s.s.s.s.s.s.s.g.g.g.g.g.g.g.g.e.s.s.s.e.e.e.s.g.g.g.g.g.g.g.g.s.s.s.s.g.g.g.s.s.s.s.s.s.s.s.s.g.e.s.e.e.e.s.S <.s.:.<.e.:.<.<.s.s.e.e.s.s.s.s.e.e.e.e.e.e.e.e.e.e.e.e.e.e.e.e.<.<.e.e.e.e.e.e.e.e.e.e.e.s.s.s.<.<.<.e.e.e.e.e.e.e.e.e.e.e.e.e.<.<.<.<.<.<.<.<.e.e.e.<.e.<.<.V g.M.<.e.s.e.e.e.s.s.s.s.s.s.s.s.s.s.s.s.s.s.s.s.s.s.s.s.s.s.s.s.s.s.g.g.g.g.s.g.e.s.s.s.e.e.e.e.g.g.g.g.g.g.g.g.s.s.s.g.s.s.s.s.g.g.g.s.s.s.s.s.e.e.e.s.<.s.s.S M.s.e.e.s.s.s.s.s.s.s.s.s.s.s.s.s.s.s.s.s.s.s.s.e.e.e.e.e.s.s.s.g.g.g.g.g.g.g.g.s.s.s.s.s.s.g.g.s.s.s.s.s.s.s.s.g.g.g.g.g.g.g.g.g.g.g.g.g.g.g.g.s.s.s.g.e.s.<.S Z.g.<.<.e.e.s.s.e.e.e.e.s.s.s.s.g.g.g.g.g.g.g.g.g.g.g.g.g.g.g.g.s.s.s.s.s.s.s.g.e.e.e.e.e.e.e.e.g.g.g.g.g.g.g.g.s.s.s.s.s.s.s.s.s.s.s.s.s.s.s.s.s.e.e.g.e.e.<.S J.M.e.s.g.s.s.s.g.g.g.g.g.g.g.g.s.s.s.s.g.g.g.g.g.s.g.s.s.g.g.g.g.g.g.g.g.g.g.g.s.s.s.s.s.s.s.s.s.s.s.s.s.s.s.s.s.s.s.s.g.g.g.g.s.s.s.s.s.s.s.s.s.e.e.e.e.s.%.P J.s.<.e.e.s.s.e.s.s.s.s.s.s.s.g.s.s.s.s.s.s.e.e.g.g.g.g.g.g.g.g.s.s.g.g.g.g.s.s.s.s.s.s.s.s.s.s.s.s.s.s.s.s.s.s.g.g.g.g.g.g.g.g.s.s.s.s.s.s.s.s.s.s.g.g.s.e...J J.g.e.s.s.s.s.s.g.g.g.s.s.s.s.s.s.s.s.s.s.s.g.g.g.g.g.s.g.s.g.g.s.s.s.s.s.s.s.s.s.s.s.s.s.s.s.s.s.s.s.s.s.s.s.s.e.s.s.s.s.e.e.e.s.s.s.g.g.s.s.s.s.s.s.g.s.e.' 1 ",
":.^ S v V S V v V V V V V V S S S S S S S S V V V V V V V V V V V V V V V V V V V S S S V V V V V V V V V V V V V V V V S S S V V V V V V V V V S V S V S S P $ Y Y p p V v v p p p p p p p p p p p p p p p p p p p p p p p u u p p p p p p p p p p p p p p p p p p p p p p p p p p p p p p p p p p p p p p p p p p v u p v V + / ^ v V J S S v S S S S V V V V V V V V V V V V V V V V V V V V V V V V V V V V S S J S S V V S V V V V V V V V S V V S V V V V S S S V V V V V V S S S p S J : ..P V V S J S V V V V V V V V V S S V V V S S S S S S S S S S J V V V V S V V S V V V V V S S S S V V V V V V V S V V V S S S V V V V V V V V V S J J J V S S 1 ..Y S V V V V S V V V V V V S S V V V V V V V V v V V V V V V V S S V V V V V V S S S S S S S S S V V V V S V V V V S S S S S S V V V V V V V V V S S J V V S 1 ..P v V J J V V V V V V V V V V S V V V V V V V V V V V V V V V V V V V V V V V S S S S S V V V V V V V V V V V V V V S V S S S S S S S S S S S S V V V V J V 5 ' J V S S S J S V V V V V V S S S S S S S V V V V V V V V V V V V V V S S S S V V V V V V V V V V V V V V V V V V V V V V V V S V V S S S S S S S V S V v V V u ' J V V V V S V V S S V V V V V V V S S S S S S S V S V V V S S S S V S V V V V V V V V V V V V S S S S S S S S S S S S S S S V S S S S S S V V S S V V V S v   ",
"s.e.e.e.e.<.<.<.<.<.<.<.<.<.<.<.<.<.<.<.e.e.e.e.e.e.<.<.<.:.:.:.e.<.<.<.<.<.<.e.<.<.<.<.<.e.e.e.e.e.e.e.e.e.e.e.e.e.e.e.e.<.<.<.<.<.<.<.<.<.<.<.<.<.s.<.e.<.g./ ' e.e.<.<.:.e.e.<.<.<.<.<.<.<.<.<.<.<.<.<.<.<.<.<.<.<.<.<.<.<.<.<.<.<.<.<.<.<.<.e.e.<.e.e.<.<.<.<.<.<.<.<.<.<.<.<.<.<.<.<.<.<.<.<.<.<.<.<.<.<.<.e.:.e.%.....s.^ ' e.<.<.e.<.e.e.e.e.e.<.<.<.<.<.<.<.<.<.<.<.<.<.e.e.<.<.<.<.<.<.e.<.<.<.<.<.<.e.:.%.%.:.:.:.<.<.<.e.e.e.<.<.e.e.e.e.e.<.e.e.e.e.:.<.<.<.<.<.<.<.<.<.e.:.<.<.g.' %.<.<.<.<.:.:.<.<.<.<.<.<.<.:.:.<.<.<.:.:.<.<.<.:.<.<.<.<.<.<.:.<.<.<.<.:.....%.:.:.<.<.<.<.<.<.%.:.:.<.<.<.<.<.<.<.<.<.<.<.<.<.<.<.<.<.<.<.:.:.:.e.e.e.:.e.s.Y :.<.<.<.<.<.<.<.e.e.e.<.<.<.<.<.<.e.e.e.e.e.e.<.<.<.<.<.<.<.<.<.e.e.e.e.e.e.<.<.e.e.e.e.<.<.<.e.e.e.e.e.e.e.e.e.e.e.e.e.<.<.<.:.<.<.e.<.<.<.e.e.<.s.e.<.:.e.s.^ e.<.<.e.e.<.<.e.e.e.<.<.<.<.<.<.e.e.e.<.e.e.e.e.<.<.<.<.<.<.<.<.e.e.e.<.<.<.<.<.e.e.<.<.<.<.<.<.<.<.<.<.<.<.<.<.e.<.<.<.<.<.e.e.e.<.<.<.<.<.<.<.<.e.e.e.<.e.s.^ e.<.:.<.e.<.<.<.<.<.<.<.<.<.<.<.<.<.e.e.e.e.e.e.<.<.<.<.<.<.<.e.e.e.e.<.<.<.<.e.<.<.<.<.<.<.<.<.<.<.e.e.e.e.<.<.:.<.<.<.<.e.e.e.<.<.e.e.e.e.e.e.<.<.e.e.e.s.<./ e.<.<.e.e.<.<.<.<.<.<.<.<.<.<.<.e.e.e.e.e.e.e.e.e.e.e.e.e.e.e.e.e.e.e.<.<.e.e.e.<.<.<.<.<.<.<.<.<.<.<.<.<.<.<.<.<.<.e.e.e.e.e.e.<.<.e.e.e.e.e.e.<.e.<.<.:.e.e.P ",
"I.G.Z.Z.Z.Z.Z.G.G.G.G.G.G.G.G.G.M.Z.Z.Z.Z.Z.Z.Z.Z.Z.Z.Z.Z.Z.Z.M.G.G.G.G.G.G.G.G.G.G.Z.Z.Z.G.G.G.Z.Z.Z.Z.Z.Z.Z.Z.G.G.G.G.G.G.Z.Z.Z.G.G.G.G.G.G.G.G.Z.Z.M.Z.M.Z./ s.J.G.G.G.Z.G.G.G.G.G.G.G.G.G.G.Z.Z.Z.Z.G.G.G.G.G.G.G.G.G.G.G.G.Z.Z.G.G.G.G.G.G.G.G.G.G.G.G.Z.Z.M.M.M.M.Z.Z.Z.Z.G.Z.Z.Z.Z.Z.Z.Z.Z.G.G.G.G.Z.Z.Z.Z.M.G.Z.M.g.Z.^ e.G.Z.Z.G.Z.G.Z.Z.Z.Z.Z.Z.Z.Z.Z.G.G.G.G.G.G.G.G.Z.Z.Z.Z.M.M.Z.Z.Z.Z.Z.Z.Z.Z.Z.Z.Z.M.M.Z.Z.Z.Z.Z.Z.G.G.G.G.Z.G.G.G.G.G.G.G.G.G.G.G.G.G.G.J.J.J.G.M.M.Z.Z.G.Z.Z.^ M.Z.Z.M.Z.M.g.Z.M.Z.Z.Z.M.M.M.M.Z.M.M.M.M.M.M.M.M.Z.Z.Z.Z.Z.Z.Z.M.M.M.M.M.s.s.M.M.M.M.M.M.Z.Z.Z.g.g.M.M.M.M.M.M.Z.Z.Z.Z.M.M.M.Z.M.Z.Z.Z.Z.M.M.M.M.Z.Z.Z.M.Z.M.Y G.G.G.Z.Z.Z.Z.G.G.G.G.G.G.Z.Z.Z.G.G.G.G.G.G.G.G.G.G.G.G.G.G.G.G.G.G.Z.Z.Z.Z.Z.Z.G.Z.Z.Z.Z.Z.Z.Z.Z.Z.Z.Z.Z.Z.Z.Z.G.G.G.Z.Z.Z.Z.Z.Z.G.G.G.Z.Z.G.G.M.G.Z.G.Z.Z.M.Y G.Z.Z.G.G.Z.Z.Z.G.G.G.Z.Z.G.G.G.G.G.G.G.G.G.G.G.Z.G.G.Z.G.G.G.G.Z.Z.Z.Z.Z.Z.Z.Z.G.G.G.G.G.G.G.G.M.M.M.M.Z.Z.Z.Z.Z.Z.Z.Z.Z.Z.Z.Z.Z.Z.Z.Z.Z.Z.Z.Z.Z.Z.Z.G.M.Z.M.^ J.G.Z.G.G.G.G.G.G.G.G.G.G.G.G.G.Z.Z.Z.Z.Z.Z.Z.Z.G.G.G.G.J.J.J.J.G.G.Z.Z.Z.Z.G.G.G.G.G.G.G.G.G.G.Z.Z.Z.G.G.Z.Z.Z.M.M.Z.Z.Z.Z.Z.Z.G.G.G.G.G.G.G.G.J.G.G.Z.Z.Z.e.^ J.G.Z.Z.Z.Z.M.M.G.G.G.G.G.G.G.G.G.Z.Z.Z.Z.G.Z.Z.Z.Z.Z.Z.Z.Z.Z.Z.Z.Z.Z.Z.Z.Z.Z.Z.G.G.Z.Z.Z.Z.Z.Z.G.G.G.G.G.G.G.G.Z.Z.G.G.G.G.G.G.Z.Z.Z.Z.Z.Z.Z.Z.G.G.Z.G.Z.Z.e.v ",
"J.Z.M.g.g.g.g.M.s.s.s.s.s.s.s.s.g.g.g.g.g.g.g.g.s.s.s.g.g.g.g.g.s.s.s.s.s.s.s.s.g.g.g.g.g.g.g.g.g.g.g.g.g.g.g.g.g.g.g.g.g.g.g.g.s.s.s.s.s.s.s.s.M.s.g.s.M.g.s.V <.Z.M.M.M.g.M.M.s.s.s.s.s.s.s.s.g.g.g.g.g.g.g.g.g.g.g.g.g.g.g.g.s.s.s.s.s.s.g.s.g.g.g.g.g.g.g.s.g.g.g.g.g.g.g.g.g.g.g.g.g.g.g.g.g.g.g.g.g.g.g.g.g.s.M.g.M.g.g.S :.M.g.g.M.g.M.g.s.s.g.g.g.g.g.g.g.g.g.g.g.g.g.g.g.g.g.g.g.g.g.g.M.g.g.g.g.M.g.M.g.g.g.g.g.s.s.s.g.g.g.g.g.g.g.g.g.g.g.g.g.g.g.g.s.s.s.s.s.s.s.s.g.s.g.s.M.g.e.v s.M.g.s.g.s.e.g.g.g.g.g.g.g.s.s.g.g.s.s.s.s.g.g.s.s.s.s.s.s.s.s.s.s.s.s.s.e.s.s.s.s.s.s.s.s.s.g.s.s.s.g.s.g.s.s.g.g.g.s.s.s.s.s.s.s.s.s.s.s.s.s.s.s.e.s.s.g.<.v Z.M.g.s.s.s.g.M.g.g.g.g.g.g.g.g.g.g.g.g.g.g.g.g.g.g.g.g.g.g.g.g.M.g.g.g.g.g.g.g.g.g.g.g.g.g.g.g.g.g.g.g.g.g.g.g.g.g.g.s.s.s.g.g.g.g.g.g.g.g.g.g.g.g.g.M.g.M.<.v G.Z.M.M.g.g.g.g.s.s.s.e.e.s.s.s.g.g.g.g.g.g.g.g.g.g.g.g.g.g.g.g.g.g.g.g.g.g.g.g.M.M.g.g.g.g.g.g.s.g.g.g.g.g.g.g.g.g.g.g.g.g.g.g.s.g.g.g.g.g.g.g.g.g.g.M.s.s.<.V G.M.g.g.g.g.g.M.g.g.g.g.g.g.g.g.g.g.g.g.g.g.g.g.s.s.s.s.s.s.s.s.g.g.g.s.s.g.g.g.g.g.g.g.g.g.g.g.g.g.g.g.g.g.g.g.g.g.g.g.g.g.g.g.g.g.g.g.g.g.g.g.Z.g.s.s.g.M.%.S J.M.g.g.g.g.s.s.s.s.s.s.s.s.s.s.g.g.g.g.g.g.g.g.g.g.g.g.g.g.g.g.g.g.g.g.g.g.g.g.g.g.g.g.g.g.g.g.g.g.g.g.g.g.g.g.g.g.g.g.g.g.g.g.g.g.g.g.g.g.g.g.g.g.s.M.M.g...: ",
"J.Z.g.s.s.s.g.g.M.M.M.M.M.M.M.M.s.s.s.s.s.s.s.s.e.e.e.s.s.s.s.s.M.M.g.g.g.g.M.M.s.s.s.s.s.s.s.s.s.s.s.s.s.s.s.s.s.s.s.s.s.s.s.s.g.g.M.M.M.M.M.g.g.s.s.e.M.g.e.v <.M.g.s.g.s.g.s.g.g.g.g.g.g.g.g.s.s.s.s.s.s.s.s.s.s.s.s.s.s.s.s.g.g.M.M.M.M.M.M.s.s.s.s.s.s.s.e.s.s.s.s.s.s.s.s.s.s.s.s.s.s.s.s.s.s.s.s.s.s.s.s.g.e.s.s.g.g.g.S :.M.s.s.g.s.g.s.s.s.s.s.s.s.g.g.s.s.s.s.s.s.s.s.s.s.s.s.s.s.s.s.g.g.s.s.s.s.g.g.s.s.s.g.g.e.e.e.e.s.s.s.s.e.s.s.s.s.s.s.s.s.s.s.g.g.g.g.M.g.g.g.M.s.s.e.g.g.e.V g.g.s.e.s.e.e.s.s.s.s.s.s.s.s.s.s.s.s.s.s.s.s.s.e.e.e.e.e.e.e.e.e.e.e.e.e.e.s.s.e.e.e.e.s.s.s.s.s.s.s.s.s.s.s.e.s.s.s.s.e.e.e.e.s.s.e.e.e.e.s.s.s.e.<.s.s.g.<.p M.g.s.e.e.e.s.s.s.s.s.s.s.s.s.s.s.s.s.s.s.s.s.s.s.s.s.s.s.s.s.s.g.g.s.s.s.s.s.s.g.s.s.s.s.s.s.s.s.s.s.s.s.s.s.s.s.e.e.e.e.e.s.s.s.s.s.s.e.e.e.s.g.g.e.s.s.g.e.v G.M.g.g.g.s.s.g.M.g.g.g.g.g.g.M.s.s.s.s.s.s.s.s.s.s.s.s.s.s.s.s.s.s.s.s.s.s.s.s.s.s.s.s.s.s.s.s.s.s.s.s.s.g.g.g.g.s.s.s.s.s.s.s.s.s.s.s.s.s.s.g.s.s.s.g.g.g.<.V Z.M.s.s.s.s.s.g.s.s.s.s.s.s.s.s.s.s.s.s.s.s.s.s.g.g.g.g.g.g.g.g.e.e.e.e.e.e.s.s.s.s.s.s.s.s.s.s.s.s.s.g.g.s.s.s.s.s.s.s.s.s.s.s.s.s.s.s.s.s.s.s.g.e.e.e.g.M.%.S G.g.e.s.g.g.g.s.g.g.g.g.g.g.g.g.g.s.s.s.s.g.s.s.s.s.s.s.s.s.s.s.g.s.s.s.s.s.s.s.s.s.s.e.e.s.s.s.s.s.s.s.s.s.s.s.s.s.s.s.s.s.s.s.s.s.g.g.s.s.s.s.s.s.e.s.g.g...: ",
"I.Z.M.g.g.g.g.M.s.s.s.s.s.s.s.s.g.g.g.g.g.g.g.g.M.M.g.g.g.g.M.M.s.s.s.s.s.s.s.s.M.M.g.g.g.g.g.g.g.g.g.g.g.g.g.g.g.g.M.M.M.M.g.g.s.s.s.s.s.s.s.e.g.g.M.s.M.g.g.S e.G.M.g.M.g.M.g.s.s.s.s.s.s.s.s.M.M.M.M.M.M.M.M.M.M.M.M.M.M.M.M.e.s.s.s.s.s.s.s.M.M.g.M.M.M.g.g.g.g.g.g.g.g.g.g.M.M.M.g.g.g.g.g.g.g.g.g.g.g.g.g.M.g.M.s.g.g.M.J <.M.g.g.g.s.g.g.g.g.g.g.g.g.g.g.M.M.M.M.M.M.M.M.g.g.g.g.g.g.g.g.g.g.g.g.g.g.g.g.g.g.g.M.M.g.g.g.g.g.M.M.g.g.g.M.g.g.M.M.M.M.g.M.s.s.s.s.s.s.s.s.M.g.M.s.g.g.g.J M.M.g.s.g.g.s.g.g.g.g.g.g.s.g.g.g.g.g.g.s.s.s.g.g.g.s.s.s.s.g.g.s.s.s.s.s.g.g.s.s.s.s.s.s.g.g.g.g.g.g.g.g.g.g.s.g.g.s.s.s.s.s.e.g.s.s.s.s.s.g.g.s.s.s.s.s.g.e.V M.M.g.g.g.g.M.g.g.g.M.M.M.M.M.M.g.g.M.M.M.M.g.g.M.M.M.M.M.M.M.M.g.g.g.g.g.g.g.g.g.g.g.g.g.g.M.M.g.g.g.g.g.g.g.g.g.g.g.s.g.g.M.M.g.g.g.g.g.g.g.g.M.M.g.g.g.M.s.S G.M.g.g.g.g.g.M.s.e.e.e.e.e.s.s.M.M.M.M.g.g.g.g.M.M.M.M.M.M.M.M.g.g.g.g.g.g.g.g.M.M.g.g.g.g.g.g.g.g.g.g.g.M.M.M.g.g.g.g.g.g.g.g.g.g.g.g.g.g.g.g.M.g.s.M.g.M.e.S J.Z.g.g.g.g.g.M.M.M.M.M.M.M.M.M.g.g.g.g.g.g.g.g.s.s.s.s.s.s.s.s.g.g.g.g.g.g.g.g.g.g.g.g.g.g.M.M.g.g.g.g.g.g.g.g.g.g.g.g.g.g.g.g.M.M.M.M.g.g.g.M.M.g.M.g.g.g.%.S J.M.s.g.M.M.M.g.s.s.s.s.s.s.s.s.g.g.g.g.g.g.g.g.g.g.g.g.g.g.g.g.g.g.g.g.g.g.g.g.g.g.g.g.g.g.M.M.M.M.M.M.M.M.g.M.M.M.g.g.g.g.g.g.M.M.M.g.g.g.g.g.M.M.g.g.g.M.%.1 ",
"G.M.g.s.g.s.s.s.M.M.M.M.M.M.g.g.s.s.g.g.g.g.s.s.g.g.g.g.s.s.g.s.M.M.g.g.g.g.M.M.s.s.s.s.s.s.s.s.s.s.s.s.s.s.s.s.s.s.s.g.g.g.g.g.g.g.g.g.g.g.g.g.s.s.g.e.s.s.e.V <.M.g.s.s.s.g.s.M.M.M.M.M.M.M.M.g.g.g.g.g.s.s.s.s.s.s.s.s.s.s.s.g.g.g.g.g.g.g.g.g.s.s.g.g.g.s.s.g.g.s.g.g.g.g.g.s.s.s.s.s.s.s.s.s.s.s.s.s.s.s.s.g.s.M.g.g.s.s.v :.g.s.s.s.e.g.s.g.g.g.s.s.s.s.s.s.s.s.s.s.s.s.s.s.s.s.s.g.g.g.s.g.s.s.s.s.s.s.s.s.s.s.g.g.s.s.s.s.s.g.g.s.s.s.g.s.s.s.s.s.s.s.s.g.g.g.g.M.M.g.g.s.g.M.s.g.s.e.v g.g.s.e.s.s.e.s.s.s.e.e.e.e.s.s.s.s.s.s.s.s.e.e.s.e.e.e.e.e.e.s.s.s.s.e.e.s.s.e.e.s.e.s.s.s.s.s.s.s.s.s.s.s.s.s.s.e.e.e.e.e.e.e.e.e.s.s.s.s.s.s.s.s.e.e.<.e.:.v g.s.s.s.g.g.s.s.s.s.s.s.g.g.g.g.s.s.s.g.g.s.s.s.s.s.s.s.s.s.s.s.g.g.g.s.s.s.s.s.s.s.s.s.s.s.g.g.s.s.s.s.s.s.s.s.s.s.s.s.s.s.g.g.s.s.s.s.s.s.s.s.s.g.g.M.s.g.<.v Z.g.s.s.s.s.s.g.g.g.g.g.g.g.M.M.g.g.g.s.s.s.s.s.s.s.s.s.s.s.s.s.s.s.s.s.s.s.s.g.s.s.s.s.s.s.s.s.s.g.g.g.g.g.g.g.g.s.s.s.s.s.s.s.s.s.s.g.s.g.g.g.g.g.s.g.s.g.<.V G.M.s.s.s.s.s.g.s.s.s.s.s.s.s.s.g.g.s.s.s.s.s.s.M.M.M.M.g.g.g.g.s.s.s.s.s.s.s.s.s.s.s.s.s.s.s.s.s.s.s.s.s.s.s.s.s.s.s.s.s.s.s.s.s.s.s.s.s.s.s.s.s.s.g.g.s.s...S J.M.s.s.g.g.s.s.M.M.M.M.M.M.M.M.g.s.s.s.s.g.s.s.s.s.s.s.s.s.s.s.s.g.g.g.g.s.s.s.s.s.s.s.s.s.s.g.s.s.s.s.s.s.s.s.s.s.s.e.e.e.e.s.g.g.g.g.g.s.s.s.s.g.g.g.g.g...: ",
"J.Z.g.g.M.g.g.g.s.s.s.s.s.s.s.s.g.g.M.M.M.g.g.g.g.g.g.g.g.g.g.g.g.g.s.s.s.s.g.g.s.s.s.s.s.s.g.g.g.g.g.g.g.g.g.g.s.s.g.g.g.g.g.g.g.g.g.g.g.s.s.s.g.g.M.s.g.g.s.V e.Z.g.s.g.s.g.s.s.s.s.s.s.s.s.s.g.g.g.g.g.g.s.s.g.g.g.g.g.g.g.g.s.s.s.g.g.g.g.s.g.g.g.g.g.g.g.s.g.g.g.M.g.g.g.g.g.g.g.s.s.s.s.s.g.g.g.g.g.g.s.s.g.g.Z.g.M.M.g.v <.M.g.g.g.g.M.g.g.g.g.g.g.g.g.g.g.g.g.g.g.g.g.g.g.g.g.M.M.g.g.g.M.g.g.g.g.g.g.g.g.s.s.g.g.s.s.g.g.g.g.g.g.g.g.g.g.g.g.g.g.g.g.g.s.s.s.s.s.s.s.s.s.g.M.g.M.g.s.V g.M.s.s.g.g.s.g.s.s.s.s.s.s.s.g.s.s.s.g.s.s.s.s.s.s.s.s.s.e.e.e.g.g.g.s.s.g.s.e.s.s.s.s.s.g.g.s.s.s.s.s.s.s.s.s.s.s.s.s.s.s.s.s.s.s.s.g.g.g.g.s.g.g.s.s.s.s.<.V M.g.s.s.g.g.g.s.g.g.g.g.g.g.g.g.s.g.g.g.g.g.g.s.g.g.g.g.g.g.g.g.g.g.M.g.g.g.g.g.g.g.g.g.g.g.g.M.g.g.g.g.g.g.g.g.g.g.g.g.g.g.g.g.g.s.s.s.g.g.g.s.g.M.M.M.g.M.e.v Z.M.g.g.g.g.g.g.s.s.s.g.g.g.g.g.g.g.g.g.g.g.g.g.g.g.g.g.g.g.g.g.g.g.g.g.g.g.g.g.g.g.g.g.g.s.s.s.g.g.g.g.g.g.g.g.g.g.g.g.g.s.s.s.g.g.g.g.g.g.g.g.g.g.g.M.g.g.e.S G.M.s.s.s.s.s.g.g.g.g.g.g.g.g.g.M.M.g.g.g.g.g.g.s.s.s.s.s.s.s.e.s.s.g.g.g.s.s.s.g.g.g.g.g.g.g.g.g.g.g.g.g.g.g.g.g.g.g.g.g.g.g.g.g.g.g.g.g.g.g.g.s.s.g.g.g.g.:.J G.Z.g.g.g.g.g.g.s.s.s.s.s.s.s.s.g.g.g.g.g.g.g.g.M.M.g.g.g.g.g.g.g.g.M.M.M.g.g.s.s.s.s.s.g.g.g.g.g.g.g.g.g.g.g.g.g.g.s.s.e.s.s.s.g.g.g.g.g.g.g.g.e.g.s.g.M.Z.:.1 ",
"J.Z.s.s.g.g.g.g.s.s.s.s.s.s.s.g.g.g.g.g.g.g.g.s.g.g.g.g.g.g.g.g.g.g.g.g.g.g.g.g.s.s.s.s.s.s.g.g.g.g.g.g.g.g.g.g.s.s.g.g.g.g.g.g.g.g.g.g.g.g.g.s.e.s.g.e.g.M.s.v e.Z.g.s.g.g.M.g.g.g.g.g.g.g.g.g.g.g.g.g.s.s.s.s.g.g.g.g.g.g.g.g.g.g.g.g.g.g.g.g.g.g.s.g.g.g.g.s.g.g.g.g.g.g.g.g.g.g.g.g.g.s.s.s.g.g.g.g.g.g.g.s.g.s.g.e.s.g.g.V :.M.s.s.g.s.M.g.s.s.s.g.g.g.g.g.g.g.g.g.g.g.g.g.s.g.g.g.g.g.s.s.g.g.g.g.g.g.g.g.M.g.g.g.g.s.s.g.g.g.g.g.g.g.g.g.g.g.g.g.g.g.g.g.g.g.g.g.g.g.g.g.s.s.g.e.g.g.g.V s.g.e.e.g.s.e.s.e.e.e.e.e.e.s.s.e.e.e.s.s.s.e.e.e.e.s.s.s.e.e.e.s.s.s.e.e.s.s.<.e.s.e.s.s.s.s.s.s.e.s.s.s.s.s.s.e.e.e.e.e.e.e.e.e.e.s.s.s.s.s.s.s.s.e.s.s.g.<.v Z.M.g.s.g.g.g.s.s.s.g.g.g.g.g.g.s.s.g.g.g.g.s.s.g.g.g.g.g.g.g.g.g.g.g.g.s.g.s.s.s.s.s.s.s.g.g.g.g.g.g.g.g.g.g.g.g.g.g.g.g.g.g.g.g.g.s.s.g.g.g.g.g.g.s.g.g.M.e.V Z.M.g.g.g.s.s.s.s.s.g.g.g.g.g.g.s.s.s.g.g.g.g.g.g.g.g.g.g.g.g.g.s.s.s.s.s.g.g.g.g.g.g.g.g.g.g.g.g.g.g.g.s.s.s.s.s.s.s.s.s.s.e.e.g.g.g.g.g.s.s.s.s.s.g.M.g.g.<.S Z.M.s.s.g.g.g.g.g.g.g.g.g.g.g.g.g.g.g.s.s.s.s.g.g.g.g.g.g.g.s.s.s.g.g.g.g.s.s.s.g.g.g.g.g.g.g.g.g.g.s.s.s.s.g.g.s.s.s.s.s.s.s.s.g.g.g.g.g.g.g.g.g.g.g.g.g.g.%.S M.g.s.s.g.s.g.g.g.g.g.g.g.g.g.g.g.s.s.s.s.g.s.s.g.g.g.g.g.g.g.g.s.g.g.g.g.s.s.s.s.s.g.g.g.g.g.g.g.g.g.g.g.g.g.g.M.g.g.s.s.s.s.g.s.s.s.g.g.g.g.g.g.g.e.e.s.M.%.: ",
"G.M.g.g.g.g.s.s.g.g.g.g.g.g.g.g.g.g.g.g.g.g.g.g.g.g.g.g.g.g.g.g.g.g.g.g.g.g.s.s.s.s.g.g.g.g.g.g.g.g.g.g.g.g.s.s.g.g.g.g.g.g.g.g.g.g.g.g.g.g.g.g.g.g.s.g.g.s.g.V <.G.s.g.g.g.s.g.g.g.g.g.g.g.s.s.g.g.g.g.g.g.g.g.g.g.g.g.g.g.g.s.g.g.g.g.g.g.g.g.s.s.s.g.g.g.g.g.g.g.g.g.g.g.s.s.g.g.g.g.g.g.g.g.g.g.g.g.g.g.s.s.s.g.g.g.M.s.s.v %.g.s.s.g.s.g.g.g.g.g.g.g.g.g.g.g.g.g.g.g.g.g.g.g.g.g.g.g.g.g.g.g.g.g.g.g.g.g.g.g.g.g.g.g.g.g.g.g.g.g.g.g.g.g.g.s.s.g.g.g.g.g.g.g.g.g.g.g.g.g.g.g.s.M.s.g.g.g.v s.M.e.s.g.e.e.e.e.e.e.s.s.s.s.s.s.s.s.s.s.s.s.s.e.s.e.s.s.e.e.e.s.s.s.s.s.e.e.e.s.s.s.s.s.s.s.s.s.s.s.s.s.s.s.s.e.e.e.s.s.s.s.s.s.s.s.s.s.s.s.s.s.s.e.s.s.g.<.v Z.M.g.g.s.g.g.g.s.g.g.g.g.g.g.g.M.g.g.g.g.s.s.s.g.g.g.g.g.g.g.g.g.g.g.g.g.g.g.g.g.g.g.s.s.g.g.g.g.g.g.g.g.g.g.g.g.g.g.g.g.g.g.g.g.g.g.g.g.g.g.g.s.g.g.g.g.M.e.V G.M.g.g.g.g.s.g.g.g.g.g.g.g.g.g.g.g.g.g.g.g.g.g.g.g.g.g.g.g.g.g.g.g.g.g.g.g.g.g.g.g.g.g.g.g.g.g.g.g.g.g.g.g.g.g.s.s.s.s.s.s.s.s.g.g.g.g.g.g.g.g.g.s.M.g.s.M.<.S Z.g.s.s.g.g.g.g.g.g.g.g.g.g.g.g.g.g.g.g.g.g.g.g.g.g.g.g.g.g.g.g.g.g.g.g.g.g.g.g.g.g.g.g.s.g.g.g.g.g.g.g.g.g.g.g.s.s.s.g.g.g.g.g.g.g.g.g.g.g.g.g.g.s.g.g.g.g.:.J G.g.s.g.g.g.M.g.g.g.g.g.g.g.g.g.g.g.g.g.g.g.g.g.g.g.g.g.g.g.g.g.g.g.g.g.s.s.s.s.g.g.g.g.g.g.g.g.g.g.g.g.g.g.g.g.g.g.g.g.g.g.g.g.g.g.g.g.g.g.g.g.g.g.s.g.s.M.:.: ",
"G.M.g.g.g.g.s.s.g.g.g.g.g.g.g.g.g.g.g.g.g.g.g.g.g.g.g.g.g.g.g.g.g.g.g.g.g.g.s.s.s.g.g.g.g.g.s.s.s.g.g.g.g.g.s.s.g.g.g.g.g.g.g.g.g.g.g.g.g.g.g.g.g.g.s.g.g.s.g.V <.G.s.g.g.g.s.g.g.g.g.g.s.s.s.s.g.g.g.g.g.g.g.g.g.g.g.g.g.g.s.s.g.g.g.g.g.g.g.g.s.s.s.g.g.g.g.g.g.g.g.g.g.g.s.s.s.g.g.g.g.g.g.g.g.g.g.g.g.g.s.s.s.g.g.g.M.s.s.v %.g.s.s.g.s.g.g.g.g.s.s.g.g.g.g.g.g.g.g.g.g.g.g.g.g.g.g.g.g.g.g.g.g.g.g.g.g.g.g.g.g.g.g.g.g.g.g.g.g.g.g.g.g.g.g.s.s.s.g.g.g.g.g.g.g.g.g.g.g.g.g.g.s.M.s.s.g.g.v s.M.e.s.s.e.e.s.e.e.s.s.s.s.s.s.s.s.s.s.s.s.s.s.s.s.s.s.s.s.s.s.s.s.s.s.s.e.e.e.s.s.s.s.s.s.s.s.s.s.s.s.s.s.s.s.e.e.e.s.s.s.s.s.s.s.s.s.s.s.s.s.s.s.e.s.s.g.<.v Z.M.g.g.g.g.g.g.g.g.g.g.g.g.g.g.g.g.g.g.g.g.g.g.g.g.g.g.g.g.g.g.g.g.g.g.g.g.g.g.g.g.g.s.s.g.g.g.g.g.g.g.g.g.g.g.s.g.g.g.g.g.g.g.g.g.g.g.g.g.g.g.g.g.g.g.g.M.e.V Z.M.s.g.g.g.s.g.g.g.g.g.g.g.g.g.g.g.g.g.g.g.g.g.g.g.g.g.g.g.g.g.g.g.g.g.g.g.g.g.g.g.g.g.g.g.g.g.g.g.g.g.g.g.g.g.s.s.s.s.s.s.s.s.g.g.g.g.g.g.g.g.g.s.M.g.s.M.<.V Z.g.s.s.g.g.g.g.g.g.g.g.g.g.g.g.g.g.g.g.g.g.g.g.g.g.g.g.g.g.g.g.g.g.g.g.g.g.g.g.g.g.g.g.g.g.g.g.g.g.g.g.g.g.g.g.s.s.g.g.g.g.g.g.g.g.g.g.g.g.g.g.g.s.g.g.g.g.:.J G.g.g.g.g.g.M.g.g.g.g.g.g.g.g.g.g.g.g.g.g.g.g.g.g.g.g.g.g.g.g.g.g.g.g.g.s.s.s.s.g.g.g.g.g.g.g.g.g.g.g.g.g.g.g.g.g.g.g.g.g.g.g.g.g.g.g.g.g.g.g.g.g.g.s.g.s.M.:.: ",
"J.M.g.g.g.g.s.s.g.g.g.g.g.g.g.g.g.g.g.g.s.g.g.g.g.g.g.g.g.g.g.g.g.g.g.g.g.g.s.s.g.g.g.g.s.s.s.s.s.s.g.g.s.s.s.s.g.g.g.g.g.g.g.g.g.g.g.g.g.g.g.g.g.s.s.s.g.e.g.v <.G.s.g.g.g.s.g.s.s.s.s.s.s.s.s.g.g.g.g.g.g.g.g.g.g.g.g.s.s.s.s.g.g.g.g.g.g.g.g.s.s.g.g.g.g.g.s.g.g.g.g.g.g.s.s.s.g.g.g.g.g.g.g.g.g.g.g.g.g.s.s.s.g.s.s.M.e.s.V %.g.s.s.g.s.g.g.g.s.s.s.g.g.g.g.g.g.g.g.g.g.g.g.g.g.g.g.g.g.g.g.g.g.g.g.g.g.g.g.g.g.g.g.g.g.g.g.g.g.s.s.s.g.g.g.s.s.g.g.g.g.g.g.s.g.g.g.g.g.g.g.s.s.M.s.g.g.g.V s.M.e.s.s.e.s.s.s.s.s.s.s.s.s.s.s.s.s.s.s.s.s.s.s.s.s.s.s.s.s.s.s.s.s.s.s.e.e.e.s.s.s.s.s.s.s.s.s.s.s.s.s.s.s.s.e.e.s.s.s.s.s.s.s.s.s.s.s.s.s.s.e.s.e.s.e.s.<.v Z.M.g.g.g.g.g.g.g.g.g.g.g.g.g.s.g.g.g.g.g.g.g.g.g.g.g.g.g.s.s.s.g.g.g.g.g.g.g.g.g.g.g.s.s.g.g.g.g.g.g.g.g.g.g.g.s.g.g.g.g.g.g.g.g.g.g.g.g.g.g.g.g.g.s.g.g.M.e.V Z.g.s.s.g.g.s.g.g.g.g.g.g.g.g.g.g.g.g.g.g.g.g.g.g.g.g.g.g.g.g.g.g.g.g.g.g.g.g.g.g.g.g.g.g.g.g.g.g.g.g.g.g.g.g.g.g.g.g.g.g.g.g.g.g.g.g.g.g.g.g.g.g.s.g.g.s.M.:.V Z.g.s.s.g.g.g.g.g.g.g.g.g.g.g.g.g.g.g.g.g.g.g.g.g.g.g.g.g.g.g.g.g.g.g.g.g.g.g.g.g.g.g.g.g.g.g.s.g.g.g.g.g.g.g.g.g.g.g.g.g.g.g.g.g.g.g.g.g.g.g.g.g.s.g.g.g.g.%.J G.g.g.g.s.g.g.s.g.g.g.g.g.g.g.g.g.g.g.g.g.g.g.g.g.g.g.g.g.g.g.g.g.g.g.s.s.g.g.g.g.g.g.g.g.g.g.g.g.g.g.g.g.g.g.g.g.s.g.g.g.g.g.g.g.g.g.g.g.g.g.g.g.g.g.g.s.M.:.: ",
"J.M.g.g.g.g.s.g.g.g.g.g.g.g.g.g.g.g.s.s.s.g.g.g.g.g.g.g.g.g.g.g.g.g.g.g.g.g.s.s.g.g.g.s.s.s.s.s.s.s.s.s.s.s.s.s.s.s.s.s.s.s.s.s.g.g.g.g.g.g.g.g.g.s.s.s.g.e.g.v <.G.s.g.g.g.s.g.s.s.s.s.s.s.s.g.g.g.g.g.g.g.g.s.s.s.s.s.s.s.s.s.g.g.g.g.g.g.g.g.g.g.g.g.g.s.s.s.g.g.g.g.g.g.s.s.s.s.g.g.g.g.g.g.g.g.g.g.g.g.s.s.s.g.s.s.g.e.g.V %.g.s.s.g.s.g.s.s.s.s.s.s.g.g.g.g.g.g.g.g.g.g.g.g.g.g.g.g.g.g.g.g.g.g.g.g.g.g.g.g.g.g.g.g.g.g.g.g.g.s.s.s.s.s.s.s.s.s.s.s.g.g.g.s.s.s.s.s.s.s.s.g.s.M.s.g.g.g.V e.M.e.e.g.e.s.s.s.s.s.s.s.s.s.s.s.s.s.s.s.s.s.s.s.s.s.s.s.s.s.s.s.s.s.s.s.s.e.e.s.s.s.s.s.s.s.s.e.e.e.e.e.e.e.e.s.s.s.s.s.s.s.s.s.s.s.s.s.s.e.e.e.s.e.s.s.s.<.v M.M.g.g.g.g.g.g.g.g.g.g.g.g.s.s.g.g.s.s.g.g.g.g.g.g.g.g.s.s.s.s.s.s.s.s.s.s.g.g.g.g.g.s.s.g.g.g.g.g.g.g.g.g.g.g.s.s.g.g.g.g.g.g.g.g.g.g.g.g.g.g.g.g.s.g.s.g.e.V Z.g.s.s.g.s.s.g.g.g.g.g.g.g.g.g.g.g.g.g.g.g.g.g.g.g.g.g.g.g.g.g.g.g.g.g.g.g.g.g.s.s.s.s.s.s.s.s.g.g.g.g.g.g.g.g.g.g.g.g.g.g.g.g.g.g.g.g.g.g.g.g.g.s.g.s.e.g.:.V Z.g.s.s.g.g.g.g.g.g.g.g.g.g.g.g.g.g.g.g.s.g.g.g.g.g.g.g.g.g.g.g.g.g.g.g.g.g.g.g.g.g.g.g.g.g.s.s.g.g.g.g.g.g.g.g.g.g.g.g.g.g.g.g.g.g.g.g.g.g.g.g.g.g.g.g.g.g.%.S J.g.g.g.s.g.g.s.g.g.g.g.g.g.g.g.g.s.g.s.g.g.g.g.g.g.g.g.g.g.g.g.g.g.s.s.s.g.g.g.s.g.g.g.g.g.g.g.g.g.g.g.g.g.g.g.s.g.g.g.g.g.g.g.s.g.g.g.g.g.g.g.g.g.s.g.s.M.:.: ",
"J.Z.g.s.g.g.s.g.g.g.g.g.g.g.g.g.g.s.s.s.s.s.g.g.g.g.g.g.g.g.g.g.g.g.g.g.g.g.s.s.g.g.s.s.s.s.s.s.s.s.s.s.s.s.s.s.s.s.g.g.s.s.s.s.g.g.g.g.g.g.g.g.g.s.s.s.g.e.g.v <.G.s.g.s.g.s.g.s.s.s.s.s.s.g.g.g.g.g.g.g.s.s.s.s.s.s.s.s.s.s.s.g.g.g.g.g.g.g.g.g.g.g.g.s.s.s.s.g.g.g.g.g.g.s.s.s.s.g.g.g.g.g.g.g.g.g.g.g.g.s.s.g.g.s.e.g.e.g.S :.g.s.s.g.s.g.s.s.s.s.s.s.g.g.g.g.g.g.g.g.g.g.g.g.g.g.g.g.g.g.g.g.g.g.g.g.g.g.g.g.g.g.g.g.g.g.g.g.s.s.s.s.s.s.s.s.s.s.s.s.s.s.s.s.s.s.s.s.s.s.s.g.s.M.s.g.g.g.V s.M.e.s.g.e.s.s.s.s.s.s.e.e.e.e.s.s.s.s.s.s.e.e.e.e.s.s.s.s.e.e.s.s.s.s.s.s.s.s.s.s.s.s.s.s.s.s.e.e.e.e.e.e.e.e.s.s.s.s.s.s.s.s.s.s.s.s.s.s.e.e.e.s.e.s.s.g.<.v M.M.g.s.s.g.g.g.g.g.g.g.g.s.s.s.s.s.s.s.s.g.g.g.g.g.s.s.s.s.e.e.s.s.s.s.s.s.s.s.g.g.g.s.s.g.g.g.g.g.g.g.g.g.s.s.s.s.g.g.g.g.g.g.g.g.g.g.g.g.g.g.g.g.s.g.s.g.<.V Z.g.s.s.g.s.s.g.g.g.g.g.g.g.g.g.g.g.g.s.s.g.g.g.g.g.g.g.g.g.g.g.g.g.g.g.g.g.g.g.s.s.g.g.s.s.s.s.g.g.g.g.g.g.g.g.g.g.g.g.g.g.g.g.g.g.g.g.g.g.g.g.g.s.g.s.e.g.:.V Z.g.s.g.g.g.s.g.g.g.g.g.g.g.g.g.g.g.s.s.s.g.g.g.g.g.g.g.g.g.g.g.g.g.g.s.s.g.g.g.s.g.g.g.g.g.s.s.g.g.g.g.g.g.g.g.g.g.g.g.g.g.g.g.g.g.g.g.g.g.g.g.g.s.g.g.g.g.%.S G.g.s.g.s.s.g.s.g.g.g.s.s.g.g.g.g.s.s.s.g.g.g.g.g.g.g.g.g.g.g.g.g.g.s.s.s.g.g.g.s.s.s.g.g.g.g.g.s.g.g.g.g.g.g.s.s.s.s.g.g.g.g.g.s.s.s.g.g.g.g.g.g.g.g.g.s.M.:.: ",
"J.Z.g.s.g.g.g.g.g.g.g.g.g.g.g.g.s.s.s.s.s.s.g.g.g.g.g.g.g.g.g.g.g.g.g.g.g.g.s.s.s.s.s.s.s.s.s.s.g.g.s.s.s.s.s.s.s.s.s.s.s.s.s.s.g.g.g.g.g.g.g.g.g.s.s.s.g.e.g.v <.G.s.g.s.g.s.g.g.s.s.s.s.g.g.g.g.g.g.g.s.s.s.s.s.s.s.s.s.s.g.g.g.g.g.g.g.g.g.g.s.s.g.g.s.s.s.s.g.g.g.g.g.g.s.s.s.s.s.g.g.g.g.g.g.g.g.g.g.g.s.s.g.g.s.e.g.e.g.S :.g.s.s.s.s.g.s.g.s.s.s.g.g.g.g.g.g.g.g.g.g.g.g.g.g.g.g.g.g.g.g.g.g.g.g.g.g.g.g.g.g.g.g.g.g.g.g.s.s.s.s.s.s.s.s.g.g.g.g.g.g.g.g.g.g.s.s.s.s.s.s.g.s.M.s.g.g.g.V s.M.e.s.s.e.s.s.e.e.e.e.e.e.e.e.s.s.s.s.s.e.e.e.e.e.e.s.s.e.e.e.s.s.s.s.s.s.s.s.s.s.s.s.s.s.s.s.s.s.s.s.s.s.s.s.s.s.s.s.s.s.s.s.s.s.s.s.s.s.e.e.e.s.e.s.s.g.<.v M.M.g.s.s.g.g.s.s.g.g.g.g.g.s.s.s.s.s.s.s.g.g.g.s.s.s.s.s.s.s.e.s.s.s.s.s.s.s.s.g.g.g.s.s.g.g.g.g.g.g.g.g.s.s.s.s.s.s.g.g.g.g.g.g.g.g.g.g.g.g.g.g.g.s.g.s.g.e.V Z.g.s.s.g.g.s.g.g.g.g.g.g.g.g.g.g.g.s.s.s.s.g.g.g.g.g.g.g.g.g.g.g.g.g.g.g.g.g.g.s.s.s.s.s.s.s.s.g.g.g.g.g.g.g.g.g.g.g.g.g.g.g.g.g.g.g.g.g.g.g.g.g.s.g.s.e.g.:.V Z.M.s.g.g.s.s.g.g.g.g.g.g.g.g.g.s.s.g.g.s.g.g.g.g.g.g.g.g.g.g.g.g.g.s.s.s.s.g.g.g.g.g.g.g.s.s.s.g.g.g.g.g.g.g.g.g.g.g.g.g.g.g.g.g.g.g.g.s.s.s.s.s.s.g.g.g.g.%.S G.g.s.g.s.s.g.s.g.g.s.s.s.s.g.g.g.s.s.s.g.g.g.s.g.g.g.g.g.g.g.g.g.g.g.s.s.g.g.g.s.s.s.s.g.g.g.g.s.s.g.g.g.g.s.s.s.s.s.s.g.g.g.g.s.s.s.s.g.g.g.g.g.g.g.g.s.M.:.: ",
"J.Z.g.s.g.g.g.g.s.s.s.s.s.s.s.s.s.s.s.g.g.g.g.g.s.s.s.s.s.s.s.s.g.g.g.g.g.g.s.s.s.s.s.g.g.s.s.s.g.g.g.s.s.s.g.g.g.g.g.g.g.g.g.g.s.s.s.s.s.s.s.s.g.g.s.g.g.s.g.V <.G.s.g.s.g.s.g.s.s.g.g.g.g.g.g.g.g.g.s.s.s.s.s.g.s.s.s.s.s.g.g.s.s.s.s.s.s.s.s.s.s.s.s.s.s.s.s.g.g.g.g.g.g.s.s.s.s.s.g.g.g.g.s.g.g.g.g.g.g.s.s.s.g.s.e.g.e.g.S :.M.s.s.s.s.g.s.g.g.s.s.g.g.g.g.s.s.s.s.s.s.s.s.s.s.s.s.s.s.s.s.g.g.g.g.g.g.g.g.g.g.g.g.g.g.g.g.s.s.s.s.s.s.s.s.g.g.g.g.g.g.g.g.g.g.g.g.s.s.s.s.g.s.M.s.g.g.g.V s.M.e.s.s.e.e.e.s.s.s.s.s.s.s.s.e.s.s.s.s.e.e.e.s.s.s.s.s.s.s.e.s.s.s.s.s.s.s.s.s.s.e.e.e.e.e.e.s.s.s.s.s.s.s.s.s.s.s.s.s.e.e.e.e.s.e.s.e.s.s.s.s.s.e.s.s.g.<.v M.M.g.s.s.s.s.s.s.s.s.g.g.g.s.s.s.s.s.s.s.s.g.g.g.s.s.s.s.s.s.s.g.g.g.g.g.g.g.g.g.g.g.s.s.g.g.g.s.g.g.g.g.s.s.s.s.s.s.g.g.g.g.s.g.g.g.g.g.g.g.g.g.g.s.s.s.g.e.V Z.M.s.g.g.g.s.g.s.s.s.s.s.s.s.s.g.g.s.s.s.s.g.g.g.g.g.g.g.g.g.g.s.s.s.s.s.s.s.s.g.g.g.g.g.g.g.g.s.s.s.s.s.s.s.s.g.g.g.g.g.g.g.g.g.g.g.g.g.g.g.g.g.s.g.s.e.g.<.S Z.M.s.g.g.s.s.g.s.s.s.s.s.s.s.s.s.s.s.s.s.g.g.g.g.g.g.g.g.g.g.g.g.g.s.s.s.s.g.g.g.g.g.g.s.s.s.s.g.g.g.g.g.g.g.g.s.s.s.s.s.g.g.g.g.g.g.s.s.s.s.s.s.s.g.g.g.g.%.S G.g.s.g.s.g.g.s.g.g.s.s.s.s.g.g.s.s.s.s.g.g.g.g.g.g.g.g.g.g.g.g.g.g.g.g.s.s.s.s.s.s.s.s.s.g.g.g.s.s.g.g.g.g.s.s.s.s.s.s.s.g.g.g.s.s.s.s.s.g.g.g.g.g.g.g.s.M.:.: ",
"J.Z.g.s.g.g.g.g.s.s.s.s.s.s.s.s.s.s.g.g.g.g.g.g.s.s.s.s.s.s.s.s.g.g.g.g.g.g.s.s.s.s.g.g.g.s.s.e.g.g.g.s.s.s.g.g.g.g.g.g.g.g.g.g.s.s.s.s.s.s.s.s.g.g.s.g.g.s.g.V <.G.s.g.s.g.s.g.s.s.g.g.g.g.s.s.g.g.g.s.s.s.s.s.g.s.s.s.s.s.g.g.s.s.s.s.s.s.s.s.s.s.s.s.s.s.s.s.g.g.g.g.g.g.s.s.s.s.s.g.g.g.s.s.g.g.g.g.g.g.s.s.s.g.s.s.g.e.g.S :.M.s.s.s.s.g.s.g.g.g.g.g.g.g.g.s.s.s.s.s.s.s.s.s.s.s.s.s.s.s.s.g.g.g.g.g.g.g.g.g.g.g.g.g.g.g.g.s.s.s.s.s.s.s.s.g.g.g.g.g.g.g.g.g.g.g.g.s.s.s.s.g.s.M.s.g.g.g.V s.M.e.s.s.e.s.e.s.s.s.s.s.s.s.s.e.e.s.s.s.e.e.e.s.s.s.s.s.s.s.s.e.s.s.s.s.s.s.s.s.s.e.e.e.e.e.e.s.s.s.s.s.s.s.s.s.s.s.s.s.e.e.s.e.e.e.e.e.s.s.s.s.s.e.s.s.g.<.v M.M.g.s.s.s.s.s.s.s.s.g.g.g.g.g.g.s.s.s.s.s.s.g.g.g.s.s.g.g.g.g.g.g.g.g.g.g.g.g.g.g.g.s.s.g.g.g.s.s.g.g.g.s.s.s.s.s.s.g.g.g.s.s.g.g.g.g.g.g.g.g.g.g.s.s.s.g.e.V G.M.g.g.g.g.s.g.s.s.s.s.s.s.s.s.g.s.s.s.s.g.g.g.g.g.g.g.g.g.g.g.s.s.s.s.s.s.s.s.g.g.g.g.g.g.g.g.s.s.s.s.s.s.s.s.g.g.g.g.g.g.g.g.g.g.g.g.g.g.g.g.g.s.g.s.e.M.<.S Z.M.s.g.g.s.s.g.s.s.s.s.s.s.s.s.s.s.s.s.s.g.g.g.g.g.g.g.g.g.g.g.g.s.s.s.s.s.s.g.g.g.s.s.s.s.s.g.g.g.g.g.g.g.g.g.s.s.s.s.s.s.g.g.g.g.g.s.s.s.s.s.s.s.s.g.g.g.%.S G.g.s.g.s.g.g.s.g.s.s.s.s.s.s.g.s.s.s.s.g.g.g.g.g.g.g.g.g.g.g.g.g.g.g.g.s.s.s.s.s.s.s.s.s.g.g.g.s.s.s.g.g.s.s.s.s.s.s.s.s.g.g.g.s.s.s.s.s.g.g.g.g.g.g.g.s.M.:.: ",
"J.Z.g.s.g.s.s.s.s.s.s.g.g.g.s.s.s.s.s.s.s.s.s.s.s.s.s.s.s.g.g.g.g.g.g.g.g.g.g.g.s.s.g.g.g.g.s.s.g.g.g.s.s.s.s.s.g.g.g.g.g.g.g.g.s.s.s.g.g.g.s.s.g.s.g.s.g.s.s.V <.G.s.g.g.g.s.g.s.s.s.s.s.g.g.g.s.s.s.s.s.s.s.s.s.s.s.s.s.s.s.s.s.s.s.s.s.s.s.s.s.s.g.g.g.g.s.s.g.g.g.g.g.g.g.g.g.g.g.s.s.s.s.s.s.s.s.s.s.g.g.g.g.e.g.s.g.g.g.V :.g.e.s.g.s.g.s.g.g.g.g.s.s.g.g.g.g.g.g.g.g.g.g.g.g.g.g.g.g.g.g.g.g.s.s.s.s.s.s.g.g.g.s.s.g.g.g.g.g.g.g.g.g.g.g.g.g.g.s.s.s.s.s.g.g.g.g.g.s.s.s.g.s.M.s.g.g.g.V s.g.e.e.s.s.e.s.s.s.s.s.s.s.s.s.e.e.e.e.e.e.e.e.s.s.s.s.s.s.s.s.s.s.s.s.s.s.s.s.e.e.e.e.e.e.s.s.s.s.s.s.s.s.s.e.s.s.s.s.e.e.e.e.e.e.e.s.s.s.s.s.e.s.e.e.e.s.<.v g.g.s.s.s.s.s.s.e.s.s.s.g.g.g.g.s.g.g.g.g.g.g.s.g.g.s.s.s.s.g.g.s.s.s.s.s.s.s.s.s.s.s.s.s.s.s.s.g.g.g.g.g.g.g.g.g.g.g.g.g.g.g.g.s.s.s.s.s.s.s.s.g.s.e.s.e.g.e.V Z.M.s.s.g.g.g.g.s.s.s.s.s.s.s.s.g.g.g.g.g.g.g.g.s.s.g.s.s.s.g.g.s.s.s.s.s.s.s.s.g.g.g.s.s.s.s.g.g.s.s.s.s.s.g.g.g.g.g.g.s.s.s.s.g.g.g.g.g.g.g.g.g.g.s.g.s.g.<.V G.g.g.g.s.g.M.g.s.g.g.g.g.g.g.s.s.s.s.s.s.g.g.g.g.g.g.s.s.s.s.s.g.g.s.s.s.s.g.g.g.g.s.s.s.s.g.g.s.s.s.g.g.g.g.g.g.g.g.s.s.g.g.g.s.s.s.s.s.s.s.s.s.s.s.g.g.g.:.J G.s.s.g.s.s.s.s.s.s.s.s.s.s.s.s.s.s.s.s.s.s.g.g.s.s.g.g.g.g.g.g.s.s.s.s.s.g.g.s.g.g.g.s.s.s.s.s.s.g.g.g.g.g.g.s.g.g.g.g.g.g.g.g.s.s.s.s.s.s.s.s.g.M.s.s.g.M.%.: ",
"J.Z.g.s.g.s.s.g.g.s.s.g.g.g.s.s.s.s.s.s.s.s.s.g.s.s.s.s.s.g.g.g.g.g.g.g.g.g.g.g.s.s.g.g.g.g.s.s.g.g.g.g.s.s.s.s.g.g.g.g.g.g.g.g.s.s.s.g.g.g.g.s.g.s.g.s.g.s.s.v <.G.s.s.s.g.s.s.s.s.s.s.g.g.g.g.g.g.g.g.g.g.g.g.g.g.g.g.g.g.g.g.g.g.g.g.g.g.g.g.s.s.s.g.g.g.s.s.g.g.g.g.g.g.g.g.g.g.g.g.s.s.s.s.s.s.s.s.g.g.g.g.g.e.g.s.g.g.g.V :.g.e.s.g.s.g.s.g.g.g.s.s.s.g.g.g.g.g.g.g.g.g.g.g.g.g.g.g.g.g.s.g.s.s.s.s.s.s.s.g.g.g.s.s.g.g.g.g.g.g.g.g.g.g.g.g.g.s.s.s.s.s.s.g.g.g.s.s.s.s.s.g.s.M.s.g.g.g.V s.g.s.e.s.s.e.s.s.s.s.s.s.s.s.s.e.e.e.e.e.e.e.e.s.s.s.s.s.s.s.s.s.s.s.s.s.s.s.s.e.e.e.e.e.e.s.s.s.s.s.s.s.s.e.e.e.e.e.e.e.e.e.e.e.e.e.s.s.s.e.e.<.e.<.e.<.s.:.v g.g.s.s.s.s.s.s.s.s.s.s.s.s.g.s.s.g.g.g.g.g.g.s.g.g.s.s.s.s.g.g.s.s.s.s.s.s.s.s.s.s.s.s.s.s.s.s.g.g.g.g.g.g.g.g.g.g.g.g.g.g.g.g.s.s.s.s.s.s.s.s.g.g.s.s.e.g.<.V Z.M.s.s.g.s.g.g.s.s.s.s.s.s.s.s.g.g.g.g.g.g.g.g.s.s.g.g.s.s.g.g.s.s.s.s.s.s.s.s.g.g.g.s.s.s.s.g.g.s.s.s.s.s.g.g.g.g.g.g.s.s.s.s.g.g.g.g.g.g.g.g.g.g.s.g.s.g.<.V G.g.s.g.s.s.g.g.s.g.g.g.g.g.g.s.g.g.g.g.g.g.g.g.g.g.g.s.s.s.s.s.g.g.s.s.s.s.g.g.g.g.s.s.s.s.g.g.g.g.g.g.g.g.g.g.g.g.s.s.s.s.g.g.s.s.s.s.s.s.s.s.s.s.s.g.g.g.:.J G.s.s.g.s.s.s.s.s.s.s.s.s.s.g.g.g.g.g.g.g.s.s.s.s.s.g.g.g.g.g.g.s.s.s.s.s.g.s.s.g.g.g.s.s.s.s.s.s.g.g.g.g.g.g.s.g.g.g.g.g.g.g.g.s.s.s.s.g.s.s.s.g.g.s.s.g.M.%.: ",
"J.M.s.s.g.g.g.g.g.g.s.g.g.g.s.e.s.s.s.g.g.g.g.g.s.s.s.s.s.g.g.g.g.g.g.g.g.g.g.g.s.s.g.g.g.g.s.s.g.g.g.g.g.g.g.g.g.g.g.g.g.g.g.g.s.s.s.s.s.s.g.g.g.s.g.s.g.s.s.v :.Z.e.s.s.g.e.s.s.g.g.g.g.g.g.g.g.g.g.g.g.g.g.g.g.g.g.g.g.g.g.g.g.g.g.g.g.g.g.g.s.s.s.g.g.g.s.s.g.g.g.g.g.g.g.g.g.g.g.g.g.g.g.s.s.g.g.g.g.g.g.g.g.e.g.s.g.g.g.S :.g.e.s.g.s.g.s.g.g.g.s.s.s.s.g.g.g.g.g.g.g.g.g.g.g.g.g.g.g.s.s.s.s.s.s.s.s.s.g.g.g.s.s.s.s.g.g.g.g.g.g.g.g.g.g.s.s.s.s.s.s.g.g.g.g.g.s.s.s.s.s.g.s.g.s.g.g.g.V g.g.s.e.s.s.e.s.s.s.s.s.s.s.s.s.s.s.e.e.e.e.s.s.s.s.s.s.s.s.s.s.s.s.s.s.s.s.s.s.s.s.e.e.e.e.s.s.s.s.s.s.s.s.s.s.e.e.e.e.e.e.e.e.s.e.s.s.s.s.s.e.<.<.<.e.<.e.:.p g.s.s.s.s.s.s.s.s.s.s.s.s.s.s.s.s.s.g.g.g.g.s.s.g.g.s.s.s.s.g.g.s.s.s.s.s.s.s.s.s.s.s.s.s.s.s.s.g.g.g.g.g.g.g.g.g.g.g.g.g.g.g.g.s.s.s.s.s.s.s.s.g.g.e.s.e.g.e.V Z.g.s.s.g.s.s.g.s.s.s.s.s.s.s.s.g.g.s.s.g.g.g.g.g.g.g.g.s.s.g.g.g.g.g.g.g.g.g.g.s.g.g.s.s.s.s.g.s.s.s.s.s.s.g.g.g.g.g.g.s.s.s.s.g.g.g.g.g.g.g.g.g.s.s.g.s.g.<.V Z.g.s.g.s.s.g.s.s.s.g.g.g.g.s.s.g.g.g.g.g.g.g.g.s.s.s.s.s.g.g.g.g.g.s.s.s.s.g.g.g.g.s.s.s.s.g.g.g.g.g.g.g.s.s.s.s.s.s.s.s.s.s.s.g.g.g.g.g.g.g.g.s.s.g.g.g.g.%.J G.g.s.g.s.s.g.s.s.s.s.g.g.g.g.g.g.g.g.g.g.s.s.s.s.s.s.s.s.s.s.s.s.s.s.s.g.g.s.s.s.s.s.s.s.g.g.g.g.g.g.s.s.g.g.g.g.g.g.g.g.g.g.g.s.s.s.g.g.g.g.s.s.g.s.s.g.M.%.: ",
"G.M.s.s.s.s.s.g.g.g.s.g.g.s.s.e.g.g.g.g.g.g.g.g.s.s.s.s.s.g.g.g.s.s.s.s.s.s.s.s.s.s.g.g.g.g.s.s.s.s.g.g.g.g.g.g.s.s.s.s.s.s.s.s.g.s.s.s.s.s.g.g.g.e.g.s.g.s.s.v %.Z.e.s.s.g.e.s.g.g.g.g.g.g.g.g.g.g.g.g.g.g.g.g.g.g.g.s.g.g.g.g.g.g.g.g.s.s.g.g.s.s.s.s.s.s.s.s.s.s.s.s.s.s.s.s.g.g.g.g.g.g.g.g.g.g.g.g.g.g.g.g.g.s.g.s.g.g.g.S :.g.e.s.g.s.g.s.g.g.g.s.s.s.s.s.s.s.s.s.s.s.s.s.g.g.g.g.s.s.s.s.s.s.s.s.s.s.s.g.g.g.s.s.s.s.g.g.s.s.s.s.s.s.s.s.s.s.s.s.s.s.g.g.g.g.g.g.g.g.g.g.g.s.g.s.s.g.g.V g.g.s.e.s.s.e.s.s.s.s.s.e.e.e.e.s.e.e.e.e.e.s.s.s.s.s.s.e.e.e.e.s.s.s.s.e.e.e.e.s.e.e.e.s.s.s.s.s.s.s.s.s.s.s.e.s.s.s.s.s.s.s.s.s.s.s.s.s.s.e.e.e.e.e.e.e.s.:.p g.s.s.s.s.s.s.s.e.s.s.s.s.s.s.s.s.s.g.g.g.g.s.s.g.g.s.s.s.s.g.g.s.s.s.s.s.s.s.s.s.s.s.s.s.s.s.s.g.g.g.g.g.g.g.g.s.s.s.s.s.s.s.s.s.s.s.s.s.s.s.s.s.g.s.s.s.g.e.V Z.g.s.s.g.s.s.g.s.s.s.s.s.s.s.s.s.s.s.s.g.g.g.g.g.g.g.g.g.s.s.g.g.g.g.g.g.g.g.g.s.g.g.s.s.s.s.g.s.s.s.s.s.g.g.g.g.g.g.s.s.s.s.s.s.s.s.s.s.s.s.s.g.s.s.g.s.g.<.V Z.s.s.g.s.s.g.s.s.s.g.g.g.g.s.s.g.g.g.g.g.s.s.s.s.s.s.s.s.g.g.g.g.g.s.s.s.s.g.g.g.g.s.s.s.s.g.g.g.g.g.g.s.s.s.s.s.s.s.s.s.s.s.s.g.g.g.g.g.g.g.g.s.s.g.g.g.g.%.J J.g.s.g.g.s.g.s.g.g.g.g.g.g.g.g.g.g.g.g.s.s.s.s.s.s.s.s.s.s.s.s.s.s.s.g.g.g.s.s.s.s.s.s.s.g.g.g.g.g.s.s.s.s.g.g.s.s.s.s.s.s.s.s.s.s.s.g.g.g.g.g.s.g.s.s.g.M.%.: ",
"G.M.s.s.s.s.s.s.g.g.s.g.g.s.s.e.g.g.g.g.g.g.g.g.s.s.s.s.s.g.g.g.s.s.s.s.s.s.s.s.s.s.g.g.g.g.s.s.s.s.s.g.g.g.g.g.s.s.s.s.s.s.s.s.g.s.s.s.s.s.g.g.g.e.g.s.s.s.s.v :.Z.e.s.s.g.s.g.g.g.g.g.s.s.s.s.s.s.s.s.s.s.s.s.g.s.s.s.g.g.g.g.g.g.g.g.g.g.g.g.s.s.s.s.s.s.s.s.s.s.s.s.s.s.s.s.g.g.g.g.g.g.g.g.s.s.g.g.g.g.g.g.g.e.g.s.g.g.g.S :.g.e.s.g.s.g.s.g.g.s.s.s.s.s.s.s.s.s.s.s.s.s.s.g.g.g.s.s.s.s.s.e.s.s.s.s.s.s.s.g.s.s.s.s.s.s.g.s.s.s.s.s.s.s.s.s.s.s.s.s.s.g.g.s.s.s.s.g.g.g.g.g.s.g.s.s.g.g.v g.g.s.e.s.s.e.s.s.s.e.s.e.s.s.s.s.e.e.e.e.e.s.s.s.s.s.s.e.e.e.e.e.e.s.s.s.s.s.s.s.s.e.e.e.e.s.s.s.s.s.s.s.s.e.e.s.s.s.s.s.s.s.e.s.s.s.s.s.s.e.e.s.s.e.e.e.s.:.v g.s.s.s.s.s.s.s.e.e.s.s.s.s.s.s.s.s.s.g.s.s.s.s.g.g.s.s.s.s.g.g.s.s.s.s.s.s.s.s.s.s.s.s.s.s.s.s.g.g.g.g.g.s.s.s.s.s.s.s.s.s.s.s.s.s.s.s.s.s.s.s.s.g.s.s.s.g.e.V Z.g.s.s.s.s.s.g.s.s.s.s.s.s.s.s.s.s.s.s.s.g.g.g.g.g.g.g.s.s.s.g.g.g.g.g.g.g.g.g.s.s.s.s.s.s.s.s.s.s.s.s.g.g.g.g.g.g.s.s.s.s.s.s.s.s.s.s.s.s.s.s.s.s.e.g.s.g.<.V Z.s.s.s.s.s.g.s.s.s.s.g.s.s.s.s.g.s.s.s.s.s.s.s.s.s.s.s.s.g.g.g.g.g.s.s.s.s.g.s.g.g.s.s.s.s.g.g.g.g.g.s.s.s.s.s.g.g.g.g.g.g.g.g.g.g.g.g.g.g.g.g.g.s.g.g.g.g.%.S J.g.s.g.g.s.g.s.g.g.g.g.g.g.g.g.g.g.s.s.s.s.s.s.s.s.s.s.s.s.s.s.s.s.s.s.g.g.s.s.s.s.s.s.s.g.g.g.g.g.s.s.s.s.g.g.s.s.s.s.s.s.s.s.s.s.s.g.g.g.g.g.s.g.e.s.g.M.%.: ",
"G.M.s.e.s.s.s.s.s.s.s.s.g.s.s.e.s.s.s.g.g.g.g.g.s.s.s.s.s.g.g.g.s.s.s.s.s.s.s.s.s.s.g.g.g.g.s.s.s.s.s.s.s.s.g.g.s.s.s.s.s.s.s.s.s.s.s.s.s.s.g.g.g.e.g.s.s.s.s.v :.G.e.s.s.g.s.g.g.g.g.s.s.s.s.s.s.s.s.s.s.s.s.s.s.s.s.s.s.s.s.s.s.s.s.s.s.s.s.s.s.s.s.s.s.s.s.s.s.s.s.s.s.s.s.s.s.s.s.s.s.g.g.g.g.s.s.s.s.s.s.s.g.e.g.s.g.g.g.V :.g.e.s.g.s.g.s.g.g.s.s.s.s.s.s.s.s.s.s.s.s.s.s.g.g.g.s.s.s.s.s.s.s.s.s.s.s.s.s.s.s.s.s.s.s.s.s.s.s.s.s.s.s.s.s.s.s.s.s.s.s.s.s.s.s.s.s.s.s.s.s.s.e.g.s.s.g.g.v g.g.s.e.s.s.e.s.e.e.e.s.e.s.s.e.s.s.e.e.e.e.s.s.s.s.s.s.e.e.e.e.e.e.s.s.s.s.s.s.s.s.e.e.e.e.s.s.e.e.e.e.s.e.e.e.e.e.e.e.e.e.e.e.e.e.s.s.s.s.s.e.s.s.e.s.e.s.:.v g.g.s.s.s.s.s.s.e.e.s.s.s.g.g.g.s.s.s.s.s.s.s.s.g.g.s.s.s.s.g.g.s.s.s.s.s.s.s.s.s.s.s.s.s.s.s.s.g.g.g.g.g.s.s.s.s.s.s.s.s.s.s.s.s.s.s.s.s.s.s.s.s.g.s.s.s.g.e.V Z.g.s.s.s.s.s.g.s.s.s.s.s.s.s.s.s.s.s.s.s.g.g.g.s.g.g.g.s.s.s.g.g.g.g.g.g.g.g.g.s.s.s.s.s.s.s.s.s.s.s.g.g.g.g.s.s.s.s.s.s.s.s.s.s.s.s.s.s.s.s.s.s.s.e.g.s.g.<.V Z.s.s.g.s.s.g.s.s.s.s.s.s.s.s.s.s.s.s.s.s.s.s.s.s.s.s.s.s.g.g.g.g.g.s.s.s.s.g.s.g.g.s.s.s.s.g.g.s.s.s.s.s.s.s.s.g.g.g.g.g.g.g.g.g.g.g.g.g.g.g.g.g.s.g.g.g.g.%.S G.g.s.g.s.s.g.s.g.g.g.g.g.s.s.s.s.s.s.s.s.s.s.s.s.s.s.s.s.s.s.s.s.s.s.s.g.s.s.s.s.s.s.s.s.g.g.g.s.s.s.s.s.s.s.s.s.s.s.s.s.s.s.s.s.s.s.s.s.g.g.g.s.g.e.s.s.M.%.: ",
"G.M.s.s.s.s.s.s.s.s.s.s.s.s.s.e.s.s.s.s.s.s.s.g.s.s.s.s.s.g.g.g.s.s.s.s.s.s.s.s.s.s.g.g.g.g.s.s.s.s.s.s.s.s.s.s.s.s.s.s.s.s.s.s.s.s.s.g.g.g.g.s.g.e.g.s.s.s.s.v <.G.s.g.s.g.s.g.s.s.s.s.s.s.s.s.s.s.s.s.s.s.s.s.s.s.s.s.s.s.s.s.s.s.s.s.s.s.s.s.s.s.s.s.s.s.s.g.s.s.s.s.s.s.s.s.s.s.s.s.s.s.s.s.s.s.s.s.s.s.s.s.g.e.s.s.s.s.s.V :.g.e.s.g.s.g.s.g.s.s.s.s.s.s.s.s.s.s.s.s.s.s.s.g.g.s.s.s.s.s.s.s.s.s.g.g.g.s.s.s.s.s.s.s.s.s.s.s.s.s.s.s.s.s.s.s.s.s.s.s.s.s.s.e.e.e.e.s.s.s.s.g.s.g.s.s.g.s.v s.g.e.e.s.e.e.s.e.e.s.s.s.s.e.e.s.s.e.e.e.e.e.e.s.s.s.s.e.e.e.e.e.e.e.e.s.s.s.s.s.s.s.e.e.s.s.s.e.e.e.e.e.e.e.e.e.e.e.e.e.e.e.e.e.e.e.s.s.s.s.s.s.s.e.s.e.s.<.v g.g.s.s.s.s.s.s.s.s.s.s.g.g.g.g.s.s.s.s.s.s.s.s.g.g.s.s.s.s.g.g.s.s.s.s.s.s.s.s.s.s.s.s.s.s.s.s.g.g.g.g.g.g.g.s.s.s.s.s.s.s.s.s.s.s.s.s.s.s.s.s.s.s.s.s.s.g.e.V Z.g.s.s.s.s.s.g.s.s.s.s.s.s.s.s.s.s.s.s.s.s.g.g.s.s.s.s.s.s.s.s.s.s.s.s.s.s.s.s.s.s.s.s.s.s.s.s.s.s.s.g.g.g.s.s.s.s.s.s.s.s.g.g.s.s.s.s.s.s.s.s.s.s.e.g.s.g.<.V Z.g.s.g.s.s.g.s.s.s.s.s.s.s.s.s.s.s.s.s.s.s.s.s.g.g.g.s.s.s.s.s.g.g.s.s.s.s.g.g.g.g.s.s.s.s.g.g.s.s.s.s.s.s.s.s.s.s.g.g.g.g.s.s.s.s.s.s.s.s.s.s.g.s.g.g.g.g.%.S G.s.s.g.s.s.s.s.g.g.s.s.s.s.s.s.s.s.s.s.s.s.s.s.s.s.s.s.s.s.s.s.s.s.s.s.s.s.s.s.g.g.g.s.s.s.s.s.s.s.s.s.s.s.s.s.s.s.s.s.s.s.s.s.e.e.s.s.s.s.s.s.s.g.s.s.s.M.%.: ",
"J.Z.s.s.s.s.s.s.s.s.s.s.s.s.s.e.s.s.s.s.s.s.s.s.s.s.s.s.s.g.g.g.s.s.s.s.s.s.s.s.s.s.g.g.g.g.s.s.s.s.s.s.s.s.s.s.s.s.s.s.s.s.s.s.s.s.s.g.g.g.s.s.g.e.g.s.s.s.s.v <.G.s.s.s.g.e.s.s.s.s.s.s.s.e.s.e.e.s.s.s.s.s.s.s.s.s.s.s.s.s.s.s.s.s.s.s.s.s.s.s.s.s.s.s.s.s.g.s.s.s.s.s.s.s.s.s.s.s.s.s.s.s.s.s.s.s.s.s.s.s.s.s.e.s.s.s.s.s.V :.g.e.s.g.s.g.s.g.s.s.s.s.s.s.s.s.s.s.s.s.s.s.s.g.g.s.s.s.s.s.s.s.s.g.g.g.g.s.s.s.s.s.s.s.s.s.s.s.s.s.s.s.s.s.s.s.s.s.s.s.s.s.s.s.s.e.s.s.s.s.s.s.s.g.s.s.g.s.v s.g.e.<.s.e.<.e.e.e.e.e.e.e.e.e.s.s.e.e.e.e.e.e.s.s.s.s.e.e.e.e.e.e.e.e.e.e.e.e.s.s.e.e.e.e.s.s.e.e.e.e.e.e.e.e.s.s.s.s.e.e.e.e.e.e.e.s.s.s.s.s.e.s.e.s.e.g.e.V g.g.g.s.s.g.g.s.s.s.g.g.g.g.s.s.s.s.s.s.s.s.s.s.g.g.s.s.s.s.g.g.s.s.s.s.s.s.s.s.s.s.s.s.s.s.s.s.g.g.g.g.g.g.g.g.s.s.s.s.s.s.s.s.s.s.s.s.s.s.s.s.s.s.s.g.s.g.<.V Z.g.s.s.s.s.s.g.s.s.s.s.s.s.s.s.s.s.s.s.s.s.g.g.e.s.s.s.s.s.s.s.s.s.s.s.s.s.s.s.s.s.s.s.e.s.s.s.s.s.s.g.g.g.s.s.s.s.s.s.s.g.g.g.s.s.s.s.s.s.s.s.s.s.e.g.s.g.<.V G.g.s.g.s.s.g.s.s.s.s.s.s.s.s.s.s.s.s.s.s.g.g.g.g.g.g.s.s.s.s.s.g.g.s.s.s.s.g.g.g.g.s.s.s.s.g.g.s.s.s.s.s.s.s.g.s.s.s.g.g.s.s.s.s.s.s.s.s.s.s.s.g.s.g.g.g.g.%.S G.s.s.g.s.s.s.s.s.s.s.s.s.s.s.s.e.e.e.e.s.s.s.s.s.s.s.s.s.s.s.s.s.s.s.s.s.s.g.s.g.g.g.s.s.s.s.s.s.s.s.g.g.s.s.s.s.s.s.s.s.s.s.s.e.e.e.s.s.s.s.s.s.g.s.s.s.M.%.: ",
"G.g.e.s.g.s.e.e.s.s.s.s.s.s.s.s.s.s.s.s.s.s.s.s.g.g.s.s.s.s.s.s.s.s.g.g.g.g.s.s.s.s.s.s.s.s.s.s.g.g.g.s.s.s.s.s.s.s.g.g.g.s.s.s.s.s.s.s.s.s.s.s.s.e.g.s.g.s.s.v <.G.s.M.s.g.g.s.s.s.s.s.s.s.s.s.s.s.s.s.s.s.s.s.s.s.s.s.s.s.s.s.s.s.s.s.s.s.s.s.s.s.s.s.s.s.s.s.s.s.s.s.s.s.s.s.s.s.g.g.g.g.s.s.s.s.s.s.s.s.s.s.s.e.g.s.g.g.g.S :.g.s.s.g.s.g.s.s.s.s.s.s.s.s.s.s.s.s.s.s.s.s.s.s.s.s.s.s.s.s.s.s.s.s.s.s.s.s.s.g.g.s.s.s.s.g.g.s.s.s.s.s.s.s.s.s.s.s.s.s.s.s.g.s.s.s.s.s.s.s.s.g.e.g.s.s.s.s.v g.s.s.s.e.e.e.e.e.s.s.s.s.s.s.s.e.e.e.e.s.s.s.s.e.e.s.s.s.s.s.s.s.s.s.s.s.s.e.e.e.e.s.s.e.e.e.e.s.s.s.s.e.e.e.s.e.s.e.e.e.e.s.s.e.e.e.e.s.s.e.s.e.e.s.e.s.s.e.v M.g.g.s.g.g.g.g.s.s.s.s.s.s.s.s.s.s.s.s.s.s.s.s.s.s.s.s.s.s.s.s.s.s.s.s.s.s.s.s.g.g.s.s.s.s.s.s.s.s.s.s.s.s.s.g.s.s.s.s.s.s.g.g.s.s.g.g.g.s.s.s.s.g.s.g.s.g.<.v M.g.s.g.g.s.s.g.s.s.s.s.s.s.g.g.e.e.s.s.s.s.s.s.s.s.s.s.s.s.s.s.e.e.s.s.g.g.s.s.g.g.s.s.s.s.g.g.g.g.g.g.g.g.g.g.s.s.s.s.s.s.s.s.s.s.s.s.s.s.s.s.s.s.e.g.s.g.e.S G.s.s.g.s.s.s.s.s.s.s.s.s.s.s.s.s.s.s.s.s.s.s.s.s.s.s.s.s.s.s.s.g.g.g.g.s.s.s.s.g.s.s.s.s.s.s.s.s.s.s.s.s.s.s.s.s.s.s.s.s.s.s.s.s.s.s.s.s.s.s.g.g.s.g.s.s.s...V G.g.s.s.s.s.g.s.s.s.s.s.s.s.s.s.g.g.s.s.s.s.s.s.s.s.s.s.s.s.s.s.g.g.s.s.s.s.s.s.s.s.s.s.s.s.s.s.s.s.s.s.s.s.s.s.s.s.s.s.s.s.s.s.s.s.s.g.g.s.s.s.s.g.s.s.s.g...: ",
"J.M.e.s.g.s.e.s.s.s.s.s.s.s.s.s.s.s.s.s.s.s.s.s.s.s.s.s.s.s.s.s.s.s.g.g.g.g.s.s.s.s.s.s.s.s.s.s.g.s.s.s.s.s.s.s.s.s.g.g.s.s.s.s.s.s.s.s.s.s.s.s.g.e.g.s.s.s.s.v <.Z.s.g.s.g.s.s.s.s.s.s.s.s.s.s.s.s.s.s.s.s.s.s.s.s.s.s.s.s.s.s.s.s.s.s.s.s.s.s.s.s.s.s.s.s.s.s.s.s.s.s.s.s.s.s.s.s.s.s.s.s.s.s.s.s.s.s.s.s.s.s.g.e.g.s.g.g.g.S :.g.s.s.g.s.s.s.s.s.s.s.s.s.s.s.s.s.s.s.s.s.s.s.s.s.s.s.s.s.s.s.s.s.s.s.s.s.s.s.g.g.s.s.s.s.g.g.s.s.s.s.s.s.s.s.s.s.s.s.s.s.s.s.s.s.s.s.s.s.s.s.g.e.g.s.s.s.s.v g.s.s.s.e.e.e.e.e.s.s.s.e.e.e.e.s.e.e.e.s.s.s.s.e.e.s.e.s.s.s.s.s.s.s.s.e.e.e.e.e.e.s.s.s.e.e.e.s.s.s.s.e.e.e.s.s.s.e.e.e.e.s.s.e.e.e.s.e.e.e.e.e.e.s.e.s.s.e.v M.g.g.s.g.g.s.s.s.s.s.s.s.s.s.s.s.s.s.s.s.s.s.s.s.s.s.s.s.s.s.s.s.s.s.s.s.s.s.s.g.s.s.s.s.s.s.s.s.s.s.s.s.s.s.s.s.s.s.s.s.s.g.g.s.s.s.g.g.g.g.g.s.g.s.g.s.g.<.v M.g.s.g.g.s.s.g.s.s.s.s.s.s.s.s.e.e.s.s.s.s.s.s.s.s.s.s.s.s.s.s.e.e.s.s.g.g.s.s.g.s.s.s.s.s.s.g.s.s.s.s.s.s.s.s.g.g.g.g.g.g.g.g.s.s.s.s.s.s.s.s.s.s.s.g.s.s.<.S G.s.s.g.s.s.s.s.s.s.s.s.s.s.s.e.s.s.s.s.s.s.s.s.s.s.s.s.s.s.s.s.g.s.s.s.s.s.s.s.s.s.s.s.s.s.s.s.s.s.s.s.s.s.s.s.s.s.s.s.s.s.s.s.s.s.s.s.s.s.s.s.g.s.s.s.s.s...S G.g.s.s.s.s.g.s.s.s.s.s.s.s.s.s.g.s.s.s.s.s.s.s.s.s.s.s.s.s.s.s.g.s.s.s.s.s.s.s.s.s.s.s.s.s.s.s.s.s.s.s.s.s.s.s.s.s.s.s.s.s.s.s.s.s.s.s.g.s.s.s.s.g.s.s.s.g...: ",
"I.M.s.s.s.s.s.s.s.s.s.s.s.s.s.s.s.s.s.s.s.s.s.s.s.s.s.s.s.s.s.s.s.s.s.s.g.s.s.s.s.s.s.s.s.s.s.s.s.s.s.s.s.s.s.s.s.s.s.s.s.s.s.s.s.s.s.s.s.s.s.s.g.e.g.s.s.s.s.v :.M.e.s.e.s.s.s.s.s.s.s.s.s.s.s.s.s.s.s.s.s.s.s.s.s.s.s.s.s.s.s.g.s.s.s.s.s.s.s.s.s.s.s.s.s.s.s.s.s.s.s.s.s.s.s.s.s.s.s.s.s.s.s.s.s.s.s.s.s.s.s.g.e.g.s.g.s.g.V :.g.e.s.g.e.s.s.s.s.s.s.s.s.s.s.s.s.s.s.s.s.s.s.s.s.s.s.s.s.s.s.s.s.s.s.s.s.s.s.g.s.s.s.s.s.s.s.s.s.s.s.s.s.s.s.s.s.s.s.s.s.s.s.s.s.s.s.s.s.s.s.g.e.g.s.s.s.s.v g.s.s.s.e.e.s.s.s.s.s.e.e.e.e.e.s.s.e.e.s.e.s.s.e.e.e.e.e.e.s.s.e.e.e.e.e.e.e.e.e.e.s.s.s.s.e.e.s.s.e.s.e.e.s.s.s.s.s.s.s.s.s.s.s.e.e.e.e.e.e.e.e.e.s.e.s.s.e.v M.M.g.s.s.s.s.s.s.s.s.s.s.s.s.s.s.s.s.s.s.s.s.s.s.s.s.s.s.s.s.s.g.g.g.g.g.g.g.g.g.s.s.s.s.s.s.s.s.s.s.s.s.s.s.s.s.s.s.s.s.s.g.g.s.s.s.s.s.g.g.s.s.g.s.g.s.g.<.v M.g.s.g.g.s.s.g.s.s.s.s.s.s.s.s.e.e.s.s.s.s.s.s.s.s.s.s.s.s.s.s.s.s.s.s.g.s.s.s.s.s.s.s.s.s.s.s.s.s.s.s.s.s.s.s.s.s.s.s.s.s.s.s.s.s.s.s.s.s.s.s.s.s.s.g.s.s.<.V G.s.s.g.s.s.s.s.s.s.s.s.s.s.s.s.s.s.s.s.s.s.s.s.s.s.s.s.s.s.s.s.s.s.s.s.s.s.s.s.s.s.s.s.s.s.s.s.s.s.s.s.s.s.g.g.s.s.s.s.s.s.s.s.s.s.s.s.s.s.s.s.s.s.s.s.s.s...S G.g.s.s.s.s.g.s.s.s.s.s.s.s.s.s.g.g.s.s.s.s.s.s.s.s.s.s.s.s.s.s.g.s.s.s.s.s.s.s.s.s.s.s.s.s.s.s.s.s.s.s.s.s.s.s.s.s.s.s.s.s.s.s.s.s.s.s.g.s.s.s.s.g.s.s.s.g.%.: ",
"G.M.s.s.s.s.s.s.s.s.s.s.s.s.s.s.e.e.s.s.s.s.s.s.s.s.s.s.s.s.s.s.s.s.s.s.s.s.s.s.s.s.s.s.s.s.s.s.s.s.s.s.s.s.s.s.s.s.s.e.e.e.s.s.s.s.s.s.s.s.s.s.g.e.g.s.s.s.s.v :.M.e.g.e.g.s.s.s.s.s.s.s.s.s.s.s.s.s.s.s.s.s.s.s.s.s.s.s.s.s.s.g.g.s.s.s.s.s.s.e.s.s.s.s.s.s.s.s.s.s.s.s.s.s.s.s.s.s.s.s.s.s.s.s.s.s.s.s.s.s.s.g.e.g.s.g.s.s.V :.g.e.s.g.s.s.s.s.s.s.s.s.s.s.s.s.s.s.s.s.s.s.s.s.s.s.s.s.s.s.s.g.s.s.s.s.s.s.s.s.s.s.s.s.s.s.s.s.s.s.s.s.s.s.s.s.s.s.s.s.s.s.s.s.s.s.s.s.s.s.s.g.e.g.s.s.s.s.v g.s.s.s.e.e.s.s.e.s.s.e.e.e.e.e.s.s.e.e.e.e.s.s.e.e.e.e.e.e.e.e.e.e.e.e.e.e.e.e.e.e.s.s.s.s.e.e.s.s.e.e.e.e.s.s.e.e.e.e.s.s.s.s.s.s.s.e.e.e.e.e.e.e.s.e.s.e.e.v M.g.g.s.s.s.s.s.s.s.s.s.s.s.s.s.s.s.s.s.s.s.s.s.s.s.s.s.s.s.s.s.s.s.s.s.s.s.s.s.g.s.s.s.s.s.s.s.g.g.s.s.s.s.s.s.s.s.s.s.s.s.s.g.s.s.s.s.s.s.s.s.s.g.s.g.s.g.<.v M.g.s.g.g.s.s.g.s.s.s.g.s.s.s.e.e.e.s.s.s.s.s.s.s.s.s.s.s.s.s.s.s.s.s.s.s.s.s.s.s.s.s.s.s.s.s.s.s.s.s.s.s.s.s.s.s.s.s.s.s.s.s.s.s.s.s.s.s.s.s.s.s.s.s.g.s.s.<.V G.s.s.g.s.s.s.s.s.s.s.s.s.s.s.s.s.s.s.s.s.s.s.s.s.s.s.s.s.s.s.s.s.s.s.s.s.s.s.s.s.s.s.s.s.s.s.g.s.s.s.g.g.g.g.g.s.s.s.s.s.s.s.s.g.s.s.s.s.s.s.s.s.s.s.s.s.s.%.S G.g.s.s.s.s.g.s.s.s.s.s.s.s.s.s.g.g.s.s.s.s.s.s.s.s.s.s.s.s.s.s.s.s.s.s.s.s.s.s.s.s.s.s.s.s.s.s.s.s.s.s.s.s.s.s.s.s.s.s.s.s.s.s.s.s.s.s.s.s.s.s.s.g.s.s.s.g.%.: ",
"M.g.s.s.g.s.s.s.s.s.s.s.s.s.s.s.e.s.s.s.s.s.s.s.s.s.s.g.g.g.g.s.s.s.s.s.s.s.s.s.s.s.s.s.s.s.s.s.s.s.s.s.s.s.s.s.s.s.s.e.e.e.s.s.s.s.s.s.s.s.s.s.g.e.g.s.s.s.s.v :.M.e.g.s.g.s.s.s.s.s.s.s.s.s.s.s.s.s.s.s.s.s.s.s.s.s.s.s.s.s.s.g.g.g.g.s.s.s.s.e.s.s.s.s.s.s.s.s.s.s.s.s.s.s.s.s.s.s.s.e.s.s.s.s.s.s.s.s.s.s.s.g.s.g.s.g.s.s.V :.g.s.s.g.s.g.s.s.s.s.s.s.s.s.s.s.s.s.s.s.s.s.s.s.s.s.s.s.s.s.s.g.s.s.s.s.s.s.s.s.s.s.s.s.s.s.s.s.s.s.s.s.s.s.s.g.s.s.s.s.s.s.s.s.s.s.s.s.s.s.s.g.e.g.s.s.s.s.v g.s.s.s.e.e.s.s.e.e.s.e.e.e.e.e.e.e.e.e.e.e.e.e.e.e.e.e.e.e.e.e.e.e.e.e.e.e.e.e.e.e.e.s.s.s.s.e.e.e.e.e.s.s.s.s.s.s.s.s.s.e.e.e.s.s.s.e.e.e.e.e.e.e.s.e.g.s.e.v g.g.s.s.s.s.s.s.s.s.s.s.s.s.s.s.s.s.s.s.s.s.s.s.s.s.s.s.s.s.s.s.s.s.s.s.s.s.s.s.g.s.s.s.s.g.s.s.s.s.s.s.s.s.e.e.s.s.s.s.s.s.s.g.g.g.s.s.s.s.s.s.s.g.s.g.s.g.<.v M.g.s.g.s.s.s.g.s.s.s.s.s.s.e.e.s.s.s.s.s.s.s.s.s.s.s.s.s.s.s.s.s.s.s.s.s.s.s.s.s.s.s.s.s.s.s.s.s.s.s.s.s.s.s.s.s.s.s.s.s.s.s.s.s.s.s.s.s.s.s.s.s.s.s.g.s.s.<.V G.s.e.g.s.s.s.s.g.g.s.s.s.s.s.s.s.s.s.s.s.s.s.s.s.s.s.s.s.s.s.s.s.s.s.s.s.s.s.s.s.s.s.s.s.s.s.g.s.s.s.s.g.g.g.s.s.s.s.s.s.s.s.s.g.s.s.s.s.s.s.s.s.s.s.s.s.g.%.J G.g.s.s.s.s.g.s.s.s.s.s.s.s.s.s.g.s.s.s.s.s.s.s.s.s.s.s.s.s.s.s.s.s.s.s.s.s.s.s.s.s.s.s.s.s.s.s.s.s.s.s.s.s.s.s.s.s.s.s.s.s.s.s.s.s.s.s.s.s.s.s.s.g.s.s.s.g.%.: ",
"g.s.s.s.g.g.s.s.s.s.s.s.s.s.s.s.e.e.s.s.s.s.s.s.s.s.s.g.g.g.g.s.s.s.s.s.s.s.s.s.s.s.s.s.s.s.s.s.s.s.s.s.s.s.s.s.s.s.s.e.e.e.s.g.s.s.s.s.s.s.s.s.g.e.g.s.s.s.s.v <.Z.s.g.s.g.g.s.s.s.s.s.s.s.s.s.s.s.s.s.s.s.s.s.s.s.s.s.s.s.s.s.g.s.s.s.s.s.s.s.e.e.s.s.s.s.s.s.s.s.s.s.s.s.s.s.s.s.s.s.s.s.s.s.s.s.s.s.s.s.s.s.g.s.g.s.g.s.s.V :.g.s.s.g.s.g.s.s.s.s.s.s.s.g.s.s.s.s.s.s.s.s.s.s.s.s.s.s.s.s.s.s.s.s.s.s.s.s.s.s.s.s.s.s.s.s.s.s.s.s.s.s.s.s.s.s.s.s.s.s.s.s.s.s.s.s.s.s.s.s.s.g.e.g.s.s.s.s.v s.s.s.s.e.e.s.s.e.e.s.e.e.e.e.e.e.e.e.e.e.e.e.e.e.e.e.e.e.e.s.e.e.e.e.e.e.e.e.e.e.e.s.s.s.s.e.e.e.e.e.e.s.e.s.s.s.s.s.s.e.e.e.e.s.s.s.s.e.e.e.e.e.e.s.e.s.s.e.v g.g.s.s.s.s.s.s.s.s.s.s.s.s.s.s.g.g.s.s.s.s.s.s.s.s.s.s.s.s.s.s.s.s.s.s.s.s.s.s.g.s.s.s.g.g.g.s.s.s.s.s.s.s.e.e.s.s.s.s.s.s.s.s.g.g.s.s.s.s.s.s.s.g.s.g.s.g.<.v M.g.s.g.g.s.s.g.s.s.s.s.s.s.e.s.s.s.s.s.s.s.s.s.s.s.s.s.s.s.s.s.g.s.s.s.s.s.s.s.s.s.s.s.s.s.s.s.g.g.g.s.s.s.s.s.s.s.s.s.s.s.s.s.s.s.s.s.s.s.s.s.s.s.s.g.s.s.<.V G.s.e.g.s.s.s.s.g.g.g.g.g.g.g.g.s.s.s.s.s.s.s.s.s.s.s.s.s.s.s.s.s.s.s.s.s.s.s.s.s.s.s.s.s.s.s.s.s.s.s.g.g.g.s.s.s.s.s.s.s.s.s.s.s.s.s.s.s.s.s.s.g.s.g.g.g.g.%.J G.g.s.s.s.s.g.s.s.s.s.s.s.s.s.s.s.s.s.s.s.s.s.s.s.s.s.s.s.s.s.s.s.s.s.s.s.g.g.s.s.s.s.s.s.s.s.s.s.s.s.s.s.s.s.s.s.s.s.s.s.s.s.s.s.s.s.s.s.s.s.s.s.g.s.s.s.g.%.: ",
"g.g.s.s.s.s.s.s.s.s.s.s.s.s.s.s.s.s.s.s.s.s.g.g.s.s.s.s.s.s.s.s.s.s.s.s.s.s.s.s.s.s.s.s.s.s.s.s.g.s.s.s.s.s.s.s.s.s.s.s.e.s.s.g.g.s.s.s.s.s.s.s.s.e.s.s.s.s.s.v <.Z.s.g.s.g.s.s.s.s.s.s.s.s.s.s.s.s.s.s.s.s.s.s.s.s.s.s.s.s.s.s.s.s.s.s.s.s.s.s.e.e.s.s.s.s.s.s.s.s.s.s.s.s.s.s.s.s.s.s.s.s.s.s.s.s.s.s.s.s.s.s.g.s.g.s.g.s.s.V :.g.s.s.g.s.g.s.s.s.s.s.s.g.g.g.s.s.s.s.s.s.s.s.s.s.s.s.s.s.s.s.s.s.s.s.s.s.s.s.s.s.s.s.s.s.s.s.g.g.s.s.s.s.s.s.s.s.s.s.s.s.s.s.s.s.s.s.s.s.s.s.g.e.g.s.s.s.s.v s.s.s.s.e.e.e.e.e.e.e.e.s.s.s.s.e.e.e.e.e.e.e.e.e.e.s.s.s.s.s.s.s.s.s.s.e.e.e.e.s.s.s.s.s.s.s.s.s.s.e.e.e.e.e.e.e.e.s.s.e.e.e.e.s.s.s.s.e.e.e.e.s.e.s.e.s.s.<.v g.g.s.s.s.s.s.s.s.s.s.s.s.s.s.s.g.g.g.s.s.s.s.s.s.s.s.s.s.s.s.s.s.s.s.s.s.s.s.s.s.s.s.s.s.g.s.g.s.s.s.s.s.e.e.e.s.s.s.s.s.s.s.s.s.s.s.s.e.s.s.s.s.g.s.g.s.g.<.v M.g.s.g.g.s.s.g.s.s.s.s.s.s.s.s.s.s.s.s.s.s.s.s.s.s.s.s.s.s.s.s.g.s.s.s.s.s.g.g.g.s.s.s.s.s.s.s.g.g.g.s.s.s.s.s.g.g.g.g.g.g.g.g.s.s.s.s.s.g.s.s.s.s.s.g.s.s.<.V G.s.e.g.s.s.s.s.s.s.s.s.g.g.g.g.s.s.s.s.s.s.s.s.s.s.s.s.s.s.s.s.g.s.s.s.s.s.s.s.s.s.s.s.s.s.s.s.e.s.s.g.g.s.s.s.s.s.s.s.s.s.s.s.s.s.s.s.s.s.s.s.g.s.s.s.s.g.%.S G.g.s.s.s.s.g.s.s.s.s.s.s.s.s.s.s.s.s.s.s.s.s.g.s.s.s.s.s.s.s.s.s.s.s.s.s.g.g.s.g.g.s.s.s.s.s.s.s.s.s.s.s.s.s.s.s.s.s.s.s.s.s.s.s.s.s.s.s.s.s.s.s.g.s.s.s.g.%.: ",
"M.g.s.s.s.s.s.s.s.s.s.s.s.s.s.s.s.s.s.s.s.g.g.g.g.s.s.s.s.s.s.s.s.s.s.s.s.s.s.s.s.s.s.s.s.s.s.s.g.g.g.s.s.s.s.s.e.s.s.s.s.s.s.g.g.g.s.s.s.s.s.s.s.e.s.s.g.s.s.v <.Z.s.g.s.g.s.s.s.s.s.s.s.s.s.s.s.s.s.s.s.s.s.s.s.s.s.s.s.s.s.s.s.s.s.s.s.s.s.s.e.e.s.s.s.s.s.s.s.s.s.s.s.s.s.s.s.s.g.g.g.s.s.s.s.s.s.s.s.s.s.s.g.e.g.s.g.s.g.V :.g.e.s.g.e.s.s.s.s.s.s.g.g.g.g.g.g.s.s.s.s.s.s.s.s.s.s.s.s.s.s.s.s.s.s.s.s.s.g.s.s.s.s.s.s.s.s.g.g.s.s.s.s.s.s.s.s.s.s.s.s.s.s.s.s.s.s.s.s.s.s.g.e.g.s.s.s.s.v s.s.s.s.e.e.e.e.e.e.s.e.s.s.s.s.e.e.e.e.e.e.e.e.e.e.s.s.s.s.s.s.s.s.s.s.e.e.s.s.s.s.s.s.s.s.s.s.s.e.e.e.e.e.e.e.e.e.s.s.s.e.e.e.e.e.e.e.e.e.s.s.s.e.s.e.s.s.<.v M.g.g.s.s.s.s.s.s.s.s.s.s.s.s.s.g.g.g.g.s.s.s.s.s.s.s.s.s.s.s.s.s.s.s.s.s.s.s.s.s.s.s.s.s.s.s.s.s.s.s.s.s.e.s.e.s.s.s.s.s.s.s.s.s.s.e.e.e.s.g.g.s.g.s.g.s.g.<.v M.g.s.g.g.s.s.g.s.s.e.e.e.s.s.s.s.s.s.s.s.s.s.s.s.s.s.s.s.s.s.s.s.s.s.s.s.s.g.g.g.g.s.s.s.s.g.s.s.s.s.s.s.s.s.s.s.s.s.s.s.s.s.s.s.s.s.s.g.g.g.g.s.s.s.g.s.s.<.V G.s.s.g.s.s.s.s.s.s.s.s.s.s.s.s.s.s.s.s.s.s.s.s.s.s.s.s.s.s.s.s.s.s.s.g.s.s.s.s.s.s.s.s.s.s.s.s.e.s.s.s.g.s.s.s.s.s.s.s.s.s.s.s.s.s.s.s.s.s.s.s.s.s.s.s.s.s.%.S G.g.s.s.s.s.g.s.s.s.s.s.s.s.s.s.s.s.s.s.s.s.s.g.s.s.s.s.s.s.s.s.s.s.s.s.s.g.g.s.g.g.s.g.s.s.s.s.s.s.s.s.s.s.s.s.s.s.s.s.s.s.s.s.s.s.s.s.s.s.s.s.s.g.s.s.s.g.%.: ",
"Z.g.s.e.s.e.e.s.s.s.s.s.s.s.s.s.s.s.s.s.s.s.s.s.s.s.s.s.s.s.e.e.s.s.s.s.s.s.s.s.s.s.s.s.s.s.s.s.s.s.s.s.s.s.s.e.s.s.s.s.s.s.s.s.s.s.s.s.s.s.s.s.s.e.s.s.g.s.s.v <.Z.e.g.e.g.g.g.s.s.s.s.s.s.s.s.e.e.e.s.s.s.s.s.s.s.s.s.s.s.s.s.s.s.s.s.s.e.e.e.s.s.s.s.s.s.s.s.s.s.s.s.s.s.s.s.s.s.s.s.s.s.s.s.s.s.s.s.s.s.s.s.s.e.g.s.s.s.s.V :.s.e.e.s.e.s.e.s.s.s.s.s.s.s.s.s.s.s.s.s.s.s.e.s.s.s.s.s.s.s.s.s.s.s.s.s.s.s.s.s.s.s.s.s.s.s.s.g.s.s.s.s.s.s.s.s.s.s.s.s.s.s.s.s.s.s.s.s.s.s.s.s.e.s.s.s.s.s.v s.g.s.<.e.e.e.s.s.s.e.e.e.e.e.e.s.s.e.e.e.e.e.e.s.s.e.e.e.e.s.s.s.s.e.e.e.e.e.e.e.e.e.e.e.e.e.e.e.e.e.e.e.e.e.e.e.e.e.e.s.e.e.e.e.e.e.e.e.e.e.e.s.s.s.s.s.s.<.v M.g.s.s.s.s.s.s.s.s.s.e.e.s.s.g.s.s.s.s.s.s.s.s.s.s.s.s.s.s.s.e.s.s.s.s.s.s.s.s.s.s.s.s.s.s.s.s.e.e.e.s.s.s.s.s.s.s.s.s.s.s.s.s.e.e.e.s.s.s.s.s.s.s.e.s.s.g.e.V G.g.e.s.g.g.s.e.e.e.e.s.s.s.s.s.s.s.s.s.s.s.s.s.s.s.s.s.s.s.s.s.s.s.s.s.s.s.s.s.s.s.e.s.e.s.s.s.s.s.s.s.s.s.s.s.s.s.s.s.s.s.e.e.s.s.s.s.s.s.s.s.s.s.s.s.s.g.%.S Z.s.s.s.e.e.s.e.s.s.s.s.s.s.s.s.s.s.s.s.s.s.s.s.s.s.s.s.s.s.s.s.s.s.s.s.s.s.s.s.s.s.s.s.s.s.s.e.e.e.s.s.s.s.s.e.s.s.s.s.s.s.e.e.s.s.s.s.s.s.s.s.s.s.s.s.s.s.%.S G.s.e.g.s.s.g.s.g.g.s.s.s.s.s.s.s.s.s.e.e.e.e.s.s.s.s.s.s.s.s.s.s.s.s.s.s.s.s.e.s.s.s.s.s.s.s.e.s.s.s.s.s.s.s.s.s.s.s.s.s.s.s.s.e.s.e.e.e.s.s.s.s.g.s.s.s.g.%.: ",
"G.g.s.e.s.e.e.s.s.s.s.s.s.s.s.s.s.s.s.s.s.s.s.s.e.e.s.s.s.s.s.s.s.s.s.s.s.s.s.s.s.s.s.s.s.s.s.s.s.s.s.s.s.s.e.e.s.s.s.s.s.s.s.s.s.s.s.s.s.s.s.s.s.e.s.s.s.s.s.v <.Z.e.g.e.g.s.s.s.s.s.s.s.s.s.s.e.e.e.s.s.s.s.s.s.s.s.s.s.s.s.s.s.s.s.s.s.s.s.s.s.s.s.s.s.s.s.s.s.s.s.s.s.s.s.s.s.s.s.s.s.s.s.s.s.s.s.s.s.s.s.s.s.e.g.s.s.s.s.V :.s.e.e.s.e.s.s.s.s.s.s.s.s.s.s.s.s.s.s.s.s.s.s.s.s.s.s.s.s.s.s.s.s.s.s.s.s.s.s.s.s.s.s.s.s.s.s.s.s.s.s.s.s.s.s.s.s.s.s.s.s.s.s.s.s.s.s.s.s.s.s.s.e.g.s.s.s.s.v s.g.s.<.e.s.e.e.s.e.e.e.e.e.e.e.s.s.e.e.e.e.e.e.s.s.e.e.e.e.s.s.s.s.e.e.e.e.e.e.e.e.e.e.e.e.e.e.e.e.e.e.e.e.<.<.e.e.e.e.e.e.e.e.e.e.e.e.e.e.e.e.e.s.e.s.e.s.:.p M.g.s.s.s.s.s.s.s.s.s.s.e.s.s.s.s.s.s.s.s.s.s.s.s.s.s.s.s.s.s.s.s.s.s.s.s.s.s.s.s.s.s.s.s.s.s.s.s.s.s.s.s.s.s.s.s.s.s.s.s.s.s.s.e.e.e.s.s.s.s.s.s.s.e.s.s.g.<.V Z.g.s.s.s.s.e.s.e.s.s.s.s.s.s.s.s.s.s.s.s.s.s.s.s.s.s.s.s.s.s.s.s.s.s.s.s.s.s.s.s.s.s.s.e.s.s.s.s.s.s.s.s.s.s.s.s.s.s.s.s.s.s.s.s.s.s.s.s.s.s.s.s.s.s.e.s.g.%.S Z.s.s.s.e.e.s.e.s.s.s.s.s.s.s.s.s.s.s.s.s.s.s.s.s.s.s.s.s.s.s.s.s.s.s.s.s.s.s.s.s.s.s.s.s.s.s.e.e.e.s.s.s.s.s.e.s.s.s.s.s.s.e.e.s.s.s.s.s.s.s.s.s.s.s.s.s.s.%.S G.s.e.g.s.s.g.s.s.s.s.s.e.e.s.s.s.s.s.s.e.e.s.s.s.s.s.s.s.s.s.s.s.s.s.s.s.s.s.s.s.s.s.s.s.s.s.s.s.s.s.s.s.s.s.s.s.s.s.s.s.s.s.s.s.e.e.e.e.s.s.s.s.g.s.s.s.g.%.: ",
"G.g.s.e.s.s.s.s.s.s.s.s.s.s.s.s.s.s.s.s.s.s.s.s.e.e.e.s.s.s.s.s.s.s.s.s.s.s.s.s.s.s.s.s.s.s.s.s.s.s.s.s.s.e.e.e.s.s.s.s.s.s.s.s.s.s.s.s.s.s.s.s.s.e.s.s.s.s.s.v :.M.e.g.e.s.s.s.s.s.s.s.s.s.s.s.e.s.e.s.s.s.s.s.s.s.s.s.s.s.s.s.s.s.s.s.s.s.s.s.s.s.s.s.s.s.s.s.s.s.s.s.s.s.s.s.s.s.s.s.s.s.s.s.s.s.s.s.s.s.s.s.s.e.g.s.s.s.s.V %.g.e.e.s.e.s.s.s.s.s.s.s.s.s.s.s.s.s.s.s.s.s.s.s.s.s.s.s.s.s.s.s.s.s.s.s.s.s.s.s.s.s.s.s.s.s.s.s.s.s.s.s.s.s.s.s.s.s.s.s.s.s.s.s.s.s.s.s.s.s.s.g.e.g.s.s.s.s.v s.g.s.<.e.e.e.s.e.e.e.e.e.e.e.e.s.s.s.e.s.s.s.s.s.s.e.e.e.e.e.s.s.e.e.e.e.e.e.e.e.e.e.e.e.e.e.e.s.s.s.e.e.e.<.<.e.e.e.e.e.e.e.e.e.e.e.e.e.e.e.e.e.e.<.e.<.e.:.p M.g.s.s.s.s.s.s.s.s.s.s.s.s.s.s.s.s.s.s.s.s.s.s.s.s.s.s.s.s.s.s.s.s.s.s.s.s.s.s.s.s.s.s.s.s.s.s.s.s.s.s.s.s.s.s.s.s.s.s.e.e.e.e.e.e.e.s.s.s.s.s.s.s.s.s.s.g.<.V M.g.s.s.s.e.e.s.s.s.s.s.s.s.s.s.e.e.s.s.s.s.s.s.s.s.s.s.e.e.s.s.s.s.s.s.s.s.s.s.s.s.s.s.e.s.s.s.s.s.s.s.s.s.s.s.s.s.s.s.s.s.s.s.s.s.s.s.s.s.s.s.s.s.s.e.s.g.%.V Z.s.e.s.e.e.s.e.s.s.s.s.s.s.s.s.s.s.s.s.s.s.s.s.s.s.s.s.s.s.s.s.s.s.s.s.s.s.s.s.e.e.s.s.e.e.e.e.e.e.s.s.s.s.s.e.s.s.s.s.s.s.s.e.s.s.s.s.s.s.s.s.s.s.s.s.s.s.%.S G.s.e.g.s.s.s.s.g.s.s.e.e.e.s.s.s.s.e.e.e.e.s.s.s.s.s.s.s.s.s.s.s.s.s.s.s.s.s.s.s.s.s.s.e.s.s.s.s.s.s.s.s.s.s.s.s.s.s.s.s.s.s.s.e.e.e.e.s.s.s.s.s.g.s.s.s.g.%.: ",
"G.M.e.e.s.s.s.s.s.s.s.s.s.s.s.s.s.s.s.s.s.s.s.s.e.e.e.e.s.s.s.s.s.s.s.s.s.s.s.s.s.s.s.s.s.s.s.s.e.e.s.s.s.s.e.e.s.s.s.s.s.s.s.s.s.s.s.s.s.s.s.s.s.e.s.s.s.s.s.v %.M.e.g.e.s.s.e.e.s.s.s.s.s.s.s.e.s.e.s.s.s.s.s.s.s.s.s.s.s.s.s.e.s.s.s.s.s.s.s.s.s.s.s.s.s.s.s.s.s.s.s.s.s.s.s.s.s.s.s.s.s.s.s.s.s.s.s.s.s.s.s.s.e.g.s.s.s.s.V :.g.e.s.s.e.s.s.s.s.s.s.s.s.s.s.s.s.s.s.s.s.s.s.s.s.s.s.s.s.s.e.e.s.s.s.s.s.s.s.s.s.s.s.s.s.s.s.s.s.s.s.s.s.s.s.s.s.s.s.s.s.s.s.e.e.s.s.s.s.s.s.g.e.g.s.s.s.s.v s.g.s.<.e.e.e.s.e.e.e.e.<.<.e.e.s.s.s.s.s.s.s.s.s.e.e.e.e.e.e.e.e.e.e.e.e.e.e.e.e.e.e.e.e.e.e.e.e.e.s.s.e.e.e.<.e.e.e.e.e.e.e.e.e.e.e.e.e.e.e.e.e.e.<.<.<.e.:.v M.g.g.s.s.s.s.s.s.s.s.s.s.s.s.g.s.s.s.s.s.s.s.s.s.s.s.s.s.s.s.s.s.s.s.s.s.s.s.s.s.s.s.s.s.s.s.s.s.s.s.s.s.s.s.s.s.s.s.s.e.e.e.e.e.e.s.s.s.s.s.s.s.s.s.s.s.g.<.v Z.g.s.s.s.e.e.s.s.s.s.s.s.s.s.s.e.e.s.s.s.s.s.s.s.s.s.e.e.e.e.e.s.s.s.s.s.s.s.s.s.s.s.e.e.s.s.s.s.s.s.s.s.s.s.s.s.s.s.s.s.s.s.s.s.s.s.s.s.s.s.s.s.s.s.e.s.g.%.V Z.s.e.s.e.e.s.s.s.s.s.s.s.s.s.s.s.s.s.s.s.s.s.s.s.s.s.s.s.s.s.s.s.s.s.s.s.s.s.s.e.e.e.e.e.e.e.e.e.e.s.s.s.s.s.s.s.s.s.s.s.s.s.s.s.s.s.s.s.s.s.s.s.s.s.s.s.s.%.S G.s.e.g.s.e.s.s.s.s.e.e.e.e.s.s.s.s.s.e.e.s.s.s.s.s.s.s.s.s.s.s.e.s.s.e.s.s.s.s.s.s.e.e.e.e.s.s.s.s.s.s.s.s.s.s.s.s.s.s.s.e.e.e.s.s.e.s.s.s.s.s.e.s.s.s.s.g.%.: ",
"G.M.s.s.s.s.s.s.s.s.s.s.s.s.s.s.s.s.s.s.s.s.s.s.e.e.e.e.s.s.s.s.s.s.s.s.s.s.s.s.s.s.s.s.s.s.s.s.e.s.s.s.s.s.s.s.s.s.s.s.s.s.s.s.s.s.s.s.s.s.s.s.s.e.g.s.s.s.e.v :.M.e.g.e.s.e.e.e.e.s.s.s.s.s.s.e.s.s.s.s.s.s.s.s.s.s.s.s.s.s.s.e.e.e.s.s.s.s.s.s.s.s.s.s.s.s.s.s.s.s.s.s.s.s.s.s.s.s.s.s.s.s.s.s.s.s.s.s.s.s.s.s.e.g.s.s.s.s.V :.g.e.s.s.e.s.s.s.s.s.s.s.s.s.e.s.s.s.s.s.s.s.e.e.s.s.s.s.s.s.e.e.s.s.s.s.s.s.s.s.s.s.s.s.s.s.s.s.s.s.s.s.s.s.s.s.s.s.s.s.s.s.s.e.e.s.s.s.s.s.s.g.e.g.s.s.s.s.v s.g.s.<.e.e.e.s.e.e.e.e.e.e.e.e.s.s.s.s.s.s.s.e.e.e.e.e.e.e.e.e.e.e.e.e.e.e.e.e.e.e.e.e.e.e.e.e.e.e.e.e.e.e.e.e.e.e.e.e.s.e.e.e.e.e.e.e.e.e.e.e.e.e.e.e.e.s.<.v M.g.g.s.s.s.s.s.s.s.s.s.s.s.s.s.s.s.s.s.s.s.s.s.s.s.s.s.s.s.s.e.s.s.s.s.s.s.s.e.s.s.s.s.s.s.s.s.g.g.s.s.s.s.s.s.s.s.e.s.e.e.e.e.e.s.s.s.s.s.s.s.s.s.s.s.s.g.<.v Z.g.e.e.s.s.s.e.s.s.s.s.s.s.s.s.e.s.s.s.s.s.s.s.s.s.e.e.e.e.e.e.s.s.s.s.s.s.s.s.s.s.e.e.e.s.s.s.s.s.s.s.s.s.s.s.s.s.s.s.s.s.g.g.s.s.s.s.s.s.s.s.s.e.s.e.e.g.%.V Z.s.s.s.e.s.g.s.s.s.s.s.s.s.s.s.s.s.s.s.s.s.s.s.s.s.s.s.s.s.s.e.s.s.s.s.s.s.s.s.e.e.e.s.e.e.e.e.e.s.s.s.s.s.s.e.s.s.s.s.s.s.e.s.s.s.s.s.s.s.s.s.s.s.s.s.s.s.%.S G.s.e.g.s.e.s.e.s.s.e.e.e.e.s.s.s.s.s.s.s.s.s.s.s.s.s.s.s.s.s.s.e.e.e.e.s.s.e.s.s.s.e.e.e.e.e.s.s.s.s.s.s.s.s.s.s.s.s.s.e.e.e.e.s.s.s.s.s.s.s.s.e.s.e.s.s.g.%.: ",
"G.M.s.s.s.s.s.s.s.s.s.s.s.s.s.s.s.s.s.s.s.s.s.s.e.s.s.s.s.s.s.s.s.s.s.s.s.s.s.s.s.s.s.s.s.s.s.s.e.e.s.s.s.s.s.s.s.s.s.s.s.s.s.s.s.s.s.s.s.s.s.s.g.e.g.s.s.s.e.p :.M.e.g.e.s.e.e.e.e.s.s.s.s.e.e.e.s.s.s.s.s.s.s.s.s.s.s.s.s.s.s.s.s.s.s.s.s.s.s.s.s.s.s.s.s.s.s.s.s.s.s.s.s.s.s.s.s.s.s.s.s.s.s.s.s.s.s.s.s.s.s.s.e.g.s.s.s.s.V :.g.e.s.g.e.s.s.s.s.s.s.s.s.e.e.s.s.s.s.s.s.s.e.s.s.s.s.s.s.s.s.e.s.s.s.s.s.s.s.s.s.s.s.s.s.s.s.s.s.s.s.s.s.s.s.s.s.s.s.s.s.s.s.e.e.s.s.s.s.s.s.g.e.g.s.s.s.s.v s.g.s.<.e.e.e.e.e.e.e.e.e.e.e.e.s.s.s.s.s.s.e.e.e.e.e.e.e.e.e.e.e.e.e.e.e.e.e.e.e.e.e.e.e.e.e.e.<.<.e.e.s.e.e.e.e.e.e.e.s.e.e.e.e.e.e.e.e.e.e.e.e.e.e.e.e.s.<.v M.g.s.s.s.s.s.s.s.s.s.s.s.s.s.s.s.s.s.s.s.s.s.s.s.s.s.s.s.s.s.e.s.s.s.s.s.s.s.e.s.s.s.s.s.s.s.s.g.s.s.s.s.s.s.s.s.s.s.s.e.e.e.e.s.s.s.s.s.s.s.e.s.s.s.g.s.g.<.v G.g.e.e.g.g.s.e.s.s.s.s.s.s.s.s.s.s.s.s.s.s.s.s.s.s.s.s.e.e.s.s.s.s.s.s.s.s.s.s.s.s.e.e.e.s.s.s.s.s.s.s.s.s.s.s.e.s.s.s.s.s.s.s.s.s.s.s.s.s.s.s.s.s.s.e.e.g.%.V Z.s.s.s.e.s.g.s.s.s.s.s.s.s.s.s.s.s.s.s.s.s.s.s.s.s.s.s.s.s.e.e.s.s.s.s.s.s.s.s.e.e.s.s.s.s.e.e.e.s.s.s.s.s.s.e.s.s.s.s.s.s.e.s.s.s.s.s.s.s.s.s.s.s.s.s.s.s.%.S G.s.e.g.e.e.s.e.s.e.s.e.s.s.s.s.s.s.s.s.s.s.s.s.s.s.s.s.s.s.s.s.e.e.e.e.s.s.e.e.s.e.e.e.e.e.s.s.s.s.s.s.s.s.s.s.s.s.s.e.e.e.e.s.s.s.s.s.s.s.s.s.e.s.e.s.s.g.%.: ",
"G.M.s.s.s.s.s.s.s.s.s.s.s.s.s.s.s.s.s.s.s.s.s.s.s.s.s.s.s.s.s.s.s.s.s.s.s.s.s.s.s.s.s.s.s.s.s.e.s.s.s.s.s.s.s.s.s.s.s.s.s.s.s.s.s.s.s.s.s.s.s.s.g.e.g.s.s.e.e.p :.M.e.g.e.s.s.e.e.s.s.s.s.e.e.e.e.e.s.s.s.s.s.s.s.s.s.s.s.s.s.s.s.s.s.s.s.s.s.s.s.s.s.s.s.s.s.s.s.s.s.s.s.s.s.s.s.s.s.s.s.s.e.e.s.s.s.s.s.s.s.s.s.e.g.s.s.s.s.V :.g.e.s.g.e.s.s.s.s.s.s.s.s.e.e.s.s.s.s.s.s.s.e.s.s.s.s.s.s.s.s.e.s.s.s.s.s.s.s.s.s.s.s.s.s.s.s.s.s.s.e.e.s.s.s.e.s.s.s.s.s.s.s.s.s.s.s.s.s.s.s.g.e.g.s.s.s.s.v s.g.s.<.e.e.<.e.e.e.e.e.e.e.e.e.s.s.s.s.e.e.e.e.e.e.e.e.e.e.e.e.e.e.e.e.<.e.e.e.e.e.e.e.e.e.e.e.e.e.e.e.e.e.e.e.e.e.e.e.s.e.e.e.e.e.e.e.e.e.e.e.e.e.e.s.e.s.<.v M.g.s.s.e.s.s.s.e.s.s.s.s.s.s.s.s.s.s.s.s.s.s.s.s.s.s.s.s.s.s.e.s.s.s.s.s.s.s.e.s.s.s.s.s.s.s.s.s.s.s.s.s.e.e.e.s.s.s.s.s.s.s.s.s.s.s.s.s.s.s.s.s.g.s.g.s.g.<.v Z.g.s.s.g.s.s.s.s.s.s.s.s.s.s.s.s.s.s.s.s.s.s.s.s.s.s.s.s.s.s.s.s.s.s.s.s.s.s.s.s.s.e.e.e.s.s.s.s.s.s.s.s.s.s.s.e.s.s.s.s.s.s.s.s.s.s.s.s.s.e.e.s.s.s.e.s.g.%.S Z.s.s.g.e.s.s.s.s.s.s.s.s.s.s.s.s.s.s.s.s.s.s.s.s.s.s.s.s.s.s.s.s.s.s.s.s.s.s.s.e.s.s.s.s.s.s.s.e.s.s.s.s.s.s.e.s.s.s.s.s.s.e.e.s.s.s.s.s.s.s.s.s.s.s.s.s.s.%.S G.s.e.s.e.e.s.e.e.e.s.s.s.s.s.s.s.s.s.s.s.s.s.s.s.s.s.s.s.s.s.s.s.s.s.s.s.s.s.s.s.e.s.s.s.s.s.s.s.s.s.s.s.s.s.s.s.s.e.e.e.e.s.s.s.s.s.s.s.s.s.s.s.g.s.s.s.g.%.: ",
"G.M.s.s.s.s.s.s.s.s.s.s.s.s.s.s.s.s.s.s.s.s.s.s.s.s.s.s.s.s.s.s.s.s.s.s.s.s.s.s.s.s.s.s.s.s.s.e.s.s.s.s.s.s.s.s.s.s.s.s.s.s.s.s.s.s.s.s.s.s.s.s.s.e.g.s.s.e.e.p :.M.e.g.e.s.s.s.e.s.s.s.s.e.e.<.e.e.e.s.s.s.s.s.s.s.s.s.s.s.s.s.s.s.s.s.s.e.e.e.s.s.s.s.s.s.s.s.s.s.s.s.s.s.s.s.s.s.s.s.s.e.e.e.s.s.s.s.s.s.s.s.s.e.g.s.s.s.s.V :.g.e.s.g.e.s.s.s.s.s.s.s.s.e.e.s.s.s.s.s.s.s.e.s.s.s.s.s.s.s.s.s.s.s.s.s.s.s.s.s.s.s.s.s.s.s.s.s.s.s.e.e.e.s.s.e.s.s.s.s.s.s.s.s.s.s.s.s.s.s.s.s.e.g.s.s.s.s.v s.g.s.<.e.e.<.e.e.s.e.e.e.e.e.e.e.s.e.e.e.e.e.e.e.e.e.e.e.e.e.e.e.e.e.e.<.<.e.e.e.e.e.e.e.e.e.e.e.e.e.e.e.e.e.e.e.e.e.e.s.e.e.e.e.e.e.e.e.e.e.e.e.e.e.s.e.s.<.v M.g.s.s.e.s.s.s.e.s.s.s.s.s.s.s.s.s.s.s.s.s.s.s.s.s.s.s.s.s.s.e.s.s.s.s.s.s.s.e.s.s.s.s.s.s.s.s.s.s.s.s.s.e.e.e.s.s.s.s.s.s.s.s.s.s.s.s.s.s.s.s.s.g.s.g.s.g.<.v Z.g.g.s.s.s.s.s.s.s.s.s.s.s.s.s.s.s.s.s.g.s.s.s.s.s.s.s.s.s.s.s.s.s.s.s.s.s.s.s.s.s.e.e.e.s.s.s.s.s.s.s.s.s.s.s.s.s.s.s.s.s.s.s.s.s.s.s.s.s.e.e.s.s.s.s.s.g.%.S Z.s.s.g.e.s.s.s.s.s.s.s.s.s.s.s.s.s.s.s.s.s.s.s.e.s.s.s.s.s.s.s.s.s.s.s.s.s.s.s.e.s.s.s.s.s.s.s.e.s.s.s.s.s.s.e.s.s.s.s.s.s.e.e.s.s.s.s.s.s.s.s.s.s.s.s.s.s.%.S G.s.e.s.e.e.s.e.e.e.s.s.g.s.s.s.s.s.s.s.s.s.s.s.s.s.s.s.s.s.s.s.s.s.s.s.s.s.s.s.s.s.s.s.g.g.g.s.s.s.s.s.s.s.s.s.s.e.e.e.e.e.s.s.s.s.s.s.s.s.s.s.s.g.s.s.s.g.%.: ",
"G.M.s.s.s.s.s.s.e.s.s.s.s.s.s.s.s.s.s.e.e.e.s.s.s.s.s.s.s.s.s.s.e.e.e.e.e.e.e.e.s.s.s.s.s.s.s.s.s.s.s.s.s.s.s.s.s.s.s.s.s.s.s.s.e.e.s.s.s.s.s.s.s.e.s.e.e.e.e.v <.Z.s.g.e.g.s.s.s.s.s.s.s.s.e.e.s.s.s.s.s.s.s.s.s.s.s.s.e.e.s.s.e.e.e.e.s.s.s.s.s.s.s.s.s.s.s.s.s.s.s.s.s.s.s.s.s.s.e.e.e.e.s.s.s.s.s.s.s.s.s.s.s.e.g.s.s.s.s.V :.s.e.s.s.e.s.e.s.s.s.e.s.s.s.e.s.s.s.s.s.s.s.s.e.e.s.s.s.s.s.s.e.s.g.g.s.s.s.g.s.s.s.s.s.e.e.e.s.s.s.s.s.s.s.s.s.s.s.s.s.s.s.s.s.s.s.s.s.s.s.s.g.e.s.s.s.s.s.v s.g.e.s.e.<.s.e.e.s.e.e.e.e.e.e.e.e.e.e.e.e.e.e.e.e.e.e.e.e.e.e.e.e.e.e.e.e.e.e.e.e.e.e.e.e.s.s.e.e.e.e.e.e.e.e.s.s.e.e.e.e.e.e.e.e.e.e.e.e.e.e.e.e.e.e.e.s.<.v g.g.g.s.e.e.s.s.s.s.s.s.s.s.s.s.s.s.s.s.s.s.s.s.s.s.s.s.s.s.s.s.s.s.s.s.s.s.s.s.s.s.s.e.e.s.s.s.s.s.e.e.e.e.s.s.s.s.s.s.s.s.s.s.s.s.s.s.s.s.s.s.s.s.e.s.s.g.<.v Z.g.s.s.s.e.e.s.e.e.s.s.s.s.s.s.s.s.s.s.s.s.s.s.s.s.s.s.s.s.s.s.e.s.s.s.s.s.s.e.s.s.s.s.s.s.s.s.e.e.e.e.e.e.e.e.s.s.s.e.s.s.s.g.e.e.e.s.s.s.s.s.s.s.s.s.s.g.%.V Z.g.s.s.g.s.e.e.s.s.s.s.s.s.s.s.s.s.s.s.s.s.s.s.s.s.s.s.s.s.s.s.s.s.s.s.s.s.s.s.e.s.s.g.s.s.s.e.s.s.s.s.s.s.s.s.s.s.s.s.s.s.s.s.s.s.s.s.s.s.s.s.s.s.s.s.s.s.%.S G.s.e.s.e.e.s.s.s.s.s.s.s.s.s.e.e.e.s.s.s.s.s.s.s.e.e.e.e.s.s.s.s.s.s.s.s.s.s.s.s.s.s.s.s.s.s.s.e.e.e.s.s.s.e.e.e.e.e.e.e.e.s.s.s.s.s.s.s.s.s.e.e.s.e.s.s.g.%.: ",
"G.M.s.s.s.s.s.s.s.s.s.s.s.s.s.s.s.s.s.s.s.s.s.s.s.s.s.s.s.s.s.s.e.e.e.e.s.e.s.s.s.s.s.s.s.s.s.s.s.s.s.s.s.s.s.s.s.s.s.s.s.s.e.e.e.e.s.s.s.s.s.s.s.e.s.s.s.e.e.v <.Z.s.g.e.s.s.s.s.s.s.s.s.s.e.e.s.s.s.s.s.s.s.s.s.s.s.s.e.e.s.s.s.s.s.s.s.s.s.s.s.s.s.s.s.s.s.s.s.s.s.s.s.s.s.s.s.s.e.e.e.e.s.s.s.s.s.s.s.s.s.s.s.e.g.s.s.s.s.V :.g.e.s.g.e.s.s.s.s.s.s.s.s.s.e.s.s.s.s.s.s.s.s.e.e.s.s.s.s.s.s.e.s.s.s.s.s.s.s.s.s.s.s.s.e.e.e.s.s.s.s.s.s.s.s.s.s.s.s.s.s.s.s.s.s.s.s.s.s.s.s.g.e.s.s.s.s.s.v s.g.e.s.e.<.s.e.e.e.e.e.e.e.e.e.e.e.e.e.e.e.e.e.e.e.e.e.e.e.e.e.e.e.e.e.e.e.e.e.e.e.e.e.e.e.s.s.e.e.e.e.e.e.e.e.s.s.e.e.e.e.e.e.e.e.e.e.e.e.e.e.e.e.e.e.e.s.<.v g.g.s.s.e.e.s.s.s.s.s.s.e.e.s.s.s.s.s.s.s.s.s.s.s.s.s.s.s.s.s.s.s.s.s.s.s.s.s.s.s.s.s.e.e.s.s.s.s.s.e.e.e.e.s.s.s.s.s.s.s.s.s.s.s.s.s.s.s.s.s.s.s.s.s.s.s.g.<.v Z.g.s.s.s.e.e.s.e.e.e.e.s.s.s.s.s.s.s.s.s.s.s.s.s.s.s.s.s.s.s.s.s.s.s.s.s.s.s.s.s.s.s.s.s.s.s.s.e.e.e.s.e.e.s.s.s.s.s.e.s.s.s.s.e.e.s.s.s.s.s.s.s.s.s.s.s.g.%.V Z.g.s.s.s.s.s.s.s.s.s.s.s.s.s.s.s.s.s.s.s.s.s.s.e.e.e.s.s.s.s.s.s.s.s.s.s.s.s.s.s.s.s.g.s.s.s.e.s.s.s.s.s.s.s.s.s.s.s.s.s.s.s.s.s.s.s.s.s.s.s.s.s.s.s.s.s.g.%.S G.s.e.s.e.e.s.s.s.s.s.s.s.s.s.e.e.e.s.s.s.s.s.s.s.e.e.e.e.s.s.s.s.s.s.s.s.s.s.s.s.s.s.s.s.s.s.s.e.e.e.s.s.s.s.e.e.e.e.e.e.e.s.s.s.s.s.s.s.s.s.e.e.s.e.s.s.g.%.: ",
"G.M.s.s.s.s.s.s.s.s.s.s.s.s.s.s.s.s.s.s.s.s.s.s.s.s.s.s.s.s.s.s.s.s.s.s.s.s.s.s.s.s.s.s.s.s.s.s.s.s.s.s.s.s.s.s.e.s.s.s.s.s.e.e.e.s.s.s.s.s.s.e.s.e.s.s.s.s.s.v <.Z.s.g.e.g.s.s.s.s.s.s.s.s.s.s.s.s.s.s.s.s.s.s.s.s.s.s.e.e.e.s.s.s.s.s.s.s.s.s.s.s.s.s.s.s.s.s.s.s.s.s.s.e.e.e.s.e.e.e.e.s.s.s.s.s.s.s.s.e.s.s.g.e.g.s.s.s.s.V :.g.s.s.g.e.s.s.s.s.s.s.s.s.s.e.s.s.s.s.s.s.s.s.e.e.s.s.s.s.s.s.e.s.s.s.s.s.s.s.s.s.s.s.s.s.s.s.s.s.s.s.s.s.s.s.s.s.s.s.s.s.s.s.s.s.s.s.s.s.s.s.s.e.s.e.s.e.e.v s.g.e.s.e.<.s.e.e.e.e.e.e.e.e.e.e.e.e.e.e.e.e.e.e.e.e.e.e.e.e.e.e.e.e.e.e.e.e.e.e.e.e.e.e.e.e.e.e.e.e.e.e.e.e.e.e.e.e.e.e.e.e.e.e.e.e.e.e.e.e.e.e.e.<.e.e.s.<.v g.s.s.e.e.e.s.s.s.s.s.s.s.s.s.s.s.s.s.s.s.s.s.s.s.s.s.s.s.s.s.e.e.e.e.e.s.s.s.s.s.s.s.e.e.s.s.s.e.e.e.s.s.s.s.s.s.s.s.s.s.s.s.s.s.s.s.s.s.s.s.s.s.s.e.s.s.g.<.v Z.g.s.s.s.s.e.s.e.e.e.e.s.s.s.s.s.s.s.s.s.s.s.s.s.s.s.s.s.s.s.s.s.s.s.s.s.s.s.s.s.s.s.s.s.s.s.s.e.e.s.s.s.s.s.s.s.e.e.s.e.s.s.s.s.s.s.s.s.s.s.s.s.s.s.s.s.g.%.V Z.g.e.e.s.s.s.s.s.s.s.s.s.s.s.s.s.s.s.s.s.s.s.s.<.e.e.s.s.s.s.s.s.s.s.s.s.s.s.s.s.s.s.s.s.s.e.e.s.s.s.s.s.s.s.s.s.s.s.s.s.s.s.s.s.s.s.s.s.s.s.s.g.s.s.s.s.g.%.S G.s.e.s.s.e.s.s.s.s.s.s.s.s.s.e.e.e.s.s.s.s.s.s.s.s.e.e.e.e.s.s.s.s.s.s.s.s.s.s.s.s.s.s.s.s.s.e.e.e.e.s.s.s.s.s.s.e.e.e.e.e.s.s.s.s.s.s.s.s.s.s.e.s.e.s.s.g.%.: ",
"G.M.s.s.s.s.s.s.s.s.s.s.s.s.s.s.s.s.s.s.s.s.s.s.s.s.s.s.s.s.s.e.s.s.s.s.s.s.s.s.s.s.s.s.s.s.s.s.s.s.s.s.s.s.s.s.s.s.s.s.s.s.e.e.s.s.s.s.s.s.s.s.s.<.s.s.s.s.s.v <.Z.s.g.e.g.s.s.e.s.s.s.s.s.s.s.s.s.s.s.s.s.s.s.s.s.s.s.e.e.s.s.s.s.s.s.s.s.s.s.s.s.s.s.s.s.s.s.s.s.s.s.s.e.e.e.e.e.e.s.s.s.s.s.s.s.s.s.e.e.s.s.g.e.g.s.s.s.g.V %.g.e.s.g.e.s.s.s.s.s.s.s.s.s.s.s.s.s.s.s.s.s.s.e.e.s.s.s.s.s.s.e.s.s.s.s.s.s.s.s.s.s.s.s.s.s.s.s.s.s.s.s.s.s.s.s.s.s.s.s.s.s.s.s.s.s.s.s.s.s.s.s.<.s.e.s.s.e.v s.g.e.s.e.<.s.e.e.e.e.e.e.e.e.e.e.e.e.e.e.e.e.e.e.e.e.e.e.e.e.e.e.e.e.e.e.e.e.e.e.e.e.e.e.e.e.e.e.e.e.e.e.e.e.e.e.e.e.e.e.e.e.e.e.e.e.e.e.e.e.e.e.e.e.e.e.s.<.v g.g.s.e.e.s.s.s.s.s.s.s.s.s.s.s.s.s.s.s.s.s.s.s.s.s.s.s.s.s.s.e.e.e.e.e.e.e.s.s.s.s.s.e.e.s.s.s.e.e.s.s.s.s.s.s.s.s.s.s.s.s.s.s.s.s.s.s.s.s.s.s.s.s.s.s.s.g.<.v Z.g.s.s.s.s.s.s.e.e.e.s.s.s.s.s.s.s.s.s.s.s.s.s.s.s.s.e.e.s.s.s.s.s.s.s.s.s.s.s.s.s.s.s.s.s.s.s.s.s.s.s.s.s.s.s.e.e.e.e.e.s.s.s.s.s.s.s.s.s.s.s.s.s.s.s.s.g.%.V Z.g.s.s.s.s.s.s.s.s.s.s.s.s.s.s.s.s.s.s.s.s.s.s.e.e.e.s.s.s.s.e.s.s.s.s.s.s.s.s.s.s.s.s.s.s.e.e.s.s.s.s.s.s.s.s.s.s.s.s.s.s.s.s.s.s.s.s.s.s.s.s.s.s.s.s.s.s.%.S G.s.e.s.s.s.s.s.s.s.s.s.s.s.s.s.e.e.s.s.s.s.e.e.s.s.e.s.e.s.s.s.s.s.e.e.e.s.e.e.s.s.s.s.s.s.e.e.e.e.s.s.s.s.s.s.s.s.s.s.s.s.s.s.s.s.s.s.s.s.s.s.e.s.e.s.s.g.%.: ",
"G.M.s.s.s.s.s.s.s.s.s.e.e.e.e.e.e.s.e.e.e.s.s.s.s.s.s.s.s.e.e.e.s.s.s.s.s.s.s.s.s.s.s.s.s.s.s.s.s.s.s.s.s.s.s.s.g.s.s.e.e.e.e.s.s.s.s.s.s.s.e.e.s.<.s.e.s.s.s.v <.Z.s.g.e.g.s.s.e.e.s.s.s.s.s.s.s.s.s.s.s.s.s.s.s.s.s.s.s.s.s.s.s.s.s.s.s.s.s.s.s.s.s.s.s.s.s.e.s.s.s.s.s.e.e.e.s.s.s.s.s.s.s.s.s.s.s.s.e.e.e.s.g.e.g.s.s.s.s.V %.s.e.e.g.e.s.s.s.s.s.s.s.s.s.s.s.s.s.s.s.s.s.s.e.s.s.s.s.s.s.s.e.s.s.s.s.s.s.s.s.s.s.s.s.s.s.s.s.s.s.s.s.s.s.s.s.s.s.s.s.s.s.s.s.s.s.s.s.s.s.s.s.e.s.e.s.s.s.v s.g.e.s.e.<.s.e.s.s.e.e.e.e.e.e.e.e.e.e.e.e.e.e.e.e.e.e.e.e.e.e.e.e.e.e.e.e.e.e.e.e.e.e.e.e.e.e.e.e.e.e.e.e.e.e.e.e.e.e.e.e.e.e.e.e.e.e.e.e.s.e.e.e.e.e.e.s.<.v M.g.s.s.s.s.s.g.s.s.s.s.e.e.s.s.s.s.s.s.s.s.s.s.s.s.s.s.s.s.e.e.e.e.s.s.e.e.s.s.s.s.s.e.e.s.s.s.s.s.s.s.s.s.s.e.s.s.s.s.s.s.s.s.s.s.s.s.s.s.s.s.s.s.s.s.s.g.<.v Z.g.s.s.s.s.s.s.s.s.s.s.s.e.e.e.s.s.s.e.e.s.s.s.s.s.s.e.e.e.e.e.s.s.s.s.s.s.s.s.s.s.s.s.s.s.s.s.s.s.s.s.s.s.s.s.e.e.e.e.e.s.s.s.s.s.s.s.s.s.s.s.s.s.s.e.s.g.%.V Z.g.s.s.g.g.s.s.s.s.s.s.s.s.s.s.s.s.s.s.s.s.s.s.e.e.s.s.s.s.e.e.s.s.s.s.s.s.s.s.s.s.s.s.s.s.e.e.s.s.s.s.s.s.s.s.s.s.s.s.s.s.s.s.s.s.s.s.s.s.s.s.s.e.s.s.s.s.%.S G.s.e.s.s.s.s.s.s.s.s.s.s.s.s.s.e.e.s.s.s.s.s.e.s.s.s.s.s.s.s.s.s.s.e.e.e.e.e.e.s.s.s.s.s.s.e.e.s.s.s.s.s.s.s.s.s.s.s.s.s.s.s.s.s.s.s.s.s.s.s.e.e.s.e.s.s.g.%.: ",
"G.M.s.s.s.s.s.s.s.s.e.e.e.e.e.e.e.e.e.e.e.e.s.s.s.s.s.s.e.e.e.e.s.s.s.s.s.s.s.s.s.s.s.s.s.s.s.s.s.s.s.s.s.s.s.s.g.s.e.e.e.e.s.s.s.s.s.s.s.s.e.e.s.<.s.e.s.s.s.v <.Z.s.g.e.g.s.s.e.s.s.s.s.s.s.s.s.s.s.s.s.s.s.s.s.e.e.s.s.s.s.s.s.s.s.s.s.s.s.s.s.s.s.s.s.s.s.e.s.s.s.s.s.e.e.e.s.s.s.s.s.s.s.s.s.s.s.s.e.e.e.s.g.e.g.s.s.s.s.V %.s.e.e.s.e.s.s.s.s.s.s.s.s.s.s.s.s.s.s.s.s.s.s.e.e.s.s.s.s.s.s.e.s.s.s.s.s.s.s.s.s.s.s.s.s.s.s.s.s.s.s.s.s.s.s.s.s.s.s.s.s.s.s.s.s.s.s.s.s.s.s.s.e.s.s.s.s.s.v s.g.e.s.e.<.s.e.s.s.e.e.e.e.e.e.e.e.e.e.e.e.e.e.e.e.e.e.e.e.e.e.e.e.e.e.e.e.e.e.e.e.e.e.e.e.e.e.e.e.e.e.e.e.e.e.e.e.e.e.e.e.e.e.e.e.e.e.e.s.s.s.e.e.e.e.e.s.<.v M.g.s.s.s.g.g.s.s.s.s.s.e.e.s.s.s.s.s.s.s.s.s.s.s.s.s.s.s.s.e.e.s.e.s.s.s.s.s.s.s.s.s.e.e.s.s.s.s.s.s.s.s.s.e.e.s.s.s.s.s.s.s.s.s.s.s.s.s.s.s.s.s.s.s.s.s.g.<.v M.g.s.s.s.s.s.s.s.s.s.s.s.e.e.e.s.e.e.e.e.e.e.s.s.s.e.e.e.e.e.e.s.s.s.s.s.s.s.s.s.s.s.s.s.s.s.s.s.s.s.s.s.s.s.s.e.e.s.s.s.s.s.s.s.s.s.s.s.s.s.s.s.s.s.e.s.g.%.V Z.g.s.s.g.s.s.s.s.s.s.s.s.s.s.s.s.s.s.s.s.s.s.e.s.s.s.s.s.s.e.e.s.s.s.s.s.s.s.s.s.s.s.s.s.s.s.e.s.s.s.s.s.s.s.s.s.s.s.s.s.s.s.s.s.s.s.s.s.s.s.s.s.e.s.e.s.s...S G.s.e.s.s.s.g.s.s.s.s.s.s.s.s.s.s.s.s.s.s.s.e.e.s.s.s.s.s.s.s.s.s.s.s.s.e.e.e.e.s.s.s.s.s.s.s.e.e.s.s.s.s.s.s.s.e.s.s.s.s.s.s.s.s.s.s.s.s.s.s.e.e.s.e.s.s.g.%.: ",
"G.M.s.s.s.s.s.s.s.s.s.s.s.e.e.e.e.e.e.e.e.s.s.s.s.s.s.s.s.s.e.e.s.s.s.s.s.s.s.s.s.s.s.s.s.s.s.s.s.s.s.s.s.s.s.s.s.s.s.e.e.e.s.s.s.s.s.s.s.s.e.e.s.e.s.e.s.e.s.v <.Z.e.g.e.s.s.s.s.s.s.s.s.s.s.s.s.s.s.s.s.s.s.s.s.e.e.e.s.s.s.s.s.s.s.s.s.s.s.s.s.s.s.s.s.s.s.e.s.s.s.s.s.s.s.s.s.s.s.s.s.s.s.s.s.s.s.e.e.e.s.s.s.e.g.s.s.s.s.V %.s.e.s.g.e.s.s.s.s.s.s.s.g.s.s.s.s.s.s.s.s.s.s.s.s.s.s.s.s.s.s.e.e.s.s.s.s.s.s.s.s.s.s.s.s.s.s.s.s.s.s.s.s.s.s.s.s.s.s.s.s.s.s.s.s.s.s.s.s.s.s.g.e.g.s.s.s.s.v s.g.e.s.e.<.s.e.e.s.e.e.e.e.e.e.e.e.e.e.e.e.e.e.e.e.e.e.e.e.e.e.e.e.e.e.e.e.e.e.s.s.e.e.e.e.e.e.e.e.e.e.e.e.e.e.e.e.e.e.e.e.s.s.e.e.e.e.s.s.s.s.e.e.e.e.e.s.<.v M.g.s.s.s.g.s.s.s.s.s.s.e.e.s.s.s.s.s.s.s.s.s.s.s.s.s.s.s.s.s.s.s.s.s.s.s.s.s.s.s.s.s.e.e.s.s.s.s.s.s.s.s.s.s.s.s.s.s.s.s.s.s.s.s.s.s.s.s.s.s.s.s.s.s.s.s.g.<.v Z.g.s.s.s.s.s.g.s.s.s.s.s.s.s.e.e.s.e.e.e.e.e.e.s.s.e.e.e.s.s.s.s.s.s.s.s.s.s.s.s.s.s.s.s.s.s.s.s.s.s.s.s.s.e.e.s.s.s.s.s.s.s.s.s.s.s.s.s.s.s.s.s.s.s.e.s.g.%.V Z.g.e.e.s.s.s.s.s.s.s.s.s.s.s.s.s.s.s.s.s.s.s.e.s.s.s.s.s.s.s.s.s.s.s.s.s.s.s.s.s.s.e.e.s.s.s.s.s.s.s.s.s.s.s.s.s.s.s.s.s.s.s.s.e.s.s.s.s.s.s.e.s.e.s.s.s.s.%.S G.s.e.s.s.s.g.s.s.s.s.s.s.s.s.e.s.s.s.s.s.e.e.s.s.s.s.s.s.s.s.s.s.s.s.s.s.s.s.s.s.s.s.s.s.s.s.s.e.s.s.s.s.s.s.s.e.e.s.s.s.s.s.s.s.s.s.s.s.s.s.e.e.s.e.s.s.g.%.: ",
"G.M.s.s.s.s.s.s.s.s.s.s.s.s.e.e.s.s.s.s.s.s.s.s.s.s.s.s.s.e.e.e.s.s.s.s.s.s.s.s.s.s.s.s.s.s.s.s.s.s.s.s.s.s.s.s.s.s.s.s.s.s.s.s.s.s.s.s.s.e.e.e.g.e.s.e.s.s.e.v <.Z.e.g.e.s.s.s.s.s.s.s.s.s.s.s.s.s.s.s.s.s.s.s.s.e.e.e.s.s.s.s.s.s.s.s.s.s.s.s.s.s.s.s.s.s.s.e.s.s.s.s.s.s.s.s.s.s.s.s.s.s.s.s.s.s.s.e.e.e.s.s.s.e.g.s.s.s.s.V %.s.e.s.g.s.g.s.g.s.s.s.s.g.s.s.s.s.s.s.s.s.s.s.s.s.s.s.s.s.s.s.e.e.s.s.s.e.s.s.s.s.s.s.s.s.s.s.s.s.s.s.s.s.s.s.s.s.s.s.s.s.s.s.s.s.s.s.s.s.s.s.s.e.g.s.s.s.s.v e.s.e.s.e.<.s.e.s.s.e.e.e.e.e.e.e.e.e.e.e.e.e.e.e.e.e.e.e.e.e.e.e.e.e.e.e.e.e.e.s.s.e.e.e.e.e.e.e.e.e.e.e.e.e.e.e.e.e.e.e.e.s.s.e.e.e.e.s.s.s.s.e.e.e.e.e.s.<.v M.g.s.e.s.s.s.e.s.s.s.s.e.e.s.s.s.s.s.s.s.s.s.s.s.s.s.s.s.s.s.s.s.s.s.s.s.s.s.s.s.s.s.e.e.s.s.s.s.s.s.s.s.s.s.s.s.s.s.s.s.s.s.s.s.s.s.s.s.s.s.s.s.s.s.s.s.g.<.v Z.g.s.s.s.s.s.g.s.s.s.s.s.s.s.s.s.e.e.s.s.e.e.s.s.s.e.e.s.s.g.g.s.s.s.e.e.s.s.s.s.s.s.s.s.s.s.s.s.s.s.s.s.s.s.e.s.s.s.s.s.s.s.s.s.s.s.s.s.s.s.s.s.s.s.e.s.g.%.V Z.g.<.<.<.e.s.s.s.s.s.s.s.s.s.s.s.s.s.s.s.s.s.e.s.s.s.s.s.s.s.s.s.s.s.s.s.s.s.s.s.e.e.e.s.s.s.s.s.s.s.s.s.s.s.s.s.s.s.s.s.s.s.s.e.s.s.s.s.s.s.e.s.e.s.s.s.s.%.S G.s.e.s.s.s.g.s.s.s.s.s.s.s.s.e.s.s.s.s.s.e.s.s.s.s.s.s.s.s.s.e.s.s.s.s.s.s.s.s.s.s.s.s.s.s.s.s.s.s.s.s.s.s.s.s.e.e.s.s.s.s.s.s.s.s.s.s.s.s.s.e.e.s.e.s.s.g.%.: ",
"G.g.s.s.s.e.e.e.s.s.s.s.s.e.e.e.e.e.e.s.s.s.s.s.e.s.s.s.s.s.s.s.s.s.s.s.s.s.s.s.s.s.s.s.s.s.s.s.s.s.s.s.s.s.s.s.s.s.s.e.e.e.e.e.s.s.s.e.e.e.s.s.s.e.g.s.s.e.e.v :.Z.e.s.s.s.e.e.s.e.s.s.s.s.s.s.s.s.s.s.e.s.s.s.s.s.s.s.s.s.s.s.e.s.s.s.s.s.s.s.s.s.s.s.s.s.s.s.s.s.s.s.s.s.s.s.s.s.s.s.s.s.s.s.s.s.s.s.s.s.e.e.g.e.g.s.s.s.s.V %.s.e.s.g.e.s.s.s.s.s.e.e.e.e.e.e.e.e.s.s.s.s.s.s.s.s.s.s.s.s.e.e.e.s.s.s.s.s.s.e.e.e.s.s.s.s.s.e.s.s.s.s.s.s.s.s.s.s.s.s.s.s.s.s.s.s.s.s.s.s.s.s.e.g.s.s.s.s.v e.s.e.e.s.e.<.s.e.e.e.e.e.e.<.<.e.e.e.e.e.e.e.e.e.e.e.e.e.e.e.e.e.e.e.e.e.e.e.e.e.e.e.e.e.e.e.e.e.e.e.e.e.e.e.e.e.e.e.e.e.e.e.e.e.e.e.e.e.e.e.e.e.s.e.s.e.s.<.v M.g.s.s.s.s.s.s.s.s.s.s.s.s.s.s.s.s.s.s.s.s.s.s.s.s.s.s.s.s.s.s.s.s.s.s.s.s.e.e.e.e.e.e.s.s.s.s.s.s.s.s.s.e.s.s.e.s.s.s.s.e.e.e.s.s.s.s.s.s.s.s.s.s.s.s.s.g.<.V Z.g.e.e.s.s.s.s.g.s.e.e.e.e.s.e.e.s.s.s.s.s.s.s.s.s.s.s.s.s.s.s.s.s.s.s.s.s.s.s.e.s.s.s.s.s.s.e.e.e.s.s.e.e.s.s.s.s.s.s.s.s.s.s.s.s.s.s.s.s.s.s.s.s.s.e.e.g.%.S Z.g.e.s.s.s.e.s.s.s.s.s.s.s.e.e.e.s.s.s.s.s.s.e.s.s.s.s.s.s.s.s.e.e.s.s.s.s.s.s.s.s.s.s.s.s.s.s.s.s.s.s.s.s.s.s.s.s.s.s.s.s.s.e.s.s.s.s.s.s.s.s.s.e.s.s.s.s...S G.s.e.g.s.s.s.s.s.s.s.s.s.s.s.s.e.s.s.s.s.s.s.s.s.s.s.s.s.s.s.s.s.s.s.s.s.s.s.s.s.s.s.s.s.s.s.s.s.s.s.s.s.s.s.s.e.e.e.s.s.s.s.s.s.s.s.s.s.e.e.e.e.s.e.s.s.g...: ",
"G.g.s.s.s.s.e.e.s.s.s.s.s.e.e.e.e.e.e.s.s.s.s.s.e.e.s.s.s.s.s.s.s.s.s.s.s.s.s.s.s.s.s.s.s.s.s.s.s.s.s.s.s.s.s.s.s.s.s.e.e.e.e.e.s.s.s.s.e.e.s.s.s.e.g.s.s.e.e.v :.Z.e.s.s.s.e.e.s.s.s.s.s.s.s.s.s.s.s.e.e.s.s.s.s.s.s.s.s.s.s.s.s.e.s.s.s.s.s.s.e.e.s.s.s.s.s.e.e.s.s.s.s.s.s.s.s.s.s.s.s.s.s.s.s.s.s.s.s.s.e.e.g.e.g.s.s.s.s.V %.s.e.s.g.e.s.s.s.s.s.s.e.e.e.e.e.e.s.s.s.s.s.s.s.s.s.s.s.s.e.e.e.e.s.s.s.s.s.e.e.e.e.s.s.s.s.s.e.e.e.e.s.s.s.s.s.s.s.s.s.s.s.s.s.s.s.s.s.s.s.s.s.e.g.e.s.s.s.v e.s.e.e.e.e.<.s.e.e.e.e.e.e.e.<.e.e.e.e.e.e.e.e.e.e.e.e.e.e.e.e.e.e.e.e.e.e.e.e.e.e.e.e.e.e.e.e.e.e.e.e.e.e.e.e.e.e.e.e.e.e.e.e.e.e.e.e.e.e.e.e.e.s.e.s.e.s.<.v g.s.s.e.e.s.s.s.s.s.s.s.s.s.s.s.s.s.s.e.e.s.s.s.s.s.s.s.s.s.s.s.s.s.s.s.s.s.e.e.e.e.e.e.s.s.s.s.s.s.s.e.e.e.e.s.e.s.s.s.s.e.e.e.s.s.s.s.s.s.s.s.s.s.e.s.e.g.<.V Z.g.e.e.s.s.s.s.s.s.e.e.e.e.e.s.e.s.s.s.s.s.s.s.s.s.s.s.s.s.s.s.s.s.s.s.s.s.s.s.s.s.s.s.s.s.s.e.e.e.s.s.e.e.s.s.s.s.s.s.s.s.s.s.s.s.s.s.s.s.s.s.s.s.s.e.e.s.%.S Z.g.e.s.s.s.s.s.s.s.s.s.s.s.e.e.e.e.s.s.s.s.s.s.s.s.s.s.s.s.s.s.e.s.s.s.s.s.s.s.s.s.s.s.s.s.s.s.s.s.s.s.s.e.e.e.s.s.s.s.s.s.e.e.e.e.s.s.s.s.s.s.s.e.s.s.s.s...S G.s.e.g.s.s.s.s.s.s.s.s.s.e.s.e.e.s.s.s.s.s.s.e.s.s.s.s.s.s.s.s.s.s.s.s.s.s.s.s.s.s.s.s.s.s.s.s.s.s.s.s.s.s.s.s.e.e.e.s.s.s.s.s.s.s.s.s.s.e.e.e.e.s.e.s.s.g...: ",
"G.M.s.e.s.s.e.e.e.s.s.s.s.e.e.e.e.e.s.s.s.s.s.s.s.s.e.s.s.s.s.s.e.e.e.e.e.e.s.s.s.s.s.s.s.s.s.s.s.s.s.s.s.e.e.e.s.s.s.e.s.s.s.s.s.s.s.e.e.e.e.e.s.e.g.s.s.e.e.v :.Z.e.s.s.s.<.e.s.s.s.s.s.s.s.s.s.s.e.e.e.e.s.s.s.s.s.s.s.s.s.s.s.s.e.e.e.e.e.s.e.e.e.e.s.s.s.e.e.s.s.s.s.s.s.s.s.s.s.e.e.s.s.s.s.s.s.s.s.s.e.e.s.e.s.e.s.s.s.V %.s.e.s.g.e.s.s.e.s.s.s.s.s.e.e.e.e.s.s.s.s.s.s.s.s.s.e.e.e.e.e.s.s.s.s.s.s.s.e.e.e.e.s.s.s.s.s.e.e.e.e.e.e.s.s.s.s.s.s.s.s.s.s.s.s.s.s.s.s.s.s.s.e.g.e.e.s.s.v s.s.e.e.s.e.<.e.e.e.e.e.e.e.<.<.e.e.e.e.e.e.e.e.e.e.e.e.e.e.e.e.e.e.e.e.e.e.e.<.<.<.<.<.e.e.e.e.e.e.e.e.e.e.e.e.e.e.e.e.e.e.e.e.e.e.e.e.e.e.e.e.e.e.e.e.<.e.:.v s.s.e.e.e.s.s.s.s.s.s.s.e.e.e.s.s.s.s.e.e.e.e.s.s.e.s.s.e.s.e.e.s.s.s.s.s.s.s.e.s.s.s.e.s.s.s.s.e.e.e.e.e.e.e.s.s.s.s.s.e.e.e.s.s.s.s.s.s.s.s.s.s.s.e.s.e.g.<.V Z.g.e.e.s.s.e.e.e.e.s.s.s.s.e.e.e.e.e.s.s.s.s.s.s.s.s.s.s.s.s.s.s.s.s.s.s.s.s.s.e.s.s.s.s.s.s.e.e.e.s.s.s.e.e.s.s.s.s.s.s.s.s.s.s.s.s.s.s.s.s.s.s.s.s.e.s.g.%.S Z.g.e.e.s.s.s.s.s.s.s.s.s.s.e.e.e.s.s.s.s.s.s.s.s.s.s.s.s.s.s.s.s.s.s.s.s.s.s.s.s.s.s.s.s.s.s.s.s.s.e.e.e.e.e.e.e.s.s.s.s.e.e.e.e.e.s.s.s.s.s.s.s.e.s.s.s.s.%.S Z.s.e.g.s.e.s.s.e.e.e.e.e.e.e.e.s.s.s.s.s.s.e.e.s.s.s.s.s.s.s.s.s.s.s.s.s.s.s.s.s.s.s.s.s.s.s.s.s.s.s.s.s.s.s.s.e.s.s.s.s.s.s.s.s.s.s.s.s.e.e.e.e.s.s.s.s.g...: ",
"G.g.e.e.s.s.s.s.e.e.s.s.s.e.e.e.s.s.s.s.s.s.s.s.s.s.s.e.s.s.s.s.e.e.e.e.e.e.e.s.s.s.s.s.s.s.s.s.s.s.s.e.e.e.e.e.s.s.s.e.s.s.s.s.s.s.s.e.e.e.e.e.s.e.s.e.s.e.e.v :.Z.e.s.s.s.e.e.s.s.s.s.s.s.s.s.s.e.e.e.e.e.s.s.s.s.s.s.s.s.s.s.s.s.e.e.e.e.e.e.e.e.e.e.e.s.s.e.e.e.s.s.s.s.s.s.e.s.e.e.e.e.s.s.s.s.s.s.s.s.e.e.s.e.s.e.s.s.s.V %.s.e.s.s.e.s.e.e.e.s.s.s.s.e.e.e.e.s.s.s.s.s.s.e.e.e.e.e.e.e.e.s.s.s.s.s.e.s.e.e.s.s.s.s.s.e.e.e.e.e.e.e.e.e.s.s.s.s.s.s.s.s.s.s.s.s.s.s.s.s.e.s.e.s.e.e.s.s.v s.g.s.<.e.e.<.e.e.e.e.e.e.e.e.e.e.e.e.e.e.e.e.e.e.e.e.e.e.e.e.e.e.e.e.e.e.e.e.e.e.e.e.e.e.e.e.e.e.e.e.e.e.e.e.e.s.s.e.e.e.e.<.<.e.e.e.e.e.e.e.e.e.e.e.e.<.e.:.v s.s.e.e.e.e.s.s.e.s.s.s.e.e.e.s.s.s.e.e.e.e.s.s.e.e.e.e.e.e.e.e.e.s.s.s.s.s.s.e.s.s.s.e.e.s.e.e.e.e.e.e.e.e.s.s.e.s.s.e.e.e.s.s.s.s.s.s.s.s.s.s.s.s.e.s.e.g.<.V M.g.e.s.s.s.e.e.e.e.s.s.s.s.s.e.e.e.e.s.s.s.s.s.s.s.s.s.s.s.s.s.s.s.s.s.e.e.e.e.s.s.s.s.s.s.s.e.e.s.s.s.s.e.e.s.s.s.s.s.s.s.s.s.s.s.s.s.s.s.s.s.s.s.s.e.s.s.%.V Z.g.e.e.s.s.s.s.s.s.s.s.s.s.e.e.e.s.s.s.s.s.s.s.s.s.s.s.s.s.s.s.s.s.s.s.s.s.s.s.s.s.s.s.s.s.s.s.s.s.e.e.e.e.e.e.e.e.s.e.e.e.e.e.s.e.s.s.s.s.s.s.s.e.s.s.s.s.%.S G.s.e.g.s.e.s.e.<.e.e.e.e.e.e.e.s.s.s.s.e.e.e.e.s.s.s.s.s.s.s.s.s.s.s.s.s.s.s.s.s.s.s.s.s.s.s.s.s.e.e.e.e.s.s.s.s.s.s.s.s.s.s.s.e.s.s.s.s.e.e.e.e.s.s.s.s.g...: ",
"G.M.s.e.s.s.e.s.e.e.e.s.s.s.s.s.s.s.s.s.s.s.s.s.e.e.e.s.s.s.s.s.s.s.s.s.s.s.s.s.s.s.s.s.s.s.s.s.e.e.s.s.s.s.e.e.s.s.s.s.s.s.s.e.e.e.e.e.s.s.e.e.s.e.s.e.s.e.e.v :.Z.e.s.s.s.e.s.e.e.s.s.s.s.s.s.e.e.e.e.s.s.s.s.s.s.s.s.s.s.s.s.s.s.e.e.e.e.e.e.e.e.e.e.e.s.s.e.e.e.s.s.s.s.s.s.s.s.e.e.e.s.s.s.s.s.s.s.s.s.e.e.g.e.s.s.s.s.s.v %.s.e.e.s.e.s.e.e.e.s.s.s.s.s.e.e.e.s.s.s.s.e.e.e.e.e.e.e.e.e.e.s.s.s.s.s.s.s.s.s.s.s.s.s.e.e.e.e.e.e.e.s.s.s.e.s.s.s.s.s.s.s.s.s.s.s.s.s.s.e.e.s.e.s.e.e.e.s.v s.g.e.<.s.e.<.e.e.e.e.e.e.e.e.e.e.e.e.e.e.e.e.e.e.e.e.e.e.e.e.e.e.e.e.e.e.e.e.e.e.e.e.e.e.e.e.e.e.e.e.e.e.e.e.e.s.e.e.e.e.e.<.e.e.e.e.e.e.e.e.e.<.e.<.e.<.e.:.v g.g.s.e.e.s.s.s.e.s.s.s.e.e.e.s.s.s.s.s.s.s.s.s.s.s.s.s.s.s.s.s.e.e.s.s.s.s.e.e.s.s.s.s.e.e.e.e.s.s.e.s.s.s.s.s.e.e.s.e.e.e.s.s.s.s.s.s.s.s.s.s.s.s.e.s.e.g.<.v M.g.e.s.s.s.e.e.e.e.s.s.s.s.s.e.e.e.s.s.s.s.s.s.s.s.s.s.s.s.s.s.s.s.s.s.e.e.e.e.e.s.s.s.s.s.s.e.e.s.s.s.s.e.e.s.s.s.s.s.s.s.s.s.s.s.s.s.s.s.s.s.e.e.s.e.s.g.%.V Z.g.e.e.s.s.s.s.s.s.s.s.s.s.s.s.s.e.s.s.s.s.s.s.s.s.s.s.s.s.s.s.e.e.s.s.s.s.s.s.s.s.s.s.s.s.s.s.s.e.e.e.e.e.s.s.e.e.e.s.s.e.e.e.e.s.s.s.s.s.s.s.s.e.s.s.s.s.%.S G.s.e.g.s.e.s.e.e.e.e.s.s.s.s.s.s.s.s.e.s.e.e.e.s.s.s.s.s.s.s.s.s.s.s.s.s.s.s.s.s.s.s.s.s.s.s.s.e.e.e.e.s.s.s.e.s.s.s.s.s.s.s.s.e.e.s.e.s.e.e.e.e.s.s.s.s.g...: ",
"G.g.s.e.s.s.e.s.e.e.e.s.s.s.s.s.s.s.s.s.s.s.s.s.e.e.e.e.s.s.e.e.s.s.s.s.s.s.s.s.s.s.s.s.s.s.s.s.e.e.e.e.s.s.e.e.s.s.s.s.s.s.e.e.e.e.e.e.s.s.s.e.s.e.s.e.s.e.e.v :.Z.e.s.s.s.e.s.e.e.s.s.s.s.s.s.e.e.e.e.e.s.s.s.s.s.s.s.s.s.s.s.s.s.e.e.e.e.e.s.e.e.e.e.s.s.s.s.e.e.s.s.s.s.s.s.s.s.e.e.e.s.s.s.s.s.s.s.s.s.s.s.s.e.s.e.s.s.s.V %.s.e.e.s.e.s.e.e.e.s.s.s.s.s.e.e.e.s.s.s.s.e.e.e.e.e.e.e.e.s.s.s.s.s.e.s.s.s.s.s.s.s.s.s.e.e.e.s.s.s.s.s.s.s.s.s.s.s.s.s.s.s.s.s.s.s.s.s.e.e.e.s.e.s.e.e.s.s.v s.g.e.<.s.e.<.e.e.e.e.e.e.e.e.e.e.e.e.e.e.e.e.e.e.e.e.e.e.e.e.e.e.e.e.e.e.e.e.e.s.s.e.e.s.s.e.e.e.e.e.e.e.e.e.e.e.e.e.e.e.e.e.e.e.e.e.e.e.e.e.e.<.e.e.e.<.e.:.v M.g.s.s.e.s.s.e.s.s.s.s.e.e.e.s.s.s.s.s.s.s.s.s.s.s.s.s.s.s.s.s.e.e.e.s.s.s.e.e.s.s.s.s.e.e.e.e.s.s.s.s.s.s.s.s.e.e.s.s.e.e.s.s.s.s.s.s.s.s.s.s.s.s.e.s.e.s.<.v Z.g.e.e.s.s.e.e.e.s.s.s.s.s.e.e.e.e.s.s.s.e.e.e.s.s.s.s.s.s.s.s.s.s.s.s.e.e.e.e.e.s.s.s.s.s.s.e.e.e.s.s.s.e.e.s.s.s.s.s.s.s.s.s.s.s.s.s.s.s.s.s.e.e.s.e.s.g.%.V Z.g.e.e.s.s.s.s.s.s.s.s.s.s.s.s.e.e.e.e.e.s.s.s.s.s.s.s.s.s.s.s.e.e.s.s.s.s.s.s.s.s.s.s.s.s.s.s.s.e.e.e.s.s.s.s.s.e.e.s.s.e.e.e.e.e.s.s.s.s.s.s.e.e.e.s.s.s.%.S G.s.e.g.e.e.e.e.e.e.s.s.s.s.s.s.s.e.e.e.e.e.s.s.s.s.s.s.s.s.s.s.s.s.s.s.s.s.s.s.s.s.s.s.s.s.s.s.e.e.e.e.s.s.s.e.s.s.s.e.e.s.s.s.e.e.e.s.s.s.e.e.e.s.s.s.s.g...: ",
"Z.g.s.s.s.s.e.s.e.e.e.s.s.s.s.s.s.s.s.s.s.e.s.s.e.e.e.e.s.s.s.e.s.s.s.s.s.s.s.s.e.e.e.e.e.e.s.e.e.e.e.e.s.s.s.s.s.s.s.s.e.e.e.e.e.e.s.s.s.s.e.e.s.e.s.e.s.e.e.v :.Z.e.s.e.s.e.s.e.e.s.s.s.s.s.s.e.e.e.e.e.s.s.s.s.s.s.s.s.s.s.s.s.s.e.e.s.s.s.s.s.s.s.s.s.s.s.s.e.e.e.s.s.s.s.e.s.s.s.s.s.s.s.s.s.s.s.s.s.s.s.s.s.e.s.e.e.e.e.v %.s.e.e.s.e.s.e.e.e.e.e.e.s.s.s.e.e.s.s.s.e.e.e.e.e.s.s.s.s.s.s.s.s.e.e.s.s.s.s.s.s.s.s.s.e.e.e.s.s.s.s.s.s.s.s.e.e.e.s.s.s.e.e.s.s.s.s.s.e.e.e.e.<.s.e.s.s.s.v s.s.e.e.s.e.<.e.e.e.e.e.e.e.e.e.e.e.e.e.e.e.e.e.e.e.e.e.e.e.e.e.e.e.e.<.<.e.e.e.e.e.e.e.e.e.e.e.e.e.e.e.e.e.e.e.e.e.e.e.e.e.e.e.e.e.e.e.e.e.e.e.e.e.e.e.<.e.:.v M.g.s.s.e.s.s.s.s.s.s.s.e.e.s.s.s.s.s.s.s.s.s.s.s.s.s.s.s.s.s.s.s.s.e.e.s.e.e.e.e.e.s.e.e.s.s.s.s.s.s.s.e.e.s.s.e.e.s.s.e.e.s.s.s.s.s.s.s.s.s.s.s.s.e.s.e.s.<.v Z.g.e.e.s.e.e.s.s.s.s.s.s.e.e.e.e.s.s.e.s.e.e.e.s.s.s.s.s.s.s.s.s.s.s.s.e.e.e.e.e.s.s.s.s.s.s.e.e.e.s.s.s.e.e.s.s.s.s.s.s.s.s.s.s.s.s.s.s.s.s.s.e.e.s.e.s.s...V Z.g.e.e.s.s.e.e.s.s.s.s.s.s.s.s.e.e.e.e.e.e.s.s.s.s.s.s.s.s.s.s.e.e.s.s.s.s.s.s.e.e.e.e.s.s.s.e.e.e.s.s.s.s.s.s.s.s.s.e.s.s.s.s.e.e.s.s.s.s.s.s.e.e.e.e.s.s.%.S G.s.e.s.e.e.e.e.e.s.s.s.s.s.s.s.s.s.e.e.e.e.s.s.s.s.s.s.s.s.s.s.s.s.s.s.s.s.s.s.s.s.s.s.s.s.s.s.s.s.s.s.s.s.s.s.s.s.s.e.e.e.s.s.e.e.s.s.s.s.s.e.e.s.s.s.s.g...: ",
"Z.g.s.s.s.s.e.e.e.e.e.s.s.s.s.s.s.s.s.s.s.e.s.s.e.e.e.e.s.s.s.e.e.e.e.e.s.s.s.s.e.e.e.e.e.e.s.e.e.e.e.e.s.s.e.s.s.s.s.e.e.e.e.e.e.e.s.s.s.s.s.e.s.e.s.s.s.e.e.v :.Z.e.e.e.s.<.e.e.e.s.s.s.s.s.s.e.e.e.e.e.s.s.s.s.s.s.s.s.s.s.s.e.s.s.s.s.s.s.s.s.s.s.s.s.s.s.s.e.e.s.s.s.s.e.e.s.s.s.s.s.s.s.s.s.s.s.s.s.s.e.e.s.<.s.e.e.e.e.v :.s.e.e.s.e.e.e.s.s.e.e.e.e.s.s.e.e.s.s.s.e.e.e.s.s.s.s.s.s.s.s.s.s.e.e.s.s.s.s.s.s.s.s.s.e.e.e.s.s.s.e.e.s.s.e.e.e.e.s.s.s.e.e.e.e.s.s.s.e.e.e.e.<.s.e.s.s.s.v s.g.e.e.s.e.<.e.e.e.e.e.e.e.e.e.e.e.e.e.e.e.e.e.e.e.e.e.e.e.e.e.e.e.<.<.<.<.<.e.e.e.e.e.e.e.e.e.e.e.e.e.e.e.e.e.e.e.e.e.e.e.e.e.e.e.e.e.e.e.e.e.e.e.e.e.<.s.:.v g.g.s.s.e.s.s.s.s.s.s.s.s.s.s.s.s.e.e.e.e.e.e.s.s.s.s.s.s.s.s.s.e.s.e.e.e.e.e.e.e.e.e.e.e.s.s.s.s.s.s.s.e.e.e.e.e.e.s.s.s.s.s.s.s.s.s.s.s.s.s.s.s.s.e.s.e.s.<.v Z.g.e.e.s.s.e.s.s.s.s.s.s.e.e.e.s.s.s.e.e.e.e.e.s.s.s.s.s.s.s.s.s.s.s.s.e.e.e.e.e.s.s.s.s.s.s.s.e.e.s.s.s.e.e.s.s.s.s.s.s.s.s.s.s.s.s.s.s.s.s.s.e.e.s.e.s.g.%.V Z.g.e.e.s.e.e.e.s.s.s.s.s.s.s.s.e.e.e.e.e.e.s.s.s.s.s.s.s.s.s.s.e.e.s.s.s.s.s.s.e.e.e.e.s.s.s.e.e.s.s.s.s.e.e.e.s.s.s.s.e.s.s.s.e.e.s.s.s.s.s.s.e.<.e.e.e.s.%.S G.s.e.s.e.e.e.e.e.e.s.s.s.s.s.e.s.e.e.e.e.e.s.s.s.s.s.s.s.s.s.s.s.s.s.s.s.s.s.s.s.s.s.s.s.s.s.s.s.s.s.s.s.s.s.s.s.s.s.e.e.e.s.s.e.s.s.s.s.s.s.s.e.s.s.s.s.g...: ",
"G.M.s.s.s.s.s.s.e.e.e.e.e.e.e.e.s.s.s.s.s.e.s.s.e.e.e.s.s.s.s.s.s.e.e.e.e.e.e.s.s.s.s.s.s.s.s.s.e.e.e.e.e.e.e.s.s.s.s.s.s.s.s.s.e.e.s.s.s.e.e.e.s.e.s.e.e.e.s.v <.Z.e.g.e.s.e.s.s.s.s.s.s.s.s.s.s.s.s.e.e.e.s.g.e.e.s.s.s.s.s.s.e.e.s.s.s.s.s.s.s.s.s.e.e.s.s.s.e.s.s.s.s.e.e.e.e.e.e.s.s.s.s.s.s.s.e.e.e.e.e.<.e.<.s.e.s.s.s.v :.g.e.s.s.e.s.e.s.s.s.s.s.s.s.s.e.s.s.s.s.s.e.e.e.s.s.s.s.s.e.e.s.s.s.s.s.s.s.e.s.s.s.e.s.s.e.e.s.s.s.s.s.s.s.s.e.e.e.e.e.s.s.s.s.s.s.s.e.e.e.s.e.e.s.<.s.e.<.v <.g.e.e.s.e.e.<.<.<.<.<.e.e.e.e.e.e.e.e.e.e.e.e.e.e.e.e.e.e.e.e.e.e.e.e.e.e.e.e.<.<.e.e.e.e.e.e.e.e.e.e.e.e.e.e.e.e.e.e.s.e.e.<.e.e.e.e.e.e.e.e.e.e.<.e.e.s.<.v g.g.s.s.s.s.s.s.s.s.s.e.e.s.s.s.e.e.s.s.s.s.s.s.e.s.s.s.s.e.e.e.e.e.e.e.s.e.e.e.e.e.s.s.e.e.e.e.e.e.s.e.e.e.e.e.s.s.s.e.e.<.e.s.e.s.s.s.s.s.e.e.e.e.e.s.e.g.<.v M.g.e.e.e.e.e.e.e.e.s.s.s.s.s.s.s.e.e.e.e.e.e.e.s.s.s.s.s.s.s.s.s.s.s.e.e.e.e.e.e.s.s.s.s.s.e.e.e.e.s.s.s.s.e.s.s.s.s.e.s.s.s.s.s.s.s.e.e.e.s.s.s.e.s.s.e.g.:.V Z.s.s.s.e.s.s.s.s.s.s.e.e.e.e.s.s.s.e.e.s.s.s.s.s.s.e.e.e.e.e.e.s.s.s.s.s.s.s.s.e.e.e.e.e.e.e.e.s.s.s.s.s.s.s.s.e.e.e.e.e.e.e.e.s.e.e.e.s.s.s.e.e.e.s.s.s.g.%.S Z.g.s.s.e.e.s.e.s.s.s.s.s.s.s.s.s.s.s.s.s.s.s.s.e.e.e.e.s.s.s.s.s.s.s.s.s.s.s.s.s.s.s.s.s.s.s.s.s.s.s.s.s.e.e.e.s.s.s.s.s.s.s.s.s.s.s.s.e.e.e.e.s.s.e.e.e.g...: ",
"Z.g.s.s.s.s.e.e.e.e.e.s.e.e.s.s.s.s.s.e.e.e.s.s.e.e.e.s.s.s.s.s.e.e.e.e.e.e.e.s.e.s.s.s.s.s.s.s.e.e.e.e.e.e.s.s.s.s.s.s.s.e.s.s.e.e.s.s.s.e.e.e.e.<.s.<.e.e.e.v <.Z.e.g.<.e.e.s.s.s.s.s.s.s.s.s.e.s.s.e.e.e.s.s.e.e.s.e.s.s.s.s.s.s.s.s.s.s.s.s.s.s.s.e.e.s.s.s.e.s.s.s.s.e.e.e.e.e.e.s.s.s.s.s.s.s.e.e.e.e.e.e.s.<.s.e.s.s.s.v :.g.e.e.s.<.s.e.s.s.s.s.s.s.s.s.e.s.s.s.s.s.e.e.e.s.s.s.s.s.e.e.s.s.s.s.s.s.e.e.s.e.e.e.e.s.s.s.s.s.s.s.s.s.s.s.e.e.e.e.e.s.s.s.s.s.s.s.e.e.e.s.e.e.s.e.g.s.e.v e.M.e.e.s.<.e.<.e.<.<.e.e.e.e.e.e.e.e.e.e.e.e.e.e.e.e.e.e.e.e.e.e.e.e.e.e.e.e.e.<.e.e.e.e.e.e.e.e.e.e.e.e.e.e.e.e.e.e.e.e.e.e.e.e.e.e.e.e.e.e.e.e.e.e.e.<.s.:.v g.g.s.s.s.s.s.s.s.s.s.e.e.s.s.s.e.e.s.s.s.s.s.s.e.s.s.s.s.e.e.e.s.e.e.e.e.e.e.e.e.e.s.s.e.e.e.e.e.e.e.e.s.s.s.e.e.s.s.e.e.e.e.s.e.s.s.s.s.s.e.e.e.e.e.s.e.g.<.v M.g.e.e.e.e.e.e.e.e.e.e.s.s.s.s.s.s.e.e.e.e.e.e.s.s.s.s.s.s.s.s.s.s.s.e.e.e.e.e.e.s.s.s.s.s.e.e.e.e.s.e.s.e.e.s.s.s.s.e.e.s.s.s.s.s.e.e.e.e.s.s.s.e.s.s.e.g.:.V Z.s.s.s.e.s.s.s.s.s.e.e.e.e.e.s.s.s.s.e.s.s.s.s.e.e.e.e.e.s.s.s.s.s.s.s.s.s.s.s.e.e.e.e.e.e.e.e.s.s.s.s.s.s.s.s.e.e.e.e.e.e.e.e.s.e.e.e.s.s.s.e.e.e.s.s.s.s.%.S G.g.e.s.e.e.s.e.s.s.s.s.s.s.s.s.s.s.s.s.s.s.s.s.e.e.e.e.s.s.s.s.s.s.s.s.e.e.e.e.s.s.s.s.s.s.s.s.s.s.s.s.s.e.e.e.s.s.s.s.s.s.s.s.s.s.s.s.s.e.e.e.s.s.e.e.e.g...: ",
"Z.g.s.s.s.s.e.e.s.s.s.s.s.s.s.s.s.s.s.e.e.e.e.s.e.e.s.s.s.s.s.s.s.s.e.s.e.e.e.e.e.e.s.s.s.e.e.s.e.s.s.s.s.e.e.e.e.e.e.e.e.e.s.e.s.s.s.s.s.s.e.e.e.<.s.e.e.e.e.v :.Z.e.s.<.e.e.e.s.s.s.s.s.s.s.s.e.e.e.e.e.e.e.s.e.e.e.e.e.s.s.s.s.s.s.s.s.s.s.s.s.s.s.e.e.s.s.s.s.s.s.s.s.e.e.e.e.e.e.s.s.s.s.s.s.s.s.e.e.e.e.e.s.e.s.e.s.s.s.V :.s.e.e.s.<.e.e.s.s.s.s.s.s.s.s.e.s.s.s.s.s.e.e.e.e.s.s.s.s.s.s.s.s.s.s.s.e.e.e.e.e.e.e.s.s.s.s.e.e.e.e.e.e.e.e.e.e.e.e.e.s.s.s.s.s.s.e.e.e.e.s.s.s.s.e.g.s.e.V e.M.e.<.e.<.e.<.e.e.e.e.e.e.e.e.e.e.e.e.e.e.e.e.e.e.e.e.e.e.e.e.e.e.e.e.e.e.e.e.e.e.e.e.e.e.e.<.e.e.e.e.e.e.e.e.e.e.e.e.e.e.e.e.e.e.e.e.e.e.e.e.e.e.e.e.<.s.:.v g.g.s.s.s.s.s.s.s.s.s.s.e.e.s.s.s.e.e.e.e.e.s.s.e.s.s.s.s.e.e.e.s.s.e.e.e.e.e.e.e.s.s.s.s.e.e.e.e.e.e.s.s.s.s.s.s.s.s.s.e.e.s.s.e.s.s.s.s.s.e.e.e.s.e.s.e.g.<.v M.s.e.s.e.e.e.e.e.e.e.e.e.e.s.s.s.s.s.s.e.e.e.e.s.s.s.s.s.s.s.s.s.s.s.e.e.e.s.s.s.s.s.s.s.s.e.e.s.s.e.e.s.s.s.s.s.s.e.e.e.e.s.s.s.s.s.s.e.e.e.s.s.e.s.s.e.s.:.V Z.s.s.s.e.s.s.s.e.e.e.s.e.e.e.e.e.s.s.s.s.s.s.e.e.e.e.e.e.e.s.s.s.s.s.s.s.s.s.s.s.e.s.s.e.e.e.e.s.s.s.s.s.s.s.s.s.s.e.e.e.e.s.s.s.s.e.s.s.s.e.e.e.e.s.s.e.s.%.S G.g.s.s.e.e.s.e.s.s.s.s.s.s.s.s.s.s.s.s.s.s.s.s.s.s.s.e.s.s.s.s.e.e.e.e.e.e.e.e.s.s.s.s.s.s.s.s.e.e.s.s.s.e.e.e.s.s.s.s.s.s.s.s.e.s.s.s.e.e.e.e.e.s.e.s.s.g...- ",
"Z.g.e.e.s.e.e.e.s.s.s.s.s.s.s.s.s.s.s.e.e.e.e.e.s.s.s.s.s.s.s.s.s.s.s.s.e.e.e.e.e.e.s.s.e.e.s.s.e.e.s.s.s.s.e.e.e.e.e.e.e.e.e.e.s.s.s.s.s.s.e.e.s.e.s.s.s.e.e.v :.Z.e.s.<.s.e.s.s.s.s.s.s.s.s.s.e.e.e.e.e.e.e.e.e.e.e.e.e.s.s.s.s.s.s.s.s.s.s.s.s.s.s.e.e.s.s.s.e.s.s.s.e.e.s.s.e.e.e.s.s.s.s.s.s.s.s.s.s.s.s.s.s.e.s.s.s.s.s.V :.g.e.e.s.<.s.e.s.s.s.s.s.s.s.s.e.e.s.s.s.s.e.e.e.e.e.s.s.s.s.s.s.s.s.s.e.e.e.e.s.s.e.e.e.s.s.s.e.e.e.e.e.e.e.e.e.e.e.e.e.s.s.s.s.s.s.s.e.e.e.e.g.s.s.e.g.s.e.V e.M.e.<.e.<.e.<.e.e.e.e.e.e.e.e.e.e.e.e.e.e.<.<.e.e.e.e.e.e.e.e.e.e.e.e.e.e.e.e.e.e.e.e.e.e.e.<.e.e.e.e.e.e.e.e.e.e.e.e.e.e.<.e.e.e.e.e.e.e.e.e.e.s.e.e.e.s.:.p g.g.s.s.s.s.s.s.s.s.s.s.e.e.s.s.s.e.e.e.e.e.s.s.e.s.s.s.s.e.e.e.g.s.s.e.e.e.e.s.s.s.s.s.s.s.e.e.s.s.s.s.s.s.s.s.s.s.s.s.e.e.s.s.e.s.s.s.s.s.e.e.e.s.e.s.e.g.<.v M.g.s.s.s.e.e.s.e.e.e.e.e.e.e.s.s.s.s.s.e.e.s.s.s.s.s.s.s.s.s.s.s.s.s.e.e.s.s.s.s.s.s.s.s.s.e.e.s.s.e.e.e.e.s.s.e.e.e.e.e.s.s.s.s.s.s.s.e.e.e.e.s.e.s.s.e.s.:.V Z.s.s.s.e.s.s.s.e.s.e.e.e.e.s.s.s.s.s.s.s.s.e.e.e.e.e.e.e.e.s.s.s.s.s.s.e.e.e.e.s.s.s.s.s.s.s.s.e.s.e.e.s.s.s.e.s.s.e.e.e.e.e.s.s.s.s.s.s.s.e.e.e.s.s.s.e.s.%.V G.g.e.s.e.e.s.s.s.s.s.s.s.s.s.s.s.s.s.s.s.s.s.s.s.s.s.s.s.e.e.e.e.e.e.e.e.s.e.e.s.s.s.s.s.s.s.s.e.e.e.e.s.s.s.s.e.e.e.e.s.e.e.e.e.e.s.s.e.s.s.s.e.s.e.s.s.g...- ",
"G.g.e.e.e.e.e.e.s.s.s.s.s.s.s.s.s.s.s.s.e.e.e.e.s.s.s.s.s.s.s.s.s.s.e.e.e.e.s.s.e.s.s.s.s.s.s.s.e.s.s.s.s.e.e.e.e.e.e.e.e.e.e.e.s.s.s.s.s.s.e.e.s.e.g.s.s.e.s.v :.M.e.s.e.s.e.s.s.s.s.s.s.s.s.s.e.e.e.e.e.e.e.e.e.e.e.e.e.s.s.s.e.e.s.s.s.s.s.s.s.s.s.e.e.s.s.s.e.e.e.e.s.s.s.s.e.s.s.s.s.s.e.e.s.s.s.s.s.s.s.s.s.e.g.s.s.s.s.V :.g.e.e.s.e.s.s.s.s.s.s.s.s.s.s.e.s.s.s.s.s.s.e.e.e.e.s.s.s.s.s.s.s.e.e.s.e.e.e.s.s.s.s.e.e.e.e.e.e.e.e.e.e.e.e.e.e.e.e.s.s.s.s.s.s.e.e.e.e.e.e.s.e.s.<.s.s.e.V e.M.e.<.e.<.e.<.e.e.e.e.e.e.e.e.e.e.e.e.e.e.e.e.e.e.e.e.e.e.e.e.<.<.e.e.e.e.e.e.e.e.e.e.e.e.<.<.e.e.e.e.e.e.e.e.e.e.e.e.e.e.<.<.e.e.e.e.e.e.e.e.e.e.e.e.e.e.:.p g.g.s.e.s.s.s.s.s.s.s.e.e.s.s.s.s.e.e.e.e.e.s.s.e.s.s.s.s.e.e.e.s.s.e.e.e.s.s.s.s.s.s.e.e.e.e.e.s.s.s.s.s.s.s.s.s.s.e.e.s.s.s.s.e.s.s.s.s.e.e.e.e.s.e.s.e.s.<.v M.g.s.s.s.e.e.s.e.e.e.e.e.e.e.e.e.e.e.s.e.s.s.s.s.s.s.s.s.s.s.s.s.s.s.e.e.e.s.s.s.s.s.s.s.e.e.e.s.s.e.e.e.e.e.e.e.e.s.s.s.s.s.s.e.e.e.e.s.s.s.e.s.e.s.s.e.s.:.V Z.s.s.s.e.e.s.s.e.e.s.s.s.s.s.s.e.s.s.s.s.s.e.e.s.e.e.e.e.e.s.s.e.e.e.s.s.s.e.e.s.s.s.s.s.s.s.s.e.e.s.s.s.s.e.e.s.s.e.e.e.e.s.s.s.s.s.s.s.e.e.e.e.s.s.e.s.g.%.S G.s.e.s.e.e.s.s.s.s.s.s.s.s.s.s.s.s.s.s.s.s.s.s.s.s.s.s.e.e.e.e.e.e.e.e.e.s.s.s.s.s.s.s.s.s.s.s.e.e.e.e.s.s.s.s.e.e.e.e.s.s.s.e.e.e.e.s.s.s.s.s.e.s.e.s.s.g...- ",
"G.g.e.<.e.e.e.s.s.s.s.s.s.s.e.e.s.s.s.e.e.e.e.e.s.s.s.s.s.s.e.e.s.s.e.e.s.e.s.s.e.s.s.s.s.s.s.s.e.s.s.s.s.e.e.s.e.e.e.e.e.e.s.s.e.e.e.s.s.s.s.s.s.<.s.e.e.e.e.v :.M.e.s.e.s.s.s.s.s.s.s.s.s.s.s.s.e.e.e.e.s.e.e.s.e.e.e.e.s.s.s.e.e.s.s.s.s.s.s.s.s.s.e.e.s.s.s.e.e.e.e.s.e.s.s.s.s.s.s.s.s.e.e.s.s.s.s.s.s.s.s.s.e.s.s.s.s.s.V :.g.e.e.s.e.s.s.s.s.s.s.s.s.s.s.e.e.e.e.s.s.s.s.e.e.s.s.s.s.s.s.s.s.e.e.e.e.e.e.s.s.s.s.e.e.e.e.e.e.s.s.e.s.e.e.s.s.e.s.s.s.s.s.s.s.e.e.e.s.s.e.s.e.s.<.s.s.e.v e.g.e.<.e.<.e.e.e.e.e.e.e.e.e.e.e.e.e.e.e.e.e.e.e.e.e.e.e.e.e.e.<.<.e.e.e.e.e.e.e.e.e.e.e.e.e.e.e.e.e.e.e.e.e.e.e.e.e.e.e.<.<.<.e.e.e.e.e.e.e.e.e.e.<.e.e.s.:.p g.g.s.e.s.s.s.s.s.s.e.e.e.e.s.s.s.e.e.e.e.e.s.s.e.s.s.s.s.e.e.e.e.e.e.e.e.s.s.s.s.s.e.e.e.e.s.s.s.s.s.s.e.e.e.e.s.e.e.e.s.s.s.s.e.s.s.s.s.e.e.e.e.s.e.s.e.g.<.v Z.g.s.s.s.e.e.s.s.s.e.s.e.s.s.s.e.e.e.s.s.s.s.s.s.s.s.s.s.s.s.s.s.s.s.e.e.e.s.s.e.s.s.s.s.e.e.e.s.s.e.e.s.s.e.e.e.e.e.s.s.s.s.e.e.e.e.e.s.s.s.e.s.e.s.s.e.s.%.v Z.s.s.s.e.e.s.e.e.e.e.s.s.s.s.s.e.s.s.s.s.s.s.e.s.s.e.e.e.e.e.s.e.e.s.s.s.s.s.e.s.s.s.s.s.s.s.s.e.e.s.s.s.s.e.e.s.s.e.e.e.e.s.s.e.s.s.s.e.e.e.s.e.s.s.e.s.s.%.V Z.s.e.s.e.e.s.s.s.s.s.s.s.s.s.s.s.s.s.s.s.s.s.s.s.s.s.s.e.e.e.e.e.e.s.s.s.s.s.s.s.s.s.s.s.s.s.s.e.e.e.e.s.s.s.s.e.e.e.e.s.s.s.s.e.e.s.s.s.s.s.s.e.s.s.s.s.g...- ",
"G.g.e.e.e.e.e.s.s.s.e.e.e.e.e.e.s.s.s.e.e.e.e.e.s.s.s.s.s.s.s.s.s.e.e.e.s.s.s.s.s.s.s.s.s.s.s.s.s.s.s.s.s.s.s.s.s.s.s.s.s.s.s.s.e.e.e.s.s.s.s.s.s.e.s.e.e.e.e.v :.M.e.s.e.s.s.s.s.s.s.s.s.s.s.s.s.e.e.e.s.s.s.e.s.s.e.e.s.s.s.s.e.e.s.s.s.s.s.s.s.s.s.e.e.s.s.s.s.s.e.e.e.e.s.s.e.e.s.s.s.e.e.e.s.s.s.s.s.s.e.s.s.<.s.s.s.s.s.V :.s.e.e.s.e.s.s.s.s.s.s.s.s.s.s.e.e.e.e.e.s.s.s.e.e.e.s.s.s.e.e.s.s.s.s.e.e.e.e.s.s.s.s.s.e.e.e.s.s.s.s.s.s.s.s.s.s.s.s.s.s.s.s.s.e.e.e.s.s.s.s.s.e.s.e.g.s.e.v <.g.e.e.e.<.e.e.e.e.e.e.e.e.e.e.<.<.<.<.e.e.e.e.e.e.e.e.e.e.e.e.<.<.e.e.e.e.e.e.e.e.e.e.e.e.e.e.e.e.e.e.e.e.e.e.e.e.e.e.e.e.<.e.e.e.e.e.e.e.e.e.e.e.e.e.e.s.<.v g.g.s.e.s.s.s.s.e.s.e.e.e.e.s.s.e.e.s.e.s.s.s.s.s.s.s.s.s.e.e.e.e.e.e.e.e.e.s.s.s.s.s.s.s.s.s.s.s.s.s.s.e.e.e.e.s.e.e.e.s.s.s.e.e.s.s.s.s.e.e.e.e.e.e.s.e.g.<.v Z.g.s.s.s.e.e.e.s.s.s.s.s.s.s.s.e.e.e.s.s.s.s.s.s.s.s.s.s.s.s.s.s.s.s.e.e.e.s.s.e.s.s.s.s.e.e.e.e.e.s.s.e.s.e.s.e.e.e.e.s.s.e.e.e.e.s.s.s.s.e.e.s.e.s.s.e.s.%.V Z.s.s.s.e.e.s.e.e.e.e.s.s.s.s.s.s.s.s.e.s.s.s.s.e.s.e.e.e.e.s.s.e.e.s.s.s.s.e.e.s.s.s.s.s.s.s.s.e.e.s.s.s.e.e.e.s.s.s.e.e.s.s.s.e.e.s.s.e.e.s.s.s.s.s.s.s.s.%.V Z.s.e.s.e.s.s.e.s.s.s.s.s.s.s.s.s.s.s.s.s.s.s.s.s.s.s.s.e.e.e.e.s.s.s.s.s.s.s.s.s.s.s.s.s.s.s.s.e.e.e.e.s.s.s.s.s.s.e.e.s.s.s.s.e.e.e.s.s.s.s.s.e.s.s.s.s.g...- ",
"G.g.s.s.s.e.e.e.s.s.e.e.e.e.e.e.s.s.e.e.e.e.e.e.s.s.s.s.s.s.s.s.s.e.e.e.s.s.s.s.e.e.s.s.s.e.s.s.s.s.s.s.e.s.s.s.s.s.s.s.s.s.s.s.e.e.e.e.s.s.s.s.g.e.g.e.s.e.s.V :.M.e.s.e.s.s.s.s.s.s.s.s.s.s.s.s.s.e.s.s.s.s.e.s.s.e.e.e.s.s.s.e.e.s.s.s.s.s.s.s.s.s.e.e.s.s.s.s.s.e.e.e.e.s.s.e.e.s.s.s.e.e.e.s.s.e.e.e.e.s.s.s.<.s.e.s.s.s.v %.s.e.e.s.e.s.s.s.s.s.s.s.s.s.s.e.e.e.e.e.e.s.s.e.e.s.s.s.e.e.e.s.s.s.s.e.e.e.e.s.s.s.e.s.s.s.s.s.s.s.s.s.s.s.s.s.s.s.s.s.s.s.s.s.e.e.e.s.s.s.s.s.e.s.e.g.s.e.v <.g.e.<.s.e.s.e.e.e.e.e.<.e.<.<.<.<.<.<.e.e.e.e.e.e.e.e.e.e.e.e.e.e.e.e.e.e.e.e.e.e.e.e.e.e.e.e.e.e.e.e.e.e.e.e.e.e.e.e.e.e.<.<.e.e.e.e.e.e.e.e.e.e.<.e.e.s.<.v g.g.s.e.s.s.s.s.e.e.e.e.e.e.e.e.e.e.s.s.s.s.s.s.s.s.s.s.s.e.e.e.s.s.s.s.s.s.s.s.s.s.s.s.s.s.s.s.s.s.s.s.e.e.e.<.e.e.e.e.s.s.s.e.e.s.s.s.s.e.e.e.e.e.e.s.e.g.<.v Z.g.s.s.s.e.e.s.s.s.s.s.s.s.s.s.e.e.e.s.s.s.s.s.s.s.s.s.s.s.s.s.s.s.s.e.e.e.s.s.e.s.s.s.s.e.e.e.e.e.e.e.e.e.e.s.e.e.e.e.s.s.e.e.e.e.e.s.s.s.e.e.s.e.s.s.e.s.%.V Z.s.e.s.e.e.s.e.e.e.e.s.s.s.s.s.s.s.e.e.s.s.s.s.e.e.e.e.e.s.s.s.e.e.e.e.e.e.e.e.e.e.e.e.s.s.s.s.e.e.e.e.e.e.e.e.s.s.e.e.e.s.s.s.<.e.s.s.e.s.s.g.s.s.s.e.e.s.%.V Z.s.e.s.e.s.s.e.s.s.s.s.s.s.s.s.s.s.s.s.s.s.s.s.s.s.s.e.e.e.e.e.s.s.s.s.s.s.s.s.s.s.s.s.s.s.s.s.e.s.s.s.s.s.s.s.e.e.e.e.e.e.e.e.e.e.e.e.s.s.e.e.e.s.e.s.s.g...- ",
"G.g.e.s.s.s.e.s.s.s.s.s.s.s.s.s.s.s.e.e.e.s.s.s.s.s.s.s.e.e.e.e.e.e.e.e.s.e.e.e.e.e.e.e.s.e.e.e.e.e.e.e.e.e.e.e.s.s.s.s.s.s.e.e.s.s.s.s.s.s.s.s.s.e.s.e.s.s.e.v :.M.e.s.e.s.e.e.s.s.s.s.s.s.s.e.s.e.e.e.e.s.s.s.e.s.s.s.s.s.e.e.e.e.e.s.s.s.s.s.s.s.s.s.s.s.e.e.s.s.e.s.s.s.s.s.s.s.s.s.e.e.e.e.s.s.s.s.s.s.s.s.s.e.g.e.s.e.s.v %.s.e.e.g.e.s.s.s.s.s.s.e.e.e.e.s.s.s.s.s.s.s.s.e.e.e.e.e.e.s.s.e.s.s.s.s.s.s.e.e.e.e.e.s.s.s.s.s.s.s.s.s.s.s.s.s.s.s.s.s.s.s.s.e.e.e.s.s.s.s.e.s.e.s.e.s.e.e.v <.g.<.<.e.e.e.e.e.e.<.<.<.<.e.e.e.e.e.e.s.e.e.e.e.e.e.e.e.e.e.e.e.e.e.e.e.e.e.e.e.e.e.e.e.e.e.e.e.e.e.e.e.e.e.e.<.<.e.e.e.e.e.e.e.e.e.e.e.e.e.e.e.e.<.e.e.s.<.v M.g.s.e.s.s.s.e.e.e.s.s.s.s.s.s.s.s.s.s.s.s.s.s.s.s.s.s.s.s.s.s.s.s.s.e.e.e.e.s.s.s.e.e.e.e.e.e.s.s.s.s.e.e.e.e.s.s.s.s.e.e.e.e.e.e.e.s.s.e.e.<.e.e.e.s.s.g.<.v M.g.s.s.s.e.e.e.e.e.e.s.e.e.e.e.e.e.e.e.e.e.e.s.s.s.s.s.s.s.s.s.s.s.s.s.s.s.s.s.s.s.s.s.e.e.s.s.e.e.e.e.e.e.e.e.s.s.s.s.s.s.e.e.s.s.s.s.s.s.e.e.s.g.e.s.s.s.%.V Z.g.e.e.e.e.e.s.s.s.s.s.s.s.s.s.s.e.s.e.s.s.s.s.s.s.e.e.s.s.s.s.s.s.s.s.e.e.e.e.s.s.s.e.e.e.e.e.s.s.s.s.s.s.s.s.e.e.e.s.s.s.s.s.s.e.e.e.s.s.s.s.s.e.e.e.s.s...V Z.s.e.s.e.s.s.s.e.e.e.s.s.s.e.e.s.s.s.s.s.s.s.s.s.s.s.s.e.e.e.e.s.e.e.e.e.e.e.e.e.e.e.s.s.s.s.s.s.e.e.e.s.s.s.e.e.e.e.e.e.e.e.e.s.s.e.e.e.s.s.s.e.s.s.s.s.g...- ",
"G.g.s.s.s.s.e.s.s.s.s.s.s.s.s.s.s.s.e.e.e.s.s.s.s.s.s.s.e.e.e.e.e.e.e.e.s.e.e.e.e.e.e.e.s.e.e.e.e.e.e.e.e.e.s.s.s.s.s.s.s.s.e.e.s.s.s.s.s.s.s.s.s.e.s.e.s.s.e.v :.M.e.s.e.s.e.e.s.s.s.s.s.s.e.e.s.s.e.e.s.s.s.s.s.s.s.s.s.s.s.s.s.e.e.s.s.s.s.e.s.s.s.s.s.s.e.e.s.s.e.s.s.s.s.s.s.s.s.e.e.e.s.e.s.s.s.s.s.s.s.s.s.e.g.e.s.e.s.v %.s.e.e.g.e.s.s.s.s.s.s.e.e.e.e.s.s.s.s.s.s.s.s.e.e.e.e.s.s.s.s.s.s.s.s.s.s.s.e.e.e.e.e.e.s.s.s.s.s.s.s.s.s.s.s.s.s.s.s.s.s.s.s.s.e.e.s.s.s.s.s.s.e.s.e.s.s.e.v <.g.e.e.s.e.s.e.e.e.<.<.<.<.e.e.e.e.e.e.e.e.e.e.e.e.e.e.e.e.e.e.e.e.e.e.e.e.e.e.e.e.e.e.e.e.e.e.e.e.e.e.e.e.e.e.<.<.e.e.e.e.e.e.e.e.e.e.e.e.e.e.e.e.<.e.e.s.<.v M.g.s.e.s.s.s.e.e.e.s.s.s.s.s.s.s.s.s.s.s.s.s.s.s.s.s.s.s.s.s.s.s.s.s.e.e.e.e.s.s.s.e.e.e.e.e.e.s.s.s.s.e.e.e.e.s.s.s.s.e.e.e.e.e.e.e.e.e.e.<.<.e.s.e.s.s.g.<.v M.g.e.s.s.s.e.s.s.e.s.s.e.e.e.e.s.s.s.s.s.s.s.s.s.s.s.s.s.s.s.s.s.s.s.s.s.s.s.s.s.s.s.e.e.e.e.s.e.e.e.e.e.e.e.e.s.s.s.s.s.e.e.e.s.s.s.s.s.s.e.e.s.s.e.s.s.s.:.v M.g.e.e.e.e.e.s.s.s.s.s.s.e.s.s.e.e.s.s.s.s.s.s.s.s.e.e.s.s.s.s.s.s.s.s.s.s.e.e.s.s.s.e.e.e.e.e.s.s.s.s.s.s.s.s.e.e.e.s.s.s.s.s.e.e.e.e.s.s.s.s.s.e.e.s.s.s...V Z.s.e.s.e.s.g.s.e.e.e.s.e.e.e.e.s.s.s.s.s.s.s.s.s.s.s.s.e.e.e.e.s.e.e.e.e.e.e.e.e.e.s.s.s.s.s.s.s.e.e.e.s.s.s.s.e.e.e.e.e.e.e.e.s.s.e.e.e.s.s.s.e.s.s.s.s.g...- ",
"G.g.s.s.s.s.e.s.s.s.s.s.s.s.s.s.s.s.e.e.s.s.s.s.s.s.s.s.e.e.e.e.e.e.s.s.s.s.e.e.e.e.s.s.s.s.e.e.s.s.e.e.e.e.e.e.s.s.s.s.s.s.e.e.s.s.s.s.s.s.s.s.s.e.s.e.s.e.e.p :.M.e.s.e.s.s.s.s.s.s.e.s.e.e.e.s.e.e.e.e.s.s.s.s.s.e.e.e.e.s.s.s.e.e.s.s.s.s.e.e.e.e.e.e.s.s.s.s.s.s.s.s.s.s.s.s.s.s.s.e.s.s.s.s.s.s.s.s.s.s.s.s.e.s.s.s.e.s.v %.s.e.e.s.e.s.s.s.s.s.s.s.s.e.e.s.s.s.s.s.s.s.s.e.e.e.s.s.s.e.e.e.s.s.s.s.s.s.e.s.e.s.s.e.e.e.e.s.s.s.s.s.s.s.s.s.s.s.s.s.s.s.s.s.e.e.s.s.s.s.e.s.e.s.s.s.e.e.v e.g.e.e.s.e.s.e.e.e.e.<.<.e.e.s.e.e.e.e.e.e.e.e.e.e.e.e.e.e.e.e.e.e.e.e.e.e.e.e.e.e.e.e.e.e.e.e.e.e.e.e.e.e.e.e.<.e.e.e.e.e.e.e.e.e.e.e.e.e.e.e.e.e.<.e.e.s.:.p M.g.s.e.e.s.s.e.e.e.e.s.e.s.s.s.s.s.s.s.s.s.s.s.s.s.s.s.s.s.e.e.s.s.e.e.e.e.e.e.s.s.e.e.e.e.s.s.s.s.s.s.e.e.e.e.s.s.s.s.s.s.s.s.e.e.e.e.e.e.e.e.e.s.e.s.s.s.<.v M.g.e.s.s.s.s.s.s.s.s.s.s.s.e.e.s.s.s.s.s.s.s.s.s.s.s.s.s.s.s.s.s.s.s.s.s.e.s.s.s.s.e.e.e.e.s.s.s.s.s.s.s.s.e.e.s.s.e.e.e.e.e.e.s.s.s.s.s.e.e.e.e.s.<.e.s.s.:.V M.s.s.s.s.e.e.e.s.s.s.s.s.s.e.e.e.e.s.s.s.s.e.e.s.s.e.e.s.s.s.s.e.e.e.e.s.e.s.s.s.s.s.e.e.e.e.e.s.s.s.s.s.s.s.s.e.e.e.s.s.s.s.s.e.e.e.e.e.s.s.s.s.e.e.e.s.s...V Z.s.s.s.e.s.g.s.e.e.e.e.s.s.s.s.e.e.s.e.s.s.e.e.s.s.s.s.e.e.s.s.s.e.e.e.e.e.s.s.e.e.s.s.s.s.s.s.s.e.e.s.s.s.s.s.s.s.e.e.e.e.s.s.s.s.e.e.e.s.s.s.e.s.e.s.s.g...- ",
"G.g.s.s.s.s.e.s.s.s.s.s.s.s.s.s.e.e.e.e.e.s.s.s.s.s.s.s.e.e.e.e.e.e.s.s.s.s.e.e.e.e.s.s.s.s.e.e.s.s.s.e.e.e.e.e.s.s.s.s.s.s.e.e.s.s.s.s.s.s.s.s.s.e.s.e.s.s.e.p :.M.e.s.e.s.s.s.s.s.e.e.e.e.e.e.e.e.e.e.e.s.s.s.s.s.e.e.e.e.s.s.e.e.e.s.s.s.s.e.e.e.e.e.e.s.s.s.s.s.s.s.s.s.s.s.e.e.e.s.s.s.s.s.s.s.s.s.s.s.s.s.s.e.s.s.s.e.s.V %.s.e.e.s.e.s.s.s.s.s.s.s.s.e.e.s.s.s.s.s.s.s.s.e.e.s.s.s.s.e.e.s.s.s.s.s.s.s.e.s.s.s.s.e.e.e.e.s.s.s.s.s.s.s.s.s.s.s.s.s.s.s.s.s.e.e.s.s.s.s.e.s.e.s.s.s.s.s.v e.M.e.e.s.e.s.e.e.<.e.e.e.e.e.e.e.e.e.e.e.e.e.e.e.e.e.e.e.e.e.e.e.e.e.e.e.e.e.e.e.e.e.e.e.e.e.e.e.e.e.e.e.e.e.e.e.e.e.e.e.e.e.e.e.e.e.e.e.e.e.e.e.e.<.e.e.s.:.p M.g.s.e.e.s.s.e.s.e.e.e.e.s.s.s.s.s.s.s.s.s.s.s.s.s.s.s.s.s.e.e.s.s.s.s.e.e.s.s.s.s.s.e.e.s.s.s.s.s.s.e.e.e.e.e.s.s.s.s.s.s.s.s.s.e.e.e.e.e.e.e.e.s.s.s.s.s.:.p M.s.e.s.s.s.s.s.s.s.s.s.s.s.e.e.s.s.s.s.s.s.s.s.s.s.s.s.s.s.s.s.s.s.s.s.e.e.s.s.s.s.e.e.e.e.s.s.s.s.s.s.s.s.s.s.s.s.e.e.e.e.e.s.e.s.s.s.e.e.e.e.e.s.e.e.s.s.:.V M.s.s.s.s.s.e.e.s.s.s.s.s.s.e.e.e.e.s.s.s.s.e.e.s.s.e.e.e.s.s.s.e.e.e.e.s.s.s.s.s.s.s.s.e.e.e.e.e.e.s.s.s.s.s.s.e.e.e.s.s.s.s.s.e.e.<.e.e.e.e.e.s.s.s.e.s.s...V Z.s.e.s.e.s.s.s.e.e.e.e.s.s.s.s.e.e.e.e.e.e.e.e.s.s.s.e.e.e.s.s.s.e.e.e.e.s.s.s.e.e.s.s.s.s.s.s.s.e.e.s.s.s.s.s.s.s.e.e.e.e.e.s.s.s.e.e.e.s.s.s.s.s.e.e.e.g...: ",
"Z.g.s.e.s.s.s.s.s.s.s.s.s.s.s.s.s.s.e.e.e.s.s.s.s.s.s.s.e.e.s.s.s.s.s.s.s.e.e.e.s.s.s.s.s.e.e.e.s.s.e.e.e.e.s.e.s.s.s.s.s.s.s.s.s.s.s.s.s.s.s.s.s.e.s.s.s.s.e.p :.M.e.s.e.s.s.s.s.e.e.e.e.e.e.e.e.e.s.s.e.e.e.e.s.e.e.e.e.e.e.s.s.e.e.e.s.s.s.e.e.e.s.s.e.s.s.s.s.s.s.s.s.s.s.s.e.e.e.s.s.s.s.s.s.s.s.s.s.s.s.s.s.e.s.s.s.s.s.V %.s.e.s.s.e.s.e.s.s.s.s.s.s.s.s.s.s.s.s.s.s.s.s.e.s.s.s.s.s.e.e.e.s.s.s.s.s.s.e.s.s.e.e.e.e.s.s.s.s.s.s.s.s.s.s.s.s.s.s.s.s.s.s.s.e.e.s.s.s.s.e.s.<.s.s.s.s.s.v e.M.e.e.s.e.s.e.e.e.e.e.e.e.e.e.e.e.e.e.e.e.e.e.e.e.e.e.e.e.e.e.e.e.e.e.e.e.e.e.e.e.e.e.e.e.e.e.e.e.e.e.e.e.e.e.e.e.e.e.e.e.e.e.e.e.e.e.e.e.e.e.e.e.<.e.e.s.<.p g.g.e.e.s.s.s.e.e.e.e.e.e.s.s.s.s.s.s.s.s.s.s.s.s.s.s.s.s.s.e.e.s.e.e.e.s.s.s.s.s.s.e.e.s.s.s.s.s.s.s.e.e.e.e.e.s.s.s.s.s.s.s.s.s.s.s.e.e.e.s.s.s.s.e.s.s.s.:.p M.s.e.s.s.s.s.s.s.s.e.e.s.s.s.s.s.s.s.s.s.s.s.s.s.s.s.s.s.s.s.s.s.s.e.e.e.e.e.e.s.s.e.e.e.s.s.s.s.s.s.s.s.s.s.s.s.s.e.e.e.e.e.s.e.e.e.s.s.s.e.e.e.s.<.e.s.s.:.V M.g.s.s.s.s.e.e.e.e.s.s.s.e.e.e.e.e.s.s.s.s.e.e.s.e.e.e.e.s.s.e.s.s.e.e.e.s.s.s.e.e.s.s.s.s.e.s.e.e.s.s.s.s.s.s.s.e.s.s.s.s.e.e.e.e.e.e.e.e.e.e.s.e.e.e.s.s...V Z.s.e.s.e.e.s.e.e.e.e.s.s.s.s.s.e.e.e.e.e.e.e.e.s.s.s.e.s.e.s.s.s.s.e.e.e.e.s.s.e.s.s.s.s.s.e.e.e.e.e.s.s.s.s.e.s.s.e.e.e.e.s.s.s.s.s.e.e.s.s.s.s.s.e.e.e.g...: ",
"G.g.s.e.s.s.e.s.s.s.s.s.s.s.s.s.e.e.e.e.e.s.s.s.s.s.s.s.e.e.e.s.s.s.s.s.s.s.e.e.s.s.s.s.s.s.e.e.s.s.s.s.s.s.s.s.s.s.s.s.s.s.s.s.s.s.s.s.s.s.s.s.s.e.s.e.s.s.e.v :.M.e.s.e.s.s.s.s.e.e.e.e.s.e.e.e.e.s.s.e.e.e.e.e.e.e.e.e.e.e.e.e.e.e.e.s.s.s.s.s.s.s.s.e.s.s.s.s.s.s.s.s.s.e.e.e.e.e.s.s.s.s.s.s.s.s.s.s.s.s.s.s.e.g.s.s.s.s.V %.s.e.e.s.e.s.e.s.s.s.s.s.s.s.s.s.s.s.s.s.s.s.s.s.s.s.s.s.e.e.e.e.s.s.s.s.s.s.e.s.s.e.e.s.s.s.s.s.s.s.s.s.s.s.s.s.s.s.s.s.s.s.s.e.e.e.e.s.s.s.e.s.<.s.s.s.s.s.v e.g.e.e.s.e.s.e.e.e.e.e.e.e.e.e.e.e.e.e.e.e.e.<.e.e.e.e.e.e.e.e.e.e.e.e.e.e.e.e.e.e.e.e.e.e.e.e.e.e.e.e.e.e.e.e.e.e.e.e.e.e.e.e.e.e.e.e.e.e.e.e.e.e.<.e.e.s.<.v M.g.s.e.e.s.s.e.s.e.e.e.e.s.s.s.s.s.s.s.s.s.s.s.s.s.s.s.s.s.e.e.s.e.e.e.e.s.s.s.s.s.e.e.s.s.s.s.s.s.s.e.e.e.s.s.s.s.s.s.s.s.s.s.s.s.s.s.s.s.s.s.s.s.e.s.s.s.:.v M.g.s.s.s.s.s.s.s.s.s.e.s.s.s.s.e.e.s.s.s.s.s.s.s.s.s.s.s.s.s.s.e.e.e.e.e.e.e.e.s.s.e.e.e.e.s.s.s.s.s.s.s.s.s.s.s.s.e.e.e.e.e.s.e.e.e.e.e.e.e.e.e.s.<.e.s.s.:.V M.g.s.s.s.e.e.e.e.e.s.s.s.s.e.e.e.e.s.s.s.s.e.e.s.s.e.e.e.s.e.e.s.s.e.e.e.e.s.s.e.e.s.e.s.s.s.s.e.e.s.s.s.s.s.s.s.s.s.s.s.e.e.e.e.e.e.e.e.s.s.e.s.e.s.s.s.s...S Z.e.e.s.e.e.s.<.e.e.e.s.s.s.s.s.e.e.e.e.e.e.e.e.s.s.s.e.s.s.s.s.s.s.e.e.e.e.s.s.s.s.s.s.s.s.e.e.e.e.e.s.s.s.s.s.s.s.e.e.e.e.s.s.s.s.e.e.s.s.s.s.e.s.e.e.e.g.%.: ",
"Z.g.e.e.s.s.e.s.e.e.s.e.e.e.e.e.e.e.e.e.e.s.s.s.s.s.e.e.e.e.s.s.s.s.s.s.s.s.e.e.s.s.s.s.s.s.s.s.s.s.s.s.s.s.s.s.s.s.s.s.s.s.s.s.s.s.s.s.s.s.s.s.s.e.s.e.s.s.e.v <.Z.e.s.e.s.e.e.e.e.e.s.s.s.s.s.e.e.s.s.s.s.e.e.s.e.s.s.s.s.e.s.s.e.e.e.s.s.s.e.s.s.s.e.e.e.s.s.s.s.s.s.s.e.e.e.e.e.e.e.s.s.s.s.s.s.s.s.s.s.s.s.s.e.s.e.s.s.s.V :.s.e.s.s.e.s.e.s.s.s.s.s.s.s.s.s.s.s.s.s.s.s.s.s.s.s.s.s.e.e.e.e.s.s.s.s.s.s.e.e.e.e.e.s.s.s.s.s.s.s.s.s.s.s.s.s.s.s.s.s.s.s.s.s.e.e.e.s.s.s.s.e.<.s.e.s.s.s.v e.g.<.e.e.<.e.e.e.e.e.e.e.e.e.e.e.e.e.e.e.e.e.<.e.e.e.e.e.e.e.e.<.<.<.<.<.<.e.e.e.e.e.e.e.e.e.e.e.e.e.e.e.e.e.e.e.e.e.e.e.e.e.<.e.e.e.e.e.e.e.e.e.e.e.e.e.s.<.v M.s.s.e.e.s.s.e.s.s.e.e.s.s.s.s.s.s.s.s.s.s.s.s.s.s.s.s.s.s.e.e.s.e.e.e.e.s.s.s.s.s.s.e.e.s.s.s.s.s.s.e.e.e.s.s.s.s.s.s.s.s.s.s.e.s.s.s.s.s.s.s.s.s.e.s.s.s.<.v M.g.s.s.s.s.e.s.s.s.e.e.e.e.s.e.e.e.e.e.e.e.e.e.s.s.s.s.s.s.s.s.s.e.e.e.e.e.e.e.s.s.e.e.e.e.e.e.s.s.s.s.s.s.s.s.s.s.s.s.s.e.e.e.e.e.e.e.e.e.e.e.s.s.e.s.s.s.:.V Z.g.e.s.e.e.e.e.e.e.s.s.s.s.e.e.e.e.e.s.s.s.s.s.s.s.e.e.e.s.e.e.s.s.s.s.e.e.e.e.e.e.e.e.s.s.s.s.s.s.s.s.e.e.e.e.s.s.s.s.s.e.e.e.e.e.e.e.s.s.s.s.g.s.s.s.s.s.%.S Z.s.e.s.e.e.e.e.e.s.s.s.s.s.s.s.s.s.s.s.s.s.s.s.s.s.s.e.e.e.e.e.s.s.s.e.e.e.s.s.e.e.s.s.s.e.e.e.e.e.e.e.s.s.s.s.s.s.s.e.e.s.s.s.e.e.e.e.e.s.s.s.e.s.e.e.s.g.%.: ",
"G.g.e.e.s.s.e.s.e.e.e.s.s.e.s.e.e.e.e.e.s.s.s.s.s.e.e.e.e.s.s.s.s.s.s.s.s.s.e.e.s.s.s.s.s.s.e.s.s.s.s.s.s.s.s.s.s.s.s.s.s.s.e.e.s.s.s.s.s.s.s.s.s.e.s.s.s.e.e.v <.Z.e.g.e.s.e.e.s.s.s.s.s.s.s.s.e.e.s.s.s.s.s.e.s.s.s.s.s.s.s.s.s.e.e.e.s.s.s.e.s.s.s.e.e.e.e.e.s.s.s.s.s.e.e.e.e.e.e.e.e.s.s.s.s.s.s.s.s.s.s.s.s.e.s.e.s.e.s.V :.s.e.s.s.e.s.e.s.s.s.s.s.s.s.s.s.s.s.s.s.s.s.s.s.s.s.s.s.e.e.e.e.s.s.s.s.s.s.e.e.e.e.e.s.s.s.s.s.s.s.s.s.s.s.s.s.s.s.s.s.s.s.s.s.e.e.e.s.s.s.e.e.<.s.e.s.s.s.v <.g.<.<.e.<.e.e.e.e.e.e.e.e.e.e.e.e.e.e.e.e.<.<.e.e.e.e.e.e.e.e.<.<.<.<.<.<.<.<.e.e.e.e.e.e.e.e.e.e.e.e.e.e.e.e.e.e.e.e.e.e.e.<.e.e.e.e.e.e.e.e.e.e.e.e.e.s.<.v M.g.s.e.e.s.s.e.s.s.e.e.e.s.s.s.s.s.s.s.s.s.s.s.s.s.s.s.s.s.e.e.s.e.e.e.s.s.s.s.s.s.s.e.e.s.s.s.s.s.s.e.e.s.s.s.s.s.s.s.s.s.s.s.e.e.s.s.s.s.s.e.s.s.e.s.s.s.<.v M.g.s.s.s.e.e.e.s.s.e.e.e.e.e.e.e.e.e.e.e.e.e.e.s.s.s.s.s.s.s.s.s.e.e.e.e.e.e.e.s.s.s.s.e.e.e.e.s.e.e.e.e.e.e.e.s.s.s.s.s.s.e.e.e.e.e.e.e.e.e.e.s.g.e.s.s.s.%.v Z.g.e.e.e.e.e.s.e.e.s.s.s.s.e.e.e.e.s.e.s.s.s.s.s.e.e.e.e.s.s.e.s.s.s.s.e.e.e.e.e.e.e.e.s.s.s.s.s.s.s.s.e.e.e.e.s.s.s.s.s.e.e.e.s.e.e.e.s.s.s.s.g.s.s.s.s.s.%.S Z.s.e.s.e.e.s.e.s.s.s.s.s.s.s.s.s.s.s.s.s.s.s.s.s.s.s.e.s.e.e.s.s.s.s.s.e.e.s.s.e.e.s.s.s.e.e.e.e.e.e.e.s.s.s.s.s.s.e.e.e.s.s.s.e.e.e.e.e.s.s.s.e.s.e.e.s.g.%.: ",
"G.M.g.g.s.s.e.e.e.e.e.s.s.s.e.e.s.s.s.s.s.s.s.s.s.s.s.s.s.s.s.s.s.s.s.g.g.s.g.s.s.s.s.s.s.s.s.s.s.s.s.s.s.s.s.s.s.s.e.e.s.e.e.e.s.s.s.s.e.e.s.s.s.s.s.<.s.s.e.v <.M.s.e.s.e.s.<.s.s.s.s.s.s.s.s.s.s.s.s.s.s.s.s.e.e.s.s.s.s.s.e.e.e.e.s.s.s.s.s.s.s.s.s.s.s.s.s.s.s.s.s.s.s.e.e.e.e.e.e.s.s.s.e.e.e.e.e.s.e.s.s.s.s.s.<.s.g.s.V %.g.s.e.e.e.s.e.s.s.s.s.s.s.s.s.e.e.e.s.s.e.e.e.s.s.s.s.s.s.s.s.s.s.s.s.s.s.e.e.e.e.e.s.s.s.s.s.s.e.e.e.s.s.s.s.e.e.e.e.e.e.e.e.s.s.s.e.s.s.s.s.e.e.s.e.g.g.s.v e.s.s.e.e.e.s.e.s.e.e.e.e.e.e.e.e.e.e.e.e.e.<.<.<.<.e.e.e.e.s.s.e.e.e.e.e.e.e.e.e.e.e.e.e.e.e.e.s.e.e.e.e.e.e.e.e.e.e.e.<.<.<.<.e.e.e.s.s.e.e.<.:.e.e.e.e.g.<.p g.s.s.s.g.s.e.e.s.s.s.s.s.s.s.s.s.s.s.s.s.s.s.s.s.e.e.e.e.e.s.s.s.e.s.s.s.s.s.s.s.s.s.s.s.s.s.s.s.s.s.s.s.s.s.s.e.e.s.s.s.e.e.e.e.e.s.s.s.e.s.s.g.s.<.s.s.s.:.v Z.g.e.e.e.e.s.g.s.s.e.e.e.e.e.e.s.s.s.s.s.s.e.e.s.s.s.s.s.s.e.e.e.s.s.s.s.s.s.e.s.e.e.e.e.s.s.s.s.s.s.e.s.e.e.e.e.e.e.e.e.e.e.e.e.s.e.s.s.s.s.e.s.e.e.s.s.g...V G.g.s.s.e.e.s.e.e.e.e.e.e.e.e.e.s.e.e.e.e.s.s.s.s.s.e.e.e.e.s.s.s.s.s.s.s.s.s.s.s.s.s.s.s.s.s.s.e.e.e.e.e.e.s.s.s.s.s.s.s.e.e.e.s.e.e.e.e.e.e.s.g.e.e.e.s.s...S Z.s.e.s.e.s.g.s.e.e.e.e.e.e.e.e.s.s.s.s.s.s.s.s.e.e.e.e.e.e.e.e.s.s.s.s.s.s.s.s.s.s.s.s.s.s.s.s.e.e.e.e.e.s.s.s.s.e.e.e.e.e.e.e.e.s.s.s.s.s.s.e.s.s.e.<.e.g...: ",
"G.g.e.e.s.s.s.s.e.e.e.e.e.e.e.e.s.s.s.s.s.s.s.s.e.e.e.e.s.e.e.e.e.e.e.e.e.e.e.e.e.e.e.e.e.e.e.e.s.s.s.s.s.s.s.s.s.s.s.s.s.s.s.s.s.s.s.s.s.s.s.s.s.s.s.<.s.s.e.p :.g.s.e.s.e.s.e.e.e.e.e.e.e.e.e.e.e.e.e.e.e.e.e.e.s.s.s.s.s.e.e.e.e.s.s.s.s.s.s.e.e.e.e.e.e.e.e.s.s.s.s.s.s.s.e.s.s.s.s.s.s.s.s.e.e.e.e.e.e.e.e.s.s.g.e.s.s.e.v ..s.e.s.s.s.s.e.s.s.s.s.s.s.s.s.e.s.s.s.s.s.s.e.e.e.e.e.e.e.s.s.s.s.e.e.e.e.e.e.e.e.e.e.e.e.e.e.e.e.e.e.e.s.s.e.s.e.s.s.s.e.e.e.s.s.s.s.s.s.s.s.e.s.g.e.s.s.e.v e.e.<.<.<.e.e.<.s.s.e.e.e.e.e.e.<.<.e.<.<.<.<.<.<.<.<.<.e.e.e.e.<.<.<.<.<.<.<.<.<.<.<.e.e.<.<.<.s.e.e.e.e.e.e.e.e.e.e.e.e.<.<.<.:.:.:.:.:.:.:.:.<.s.s.e.<.s.<.v M.s.s.s.s.s.e.s.s.s.s.s.s.s.s.s.s.s.s.s.s.s.s.s.s.s.e.e.s.s.s.s.e.e.e.e.e.e.e.e.s.s.e.e.e.e.e.e.e.e.e.e.e.e.e.e.s.s.s.s.s.s.s.s.e.s.s.s.s.s.s.s.<.e.e.g.s.g.<.V M.g.e.e.e.e.s.s.s.s.s.s.s.s.s.s.e.e.e.e.e.e.e.e.e.e.e.e.e.e.e.<.s.s.s.s.s.s.s.e.s.e.e.e.e.s.s.s.s.s.s.s.s.s.e.e.e.e.e.e.s.s.s.s.e.s.s.s.s.s.s.s.e.e.s.e.s.g.%.S Z.s.s.s.e.e.s.s.s.s.s.s.s.s.e.s.s.s.s.s.s.s.s.s.s.s.e.e.e.e.s.s.s.s.s.s.s.s.s.s.e.e.e.e.e.e.e.e.<.<.e.<.e.e.e.e.s.s.s.s.s.s.s.s.s.s.s.e.s.s.s.s.<.e.s.s.s.s.%.S Z.s.s.s.e.s.s.e.g.g.g.g.g.g.g.g.e.e.e.e.e.e.e.e.s.s.s.s.s.s.s.s.e.e.e.e.e.e.e.e.e.e.e.e.e.e.e.e.s.s.s.s.s.s.s.s.s.s.s.s.s.s.s.s.s.s.s.s.s.s.s.s.<.s.e.e.s.g.%.: ",
"G.g.<.<.e.s.e.e.s.s.g.g.g.g.g.s.e.e.e.e.e.e.e.e.g.g.g.g.g.g.g.g.s.s.s.s.s.s.s.s.g.g.s.s.g.g.g.g.e.e.e.e.e.e.e.e.e.e.e.e.s.e.s.s.s.s.s.s.s.s.s.s.e.e.s.e.s.s.e.p %.g.s.e.s.e.s.e.g.g.g.g.g.g.g.g.g.g.s.s.s.s.s.s.e.e.e.e.e.e.e.e.e.e.e.e.s.s.s.s.g.g.s.s.g.s.s.g.s.s.s.s.s.s.e.e.s.e.e.e.s.s.s.s.g.g.g.g.g.g.g.g.<.e.s.<.s.e.e.V %.s.e.e.s.e.s.e.s.s.s.s.e.e.e.e.s.s.s.s.s.s.e.e.s.s.s.g.g.g.g.g.g.g.s.s.s.s.s.s.g.g.g.g.g.g.g.g.g.s.s.s.g.g.g.g.e.e.e.e.e.e.e.e.s.s.s.s.s.s.s.s.e.s.g.e.s.e.e.V g.g.s.e.e.s.s.s.e.e.e.e.e.<.<.<.s.s.s.s.e.e.s.s.e.e.s.s.s.s.s.s.s.s.s.s.s.s.s.s.s.s.s.s.s.s.s.s.e.e.e.<.<.<.<.<.e.e.e.<.e.<.<.<.e.e.e.e.e.e.e.e.<.s.e.e.<.e.:.v M.s.s.e.e.e.e.s.s.s.s.s.s.s.s.s.s.s.s.s.s.s.s.s.e.e.s.e.s.s.e.e.g.g.g.g.g.g.g.g.g.g.g.s.s.s.g.g.g.g.g.g.s.g.s.s.e.e.s.s.e.s.e.e.e.s.s.s.s.s.s.s.e.s.s.s.e.s.:.p M.s.e.e.s.s.s.s.s.s.s.s.s.s.s.s.g.g.g.g.g.g.g.g.g.g.g.g.s.s.s.s.e.s.s.s.s.e.e.e.e.e.e.e.e.s.s.s.e.e.e.e.e.e.e.e.e.e.e.e.e.e.e.e.e.e.e.e.s.s.e.e.e.g.g.e.e.g.%.V M.s.e.s.e.e.s.s.e.e.e.e.e.e.e.e.s.e.e.e.e.s.s.s.e.e.<.<.e.e.e.e.e.e.e.e.e.e.e.e.g.g.g.g.s.s.g.g.s.s.s.s.g.g.g.g.s.s.s.s.s.s.s.e.s.s.s.s.s.s.s.s.e.s.g.s.e.s...v Z.s.s.s.e.e.s.e.<.<.<.<.<.<.<.<.s.s.s.s.g.g.g.g.s.s.s.s.s.s.s.s.g.s.g.s.g.s.g.g.s.s.s.g.s.s.s.s.s.s.s.s.e.e.e.s.s.s.s.s.s.s.s.s.s.s.s.s.s.s.s.s.e.s.s.e.e.s.' - ",
"G.M.s.s.s.s.e.s.e.e.e.e.e.e.e.e.s.s.s.s.s.s.s.s.e.e.e.e.e.e.e.e.e.e.e.e.e.e.e.e.<.<.<.<.e.e.e.e.s.s.s.s.s.s.s.s.<.<.<.e.e.e.e.e.e.e.e.e.e.e.e.e.s.s.g.s.g.g.s.V :.M.g.s.s.e.g.s.e.e.e.e.e.e.e.e.e.e.<.<.<.<.<.e.s.s.s.s.s.s.e.e.s.s.s.s.s.s.s.s.e.e.e.e.e.e.e.e.e.e.e.e.e.e.e.e.s.s.s.s.s.s.s.s.e.e.e.e.e.e.e.e.e.e.s.e.g.g.s.S <.M.e.e.s.e.s.s.e.e.e.e.e.e.e.e.s.s.s.s.s.s.s.s.e.<.e.e.e.e.e.e.e.e.e.e.e.e.e.e.e.e.e.e.e.e.e.e.e.<.<.<.e.e.e.e.<.<.<.e.e.e.<.<.e.e.e.e.e.e.e.e.s.s.g.e.g.g.s.V s.s.e.<.<.<.<.<.e.e.e.e.e.e.e.e.<.<.<.<.:.:.<.<.<.<.<.<.<.<.<.<.<.<.<.<.<.<.<.<.<.<.<.<.<.<.<.<.e.e.e.e.e.e.e.e.e.e.e.e.e.e.e.e.e.<.<.<.<.<.<.<.e.s.e.s.e.s.<.v g.g.s.s.s.e.s.g.s.s.s.s.s.s.s.s.s.s.s.s.s.s.s.s.s.s.s.s.s.s.s.s.<.e.e.e.e.e.e.e.e.e.e.e.e.e.e.e.e.e.e.e.e.e.e.e.s.s.s.s.s.s.s.s.e.e.s.s.e.e.e.e.g.M.s.s.e.g.e.v Z.g.s.s.g.g.s.s.s.s.s.s.s.s.s.s.e.e.e.e.e.e.e.e.e.e.e.e.e.e.e.e.s.s.s.s.s.s.s.s.e.e.e.e.e.e.e.e.s.s.s.e.e.s.s.s.e.e.e.e.e.e.e.e.s.s.s.s.s.s.s.s.s.g.g.e.s.M.:.V G.g.s.s.e.s.s.s.s.s.s.s.s.s.s.s.s.s.s.s.s.s.s.s.s.e.e.e.e.e.s.s.s.s.s.s.s.s.s.s.e.e.e.<.<.<.e.e.<.<.<.e.e.e.e.e.g.s.s.s.s.s.s.s.e.e.e.e.e.e.e.s.s.g.g.e.e.g.%.V Z.g.g.M.s.e.s.g.s.s.s.s.s.s.s.s.<.<.<.<.e.e.e.e.s.s.s.s.s.s.s.s.e.e.e.e.e.e.e.e.e.e.e.e.e.e.e.e.s.s.s.s.s.s.s.s.e.e.e.e.e.e.e.e.s.s.s.s.s.s.s.s.g.g.e.e.e.s...: ",
"M.s.e.e.e.<.<.e.s.s.s.s.s.s.s.s.e.e.e.e.e.e.e.e.s.s.s.s.s.s.s.s.s.s.s.s.s.s.s.s.s.s.s.s.s.s.s.s.e.e.e.e.e.e.e.e.s.s.s.s.s.g.s.s.g.g.g.g.g.g.g.g.e.e.s.e.s.e.<.v %.g.e.e.e.e.s.e.s.s.s.s.s.s.s.s.g.s.s.s.e.s.s.s.e.e.e.e.e.e.<.<.e.e.e.e.e.e.e.e.s.s.s.s.s.s.g.g.g.g.g.g.g.g.s.s.e.e.e.e.e.e.e.e.s.s.s.s.s.s.s.s.e.<.e.<.s.s.e.v ..e.e.e.e.:.e.s.g.g.g.g.s.s.g.g.e.e.e.e.e.e.e.e.s.s.s.s.s.s.s.s.g.s.s.s.s.s.s.s.s.s.s.s.s.s.s.s.s.s.s.s.s.s.s.s.s.s.s.s.s.s.s.s.g.g.g.g.g.g.g.g.s.e.e.e.g.s.<.p s.g.g.g.s.e.e.s.<.<.<.<.<.<.<.<.s.s.s.e.e.e.s.s.e.e.e.e.e.e.e.e.e.e.e.e.s.s.s.s.s.s.s.s.e.e.e.e.<.<.<.<.<.<.<.<.e.e.<.<.<.<.<.<.s.e.e.e.e.e.e.e.<.<.:.<.<.e.%.u s.e.e.e.e.e.e.s.e.e.e.e.e.e.e.e.e.e.e.e.e.e.e.e.<.e.e.e.e.e.e.<.s.s.s.s.s.s.s.s.g.s.s.s.s.s.s.s.s.s.s.s.s.s.s.s.e.e.e.e.e.e.e.<.s.s.g.g.s.s.s.g.e.e.<.<.e.g.<.v M.s.e.e.s.s.e.e.e.e.e.e.e.e.e.e.s.s.s.s.s.s.s.s.g.g.s.s.s.s.s.s.e.e.e.e.e.e.e.e.s.s.s.s.s.s.g.g.e.e.e.e.e.e.e.e.g.g.g.g.g.g.g.g.e.e.e.e.e.e.e.e.<.<.e.<.e.M.%.v Z.s.e.e.<.<.e.<.e.e.e.e.e.e.e.e.e.e.e.e.e.e.e.e.e.e.e.e.e.e.e.e.e.e.e.e.e.e.e.e.s.s.s.s.s.s.s.s.s.s.s.s.s.s.s.s.e.e.e.e.e.e.e.e.g.g.g.g.g.g.g.g.<.<.<.<.e.g.%.V M.e.e.s.e.<.s.s.e.e.e.e.e.e.e.e.s.s.s.s.s.s.s.s.e.e.e.e.e.e.e.e.s.s.s.s.g.s.s.g.g.g.g.g.s.s.s.g.e.e.e.e.e.e.e.e.g.g.g.g.g.g.s.s.<.e.e.e.e.e.e.<.e.<.%.:.e.s...: ",
"Z.M.g.g.g.s.g.g.s.s.s.e.e.e.e.s.g.g.g.g.g.g.g.g.s.s.s.s.e.e.e.e.s.s.e.s.s.s.s.s.s.s.s.s.s.s.s.s.g.g.g.g.g.g.g.g.e.e.e.e.e.e.e.e.e.e.e.e.e.e.e.e.M.g.g.s.g.e.e.S <.M.s.e.g.g.M.g.e.s.e.e.e.e.e.e.s.s.s.e.e.e.s.s.g.g.g.g.g.g.g.g.g.g.g.g.g.g.g.g.s.s.e.s.s.s.s.s.e.e.e.e.e.e.e.e.g.g.g.g.g.g.g.g.s.s.s.s.s.s.s.s.M.g.g.s.g.g.s.S %.s.s.g.g.e.s.g.e.e.e.e.e.e.e.e.g.g.g.g.g.s.g.g.e.s.e.s.s.s.s.s.s.s.s.s.s.s.s.s.s.s.s.s.s.s.s.s.s.s.e.e.s.s.s.e.e.e.e.e.e.e.e.e.e.e.e.e.e.e.e.e.M.g.g.s.M.g.e.V e.e.e.s.e.<.e.s.s.s.s.s.s.s.s.s.e.e.e.e.e.e.e.e.e.e.e.e.e.e.e.e.e.e.e.e.e.e.e.e.s.e.e.e.e.e.e.e.s.s.s.s.s.s.s.s.g.s.s.s.s.s.s.g.e.e.e.e.<.e.e.e.g.s.e.s.e.s.:.p M.g.s.g.g.g.g.g.s.s.s.s.s.s.s.s.s.s.g.g.s.s.s.s.s.s.s.s.s.s.s.s.e.e.e.e.e.s.s.s.s.s.e.e.e.e.e.e.e.e.e.e.e.e.e.e.s.s.s.s.s.s.s.s.<.<.<.e.e.<.e.e.s.s.s.g.g.g.<.v G.M.s.s.g.g.g.s.g.g.g.g.g.g.g.g.s.s.s.s.s.s.s.s.s.s.s.s.s.s.s.s.g.g.g.g.g.g.g.g.e.e.e.e.e.e.e.e.s.s.g.g.g.g.g.g.e.e.e.e.e.e.e.e.g.g.g.g.g.g.g.g.g.g.s.s.g.M.:.V G.g.e.s.s.s.M.g.g.g.g.g.g.g.g.g.g.g.g.g.g.g.g.g.g.g.g.g.g.g.g.g.g.g.g.g.g.g.g.g.s.s.s.s.s.s.s.s.s.s.e.s.s.s.s.s.g.g.g.g.s.s.s.s.e.e.e.e.e.e.e.e.s.s.g.g.M.g.%.V J.s.s.g.g.s.g.g.s.s.s.s.s.s.s.s.s.s.s.s.s.s.s.s.g.g.g.g.g.g.g.g.s.s.s.s.s.s.s.s.s.s.s.s.s.s.s.s.g.g.g.g.g.g.g.s.e.e.e.e.e.e.e.e.s.s.s.g.g.s.s.s.s.s.e.g.g.g...: ",
"J.M.e.e.e.s.e.e.s.s.s.e.e.e.s.s.e.e.e.e.e.e.e.e.s.s.s.s.s.s.e.e.s.s.e.s.e.s.s.e.s.s.s.s.s.s.s.s.e.e.e.e.e.e.e.e.g.g.g.g.s.g.s.s.s.s.s.g.g.g.g.g.s.e.s.<.s.<.<.V e.M.e.<.e.s.s.e.s.s.s.s.s.s.s.s.s.s.s.s.s.s.s.s.e.e.e.e.e.e.e.e.e.e.e.e.e.e.e.e.e.e.s.e.s.s.s.s.s.g.g.g.g.g.g.g.e.e.e.e.e.e.e.e.s.s.s.s.s.s.s.s.s.e.s.e.e.<.e.J <.s.<.e.g.<.e.e.g.g.g.g.g.g.g.g.s.e.e.e.e.e.e.e.e.s.s.s.s.s.s.s.s.s.s.s.s.s.s.s.s.s.s.s.s.s.s.s.s.s.s.s.s.s.s.s.s.s.g.g.g.g.g.g.g.g.g.g.g.g.g.g.s.e.s.<.e.<.<.S M.s.e.e.e.e.e.e.e.e.e.e.<.e.e.e.e.e.e.e.e.e.e.e.e.e.e.e.e.e.e.e.e.e.e.e.e.e.e.e.s.e.e.<.<.<.e.e.e.<.<.<.<.<.e.e.e.<.<.<.<.<.e.e.e.e.e.e.e.e.e.e.<.e.<.e.:.<.:.V Z.s.<.<.<.e.<.<.<.<.<.<.<.<.<.<.<.<.<.<.<.<.<.<.<.<.<.<.<.<.<.<.e.e.e.e.e.e.e.e.e.e.e.e.e.e.e.e.e.e.e.e.e.e.e.e.<.<.<.<.<.<.<.<.e.e.s.s.s.e.s.s.e.<.<.s.<.:...V Z.g.e.e.s.s.e.e.e.e.e.e.e.e.e.e.s.s.s.s.s.s.s.s.s.s.s.s.s.s.s.s.e.e.e.e.e.e.e.e.g.g.g.g.g.g.g.g.e.e.e.e.e.e.e.e.g.g.g.g.g.g.g.g.e.e.e.e.e.e.e.e.g.s.s.e.e.<...J Z.e.<.<.<.e.s.e.e.e.e.e.e.e.e.e.e.e.e.e.e.e.e.e.e.e.e.s.s.e.e.e.e.e.e.e.e.e.e.e.s.s.s.s.s.s.s.s.s.s.s.s.s.s.s.s.e.e.e.e.e.e.e.e.s.s.g.g.g.g.g.g.s.e.s.s.s.<...J J.e.<.e.e.e.e.e.s.s.s.s.s.s.s.s.s.s.s.s.s.s.s.s.e.e.e.e.e.e.e.e.s.s.s.s.s.s.s.s.s.s.s.s.s.s.s.s.e.e.e.e.e.e.e.e.g.g.g.g.g.g.g.g.e.e.e.e.e.e.e.e.e.e.e.s.e.e.' 1 ",
":.^ V v S S V v V V v v v v V V V V V V V V V V V V V V V v v v V V v v v V v v V V V v v v V V V V V V V V V V v v v v v v v v p v v v v v v v V v V v S V S $ P ^ S v V V S v V V V V V V V V v v v V V V V V V V V V v V V V v V V V V V V v v v v v v v V V v v v v V V v v V V V V v V V V V V V V v v v v v V J V V v S : Y Y v v V V V V v v v v v v v v V V V V V V V V v v v v v V v v V v v v v v v V V V V v v V v v V V V V V V V v v v v v v v v v v v v v v v v v v v S v V v S : / J p p v V v p v v v v v v v v p v v v v p p p v v v v v v v v v v v v v v v v v v p p p p p p v v v v v v v v v v v p p v v v p v v v v v v p p v V V p v V : ^ S p u p p p p p p p p p p p p p p p p p p p p v p p p p p p v p p p p p p p p p p p p p p p p p p p p p p p p p p p p p p p p u u p p p p p p v p u v p p v 1 ^ J V V S S V V v v V V V V V V v v v v v v V V v v V V V V v v V V v v v v V V v v v v v v v V v v V v V V V V v v v v v v v v v V V V V V V V V v V S V V v e / J V V v V S v V V V V V V V V V V V V V V V V V v V V V V v v V V V V V V V V v V V V v v v v V V V v v v v v V V V V V v v v v v v V V v v v S v V V v v v p ' S v V V V V V v v v v v v v v v v v v V V V V V V V V V V V V v v v v v v v v v v v v v v v v V V V V V V V V V V v v v v v v V V V V V V V V p v v V v V v o ",
"s.e.e.s.s.s.s.g.e.e.e.s.s.s.s.s.g.s.s.e.e.e.s.s.e.s.s.s.e.e.e.s.s.s.s.s.s.s.s.s.s.s.s.s.s.s.s.s.s.s.s.s.s.s.s.s.s.s.s.e.e.s.s.s.e.e.s.s.s.s.s.s.s.e.g.e.s.e.M./ ' <.:.:.<.:.<.:.<.:.:.:.:.:.:.:.:.:.:.<.<.<.<.<.:.:.:.:.:.:.<.<.:.:.:.:.:.:.:.:.%.:.:.:.:.:.<.<.<.:.:.:.:.:.:.<.:.:.:.:.:.:.:.:.:.:.:.:.:.:.:.:.:.:.<.:.:.:.s.^ %.s.e.s.s.e.s.s.s.s.s.s.s.s.e.e.s.s.s.s.s.s.s.s.s.s.s.s.s.s.s.s.s.s.s.s.s.s.e.e.e.e.s.s.s.s.s.s.e.e.e.s.s.s.s.s.s.s.s.s.s.s.s.s.e.e.e.e.e.s.s.s.s.g.g.e.s.g.Z.^ <.s.s.e.s.g.s.s.s.s.s.s.s.s.s.s.e.e.s.s.s.s.e.e.s.s.s.s.s.s.s.s.s.s.e.e.s.s.s.s.e.e.e.e.e.s.s.s.e.e.e.e.e.e.e.e.e.e.s.s.s.s.s.s.s.s.s.s.s.s.s.s.e.s.s.s.e.g.g.Y <.e.s.s.s.s.s.s.s.s.s.e.e.e.s.s.e.e.s.s.s.s.s.e.s.s.s.s.s.s.s.s.s.s.s.e.e.e.e.e.s.s.s.e.s.s.s.s.s.s.s.s.s.s.s.e.e.s.s.s.s.s.s.e.s.s.s.s.s.s.s.g.<.s.g.g.e.g.g.^ e.e.e.s.s.s.s.s.s.s.s.s.s.s.s.s.s.s.s.s.s.s.s.s.s.s.s.s.e.e.e.e.s.s.s.s.s.s.s.s.s.s.s.s.s.s.e.e.<.e.s.g.g.s.s.s.s.s.s.s.s.s.s.s.s.s.s.s.s.s.s.s.e.s.s.g.s.g.g.^ s.e.<.e.e.e.e.e.s.s.s.s.e.e.<.<.e.e.e.e.e.e.e.e.e.e.e.e.e.e.e.e.e.e.e.s.s.s.e.e.e.e.e.e.e.e.e.e.e.e.e.e.e.e.e.e.e.e.e.e.e.e.e.e.e.e.e.e.e.e.e.e.s.e.e.e.s.g.e.^ g.<.e.s.e.e.s.s.s.s.g.s.s.s.s.s.e.s.s.s.s.s.s.s.s.s.s.e.e.s.s.s.e.s.s.s.s.s.s.s.s.s.s.s.s.s.s.s.s.s.s.s.s.s.s.s.e.e.e.s.s.s.s.s.s.s.e.e.s.s.s.s.e.g.s.s.s.M.g.P ",
"I.G.Z.G.G.Z.Z.Z.Z.Z.Z.Z.G.G.G.Z.G.Z.Z.M.M.Z.Z.Z.Z.Z.G.Z.Z.Z.Z.G.Z.Z.Z.Z.Z.Z.Z.Z.G.G.G.G.G.Z.Z.Z.Z.Z.Z.Z.Z.Z.Z.Z.Z.Z.Z.Z.Z.Z.Z.Z.Z.Z.Z.Z.G.G.Z.Z.G.Z.G.M.Z.M.Z./ e.Z.M.g.M.g.M.g.M.M.M.M.M.M.M.M.M.M.M.M.M.M.M.M.g.g.g.M.g.M.M.M.M.M.M.M.M.g.g.g.g.g.M.M.M.M.M.M.g.g.g.g.g.g.g.g.g.M.g.M.M.M.M.M.M.M.g.g.g.M.M.M.M.g.g.s.g.g.M.Y g.J.Z.Z.G.Z.G.Z.G.G.G.G.G.Z.Z.Z.Z.Z.Z.Z.Z.G.G.G.Z.Z.Z.Z.Z.G.G.G.Z.Z.Z.Z.Z.Z.Z.Z.Z.Z.Z.Z.G.G.G.Z.Z.Z.Z.Z.Z.Z.Z.Z.G.G.G.G.G.Z.Z.Z.Z.Z.Z.Z.Z.Z.G.G.Z.Z.G.g.M.Z.Z.Y Z.G.Z.M.G.G.Z.G.M.M.M.M.Z.Z.Z.Z.Z.Z.Z.Z.Z.Z.Z.Z.Z.Z.Z.Z.Z.Z.Z.Z.Z.Z.Z.Z.Z.Z.Z.Z.Z.Z.Z.Z.Z.Z.Z.G.Z.Z.Z.Z.Z.Z.Z.Z.Z.Z.Z.Z.Z.Z.Z.Z.Z.Z.Z.Z.Z.Z.Z.Z.Z.Z.Z.Z.M.Z.g.P Z.Z.Z.Z.Z.Z.Z.G.G.Z.Z.Z.Z.Z.Z.Z.Z.Z.Z.Z.Z.Z.Z.Z.Z.Z.Z.Z.Z.Z.Z.Z.Z.Z.Z.Z.Z.Z.Z.Z.Z.Z.Z.Z.Z.Z.Z.G.Z.Z.Z.Z.Z.G.Z.Z.Z.Z.Z.G.G.Z.Z.Z.G.Z.Z.Z.Z.Z.G.G.M.Z.Z.Z.M.Z.g.P M.Z.Z.Z.Z.G.G.G.Z.Z.Z.Z.Z.Z.Z.Z.Z.Z.Z.Z.Z.Z.Z.Z.Z.Z.Z.Z.Z.Z.Z.Z.Z.Z.Z.Z.Z.Z.Z.Z.Z.Z.G.G.G.Z.Z.Z.M.Z.G.G.G.G.Z.Z.G.G.G.Z.G.G.G.G.G.G.Z.Z.Z.Z.G.G.Z.Z.M.Z.M.Z.g.Y Z.M.M.M.M.M.M.M.Z.Z.Z.Z.Z.M.M.M.M.M.M.Z.M.Z.Z.Z.M.M.M.Z.Z.M.M.M.Z.Z.M.M.M.M.M.M.M.M.M.M.M.M.Z.Z.M.M.M.M.M.M.M.M.Z.Z.M.M.M.g.M.M.M.M.M.M.M.M.M.M.Z.M.M.M.M.Z.e.^ I.Z.Z.G.Z.Z.G.Z.Z.Z.Z.Z.Z.M.M.M.M.M.Z.Z.Z.Z.Z.Z.G.Z.Z.Z.Z.Z.Z.G.Z.Z.Z.Z.G.G.Z.Z.G.G.G.G.G.G.G.G.Z.Z.Z.Z.Z.Z.Z.Z.Z.Z.Z.Z.Z.Z.Z.Z.Z.Z.Z.Z.Z.Z.Z.Z.Z.G.Z.G.Z.Z.<.u ",
"J.Z.g.g.g.s.s.s.s.g.g.g.g.g.g.g.g.s.s.s.s.s.g.g.s.g.g.g.g.s.g.g.g.g.g.g.g.g.g.g.g.g.g.g.g.g.g.g.g.g.g.g.g.g.g.g.s.s.s.s.s.s.s.s.g.s.g.g.g.g.g.s.M.s.s.e.g.s.e.V <.M.s.s.s.s.g.s.s.s.s.s.s.s.s.s.s.s.s.s.s.s.s.s.s.s.s.s.s.s.s.g.s.s.s.s.s.s.s.s.s.s.s.s.s.s.s.s.s.s.s.s.s.s.s.s.s.s.s.s.s.s.s.s.s.s.s.s.s.s.s.s.g.s.s.e.g.s.e.V s.Z.g.g.g.s.g.g.g.g.g.g.s.s.s.s.g.g.g.g.g.g.g.g.g.g.g.g.g.g.g.g.g.g.g.g.g.g.g.g.s.g.g.g.g.g.g.g.g.g.g.s.s.s.s.g.g.g.g.g.g.g.g.g.s.s.g.g.g.g.g.g.g.g.g.e.g.s.e.v g.M.g.s.g.g.s.g.s.s.s.s.s.s.s.s.s.g.g.g.g.s.g.s.s.s.g.g.s.s.s.s.g.g.g.g.g.g.g.g.g.g.s.s.g.g.g.g.g.g.s.s.s.s.g.g.g.g.g.g.g.g.g.g.g.g.g.g.g.g.g.g.g.g.g.g.s.g.<.p M.M.g.s.e.s.s.g.s.s.s.s.s.s.g.g.s.s.g.g.g.g.s.s.g.g.s.s.s.s.s.s.g.g.g.g.s.s.s.s.g.s.s.s.s.g.g.g.s.s.s.s.s.g.s.s.g.g.g.g.g.g.g.g.g.g.g.g.g.g.g.g.g.g.s.g.g.M.<.p s.s.g.g.g.g.g.g.g.g.g.g.g.g.g.g.g.g.g.g.g.g.g.g.g.g.g.g.g.g.s.s.g.g.g.g.g.g.g.g.g.g.g.g.g.g.g.g.s.g.g.g.g.g.g.g.g.g.g.g.g.g.g.g.g.g.g.g.g.g.g.g.g.s.e.g.g.g.<.v Z.g.s.s.s.s.s.s.s.s.s.s.s.s.s.s.s.s.s.s.s.s.s.s.s.s.s.s.s.s.s.s.s.s.e.e.e.e.s.s.s.s.s.s.s.s.s.s.s.s.s.s.s.s.s.s.s.s.s.e.e.e.e.e.s.s.s.s.s.s.s.s.s.s.s.s.s.s...V G.g.g.g.s.s.g.g.g.g.g.g.s.s.s.s.s.g.g.g.g.g.g.g.g.g.g.g.g.g.g.g.s.g.g.g.g.g.g.g.g.g.g.g.g.g.g.g.g.g.g.g.g.g.g.g.s.s.g.g.g.g.g.g.g.s.s.s.s.g.g.s.s.g.s.g.M.g...- ",
"G.M.s.s.g.g.s.s.s.s.s.g.g.s.s.s.s.s.s.s.g.g.g.g.s.s.s.s.s.s.s.s.g.s.s.s.s.s.s.g.s.s.s.s.s.s.s.g.s.s.s.s.s.s.s.g.s.s.s.s.s.s.s.s.s.s.s.s.s.s.s.s.s.e.s.e.g.g.s.V e.Z.s.s.s.s.g.s.s.s.s.s.s.s.s.s.s.s.s.s.s.s.s.s.s.s.s.s.s.s.g.g.s.s.g.g.s.s.s.s.s.s.g.g.s.s.s.s.g.g.g.g.g.g.g.g.s.s.s.s.s.s.s.s.s.s.s.s.s.s.s.s.g.s.s.s.M.M.s.V s.Z.s.s.s.e.g.s.s.s.s.s.s.s.s.s.s.s.s.s.s.s.g.g.s.s.s.s.s.s.g.g.s.s.s.s.s.g.g.g.s.s.s.g.g.s.s.s.g.s.s.s.e.s.s.g.g.g.s.s.s.s.s.s.s.s.s.s.s.s.g.g.g.s.g.e.g.g.s.v g.M.g.e.s.s.s.s.s.s.s.s.s.s.s.s.s.s.s.s.s.s.s.s.s.s.s.s.s.s.e.e.s.s.s.s.s.s.s.s.s.s.s.s.s.s.s.s.g.s.s.s.s.s.s.g.g.g.g.s.g.s.s.s.s.s.s.s.s.s.s.s.g.g.s.g.g.g.<.p M.g.s.e.e.e.s.s.s.s.s.s.s.s.s.s.s.s.s.s.s.s.s.s.s.s.s.s.s.s.s.s.s.s.s.s.s.s.s.s.g.s.s.s.s.s.s.s.s.e.e.s.s.s.s.s.s.s.s.s.s.s.s.s.g.g.s.s.s.s.s.s.g.s.e.g.g.M.<.p s.s.s.s.s.s.s.s.s.s.s.s.s.s.s.g.s.s.s.s.s.s.s.g.s.s.s.s.s.s.s.s.g.g.g.g.g.g.g.g.s.s.s.s.s.s.s.s.s.s.g.s.s.s.s.g.s.s.s.s.s.s.s.s.g.g.s.s.s.s.s.s.s.s.e.g.g.M.<.v Z.g.e.s.s.s.s.s.e.e.e.e.e.e.e.e.s.s.s.s.e.s.e.e.s.s.s.s.s.s.s.s.s.s.e.e.e.e.e.s.e.e.e.e.e.e.e.s.s.s.s.s.s.s.s.s.s.s.e.e.e.e.e.e.s.s.s.s.s.s.s.s.s.s.s.s.s.s.%.S G.g.s.s.e.s.g.s.s.s.g.s.s.s.s.s.s.s.g.g.g.g.g.g.s.s.s.s.s.s.s.s.s.s.s.s.g.g.s.s.s.s.s.s.s.s.s.s.s.s.s.s.s.s.s.s.s.s.s.s.s.s.s.s.g.s.s.s.s.g.g.s.g.g.e.s.g.M.%.: ",
"J.M.s.g.M.M.g.g.g.g.M.M.M.g.g.g.g.g.g.M.M.M.M.M.M.g.g.g.M.M.M.g.g.g.g.g.g.g.g.g.g.g.g.g.g.M.M.M.g.g.g.g.g.g.M.M.g.g.g.g.g.g.g.g.g.g.g.g.g.g.g.g.g.g.g.s.g.g.g.P s.G.M.g.g.g.M.g.g.g.g.g.g.g.g.g.g.g.g.g.g.g.g.g.g.g.g.g.g.M.M.M.g.g.M.M.M.g.g.g.g.M.M.M.g.g.g.g.g.g.g.g.g.g.g.g.g.g.g.g.g.g.g.g.M.M.M.M.M.M.M.M.g.g.M.s.M.M.g.J g.Z.g.g.g.g.M.M.g.g.g.g.g.g.g.g.g.g.g.g.g.g.M.M.M.M.g.g.g.g.g.g.g.g.M.g.M.M.M.M.g.g.M.M.M.g.g.g.g.g.g.g.g.g.M.M.M.M.g.g.g.g.g.g.g.g.g.g.M.M.M.M.M.g.g.s.M.M.g.V M.Z.M.s.g.M.g.M.M.M.M.g.M.M.M.M.g.g.g.g.g.g.g.g.M.g.M.g.g.g.g.g.g.g.g.g.M.g.M.g.g.g.g.g.g.g.g.g.M.M.g.g.g.g.M.M.M.M.M.M.g.g.g.g.g.g.g.g.g.g.g.g.M.g.s.g.g.M.e.v M.M.g.s.g.g.g.g.g.g.g.g.M.M.M.M.M.M.g.g.g.g.g.g.g.g.g.g.g.g.g.g.M.g.M.g.g.g.g.g.M.M.M.g.g.g.g.M.g.g.g.g.g.M.M.g.M.g.g.g.g.g.g.M.M.M.M.g.g.g.g.M.g.g.s.g.g.M.e.V M.g.g.g.g.g.g.g.g.g.g.g.g.g.M.M.g.g.g.g.g.g.M.M.g.g.g.g.g.g.g.g.g.g.g.g.g.g.g.g.g.g.g.g.g.g.g.g.g.g.g.g.g.g.M.M.g.g.g.g.g.g.g.g.M.M.M.g.g.g.g.g.s.s.s.g.s.g.e.S Z.g.e.s.s.g.g.g.s.s.s.g.g.g.g.g.g.g.g.g.g.g.g.g.g.g.g.g.g.g.g.g.g.g.s.s.s.s.s.s.s.s.s.s.s.g.g.g.s.s.s.s.s.s.s.s.s.s.s.s.s.s.s.g.s.s.s.s.s.s.s.s.s.s.s.s.s.g.%.J J.g.s.g.s.g.M.g.s.s.g.g.g.g.g.g.g.g.g.g.g.g.g.g.g.g.g.M.M.g.g.g.g.g.g.M.M.M.M.g.g.g.g.g.g.g.M.M.g.g.g.g.g.g.g.g.g.g.g.g.g.g.g.g.M.g.g.g.g.M.M.M.M.M.g.g.g.M.%.1 ",
"Z.g.e.s.s.s.s.s.s.s.g.g.g.s.s.s.s.s.s.s.s.s.s.s.g.s.s.s.g.g.g.s.s.s.s.s.s.s.s.s.s.s.s.s.s.s.g.g.s.s.s.s.s.s.g.g.s.s.s.s.s.s.s.s.g.s.s.s.s.s.s.s.s.s.g.e.e.e.s.J <.Z.g.s.s.s.g.s.s.s.s.s.s.s.s.s.s.s.s.s.s.s.s.s.s.s.s.s.s.s.s.s.s.s.s.s.s.s.s.s.s.s.g.g.s.s.s.s.g.s.g.s.s.s.s.g.s.s.s.s.s.s.s.s.g.g.g.g.g.g.g.g.s.g.g.e.s.e.e.V e.M.e.e.g.s.g.s.s.s.s.s.s.s.s.s.s.s.s.s.s.s.g.s.g.g.s.s.s.s.s.s.s.s.s.s.s.s.g.g.s.s.g.g.g.s.s.s.s.s.s.s.s.g.g.g.g.s.s.s.s.s.s.s.g.g.g.g.g.g.g.g.g.g.g.e.g.g.s.v s.M.g.s.g.g.s.g.s.s.s.s.s.s.s.s.s.s.s.s.s.s.s.s.g.g.g.g.s.s.s.s.s.s.s.s.s.s.s.s.g.s.s.s.s.s.s.s.g.s.s.s.s.s.s.g.g.g.s.s.s.s.s.s.s.s.s.g.s.s.s.s.g.g.e.s.s.g.<.p g.s.s.s.s.s.s.s.s.s.s.g.g.g.g.s.g.s.s.s.s.s.s.s.s.s.s.s.s.s.s.s.g.g.s.s.s.s.s.s.g.g.g.g.s.g.g.g.s.s.s.s.g.g.g.s.g.s.s.s.s.s.s.g.g.g.g.s.s.s.g.g.s.g.s.s.e.s.<.v s.s.s.s.s.s.s.s.s.s.s.s.s.s.g.g.s.s.s.s.s.s.g.g.s.s.s.s.s.s.s.s.g.g.g.s.s.s.s.s.s.s.s.s.s.s.s.s.s.s.s.s.s.s.g.g.s.s.s.s.s.s.s.s.s.g.g.g.s.s.s.s.s.s.s.s.e.e.:.V M.s.<.e.s.s.s.s.e.e.e.s.s.s.s.e.s.s.s.e.s.s.e.e.e.e.e.e.s.e.e.e.e.e.e.e.<.e.e.e.e.e.e.e.e.e.e.s.e.e.e.e.e.e.e.e.<.<.<.<.e.e.s.s.e.e.e.e.s.s.s.s.s.e.e.e.e.e...V G.s.e.s.s.s.g.s.e.s.s.s.s.s.s.g.s.s.s.s.s.s.s.s.s.s.s.g.g.s.s.s.s.s.g.g.g.g.g.s.s.s.s.s.s.s.g.s.s.s.s.s.s.s.s.s.s.s.s.s.s.s.s.s.s.s.s.s.s.s.s.s.e.s.s.g.g.s...: ",
"M.g.s.g.g.g.g.g.g.g.g.g.g.g.g.g.g.g.g.g.g.g.g.g.M.g.g.g.M.M.g.g.M.M.M.M.M.M.M.M.g.g.g.g.g.g.g.g.g.g.g.g.g.g.g.g.M.M.g.g.g.g.g.g.g.g.g.g.g.g.g.g.g.g.M.e.s.s.g.J e.Z.g.g.g.g.g.s.g.g.g.g.g.g.g.g.g.g.g.g.g.g.g.g.g.g.g.g.g.g.g.g.g.g.g.g.g.g.g.g.g.g.g.g.g.g.g.g.M.M.M.g.g.M.M.M.g.g.g.g.g.g.g.g.g.g.g.g.g.g.g.g.M.M.M.e.g.g.g.S g.Z.s.s.M.g.M.g.s.g.g.g.g.g.g.g.g.g.g.g.g.g.g.g.g.g.g.g.g.g.g.g.g.g.g.g.g.g.g.g.g.g.g.g.M.g.g.g.s.g.g.g.g.g.g.M.g.g.g.g.g.g.g.g.g.g.g.g.g.g.g.g.M.M.M.s.M.M.s.V g.Z.M.g.M.M.g.g.g.g.g.g.g.g.g.g.g.g.g.g.g.g.g.g.g.g.g.g.g.g.g.g.g.g.g.g.g.g.g.g.g.g.g.g.g.g.g.g.g.g.g.g.g.g.g.g.g.g.g.g.g.g.g.g.g.g.g.g.g.g.g.g.M.M.g.M.g.M.<.v Z.g.s.s.g.g.g.g.g.g.g.g.g.g.g.g.g.g.g.g.g.g.g.g.g.g.g.g.g.g.g.g.g.g.g.g.g.g.g.g.g.g.g.g.g.g.g.g.g.g.g.g.g.g.g.g.M.g.g.g.g.g.g.g.g.g.g.g.g.g.g.g.g.M.g.g.g.g.e.V g.g.g.g.g.g.g.g.g.g.g.g.g.g.g.g.g.g.g.g.g.g.g.g.g.g.g.g.g.g.g.g.M.M.M.M.g.g.g.g.g.g.g.g.g.g.s.s.g.g.g.g.g.g.g.g.g.g.g.g.g.g.g.g.g.g.g.g.g.g.s.s.g.M.g.M.g.g.<.S G.g.e.s.g.g.g.s.s.s.s.g.g.g.s.s.s.s.s.s.s.s.s.s.s.s.s.s.s.s.s.s.s.s.s.s.s.s.s.s.s.s.s.s.s.s.s.s.g.g.s.s.s.s.s.s.e.e.s.s.s.s.s.s.g.g.g.g.g.g.g.g.g.s.s.s.s.s.%.S J.g.s.g.g.M.M.s.g.M.M.M.g.g.g.M.M.M.M.M.M.M.g.g.g.g.g.M.g.g.g.g.g.g.g.g.M.g.g.g.g.g.g.g.g.g.g.g.g.g.g.g.g.g.g.g.g.g.g.g.g.g.g.g.g.g.s.s.g.g.g.g.s.g.g.M.M.M.%.1 ",
"g.s.s.g.g.g.g.M.g.g.g.g.g.g.s.s.g.g.g.g.g.g.g.g.g.g.s.g.g.g.g.g.s.s.s.s.s.s.s.s.s.s.s.s.g.g.g.g.g.g.g.g.g.g.g.g.g.g.g.g.g.g.g.g.g.g.g.s.g.g.g.g.s.g.M.e.g.g.g.S <.M.g.g.g.s.g.s.g.g.g.s.s.g.g.g.g.g.g.g.g.g.g.s.s.s.s.s.s.s.s.s.s.s.s.s.g.s.s.s.s.s.g.g.s.s.s.s.g.g.g.s.s.s.g.g.g.g.g.g.g.g.g.g.g.g.s.g.g.g.g.g.s.s.s.<.s.g.s.V g.Z.g.g.M.g.g.s.s.s.g.g.g.g.g.g.g.g.g.g.g.g.g.g.g.g.g.s.s.s.s.s.g.g.g.g.g.g.s.s.g.g.g.g.g.g.s.s.s.s.g.g.g.g.g.s.g.g.g.g.s.s.s.s.g.g.g.g.g.g.g.g.e.s.g.e.g.g.s.v g.Z.M.s.g.g.s.s.g.g.g.g.g.g.g.g.s.s.g.g.g.g.s.s.s.s.g.g.g.g.g.s.g.g.g.g.g.g.g.g.g.g.g.s.s.s.s.s.g.g.g.g.g.g.g.g.s.s.g.g.g.g.g.g.g.g.g.g.g.g.g.g.s.s.s.g.g.g.<.v Z.M.s.s.s.g.s.s.s.s.g.g.g.s.s.s.g.s.s.s.s.g.g.g.g.g.g.g.g.g.g.g.g.g.g.g.g.g.g.g.s.s.s.s.s.g.g.g.g.g.s.s.g.g.g.s.g.g.g.g.s.g.g.g.s.s.s.s.s.s.g.g.s.s.e.s.g.M.<.v s.s.g.g.g.g.g.g.g.g.g.g.g.g.g.g.g.g.g.g.g.g.g.g.s.s.s.s.g.g.g.g.g.s.s.s.s.s.s.s.s.s.g.g.g.s.s.e.g.g.g.g.g.s.s.s.g.g.g.g.g.g.g.g.g.g.g.g.g.s.s.s.s.s.s.g.g.g.<.V Z.s.<.e.s.s.e.<.s.s.s.s.s.s.s.s.s.s.s.s.s.s.s.s.s.s.s.s.s.s.s.s.e.e.s.s.s.s.s.s.e.e.e.s.s.s.s.e.e.e.e.e.e.e.e.e.s.s.s.s.s.s.s.s.s.s.s.s.s.s.s.s.e.e.e.s.s.s...S J.g.s.g.g.g.g.s.g.g.g.g.s.s.s.s.s.g.g.g.g.s.s.s.s.g.g.g.g.g.g.s.s.g.g.g.g.g.g.g.g.g.g.g.g.g.g.g.s.s.s.s.s.s.s.s.s.s.s.s.g.g.g.g.g.g.s.s.g.g.g.g.M.g.s.s.s.g...: ",
"Z.g.g.g.g.g.g.M.g.g.g.g.g.g.s.s.g.g.g.g.g.g.g.g.g.g.g.g.g.g.g.g.g.g.g.g.g.g.g.g.g.g.g.g.g.g.g.g.g.g.g.g.g.g.g.g.g.g.g.g.g.g.g.g.g.g.g.g.g.g.g.g.s.s.s.s.g.s.M.S :.Z.s.g.g.g.s.g.g.g.s.s.s.s.s.s.g.g.g.g.g.g.g.g.g.g.g.s.s.s.s.s.s.s.g.g.g.g.s.s.g.g.g.s.s.g.g.g.g.g.g.g.g.g.g.g.g.g.g.g.g.g.g.g.g.g.g.g.g.g.g.g.M.s.g.s.s.s.g.S s.Z.g.g.M.s.g.s.g.g.g.g.g.g.g.g.g.g.g.g.g.g.g.g.s.s.g.g.g.g.g.g.g.g.g.g.g.g.g.g.g.g.g.g.g.g.g.g.g.g.g.g.g.g.g.g.g.g.g.g.s.g.g.g.g.g.g.g.g.g.g.g.g.s.g.s.g.g.g.V s.M.g.g.M.g.s.g.g.g.g.g.g.g.g.g.s.s.g.g.g.g.g.s.g.g.g.g.g.g.g.g.g.g.g.g.g.g.g.g.g.g.g.g.g.g.g.g.g.g.g.g.g.g.g.g.g.s.s.s.g.g.g.g.g.g.g.g.g.g.g.g.g.g.g.g.s.g.<.p M.M.g.s.s.g.g.g.g.g.s.s.s.s.g.g.s.s.g.g.g.g.g.g.g.g.g.g.g.g.g.g.g.g.g.g.g.g.g.g.g.g.g.g.g.g.g.g.s.s.s.g.g.g.g.g.s.s.s.s.s.s.s.s.s.s.g.g.g.g.g.g.g.g.s.g.g.M.e.v g.g.g.g.g.g.g.g.g.g.g.g.g.g.s.s.g.g.g.g.g.g.g.g.g.g.g.g.g.g.g.g.g.g.g.g.s.e.e.g.g.g.g.g.g.g.g.g.g.g.g.g.g.M.g.g.g.g.g.g.g.g.g.g.g.g.g.g.g.s.s.g.s.g.g.M.g.g.e.V Z.g.e.e.s.s.e.s.s.s.s.s.s.s.s.s.s.s.s.s.s.s.e.e.s.s.s.s.s.s.s.s.s.s.s.s.s.s.s.s.s.s.s.s.s.s.s.s.s.s.s.s.s.s.s.s.s.s.s.e.e.e.e.e.s.s.s.s.s.s.s.s.e.e.s.s.s.s.%.S G.g.g.g.g.g.M.g.g.g.g.g.g.g.g.g.s.s.s.s.g.g.g.g.g.g.g.g.g.g.g.g.g.g.g.g.g.g.g.g.g.g.g.g.g.g.g.g.s.s.g.g.g.g.g.g.g.g.g.g.g.s.s.s.g.g.g.g.g.g.g.g.s.s.s.g.g.M.:.: ",
"G.M.g.g.g.g.g.g.g.g.g.g.g.g.s.s.g.g.g.g.g.g.g.g.g.g.g.g.g.g.g.g.g.g.g.g.g.g.g.g.g.g.g.g.g.g.g.g.g.g.g.g.g.g.g.g.g.g.g.g.g.g.g.s.g.g.g.g.g.g.g.g.g.s.s.g.g.s.M.S <.G.s.g.s.g.s.g.g.g.s.s.s.s.s.s.g.g.g.g.g.g.g.g.g.g.g.s.s.s.s.s.s.g.g.g.g.g.g.s.g.g.g.s.s.g.g.g.g.g.g.g.g.g.g.g.g.g.g.g.g.g.g.g.g.g.g.g.g.g.g.g.M.s.g.s.s.s.g.S s.Z.g.g.M.s.g.s.g.g.g.g.g.g.g.g.g.g.g.g.g.g.g.g.s.s.g.g.g.g.g.g.g.g.g.g.g.g.g.g.g.g.g.g.g.g.g.g.g.g.g.g.g.g.g.g.g.g.g.g.g.g.g.g.g.g.g.g.g.g.g.g.g.s.M.s.g.g.g.V M.M.g.s.g.g.s.g.g.g.g.g.g.g.g.g.s.g.g.g.g.g.g.g.g.g.g.g.g.g.g.g.g.g.g.g.g.g.g.g.g.g.g.g.g.g.g.g.g.g.g.g.g.g.g.g.g.s.s.s.g.g.g.g.g.g.g.g.g.g.g.g.g.g.g.g.s.g.<.p M.M.g.s.s.g.g.g.g.g.g.s.s.g.g.g.s.s.g.g.g.g.g.g.g.g.g.g.g.g.g.g.g.g.g.g.g.g.g.g.g.g.g.g.g.g.g.g.s.s.s.s.g.g.g.g.g.g.g.g.g.g.g.g.g.g.g.g.g.g.g.g.g.g.s.g.g.M.e.v g.g.g.g.g.g.g.g.g.g.g.g.g.g.g.g.g.g.g.g.g.g.g.g.g.g.g.g.g.g.g.g.g.g.g.g.s.e.e.g.g.g.g.g.g.g.g.g.g.g.g.g.g.g.g.g.g.g.g.g.g.g.g.g.g.g.g.g.g.s.g.g.s.g.g.M.g.g.e.V Z.g.e.e.s.s.e.s.s.s.s.s.s.s.s.s.s.s.s.s.s.s.s.e.s.s.s.s.s.s.s.s.s.s.s.s.s.s.s.s.s.s.s.s.s.s.s.s.s.s.s.s.s.s.s.s.s.s.e.e.e.s.e.e.s.s.s.s.s.s.s.s.e.e.s.s.s.s.%.V G.g.s.g.g.g.M.g.g.g.g.g.g.g.g.g.g.s.g.g.g.g.g.g.g.g.g.g.s.s.s.s.g.g.g.g.g.g.g.g.g.g.g.g.g.g.g.g.g.g.g.g.g.g.g.g.g.g.g.g.g.g.g.g.g.g.g.g.g.g.g.g.s.s.s.g.s.M.:.: ",
"J.Z.g.g.g.s.s.g.g.g.g.g.g.g.s.s.g.g.s.s.s.s.g.g.g.g.g.g.g.g.g.g.g.g.g.g.g.g.g.g.g.g.g.g.g.g.g.g.g.g.g.g.g.g.g.g.g.g.g.g.g.g.g.s.g.g.s.s.s.g.g.g.g.g.g.g.g.s.M.S <.G.s.g.s.g.s.g.g.g.s.s.s.s.s.s.g.g.g.g.s.s.s.s.g.g.g.s.s.s.s.s.s.g.g.g.g.g.g.s.g.g.s.s.s.s.g.g.g.g.g.g.g.g.g.g.g.g.g.g.g.g.g.g.g.g.g.g.g.g.g.g.M.s.g.s.s.s.g.S s.Z.g.g.g.s.g.g.s.s.s.g.g.g.g.g.g.g.g.g.g.g.g.g.s.s.g.g.g.g.g.g.g.g.g.g.g.g.g.g.g.g.g.g.g.g.g.s.g.g.g.g.g.g.g.g.g.g.g.g.g.g.g.g.g.g.g.g.g.g.g.g.g.s.g.s.g.g.g.V M.Z.g.s.g.s.s.g.g.g.g.g.g.g.g.g.s.s.s.s.s.g.g.g.g.g.g.g.g.g.g.g.g.g.g.g.g.g.g.g.g.g.g.g.g.g.g.g.g.g.g.g.g.g.g.g.g.s.s.s.s.g.g.g.g.g.g.g.g.g.g.g.g.g.s.g.s.s.<.v M.M.g.s.s.g.g.g.g.g.g.s.s.g.g.g.s.s.g.g.g.g.g.g.g.g.g.g.g.g.g.g.g.g.g.g.g.g.g.g.g.g.g.g.s.s.s.s.s.s.s.s.s.g.g.g.g.g.g.g.g.g.g.g.g.g.g.g.g.g.g.g.g.g.s.g.g.M.e.v g.g.g.g.g.g.g.g.g.g.s.s.s.s.g.g.g.g.g.g.g.g.g.g.g.g.g.g.g.g.g.g.g.g.g.g.s.e.e.g.g.g.g.g.g.g.g.g.g.g.g.g.g.g.s.s.g.g.g.g.g.g.g.g.g.g.g.g.g.g.g.g.s.g.g.g.s.g.e.V Z.g.e.e.s.s.e.s.s.s.s.s.s.s.s.s.s.s.s.s.s.s.s.s.e.e.e.s.s.s.s.s.s.s.s.s.s.s.s.s.s.s.s.s.s.s.s.s.s.s.s.s.s.g.g.s.e.e.e.e.s.s.s.s.s.s.s.s.s.s.s.s.e.e.s.s.s.s.%.V G.g.s.g.g.g.M.g.g.g.g.g.g.g.g.g.g.g.g.g.g.g.g.g.s.s.s.s.s.s.s.s.g.g.g.g.g.g.g.g.g.g.g.g.g.g.g.g.g.g.g.g.g.g.g.g.g.g.g.g.g.g.g.g.g.g.g.g.g.g.g.g.g.s.s.g.s.M.:.: ",
"J.Z.g.s.s.s.s.g.s.g.g.g.g.s.s.s.s.s.s.s.s.s.s.s.g.g.g.g.g.g.g.g.g.g.g.g.g.g.g.g.g.g.g.g.g.g.g.g.g.g.g.g.g.g.g.g.g.g.g.g.g.g.g.s.g.g.s.s.s.s.g.g.g.g.g.g.g.s.M.S <.G.s.g.s.g.s.g.g.g.s.s.s.s.s.s.g.g.g.g.s.s.s.s.g.g.g.s.s.s.s.s.g.g.g.g.g.g.g.g.g.g.s.s.s.s.g.g.g.g.g.g.g.g.g.g.s.g.g.g.g.g.g.g.g.g.g.g.s.g.g.g.g.s.g.s.g.s.g.S s.Z.g.s.g.s.g.g.s.s.s.s.g.g.g.g.g.g.g.g.g.g.g.s.s.s.g.g.g.g.g.g.g.g.g.g.g.g.g.g.g.g.g.s.s.s.s.s.g.g.g.g.g.g.g.g.g.g.g.g.g.g.g.s.g.g.g.g.g.g.g.g.g.s.M.s.g.g.g.V M.M.g.s.g.s.s.g.s.g.g.g.g.g.g.g.g.g.s.s.s.s.g.g.g.g.g.g.g.g.g.g.s.g.g.g.g.g.g.g.g.g.g.g.g.g.g.g.g.g.g.g.g.g.g.g.g.s.s.s.s.s.g.g.g.g.g.g.g.g.g.g.g.g.s.s.e.s.<.v M.M.g.s.s.g.g.g.g.g.g.g.g.g.g.g.s.s.g.g.g.g.g.g.g.g.g.g.g.g.g.g.g.g.g.g.g.g.g.g.g.g.s.s.s.s.s.s.s.s.s.s.s.s.s.s.g.g.g.g.g.g.g.g.g.g.g.g.g.g.g.g.g.g.s.g.g.M.e.v g.g.g.g.g.g.g.g.g.g.s.s.s.s.g.g.s.s.g.g.g.g.g.g.g.g.g.g.g.g.g.g.g.s.g.g.s.e.s.g.g.g.g.g.g.g.g.g.g.g.g.g.s.g.s.s.g.g.g.g.g.g.g.g.g.g.g.g.g.g.g.g.g.g.g.g.s.g.e.V Z.g.e.e.s.s.e.s.s.s.s.s.s.s.s.s.s.s.s.e.e.s.s.s.e.e.e.e.s.e.e.e.s.s.s.s.s.e.e.e.s.s.s.s.s.s.s.s.s.s.e.s.s.s.s.s.e.e.e.e.s.s.s.s.s.s.s.s.s.s.s.e.e.e.s.s.s.s.%.S G.g.s.g.g.g.M.g.g.g.g.g.g.g.g.g.g.g.g.g.g.g.g.g.s.s.s.s.s.s.s.s.g.g.g.s.s.s.s.s.s.s.s.s.s.s.s.s.g.g.g.g.g.g.g.g.s.s.s.g.g.g.g.g.g.g.g.g.s.s.s.s.g.s.s.g.s.g.:.: ",
"G.M.s.s.s.s.s.g.s.s.g.g.g.s.s.s.s.s.s.s.s.s.s.s.s.g.g.g.g.g.g.s.g.g.g.g.g.g.g.g.g.g.g.g.g.g.g.g.g.g.g.s.s.g.g.g.g.g.g.g.g.g.s.s.g.s.s.s.s.s.g.g.s.s.s.g.g.s.M.S :.G.s.g.g.g.s.g.g.g.s.s.s.s.s.s.g.g.g.s.s.s.s.s.g.g.g.s.s.s.s.s.g.g.g.g.g.g.g.g.g.s.s.s.s.s.s.g.g.g.g.g.g.g.g.g.s.s.s.g.g.g.g.g.g.g.s.s.s.g.g.g.g.s.g.s.s.g.g.V s.Z.g.s.g.s.g.g.s.s.s.s.s.s.g.g.g.g.g.g.g.s.s.s.s.s.g.g.g.g.g.g.g.g.g.g.g.g.g.g.g.g.g.g.s.s.s.s.g.g.g.g.g.g.g.g.s.g.g.g.g.s.s.s.g.g.g.g.g.g.g.g.g.s.M.s.g.g.g.V s.g.g.s.g.g.s.g.s.s.s.g.g.g.g.g.g.s.s.s.s.s.g.g.g.g.g.g.g.g.g.g.s.s.s.g.g.g.g.g.g.g.g.g.g.g.g.g.g.g.g.g.g.g.g.g.g.g.s.s.s.s.s.s.g.g.s.g.g.g.g.g.g.g.s.g.s.s.<.v M.M.g.s.s.s.g.g.g.g.g.g.g.g.g.g.s.s.g.g.g.g.g.g.g.g.s.s.s.s.g.g.g.g.g.g.g.g.g.g.s.s.s.s.s.s.s.s.s.s.s.s.s.s.s.s.g.g.g.g.g.g.g.g.g.g.s.s.s.s.s.s.g.g.s.g.g.g.e.v g.g.g.g.g.g.s.s.g.s.s.s.s.s.g.g.s.s.s.g.g.g.g.g.s.s.s.s.s.s.s.s.g.s.s.g.g.s.s.g.g.g.g.g.g.g.g.g.s.s.s.s.s.s.g.g.g.g.g.g.g.g.g.g.s.g.g.g.s.s.g.g.g.g.g.g.s.g.<.V Z.g.e.e.s.s.s.s.s.s.s.s.s.s.s.s.s.s.s.e.s.s.s.s.e.e.e.s.s.s.e.e.s.s.e.e.s.e.e.e.s.s.s.s.s.s.s.s.e.e.e.e.s.s.s.s.e.e.s.e.e.e.s.s.s.s.s.s.s.s.e.e.e.e.s.s.s.s.%.S G.g.s.g.s.g.g.s.g.g.g.g.g.g.g.g.g.g.g.g.g.g.g.s.g.s.s.s.s.s.s.s.s.g.s.s.s.s.e.e.s.s.s.s.s.s.s.s.s.s.s.s.s.g.g.g.s.s.s.g.g.g.g.g.g.g.g.s.s.s.s.s.g.s.s.g.s.g.:.: ",
"G.g.e.s.s.g.g.g.s.s.s.g.s.s.s.s.s.s.s.s.s.s.s.s.s.s.g.g.g.g.s.s.g.g.g.g.g.g.g.g.g.g.g.g.g.g.g.g.g.g.s.s.s.s.g.g.g.g.g.g.g.s.s.s.s.s.s.s.s.s.g.g.s.s.s.s.g.s.M.S :.Z.s.g.g.g.s.g.g.g.s.s.s.s.s.s.g.g.g.g.s.s.s.s.g.g.g.s.s.s.s.s.g.g.g.s.s.g.g.g.s.s.s.s.s.s.s.s.g.g.g.g.g.g.g.g.s.s.s.s.g.g.g.g.s.s.s.s.s.g.g.g.g.s.g.s.g.s.s.V s.Z.g.s.g.s.g.s.s.s.s.s.s.s.g.g.g.g.g.g.s.s.s.s.s.s.g.g.g.g.g.g.g.g.g.g.g.g.g.g.g.g.g.g.s.s.s.s.g.g.g.g.g.g.g.g.s.s.s.s.s.s.s.s.g.g.g.g.g.g.g.g.g.s.M.s.g.g.g.V s.g.g.s.M.g.s.g.s.s.s.s.g.g.g.g.g.s.s.s.s.s.g.g.g.g.s.s.s.s.s.s.s.s.s.s.g.g.g.g.g.g.g.g.g.g.g.g.g.g.g.g.g.g.g.g.g.g.s.s.s.s.s.s.s.s.s.s.g.g.g.g.g.g.s.g.s.s.<.v M.M.g.s.s.g.g.g.s.g.g.g.g.g.g.s.s.s.g.g.g.g.g.g.g.g.s.s.s.s.g.g.g.g.g.g.g.g.g.g.s.s.s.s.s.s.s.s.s.s.s.s.s.s.s.s.g.g.g.g.g.g.g.g.s.s.s.s.s.s.s.s.g.g.s.g.s.g.<.v g.g.g.g.g.g.g.s.s.s.s.s.s.s.g.g.s.s.s.s.g.g.g.g.s.s.s.s.s.s.s.s.g.s.s.g.g.s.s.g.g.g.g.g.g.g.g.g.s.s.s.s.s.g.g.g.g.g.s.s.s.s.g.g.s.g.g.g.s.s.s.g.g.g.s.g.s.g.<.V Z.g.e.e.s.s.s.s.s.s.s.s.s.s.s.s.e.s.s.s.e.s.s.s.e.e.e.s.e.s.e.e.s.s.e.e.e.e.e.e.s.s.s.s.s.s.s.s.e.e.<.e.e.e.s.e.s.s.s.s.e.e.s.s.e.e.s.s.s.s.e.e.s.e.e.e.s.s.%.S G.g.s.g.s.g.g.s.g.g.g.g.g.g.g.g.s.s.g.g.s.s.s.s.g.g.g.g.g.s.s.s.s.s.s.s.s.e.e.e.s.s.s.s.s.s.s.s.s.s.s.s.s.s.s.s.g.g.g.g.g.g.g.g.g.g.g.s.s.s.s.s.s.s.s.g.s.g.:.: ",
"G.g.s.s.g.g.g.s.s.s.s.s.s.s.s.s.g.s.s.s.s.s.s.g.s.s.g.g.g.g.s.s.g.g.g.g.g.g.g.g.s.s.s.s.s.s.s.s.g.g.s.s.s.s.g.g.s.g.g.g.g.s.s.s.s.s.g.g.g.g.g.s.g.s.s.g.g.s.M.S :.G.s.g.g.g.s.g.g.g.s.s.s.s.s.s.g.g.g.g.g.g.g.g.g.g.g.s.s.s.s.s.g.g.g.s.s.g.g.g.s.s.s.s.s.s.s.s.s.s.s.s.s.s.s.s.s.s.s.s.s.g.g.g.s.s.s.s.s.g.g.g.g.s.g.s.g.g.s.V e.Z.g.g.g.s.g.s.s.s.s.s.s.s.g.g.g.g.g.s.s.s.s.s.s.s.g.g.g.g.g.g.s.s.s.s.s.s.s.s.g.g.g.g.g.s.s.s.g.g.g.g.g.g.g.g.g.g.g.g.s.s.s.s.g.g.g.g.g.g.g.g.g.s.M.s.g.g.g.V s.g.s.s.g.g.s.g.s.s.s.s.s.g.g.g.s.s.s.s.s.s.g.s.s.s.s.s.s.s.s.s.s.s.s.s.s.g.g.g.s.s.s.s.s.s.s.s.g.g.g.g.g.g.g.g.g.g.s.s.s.s.s.s.s.s.s.s.g.g.g.g.g.g.g.g.s.g.<.v M.M.g.s.s.g.g.g.s.g.g.g.g.g.g.s.s.s.g.g.g.g.g.g.g.g.s.s.s.s.g.g.g.g.g.g.g.g.g.g.s.s.s.s.s.g.g.g.g.g.g.g.g.s.s.s.g.g.g.g.g.g.g.g.s.s.s.s.s.g.g.g.g.g.s.g.g.M.e.v s.s.s.s.s.s.s.s.s.s.s.s.s.s.g.g.g.g.g.s.s.s.s.s.s.s.s.s.s.s.g.s.g.s.s.g.g.s.s.g.g.g.g.g.g.g.g.g.s.s.s.g.g.g.g.g.g.g.s.s.s.s.g.g.g.g.g.g.s.s.s.s.g.g.s.g.s.g.<.V Z.g.e.e.s.s.s.s.s.s.s.s.s.s.s.s.e.e.e.s.s.s.s.s.e.e.e.s.s.s.e.e.s.s.e.e.e.e.e.e.e.e.e.e.e.e.e.e.e.e.e.e.e.e.e.e.s.s.s.s.e.e.e.e.e.e.e.s.s.s.s.s.s.e.s.s.s.s.%.S G.g.s.g.s.s.g.s.s.s.s.s.s.s.s.s.s.s.g.g.s.s.s.s.g.g.g.g.g.s.s.s.g.s.s.s.s.s.s.s.s.s.s.s.s.s.s.s.s.s.s.s.s.s.g.g.g.g.g.g.g.g.g.g.g.g.s.s.s.s.s.s.s.s.s.g.s.g.%.- ",
"G.M.s.s.g.g.s.s.s.s.s.s.s.s.s.s.g.g.s.s.s.s.g.g.s.s.s.g.g.s.s.s.g.g.g.g.g.g.g.g.s.s.s.s.s.s.s.s.g.s.s.s.s.s.s.g.s.s.g.g.g.s.s.s.s.s.g.g.g.g.g.s.g.g.g.g.g.s.M.S <.G.s.g.s.g.s.g.g.g.s.s.s.s.s.s.g.g.g.g.g.g.g.g.g.g.g.s.s.s.s.s.g.g.s.s.s.s.g.g.s.s.s.s.s.s.s.s.s.s.s.s.s.s.s.s.s.s.s.s.s.g.g.g.s.s.s.s.s.g.g.g.g.s.g.s.g.g.s.V e.Z.g.g.g.s.s.s.s.s.s.s.s.s.g.g.g.g.g.s.s.s.s.s.s.s.g.g.g.g.g.g.s.s.s.s.s.s.s.s.g.g.g.g.g.g.g.s.g.g.g.g.g.g.g.g.g.g.g.g.s.s.s.s.g.g.g.g.g.g.g.g.g.s.M.s.g.g.g.V g.M.s.e.g.s.s.g.s.s.s.s.s.g.g.g.s.s.s.s.s.s.s.s.s.s.s.s.s.s.s.s.s.s.s.s.s.g.g.g.s.s.s.s.s.s.s.s.g.g.g.g.g.g.g.g.g.g.s.s.s.s.s.s.s.s.s.s.g.g.g.g.g.g.g.g.g.g.<.v M.M.g.s.s.g.g.g.s.s.g.g.g.g.s.s.s.s.g.g.g.g.g.g.g.g.s.s.s.s.g.g.g.g.g.g.g.g.g.g.s.s.s.s.g.g.g.g.g.g.g.g.g.g.g.g.s.s.s.s.s.s.s.s.s.s.s.g.g.g.g.g.g.g.s.g.g.M.e.v s.s.s.s.s.s.s.s.s.s.s.s.s.g.g.g.g.g.g.s.s.s.s.s.g.g.g.g.g.g.g.g.g.s.s.g.g.g.s.g.g.g.g.g.g.g.g.g.g.g.g.g.g.s.s.s.g.g.s.s.s.s.g.g.g.g.g.g.s.s.s.s.g.g.s.g.s.g.<.V Z.g.e.e.s.s.s.s.s.s.s.s.s.s.s.s.e.e.s.s.s.s.s.e.e.e.s.s.s.s.s.s.s.s.s.e.e.e.e.e.e.e.e.e.e.e.e.e.s.e.e.e.e.s.e.e.s.s.s.s.e.e.e.e.e.e.e.e.s.s.s.s.s.e.s.s.s.s.%.S G.g.s.g.s.s.g.s.s.s.s.s.s.s.s.s.g.g.g.g.s.s.s.s.g.g.g.s.s.s.s.s.s.s.s.s.g.g.g.g.g.g.g.g.g.g.g.g.s.s.g.g.g.g.g.g.g.g.g.g.g.s.s.s.g.g.s.s.s.s.s.s.s.s.s.g.s.g.%.- ",
"G.M.s.s.g.g.s.g.s.s.g.g.g.g.g.g.s.s.g.g.g.g.g.s.g.s.s.g.g.g.g.g.g.g.g.g.g.g.g.g.g.g.g.g.g.g.g.g.g.g.g.g.g.g.g.g.g.s.s.s.s.s.s.g.g.g.g.g.g.g.g.g.g.e.g.s.s.s.g.S <.G.s.g.s.g.s.s.s.s.s.s.s.g.g.g.g.g.g.g.g.g.g.g.s.s.g.s.s.s.s.s.s.s.s.s.s.s.s.g.s.s.g.g.g.g.g.g.g.g.g.g.s.s.s.s.s.s.s.s.s.s.s.s.g.g.g.s.s.g.g.g.s.g.g.s.s.s.M.V s.Z.g.g.g.s.s.s.s.s.s.s.g.g.g.g.g.g.g.g.g.g.s.s.s.s.s.g.g.g.g.g.g.g.g.g.g.g.g.g.g.g.s.s.s.s.g.g.g.g.s.s.s.s.g.g.g.g.s.s.s.g.g.g.g.g.g.g.g.s.s.s.g.s.g.s.g.g.g.V s.Z.s.s.g.s.g.g.s.s.s.s.s.g.g.g.s.s.s.s.s.s.s.s.g.g.g.g.g.g.g.g.s.s.s.g.g.g.g.g.s.s.s.s.s.s.s.s.g.g.g.g.g.g.g.g.g.g.g.g.s.s.g.g.g.g.g.g.g.g.g.s.g.g.s.g.s.g.<.p M.g.s.s.s.g.g.g.s.s.s.s.s.s.s.s.s.s.s.s.s.g.g.g.g.g.g.s.s.s.s.s.s.s.s.s.s.s.s.s.s.s.s.s.s.s.s.s.s.s.g.g.g.g.s.s.s.s.s.s.s.s.g.g.s.s.g.g.g.g.g.g.s.g.s.g.s.g.<.v g.g.s.g.g.g.g.s.s.s.g.g.g.g.g.g.g.s.s.s.s.s.s.s.g.g.g.g.g.g.g.g.s.s.s.s.s.s.s.s.s.s.s.s.s.g.g.g.g.g.g.g.s.s.g.g.g.g.g.s.s.g.g.g.g.g.s.s.s.s.g.g.g.g.s.g.s.s.<.V Z.s.s.s.e.e.g.s.s.s.s.s.e.e.e.e.e.e.e.s.s.s.s.s.e.e.e.e.e.e.e.e.e.e.e.e.e.e.e.e.s.s.s.s.s.s.s.s.s.s.s.s.e.e.s.s.s.s.s.s.s.s.s.s.s.e.e.e.s.s.s.s.s.e.e.s.s.s...S Z.s.s.g.s.g.g.g.s.s.s.s.s.g.g.g.g.g.g.s.s.s.s.s.s.g.g.g.g.g.g.s.s.g.g.g.g.g.g.g.s.s.g.g.g.s.s.g.g.g.g.g.g.g.g.g.g.g.s.g.g.g.g.s.s.g.g.g.g.g.g.g.g.g.g.g.s.M.:.: ",
"G.M.s.s.g.g.s.g.s.g.g.g.g.g.g.g.s.g.g.g.g.s.s.s.s.s.s.s.s.g.g.g.g.g.g.g.g.g.g.g.g.g.g.g.g.g.g.g.g.g.g.g.g.g.g.g.g.s.s.s.s.s.s.g.g.g.g.g.g.g.g.g.g.s.g.s.s.s.g.S <.G.s.g.g.g.s.g.s.s.s.s.s.g.g.g.g.g.g.g.g.g.g.g.s.s.g.s.s.s.s.s.s.s.s.s.s.s.s.s.s.s.g.g.g.g.g.g.g.g.g.g.s.s.s.s.s.s.s.s.s.s.s.s.g.g.g.s.s.g.g.g.s.g.g.s.s.s.M.V s.Z.g.g.g.s.s.s.s.s.s.s.g.g.g.g.g.g.g.g.g.g.s.s.g.g.g.g.g.g.g.g.g.g.g.g.g.g.g.g.g.g.s.s.s.s.g.g.g.g.s.s.s.s.g.g.g.g.s.s.s.g.g.g.g.g.g.g.g.s.s.s.g.s.g.s.g.g.g.V s.Z.s.s.g.s.g.g.s.s.s.s.s.g.g.g.g.g.g.g.g.g.g.g.s.g.s.s.s.s.s.s.s.s.s.g.g.g.g.g.s.s.s.s.s.s.s.s.g.g.g.g.g.g.g.g.g.g.g.s.s.s.g.g.g.g.g.g.g.g.g.s.g.g.s.g.s.g.<.p M.g.s.s.s.g.g.g.g.g.s.s.s.s.s.s.s.s.s.s.g.g.g.g.s.s.s.s.s.s.s.s.s.s.s.s.s.s.s.s.g.g.g.g.g.g.g.g.s.s.g.g.g.g.s.s.s.s.s.s.s.g.g.g.s.s.g.g.g.g.g.g.s.g.s.g.s.g.<.v s.s.s.s.g.g.s.s.s.s.g.g.g.g.g.g.g.s.s.s.s.g.s.s.g.g.g.g.g.g.g.g.s.s.s.s.s.s.s.s.s.s.s.s.g.g.g.g.g.g.g.s.s.s.s.g.g.g.g.s.s.g.g.g.g.g.s.s.s.s.g.g.g.s.e.g.s.s.<.V Z.s.s.s.e.e.g.s.s.s.s.s.e.e.e.e.e.e.e.s.s.s.s.s.s.s.s.s.s.s.s.s.e.e.e.e.e.e.e.e.s.s.s.s.s.s.s.s.s.s.s.e.e.e.s.s.s.s.s.s.s.s.s.s.s.e.e.e.s.s.s.s.e.e.e.e.s.s.%.S Z.s.s.g.s.s.g.s.s.s.s.s.s.g.g.g.g.g.g.s.s.s.s.s.s.g.g.g.g.g.g.s.s.s.g.g.g.g.g.g.s.g.g.g.g.s.g.g.g.g.g.g.g.g.g.g.g.g.s.g.g.g.g.s.s.s.g.g.g.g.g.g.g.g.g.M.s.M.:.: ",
"G.M.s.s.g.s.s.g.g.g.g.g.g.g.g.g.g.g.s.s.s.s.s.s.s.s.s.s.s.s.s.g.g.g.g.g.g.g.g.g.g.g.g.g.g.g.g.g.g.g.g.g.g.g.g.g.g.g.g.g.s.s.g.g.g.g.g.g.g.g.g.g.g.s.g.s.g.g.g.S :.G.s.g.g.g.s.g.s.s.s.s.s.g.g.g.g.g.g.g.g.s.s.s.s.s.g.s.s.s.s.s.s.s.s.s.s.s.s.s.s.s.g.g.g.g.g.g.g.g.g.g.s.s.s.s.g.g.g.g.g.g.g.g.s.g.g.g.g.g.g.s.s.g.g.s.s.s.M.V s.Z.g.s.g.s.s.s.s.s.s.s.g.g.g.g.g.g.g.g.g.g.s.s.g.g.g.g.g.s.s.s.g.g.g.g.g.g.g.g.g.g.s.s.s.s.g.g.g.g.s.s.s.s.g.g.g.s.s.s.s.g.g.g.g.g.g.g.g.s.s.s.g.s.g.s.g.g.s.V s.Z.s.s.g.s.g.s.s.s.s.s.s.g.g.g.g.g.g.g.g.g.s.s.s.s.s.s.s.s.s.s.s.s.s.g.g.g.g.g.s.s.s.s.s.s.s.s.g.g.g.g.g.g.g.g.g.g.g.s.s.s.s.g.g.g.g.g.g.g.s.s.g.g.s.g.g.g.<.p M.g.g.s.s.g.g.g.g.g.g.g.g.s.s.s.s.g.g.g.g.g.g.g.s.s.s.s.s.s.s.s.s.s.s.s.s.s.s.s.g.g.g.g.g.g.g.g.s.g.g.g.g.s.s.s.s.s.s.s.g.g.g.g.s.s.s.g.g.g.g.g.s.g.s.g.s.g.<.v s.s.s.s.g.g.s.s.s.s.g.g.g.g.s.s.s.s.s.s.s.s.s.s.g.g.g.g.g.g.g.g.s.s.s.s.s.s.s.g.s.g.g.g.g.g.g.g.g.g.g.s.e.e.e.s.s.g.g.g.g.g.g.s.g.g.s.s.s.s.g.g.g.s.e.s.s.s.<.V Z.s.s.s.e.e.s.s.e.e.s.s.e.s.s.s.s.s.s.s.s.s.s.s.s.s.s.s.s.s.s.s.s.e.s.s.s.s.e.e.s.s.s.s.s.s.s.s.s.s.e.e.e.e.s.s.s.s.s.s.s.s.s.s.s.s.s.e.s.e.e.e.e.e.e.e.e.s.%.S G.g.s.g.s.s.g.s.s.s.s.s.s.g.g.g.g.g.g.s.s.s.s.s.s.s.g.g.g.g.s.s.s.s.s.g.g.g.g.g.g.g.g.g.g.s.s.g.g.g.g.g.g.g.g.g.g.s.s.g.g.g.g.s.s.s.s.g.g.g.g.g.g.g.g.g.s.M.:.: ",
"G.M.s.s.g.s.s.g.g.g.g.g.g.g.g.s.s.s.s.s.s.s.s.s.g.g.g.g.g.g.g.g.s.s.s.s.s.s.s.s.s.s.s.s.s.s.s.s.s.s.s.s.s.s.s.s.g.g.g.g.g.g.g.g.s.s.s.s.s.s.s.s.g.s.g.s.g.g.g.S <.G.s.g.s.g.s.g.s.s.s.s.s.g.g.g.g.g.g.g.s.s.s.s.s.s.g.s.s.s.s.s.g.s.s.s.s.s.s.s.s.s.g.g.g.g.s.s.s.s.s.s.s.s.s.s.g.g.g.g.g.g.g.g.s.s.g.g.g.g.s.s.s.g.g.s.s.s.M.V s.Z.s.s.g.e.s.s.s.s.s.s.s.g.g.g.g.g.g.g.g.g.s.s.g.g.g.g.s.s.s.s.g.g.g.g.g.g.g.g.g.g.s.s.s.s.g.g.g.s.s.s.s.s.s.g.s.s.s.s.s.g.g.g.g.g.g.s.s.s.s.s.g.s.g.s.g.s.s.V s.Z.s.s.g.s.g.s.s.s.s.s.s.g.g.g.g.g.g.g.g.g.g.s.g.g.s.s.s.s.s.s.s.s.s.s.s.g.g.g.s.s.s.s.s.s.s.s.s.s.s.s.s.s.s.s.g.g.g.s.s.s.s.s.g.g.g.g.s.s.s.s.s.g.s.g.s.g.<.p M.g.g.s.s.g.g.g.g.g.g.g.g.g.g.g.g.g.g.g.g.g.g.g.g.g.g.g.g.g.g.g.s.s.s.s.s.s.s.s.g.g.g.g.s.s.g.g.g.g.g.g.s.s.s.s.s.s.g.g.g.g.g.g.s.s.s.s.s.g.g.g.s.g.s.g.s.g.<.v s.s.s.s.g.g.s.s.s.g.g.g.g.s.s.s.s.s.s.s.g.s.s.s.g.g.g.g.s.s.s.s.s.s.s.s.g.g.g.g.g.g.g.s.g.g.g.g.g.g.g.s.s.e.e.s.s.s.g.g.g.g.s.s.g.g.s.s.s.s.g.g.g.s.e.s.s.s.<.V Z.s.s.s.e.e.s.s.e.e.e.e.e.s.s.s.s.s.s.s.s.s.s.s.s.s.s.s.s.s.s.s.s.s.s.s.s.s.s.s.e.e.e.e.s.s.s.e.s.s.e.e.e.e.s.s.e.s.e.e.e.e.s.s.s.s.s.s.e.e.e.e.e.<.e.e.s.s.%.S G.g.g.g.s.s.s.e.s.s.s.s.s.g.g.g.g.s.s.s.s.s.s.s.s.s.g.g.g.g.s.s.s.s.s.s.g.g.g.g.g.g.g.s.s.s.s.s.s.s.s.s.s.s.s.s.g.s.s.g.g.g.s.s.s.s.s.s.g.g.g.g.g.g.g.g.s.M.:.: ",
"Z.M.g.g.g.s.s.g.g.g.g.g.g.g.s.s.s.s.s.s.s.s.s.g.g.g.g.g.g.g.g.g.s.s.s.s.s.s.s.s.s.s.s.s.s.s.s.s.s.s.s.s.s.s.s.s.g.g.g.g.g.g.g.g.s.s.s.s.s.s.s.s.g.s.g.s.g.g.g.S <.G.s.g.s.g.e.s.s.s.s.s.s.g.g.g.g.g.g.s.s.s.s.s.s.s.g.s.s.s.s.s.g.s.s.s.s.s.s.s.s.s.s.g.g.s.s.s.s.s.s.s.s.s.e.e.g.g.g.g.g.g.g.g.s.s.g.g.g.g.s.s.s.g.g.s.g.s.M.V s.Z.s.s.g.e.s.s.s.s.s.s.s.s.g.g.g.g.g.g.g.g.s.s.g.g.g.s.s.s.s.s.g.g.g.g.g.g.g.g.g.g.s.s.s.s.g.g.s.s.s.g.g.s.s.s.s.s.s.s.s.g.g.s.s.s.s.s.s.s.s.s.g.e.g.s.g.s.s.V s.Z.s.s.g.s.g.s.s.s.s.s.s.g.g.g.g.g.g.g.s.g.g.g.g.g.s.s.s.s.s.s.s.s.s.s.s.s.s.s.s.s.s.s.s.s.s.s.s.s.s.s.s.s.s.s.g.g.s.s.s.s.s.s.g.s.s.s.s.s.s.s.s.s.s.g.s.g.<.p M.g.g.s.s.g.g.s.g.g.g.g.g.g.g.g.s.s.g.g.g.g.g.g.g.g.g.g.g.g.g.g.s.s.s.s.s.s.s.s.g.g.g.g.g.g.g.g.g.g.g.g.s.s.s.s.g.g.g.g.s.s.g.g.s.s.s.s.s.s.g.g.s.g.s.g.s.g.<.v s.s.s.s.g.g.s.s.s.g.g.g.g.s.s.s.e.s.s.g.g.g.s.s.g.g.g.s.s.s.s.s.s.s.s.s.g.g.g.g.s.s.s.s.g.g.g.g.g.g.g.s.s.s.s.s.s.s.g.g.g.g.s.s.g.s.s.s.s.s.s.g.s.s.e.s.s.s.<.V Z.s.s.s.e.e.s.s.e.e.e.e.s.s.s.s.s.s.s.s.s.s.s.e.e.e.e.s.e.s.e.e.e.e.s.s.s.s.s.s.e.e.s.s.s.s.e.e.s.s.e.e.e.e.s.s.e.e.e.e.e.e.s.s.s.s.e.e.e.e.e.e.e.<.e.e.s.s.%.S G.g.s.g.e.s.s.s.s.s.e.s.s.g.g.g.s.s.s.s.s.s.s.g.s.s.s.g.g.s.s.s.s.s.s.s.s.s.g.g.s.s.s.s.e.e.s.s.s.s.s.s.s.s.s.s.s.s.s.s.g.g.s.s.s.s.s.s.s.s.g.g.g.s.s.g.s.g.:.: ",
"Z.M.g.g.g.s.s.g.s.g.g.g.s.s.s.s.s.s.s.s.s.s.g.g.s.s.s.s.s.s.s.s.s.s.s.s.s.s.s.s.s.s.s.s.s.s.s.s.s.s.s.s.s.s.s.s.g.g.g.g.g.g.g.g.s.s.s.s.s.s.s.s.g.e.g.s.g.g.g.S <.G.s.g.s.g.e.s.s.s.s.s.s.g.g.g.g.g.s.s.s.s.s.s.s.s.g.s.s.s.s.s.s.s.s.s.s.s.s.g.s.s.s.g.s.s.s.s.s.s.s.s.s.s.s.s.g.g.g.g.g.g.g.g.s.s.s.s.s.s.s.s.s.g.g.s.g.s.M.V s.Z.s.s.s.e.s.s.s.s.s.s.s.s.s.s.g.g.g.g.g.g.s.s.s.s.s.s.s.s.s.s.g.g.g.g.g.g.g.g.g.g.s.s.s.s.g.g.s.s.g.g.g.g.s.s.s.s.s.s.g.s.s.s.s.s.s.s.s.s.s.s.g.e.g.s.g.s.s.V s.Z.s.e.g.s.g.s.s.s.s.s.s.g.g.g.s.s.s.s.s.s.s.s.s.s.s.s.s.s.g.g.s.s.s.s.s.s.s.s.s.s.s.s.s.s.s.s.s.s.s.s.s.s.s.s.g.g.s.s.s.s.s.s.s.s.s.s.s.s.s.s.s.s.s.s.s.g.<.p M.M.g.s.s.s.s.s.s.s.s.g.g.g.g.g.s.s.s.s.s.g.g.g.s.s.s.s.s.s.s.s.s.s.s.s.s.s.s.s.s.s.s.s.s.s.s.s.g.g.g.s.s.s.s.s.g.g.g.s.g.g.s.s.s.s.s.s.s.s.g.g.s.g.s.g.s.g.<.v g.s.s.s.s.g.s.s.s.g.g.g.s.s.s.s.e.s.s.s.s.s.s.g.g.g.g.s.s.s.s.s.s.s.s.s.s.s.s.g.s.s.s.s.s.g.g.g.g.g.g.s.s.s.s.s.s.s.s.s.s.s.s.s.s.s.s.s.s.s.s.s.s.s.e.s.s.s.<.V Z.s.s.s.e.e.s.s.e.e.e.e.s.s.s.s.e.s.s.s.s.s.e.e.e.e.e.e.e.e.e.e.e.e.s.s.s.e.e.s.e.e.s.s.s.s.e.e.s.s.e.e.s.s.s.s.e.e.e.e.e.e.s.s.s.s.e.e.e.e.e.e.e.e.e.e.e.s.%.S G.g.g.g.s.s.s.s.s.s.s.s.s.g.g.s.s.s.s.s.s.g.g.g.s.s.s.s.s.s.s.s.s.s.s.s.s.s.s.s.s.s.s.e.e.e.s.s.s.s.s.s.s.s.s.s.s.s.s.s.g.g.s.s.s.s.s.s.s.s.s.s.g.s.s.g.s.g.:.: ",
"Z.M.g.g.g.s.s.g.s.s.s.s.s.s.s.e.s.s.s.s.s.s.s.s.s.s.s.s.s.s.s.s.s.s.s.s.s.s.s.s.s.s.s.s.s.s.s.s.s.s.s.s.s.s.s.s.s.s.s.s.s.s.s.g.s.s.s.s.s.s.s.s.s.e.g.s.s.g.g.S <.G.s.s.s.g.e.s.s.s.s.s.s.g.g.g.s.s.s.s.s.s.s.s.s.s.s.s.s.s.s.s.s.s.s.s.s.s.s.g.s.s.s.s.s.s.s.s.s.s.s.s.s.s.s.s.s.s.s.s.s.s.s.s.s.s.s.s.s.s.s.s.s.g.g.s.g.s.M.V s.M.s.e.s.e.s.s.g.g.s.s.s.s.s.s.g.g.g.g.g.g.s.s.s.s.s.s.s.s.s.s.s.s.s.s.s.s.s.s.g.g.s.s.s.s.g.g.s.s.g.g.g.g.s.s.s.s.s.g.g.s.s.s.s.s.s.s.s.s.s.g.g.e.g.s.g.s.s.V s.Z.s.s.g.s.g.s.s.s.s.s.s.g.g.g.s.s.s.s.s.s.s.s.s.s.s.s.s.s.s.g.g.s.s.s.s.s.s.s.s.s.s.s.s.s.s.s.s.s.s.s.s.s.s.s.g.s.s.s.s.s.s.s.s.s.s.s.s.s.s.s.s.s.e.s.s.g.<.v M.M.g.s.s.s.s.s.s.s.s.s.s.s.g.g.s.s.s.s.s.s.s.s.s.s.s.s.s.s.s.s.s.s.s.s.s.s.s.s.s.s.s.s.s.s.s.s.g.g.s.s.s.s.s.g.s.s.s.s.s.s.s.s.s.s.s.s.s.s.g.g.s.g.s.g.s.g.<.v g.s.s.s.s.s.s.s.g.g.s.s.s.s.s.e.s.s.g.s.s.s.s.g.g.g.s.s.s.s.s.s.s.s.s.s.s.s.s.s.s.s.s.s.s.s.s.s.s.s.s.s.s.s.s.s.s.s.s.s.s.s.s.s.s.s.s.g.g.s.s.s.e.e.e.g.s.g.<.V Z.s.s.s.e.e.s.e.s.s.s.s.s.s.s.s.e.e.e.e.s.e.e.e.e.e.e.e.e.e.e.e.e.e.e.e.e.s.e.e.e.e.s.s.s.e.e.e.s.s.e.e.s.s.s.s.s.s.e.e.e.e.e.e.e.e.e.e.e.e.e.e.e.e.s.s.s.s.%.S G.g.s.g.s.s.g.s.s.s.s.s.s.s.s.s.s.s.s.s.s.g.g.g.s.s.s.s.s.s.s.s.s.s.s.s.s.s.s.s.s.s.s.s.e.e.s.s.s.s.s.s.s.s.s.s.s.s.s.s.g.g.s.s.s.s.s.s.s.s.s.s.s.s.s.g.s.g.%.: ",
"Z.M.g.g.g.s.s.g.s.s.s.s.s.s.e.e.s.s.s.g.g.s.s.s.g.g.g.s.s.s.s.s.s.s.s.s.s.s.s.s.s.s.s.s.s.s.s.s.s.s.s.s.s.s.s.s.s.s.s.s.s.s.s.g.s.s.s.s.s.s.s.s.s.e.g.s.s.s.g.S :.Z.e.s.s.g.s.g.s.s.s.s.s.g.g.g.s.s.s.s.s.s.s.s.s.s.s.s.s.s.s.s.s.s.s.s.s.s.s.g.s.s.s.s.s.s.s.s.s.s.s.s.g.g.g.s.s.s.s.s.s.s.s.s.g.s.s.s.s.s.s.g.s.g.g.s.g.s.M.V s.M.s.e.s.e.s.s.g.g.g.s.s.s.s.s.g.g.g.g.g.g.s.s.s.s.s.s.s.s.s.g.s.s.s.s.s.s.s.s.g.g.s.s.s.s.g.g.s.s.g.g.g.g.s.s.s.s.s.g.g.s.s.s.s.s.s.s.s.s.s.g.g.e.g.s.s.s.s.V s.Z.s.s.g.s.g.s.s.s.s.s.s.g.g.g.s.s.s.s.s.s.s.s.e.e.e.s.s.s.s.g.g.s.s.s.s.s.s.s.s.s.s.s.s.s.s.s.s.s.s.s.s.s.s.s.g.s.s.s.s.s.s.s.s.s.s.s.s.s.s.s.s.s.e.s.s.g.<.v M.M.g.s.s.s.s.s.s.s.s.s.s.s.s.s.s.s.s.s.s.s.s.s.s.s.s.s.s.g.g.g.s.s.s.s.s.s.s.s.s.s.s.s.s.s.s.s.g.s.s.s.s.s.g.g.s.s.s.s.s.s.s.s.s.s.s.s.s.s.g.g.s.g.s.g.s.g.<.v g.s.e.e.e.s.s.s.s.s.g.s.s.s.e.e.s.g.g.s.s.s.s.g.g.g.s.s.s.s.s.s.s.s.s.s.s.s.s.s.s.s.s.s.s.s.s.s.s.s.s.s.e.e.s.s.g.s.s.s.s.s.s.g.s.s.g.g.g.g.s.s.e.e.e.g.s.g.<.v Z.s.e.s.e.e.s.e.s.s.s.s.s.s.e.e.e.e.e.e.e.e.e.e.e.e.e.e.e.e.e.e.e.e.e.e.e.e.e.e.e.e.e.e.e.e.e.e.s.s.e.e.s.s.s.s.e.e.e.e.e.e.e.e.e.e.e.e.e.e.e.e.e.e.s.s.e.s...S G.g.s.s.s.s.g.g.g.s.s.s.s.s.s.s.s.s.s.s.s.g.g.g.s.s.s.s.s.s.s.s.s.s.s.s.s.s.s.s.s.s.s.s.e.s.s.g.s.s.s.s.s.s.s.s.s.s.s.s.g.g.s.s.s.s.s.s.s.s.s.s.s.s.s.g.s.g.%.: ",
"G.M.s.s.g.g.g.s.s.s.s.s.s.s.s.s.s.s.s.s.s.s.s.s.g.g.g.s.s.s.s.s.s.s.s.s.s.s.s.s.s.s.s.s.s.s.s.g.s.s.s.s.s.s.s.s.s.s.s.s.s.s.s.s.s.s.s.g.g.s.s.s.s.e.g.s.s.s.g.S <.Z.s.g.e.g.g.g.s.s.s.s.s.s.s.s.s.s.s.s.g.g.g.g.s.s.s.s.s.s.s.s.e.s.s.s.s.s.s.s.s.s.s.s.s.s.s.s.s.s.s.s.g.g.g.g.s.s.s.s.s.s.s.s.g.g.g.s.s.s.s.s.g.s.s.g.g.s.M.V e.M.s.s.g.s.g.s.s.s.s.s.s.s.s.s.s.s.s.s.s.g.s.s.s.s.s.s.s.s.s.s.s.s.s.s.s.s.s.s.g.g.s.s.s.s.s.s.s.s.s.s.s.s.s.s.s.s.s.s.s.s.s.s.s.s.s.g.g.s.s.s.s.e.g.s.s.g.g.V g.M.g.s.s.g.s.g.s.s.g.g.g.s.s.e.e.e.e.e.e.e.e.e.e.s.s.s.s.s.g.g.s.s.s.s.s.s.g.g.s.s.s.s.s.s.s.s.s.s.s.s.s.s.s.s.s.s.g.s.s.e.e.s.s.s.s.s.s.s.s.s.s.g.s.g.s.g.<.v Z.M.g.s.s.s.s.s.s.s.s.s.s.s.s.s.s.s.s.s.s.s.s.g.s.s.s.s.s.s.s.s.s.s.s.s.s.g.g.g.s.s.s.s.s.s.s.s.g.g.g.s.s.s.s.s.s.s.s.s.s.s.s.s.s.s.e.s.s.g.g.s.s.g.s.g.s.g.<.v e.e.s.s.s.s.s.s.s.s.s.s.s.e.e.e.s.s.s.s.s.s.s.s.g.g.g.g.s.s.s.s.s.s.s.s.s.s.s.s.s.s.s.g.g.s.s.s.s.s.s.s.s.s.s.s.s.s.s.s.s.s.s.g.s.s.s.s.s.s.s.s.s.s.s.g.s.g.<.V Z.g.e.<.e.e.s.s.s.s.s.s.e.e.e.e.s.s.s.s.e.e.s.s.e.s.e.e.e.e.e.e.e.e.e.e.e.s.e.e.s.e.e.e.s.s.s.s.s.s.e.e.e.s.s.s.e.e.e.e.e.e.e.e.e.e.e.e.e.e.e.e.e.e.s.s.e.e...S G.g.s.s.e.s.g.s.s.s.s.s.s.s.s.g.s.s.s.s.s.s.s.s.s.s.s.s.s.s.s.s.s.s.s.s.g.g.g.g.s.s.s.s.s.s.s.s.s.s.s.s.s.s.s.s.s.s.s.s.s.s.s.s.s.s.s.s.g.g.g.g.s.s.s.g.s.g.:.: ",
"J.Z.s.e.s.s.g.g.s.s.s.s.s.s.s.s.s.s.s.s.s.s.s.s.g.g.g.s.s.s.s.s.s.s.s.s.s.s.s.s.s.s.s.s.s.s.s.g.s.s.s.s.s.s.s.s.s.s.s.s.s.s.s.s.s.s.s.g.g.s.s.s.s.e.g.s.s.s.g.S <.Z.s.g.e.g.s.g.s.s.s.s.s.s.s.s.s.s.s.s.s.s.s.g.s.s.s.s.s.s.s.s.e.s.s.s.s.s.s.s.s.s.s.s.s.s.s.s.s.s.s.s.s.s.s.g.s.s.s.s.s.s.s.s.g.g.s.s.s.s.s.s.g.s.s.s.g.s.M.V e.M.s.s.g.s.g.s.s.s.s.s.s.s.s.s.s.s.s.s.s.g.s.s.s.s.s.s.s.s.s.s.s.s.s.s.s.s.s.s.g.s.s.s.s.s.s.s.s.s.s.s.s.s.s.s.s.s.s.s.s.s.s.s.s.s.s.g.g.s.s.s.s.e.g.s.s.g.g.V g.M.g.e.s.g.s.g.s.s.s.g.s.s.e.e.s.s.e.e.e.e.e.s.s.s.s.s.s.g.g.g.s.s.s.s.s.s.s.g.s.s.s.s.s.s.s.s.s.s.s.s.s.s.s.s.s.s.g.s.s.e.e.s.s.s.s.s.s.s.s.s.s.g.s.g.s.g.<.v M.g.s.s.s.s.s.s.s.s.s.s.s.s.s.s.s.s.s.s.s.s.s.g.s.s.s.s.s.s.s.s.s.s.s.s.s.g.g.g.s.s.s.s.s.s.s.s.g.g.g.s.s.s.s.s.s.s.s.s.s.s.s.s.g.s.s.s.s.g.g.s.s.g.s.g.s.g.<.v e.e.s.s.s.s.s.s.s.s.s.s.s.s.e.e.s.s.s.s.s.s.s.s.g.g.g.s.s.s.s.s.s.s.s.s.s.s.s.s.s.s.s.g.g.s.s.s.s.s.s.s.s.s.s.s.g.g.s.s.s.s.s.g.s.s.s.s.s.s.s.s.s.s.s.g.s.g.<.V Z.s.e.e.e.e.e.s.s.e.s.s.e.e.e.e.s.s.s.e.e.e.s.s.s.s.e.e.e.e.s.e.e.e.e.e.s.s.e.s.s.e.e.e.s.s.s.s.e.e.e.e.e.e.e.e.e.e.e.e.e.e.s.s.s.s.s.s.s.e.e.e.e.e.s.s.s.s...S G.g.s.s.s.s.g.s.s.s.s.s.s.s.s.g.s.s.s.s.s.s.s.s.s.s.s.s.s.s.s.s.s.s.s.s.s.s.s.s.s.s.s.s.s.s.s.s.s.s.s.s.s.s.s.s.s.s.s.s.s.s.s.s.s.s.s.g.g.g.g.g.s.s.s.g.s.g.:.: ",
"G.M.s.e.e.s.s.g.s.s.s.s.s.s.s.s.s.s.s.s.s.s.s.s.g.g.g.s.s.s.s.s.s.s.s.s.s.s.s.s.s.s.s.s.s.s.s.g.s.s.s.s.s.s.s.s.s.s.s.s.s.s.s.s.s.s.s.g.g.s.s.s.s.e.g.s.s.s.g.S <.Z.s.g.e.g.s.s.s.s.s.s.s.s.s.s.s.s.s.s.s.s.s.s.s.s.s.s.s.s.s.s.e.s.s.s.s.s.s.s.s.s.s.s.s.s.s.s.s.s.s.s.s.s.s.s.s.s.s.s.s.s.s.s.s.s.s.s.s.s.s.s.g.s.s.s.g.s.g.V e.M.s.s.g.s.g.s.s.s.s.s.s.s.s.s.s.s.e.s.s.s.s.s.s.s.s.s.s.s.s.s.s.s.s.s.s.s.s.s.s.s.s.s.s.s.s.s.s.s.s.s.s.s.s.s.s.s.s.s.s.s.s.s.s.s.s.s.s.s.s.s.s.e.g.s.s.g.g.v g.M.g.s.s.g.s.g.s.s.s.s.s.s.e.e.s.s.s.s.s.s.s.s.s.s.s.s.g.s.s.s.s.s.s.s.s.s.s.s.s.s.s.s.s.s.s.s.s.s.s.s.s.s.s.s.s.s.g.s.s.e.e.s.g.g.g.g.s.s.s.s.s.g.s.g.s.g.<.v M.g.s.s.e.s.s.s.s.s.s.s.s.s.s.s.s.s.s.s.s.s.s.s.s.s.s.s.s.s.s.s.s.s.s.s.s.g.g.g.s.s.s.s.s.s.s.s.s.s.s.s.s.g.g.g.g.s.s.s.s.s.s.s.g.s.s.s.s.s.s.s.s.g.s.g.s.g.<.v e.e.s.s.s.s.s.s.s.s.s.s.s.s.s.s.s.s.s.s.s.s.s.s.g.g.s.s.s.s.s.s.s.s.s.s.s.s.s.s.s.s.s.s.s.s.s.s.s.s.s.s.s.s.s.s.g.g.g.s.s.s.s.s.s.s.s.s.s.s.s.s.s.s.s.g.s.g.<.V M.s.e.e.s.e.e.e.e.e.e.e.e.e.e.e.s.s.e.e.e.e.s.s.s.s.s.e.s.s.s.s.e.e.e.s.s.s.s.s.e.e.e.e.e.e.e.e.e.e.e.e.e.e.e.e.e.e.e.e.s.s.s.s.s.s.s.s.s.e.s.s.e.e.s.s.e.s...S G.g.s.g.s.s.g.s.e.e.s.s.s.s.s.g.s.s.s.s.s.s.s.s.s.s.s.s.s.s.s.s.s.s.s.s.s.s.s.s.s.s.s.s.s.s.g.s.s.s.s.s.s.s.s.s.s.s.s.s.s.s.s.s.s.s.s.g.g.g.s.s.s.s.s.g.s.g.%.: ",
"g.s.s.s.s.s.s.g.s.s.s.s.s.s.s.s.s.s.s.s.s.s.s.g.g.s.s.s.s.s.s.s.s.s.s.s.s.s.s.s.s.s.s.s.s.s.s.g.s.s.s.s.s.s.s.s.s.s.s.s.s.s.s.s.s.s.s.s.s.s.s.s.s.e.g.s.s.s.g.S <.Z.s.g.e.g.s.s.s.s.s.s.s.s.s.s.s.s.s.s.s.s.s.s.s.s.s.s.s.s.s.s.s.s.s.s.s.s.s.s.s.s.s.s.s.s.s.s.s.s.s.s.s.s.s.s.s.s.s.s.s.s.s.s.s.s.s.s.s.s.s.s.g.s.s.g.g.e.g.V e.M.s.s.g.s.g.s.s.s.s.s.s.s.s.s.e.e.e.s.s.s.s.s.s.s.s.s.s.s.s.s.s.s.s.s.s.s.s.s.s.s.s.s.s.s.s.s.s.s.s.s.s.s.s.s.s.s.s.s.s.s.s.s.s.s.s.s.s.s.s.s.s.s.g.s.s.g.g.v g.M.g.s.s.g.s.g.s.s.s.s.s.s.s.s.s.s.s.s.s.s.s.s.g.g.g.s.s.s.s.s.s.s.s.s.s.s.s.s.s.s.s.s.s.s.s.s.s.s.s.s.s.s.s.s.s.s.g.s.s.e.e.s.g.g.s.s.s.s.s.s.s.g.s.g.s.g.<.v M.g.s.s.e.s.s.s.s.s.s.s.s.s.s.s.s.s.s.s.s.s.s.s.s.s.s.s.s.s.s.s.s.s.s.s.s.g.g.g.s.s.s.s.s.s.s.s.s.s.s.s.s.g.g.g.s.s.s.s.s.s.s.s.g.s.s.s.s.s.s.s.s.g.s.g.s.g.<.v e.s.s.s.s.s.s.s.g.s.s.s.s.s.s.s.s.s.s.s.s.s.s.s.s.s.s.s.s.s.s.s.s.s.s.s.s.s.s.s.s.s.s.s.s.s.s.s.s.s.s.s.s.s.s.s.g.g.s.s.s.s.s.s.s.s.s.s.s.s.s.s.s.s.s.g.s.g.<.V M.s.e.e.s.e.e.e.e.e.e.e.e.e.e.e.s.s.e.e.e.e.s.s.s.s.s.e.s.s.s.s.e.e.e.s.s.s.s.s.e.e.e.e.e.e.e.e.e.e.e.e.e.e.e.e.e.e.e.e.s.s.s.s.s.s.e.e.e.e.s.e.e.e.s.s.s.s.%.S G.g.s.g.s.s.g.s.e.e.e.s.s.s.s.g.s.s.s.s.s.s.s.s.s.s.s.s.s.s.s.s.s.s.s.s.s.s.s.s.s.s.s.s.s.s.s.s.s.s.s.s.s.s.s.s.s.s.s.s.s.s.s.s.s.g.g.g.g.s.s.s.s.s.s.g.s.g.%.- ",
"g.s.s.s.s.s.s.g.s.s.s.s.s.s.s.s.s.s.s.s.s.s.s.g.s.s.s.s.s.s.s.g.s.s.s.s.s.s.s.s.s.s.s.s.s.s.s.g.s.s.s.s.s.s.s.s.s.s.s.s.s.s.s.s.s.s.s.s.s.s.s.s.s.e.g.s.s.s.g.S <.Z.s.g.e.g.s.s.s.s.s.s.s.s.s.s.s.s.s.s.s.s.s.s.s.s.s.s.s.s.s.s.s.s.s.s.s.s.s.s.s.s.s.s.s.s.s.s.s.s.s.s.s.s.s.s.s.s.s.s.s.s.s.s.s.s.s.s.s.s.s.s.s.s.s.s.g.s.g.V e.M.s.s.g.s.g.s.s.s.s.s.s.s.s.s.e.e.e.e.s.s.s.s.s.s.s.s.s.s.s.s.s.s.s.s.s.s.s.s.s.s.s.s.s.s.s.s.s.s.s.s.s.s.s.s.s.s.s.s.s.s.s.s.s.s.s.s.s.s.s.s.g.s.g.s.s.g.s.v g.M.g.s.s.g.s.g.s.s.g.g.g.s.s.s.s.s.s.s.s.s.s.s.s.s.s.s.s.s.s.s.s.s.s.s.s.s.s.s.s.s.s.s.s.s.s.s.s.s.s.s.s.s.s.s.s.s.g.s.s.s.e.s.s.s.s.s.s.s.s.s.s.g.s.g.s.g.<.v g.g.s.s.s.s.s.s.s.s.s.s.s.s.s.s.s.s.s.s.s.s.s.s.s.s.s.s.s.s.s.s.s.s.s.s.s.g.g.g.s.s.s.s.s.s.s.s.s.s.s.s.s.g.g.g.s.s.s.s.g.g.g.s.g.s.s.s.s.s.s.s.s.g.s.g.s.g.<.v e.s.s.s.s.s.s.s.g.s.s.s.s.s.s.s.s.s.s.s.s.s.s.s.s.s.s.s.s.s.s.s.s.s.s.s.s.s.s.s.s.s.s.s.s.s.s.s.s.s.s.s.g.g.g.g.s.s.s.s.s.s.s.s.s.s.s.s.s.s.s.s.s.s.s.g.s.s.<.V M.s.e.e.s.e.e.e.s.s.e.e.e.e.e.e.s.e.e.e.e.s.s.s.s.s.s.s.s.s.e.e.e.e.e.s.e.e.e.e.e.e.e.e.e.e.e.e.s.s.e.e.s.e.e.s.s.s.s.s.s.s.s.s.s.e.e.e.e.e.e.e.e.e.s.s.s.s.%.S G.g.s.g.s.s.s.e.e.e.e.s.s.s.s.s.s.s.s.s.s.s.s.s.s.s.s.s.s.s.s.s.s.s.s.s.s.s.s.s.s.s.e.e.s.s.s.s.s.s.s.s.s.s.s.s.s.s.s.s.s.s.s.s.s.g.g.g.g.s.s.s.s.s.s.g.s.g.%.- ",
"G.M.g.s.s.s.s.g.s.s.s.s.s.s.s.s.s.s.s.s.s.s.s.s.s.s.s.s.s.g.g.g.s.s.s.s.s.s.s.s.s.s.s.s.s.s.s.g.s.s.s.s.s.s.s.s.s.s.s.s.s.s.s.s.s.s.s.s.s.s.s.s.s.e.g.s.s.s.g.S <.Z.e.g.e.s.s.s.s.s.s.s.s.s.s.s.s.s.s.s.s.s.s.s.s.s.s.s.s.s.s.s.s.s.s.s.s.s.s.s.s.s.s.s.s.s.s.s.s.s.s.s.s.s.s.s.s.s.s.s.s.s.s.s.s.s.s.s.s.s.s.s.s.s.s.s.g.s.g.V e.M.s.s.g.s.g.g.s.s.s.s.s.s.s.s.e.e.e.e.s.s.s.s.s.s.s.g.g.s.s.s.s.s.s.s.s.s.s.s.s.s.s.s.s.s.s.s.s.s.s.s.s.s.s.s.s.s.s.s.s.s.s.s.s.s.s.s.s.s.s.s.g.s.g.s.s.s.s.v g.M.g.s.s.g.s.g.g.g.g.g.g.g.g.g.s.s.s.s.s.s.s.s.s.s.s.s.s.s.s.s.s.s.s.s.s.s.s.s.s.s.s.s.s.s.s.s.s.s.s.s.s.s.s.s.s.s.g.s.s.s.e.s.s.s.s.s.s.s.s.s.s.g.s.g.s.g.<.v g.g.s.s.s.s.s.s.s.s.s.s.s.s.s.s.s.s.s.s.g.g.s.s.s.s.s.s.s.s.s.s.s.s.s.s.s.g.g.g.s.s.s.s.s.s.s.s.s.s.s.s.s.g.g.g.s.s.s.s.s.s.s.s.s.s.s.s.s.s.s.s.s.g.s.g.s.g.<.v s.s.s.s.s.s.s.s.s.s.s.s.s.s.s.s.s.s.s.s.s.s.s.s.s.s.s.s.s.s.s.s.s.s.s.s.s.s.s.s.s.s.s.s.s.s.s.s.s.s.s.s.s.s.s.s.s.s.s.s.s.s.e.s.s.s.s.s.s.s.s.s.s.s.s.g.s.s.<.V M.s.e.e.s.s.e.e.s.s.e.e.e.e.e.e.s.e.e.e.e.e.s.s.s.s.s.s.s.s.e.e.e.e.e.s.e.e.e.e.e.e.e.e.e.e.e.e.s.s.s.s.s.s.s.s.e.e.s.s.e.s.s.s.e.e.e.e.e.e.e.e.e.e.s.s.e.s.%.S G.g.s.g.s.s.g.s.e.e.s.s.s.s.s.s.s.s.s.s.s.s.s.s.s.s.s.s.s.s.s.s.g.g.g.g.s.s.s.s.s.e.e.e.e.s.s.s.s.s.s.s.s.s.s.s.s.s.s.s.s.s.s.s.g.g.g.g.g.s.s.s.s.s.s.g.s.g.%.- ",
"I.Z.s.s.s.s.s.s.s.s.s.s.s.s.s.s.s.s.s.s.s.s.s.s.s.s.s.s.s.g.g.g.s.s.s.s.s.s.s.s.s.s.s.s.s.s.s.g.s.s.s.s.s.s.s.s.s.s.s.s.s.s.s.s.s.s.s.s.s.s.s.s.s.e.g.s.s.s.g.S <.Z.e.g.e.s.s.s.s.s.s.s.s.s.s.s.s.s.s.s.s.s.s.g.s.s.s.s.s.s.s.s.s.s.s.s.s.s.s.g.s.s.s.s.s.s.s.s.s.s.s.s.s.s.s.g.s.s.s.s.s.s.s.s.s.s.s.s.s.s.s.s.s.s.s.s.g.s.g.v e.M.s.s.g.s.g.g.s.s.s.s.s.s.s.s.s.s.s.s.s.g.s.s.s.s.s.g.g.g.g.s.s.s.s.s.s.s.s.s.s.s.s.s.s.s.s.g.s.s.s.s.s.s.s.s.s.s.s.s.s.s.s.s.g.s.s.s.s.s.s.g.g.s.g.s.s.s.s.v g.M.g.s.s.g.s.g.g.s.s.s.s.s.s.s.s.s.s.s.s.s.s.s.s.s.s.s.s.s.s.s.g.s.s.s.s.s.s.s.s.s.s.s.s.s.s.s.s.s.s.s.s.s.s.s.s.s.g.s.s.s.s.s.s.s.s.s.s.s.s.s.s.g.s.g.s.g.<.v g.g.s.s.s.g.s.s.s.s.s.s.s.s.s.s.s.s.s.s.g.g.s.s.s.s.s.s.s.s.s.s.s.s.s.s.s.g.g.g.s.s.s.s.s.s.s.s.g.g.g.s.s.s.s.s.s.s.s.s.s.s.s.s.s.s.s.s.s.s.s.s.s.g.s.g.s.g.<.v s.s.s.s.s.s.s.s.s.s.s.s.s.s.s.s.s.s.s.s.s.s.s.s.s.s.s.s.s.s.s.s.s.s.s.s.s.s.s.s.g.s.s.s.s.s.s.s.s.s.s.s.s.s.s.s.g.s.s.s.s.s.s.s.s.s.s.s.s.s.s.s.s.s.s.g.s.s.<.V M.s.e.e.s.e.e.e.s.s.s.s.e.e.e.e.e.e.e.e.e.e.e.e.s.s.s.s.e.e.e.e.e.e.e.s.e.e.s.s.s.s.s.s.e.e.e.s.s.s.e.s.e.e.s.s.e.e.e.e.e.e.s.s.e.e.e.e.e.e.e.e.e.e.s.s.s.e...S G.s.s.s.e.e.s.s.s.s.s.s.s.s.s.s.s.s.s.s.s.s.s.s.s.s.s.s.s.s.s.s.g.s.s.s.s.s.s.s.s.s.s.s.s.s.s.s.s.s.s.s.s.s.s.s.s.s.s.s.s.s.s.s.s.s.g.g.g.s.s.s.g.s.s.g.s.g.%.- ",
"G.g.s.s.g.g.e.<.s.s.s.s.s.s.s.s.g.s.s.s.s.s.s.s.s.s.s.s.s.g.g.g.s.s.s.s.s.s.s.s.s.s.s.s.s.s.s.g.s.s.s.s.s.s.s.s.s.s.s.s.s.s.s.s.s.s.s.s.s.s.s.s.s.e.g.s.s.s.g.S <.Z.e.s.e.s.s.s.s.s.s.s.s.s.s.s.s.s.s.s.g.g.g.g.s.s.s.s.s.s.s.s.s.s.s.s.s.s.s.g.s.s.s.s.s.s.s.s.s.s.s.s.g.g.g.g.s.s.s.s.s.s.s.s.g.s.s.s.s.s.s.s.s.s.s.s.g.e.g.v e.M.s.s.g.s.g.g.s.s.s.s.s.s.s.s.s.s.s.s.s.g.s.s.s.s.s.g.g.g.g.s.s.s.s.s.s.s.s.s.s.s.s.s.s.s.g.g.s.s.s.s.s.s.s.s.s.s.s.s.s.s.s.s.g.s.s.s.s.s.s.g.g.s.g.s.s.s.s.v g.M.g.s.s.g.s.g.s.s.s.s.s.s.s.s.s.s.s.s.s.s.s.s.s.s.s.s.s.s.s.s.g.g.s.s.s.s.s.s.s.s.s.s.s.s.s.s.s.s.s.s.s.s.s.s.s.s.g.s.s.s.s.s.g.g.s.s.s.s.s.s.s.g.s.s.s.g.<.v g.g.s.s.g.g.s.s.s.s.s.s.s.s.s.s.s.s.s.g.g.g.s.s.s.s.s.s.s.s.s.s.s.s.s.s.s.g.g.g.s.s.s.s.s.s.s.s.g.g.g.s.s.s.s.s.s.s.s.s.s.s.s.s.s.s.g.s.s.e.s.g.s.g.s.g.s.g.<.v s.s.s.s.s.s.s.s.s.s.s.g.g.s.s.s.s.s.s.s.s.s.s.s.s.s.s.s.s.s.s.s.s.s.s.s.s.s.s.s.g.s.s.s.s.s.s.s.s.s.s.s.s.s.s.s.g.g.s.s.s.s.g.g.s.s.s.s.s.s.s.s.s.s.s.g.s.s.<.V Z.s.e.e.e.s.e.e.s.s.s.s.e.e.e.e.s.e.e.e.e.e.e.e.e.e.s.e.e.e.e.e.e.e.e.e.e.e.s.s.s.s.s.s.e.e.e.s.e.e.e.e.e.e.e.e.e.e.e.e.e.e.e.e.s.s.s.s.e.e.e.e.e.e.s.s.e.e...S G.s.e.e.e.e.s.s.s.s.s.g.s.s.s.s.s.s.s.s.s.s.s.s.s.s.s.s.s.s.s.s.s.s.s.s.s.s.s.s.s.s.s.s.s.s.s.g.s.s.s.s.s.s.s.s.s.s.s.s.s.s.s.s.s.s.g.g.g.s.s.s.g.s.s.g.s.g.%.- ",
"Z.g.e.s.g.s.s.s.s.s.s.s.s.s.s.s.s.s.s.s.s.s.s.s.s.s.s.s.s.s.s.s.s.s.s.e.e.s.s.s.s.s.s.s.s.s.s.s.s.s.s.s.s.s.s.s.s.s.s.s.s.s.s.s.s.s.s.s.s.s.s.s.g.e.g.s.s.s.g.S :.Z.e.s.s.g.e.s.s.s.s.s.s.s.s.s.e.s.s.s.s.s.s.s.s.s.s.s.s.s.s.s.s.s.s.s.s.s.s.s.s.s.s.s.s.s.s.s.s.s.s.s.s.s.s.s.s.s.s.s.s.s.s.s.s.s.s.s.s.s.s.s.s.<.s.s.s.s.s.V e.M.s.s.s.e.s.s.s.s.s.s.s.s.s.e.s.s.s.s.s.s.s.s.s.s.s.s.s.s.s.s.s.s.s.s.s.s.s.g.s.s.s.s.s.s.s.s.s.s.s.s.s.s.s.s.s.s.s.s.s.s.s.s.s.s.s.s.s.s.s.s.g.e.g.s.g.s.s.v s.g.s.e.s.s.e.s.s.s.s.s.s.s.s.s.s.s.s.s.s.s.s.s.s.s.s.s.s.s.s.s.s.s.e.s.s.s.s.s.s.s.s.s.s.s.s.s.s.s.s.s.s.s.g.g.s.s.s.s.s.e.e.e.s.s.s.s.s.s.s.s.s.s.s.s.s.s.<.v Z.M.s.s.s.s.s.s.s.s.s.s.s.s.s.s.s.s.s.s.s.s.s.s.s.s.s.s.s.s.s.s.s.s.s.s.s.s.s.s.s.s.s.s.s.s.s.s.s.s.s.s.s.e.e.e.s.s.s.s.s.s.s.s.s.s.s.s.s.s.s.s.s.s.s.g.s.g.<.v s.s.e.s.s.s.s.e.s.s.s.s.s.s.s.s.s.s.s.s.s.s.s.s.s.s.s.s.s.s.s.s.s.s.s.s.s.s.s.s.s.s.s.s.s.s.s.s.s.s.s.s.s.s.s.s.s.s.s.s.s.s.s.s.g.s.s.s.s.s.s.e.s.e.s.s.e.s.%.V M.s.e.e.s.s.e.e.s.e.e.e.e.e.e.e.s.s.s.e.s.s.s.s.e.e.e.e.e.e.e.e.e.e.e.e.e.e.e.e.e.e.e.e.e.e.e.e.s.e.e.e.e.e.e.e.e.e.e.e.e.e.e.e.e.e.e.e.e.e.e.e.e.e.e.e.e.s.%.S G.s.e.s.e.e.s.e.s.s.s.s.s.s.s.s.s.s.s.s.s.s.s.s.s.s.s.s.s.s.s.s.s.s.s.s.s.s.s.s.s.s.s.s.s.s.s.s.s.s.s.s.s.s.s.s.s.s.s.s.s.s.s.s.s.s.s.s.s.s.s.s.e.s.s.s.s.g...: ",
"G.M.s.s.s.e.e.e.s.s.s.s.s.s.s.s.s.s.s.s.s.s.s.s.s.s.s.s.s.s.e.e.s.s.s.s.e.s.s.s.s.s.s.s.s.s.s.s.s.s.s.s.s.s.s.s.s.s.s.s.s.s.s.s.s.s.s.s.s.s.s.s.g.e.g.s.s.s.g.S <.Z.e.s.s.g.e.s.s.s.s.s.s.s.s.s.s.s.s.s.s.s.s.s.s.s.s.s.s.s.s.s.s.s.s.s.s.s.s.s.s.s.s.s.s.s.s.s.s.s.s.s.s.s.s.s.s.s.s.s.s.s.s.s.s.s.s.s.s.s.s.s.s.<.s.e.s.s.s.V e.M.s.s.s.e.s.s.s.s.s.s.s.s.s.e.s.s.s.s.s.s.s.s.s.s.s.s.s.s.s.s.s.s.s.s.s.s.s.g.s.s.s.s.s.s.s.s.s.s.s.s.s.s.s.s.s.s.s.s.s.s.s.s.e.s.s.s.s.s.s.s.g.e.g.s.g.s.s.v s.M.s.e.s.s.e.s.s.s.s.s.s.s.s.s.s.s.s.s.s.s.s.s.s.s.s.s.s.s.s.s.s.s.e.s.s.s.s.s.s.s.s.s.s.s.s.s.s.s.s.s.s.s.s.s.s.s.s.s.s.e.e.e.s.s.s.s.s.s.s.s.s.s.s.s.s.s.<.p M.M.s.s.s.s.s.s.e.e.s.s.e.e.s.s.s.s.s.s.s.s.s.s.s.s.s.s.s.s.s.s.s.s.s.s.s.s.s.s.s.s.s.s.s.s.s.s.s.s.s.s.s.e.e.e.s.s.s.s.s.s.s.s.s.s.s.s.s.s.s.s.s.s.s.g.s.g.<.v s.s.s.s.s.s.s.e.e.s.s.s.s.s.s.s.s.s.s.s.s.s.s.s.s.s.s.s.s.s.s.s.s.s.s.s.s.s.s.s.s.s.s.s.s.s.s.s.s.s.s.s.s.s.s.s.s.s.s.s.s.s.s.s.g.s.s.s.s.s.s.e.s.e.s.s.e.s.%.V M.s.e.e.s.s.e.e.e.e.e.e.e.e.e.e.s.s.s.s.s.s.s.s.e.e.e.e.e.e.e.e.e.e.e.e.e.e.e.e.e.e.e.e.e.e.e.e.e.e.e.e.e.e.e.e.e.e.e.e.e.e.e.e.e.e.e.e.e.e.e.e.e.e.e.e.e.s...S Z.s.e.s.e.s.s.e.s.s.s.s.s.s.s.s.g.s.s.s.s.s.s.s.s.s.s.s.s.s.s.s.s.s.s.s.s.s.s.s.s.s.s.s.s.s.s.s.s.s.s.s.s.s.s.s.s.s.s.s.s.s.s.s.s.s.s.s.s.s.s.s.e.s.s.s.s.g...: ",
"G.g.e.e.e.e.e.s.s.s.s.s.s.s.s.s.s.s.s.s.s.s.s.s.s.s.s.s.s.e.e.e.s.s.s.e.e.s.s.s.s.s.s.s.s.s.s.s.s.s.s.s.s.s.s.s.s.s.s.s.s.s.s.s.s.s.s.s.s.s.s.s.g.e.g.s.s.s.g.S :.Z.e.s.s.g.e.s.s.s.s.s.s.s.s.s.s.s.s.s.s.s.s.s.s.s.s.s.s.s.s.s.s.s.s.s.s.s.s.s.s.s.s.s.s.s.s.s.s.s.s.s.s.s.s.s.s.s.s.s.s.s.s.s.s.s.s.s.s.e.e.e.s.e.s.s.s.s.s.V e.M.s.s.g.s.s.s.s.s.s.s.s.s.s.e.s.s.s.s.s.s.s.s.s.s.s.s.s.s.s.s.s.s.s.s.e.e.s.s.s.s.s.s.s.s.s.s.s.s.s.s.s.s.s.s.s.s.s.s.s.s.s.s.e.e.e.s.s.s.s.s.s.e.s.s.s.s.e.v s.M.s.e.s.s.e.s.s.s.s.s.s.s.s.s.s.s.s.s.s.s.s.s.s.s.s.s.s.s.s.s.s.s.s.s.s.s.s.s.s.s.s.s.s.s.s.g.s.s.s.s.s.s.s.s.s.s.s.s.s.s.e.e.s.s.s.s.s.s.s.s.e.s.e.s.e.s.:.p M.g.s.s.s.s.s.s.e.e.e.e.e.e.e.e.s.s.s.s.s.s.s.s.s.s.s.s.s.s.s.s.s.s.s.s.s.s.s.s.s.s.s.s.s.s.s.s.s.s.s.s.s.s.e.e.s.s.s.s.s.s.s.s.s.s.s.s.s.s.s.s.s.s.s.g.s.g.<.v s.s.s.s.s.s.s.e.e.e.e.s.s.s.s.s.s.s.s.s.s.s.s.s.s.s.s.s.s.s.s.s.s.s.s.s.s.s.s.s.s.s.s.s.s.s.s.s.s.s.s.s.e.e.e.e.s.s.s.s.s.s.s.s.s.s.s.s.s.s.s.e.s.e.s.s.e.g.:.V M.s.e.e.s.s.e.e.e.e.e.e.e.e.e.e.e.e.e.e.e.e.e.e.e.e.e.e.e.e.e.e.e.e.e.e.e.e.e.e.s.s.e.e.e.e.e.e.e.e.e.e.e.e.e.e.e.e.e.e.e.e.e.e.e.e.e.e.e.e.e.e.e.e.e.e.e.s.%.S G.s.e.s.e.s.s.s.s.s.s.s.s.s.s.s.s.s.s.s.s.s.s.s.s.s.s.s.s.s.s.s.s.s.s.s.s.s.e.s.s.s.s.s.s.s.s.s.s.s.s.s.s.s.s.s.s.s.s.s.s.s.s.s.s.s.s.s.s.s.e.s.e.s.s.s.s.g...: ",
"Z.s.e.e.s.s.s.s.s.s.s.s.s.s.s.s.s.s.s.s.e.s.s.s.s.s.s.s.s.e.e.e.s.s.s.e.e.s.s.s.s.s.s.s.s.s.s.s.s.s.s.s.s.s.s.s.s.s.s.s.s.s.s.s.s.s.s.s.s.s.s.s.g.e.g.e.s.s.g.S :.Z.e.s.s.g.e.s.s.s.s.s.s.s.s.s.s.s.s.s.s.s.s.s.s.s.s.s.s.s.s.s.s.s.s.s.s.s.s.s.s.s.s.s.s.s.s.s.s.s.s.s.s.s.s.s.s.s.s.s.s.s.s.s.s.s.s.s.e.e.e.e.s.e.g.s.s.s.s.V e.M.s.s.g.s.s.s.s.s.s.s.s.s.s.s.s.s.s.s.s.s.s.s.s.s.s.s.s.s.s.s.s.s.s.s.e.e.e.s.s.s.s.s.s.s.s.s.s.s.s.s.s.s.s.s.s.s.s.s.e.s.s.s.e.e.e.s.s.s.s.s.s.e.s.s.s.s.e.v g.M.s.e.s.s.e.s.s.s.s.s.s.s.s.s.s.s.s.s.s.s.s.s.s.s.s.s.s.s.s.s.s.s.s.s.s.s.s.s.s.s.s.e.e.e.s.g.s.s.s.s.s.s.s.s.s.s.s.s.s.s.s.s.s.s.s.s.s.s.s.s.e.s.e.s.e.s.:.p M.g.s.s.s.s.s.s.e.e.e.e.e.e.e.e.s.s.s.s.s.s.s.s.s.s.s.s.s.s.s.s.e.e.s.s.s.s.s.g.s.s.s.s.s.s.s.s.s.s.s.s.s.s.s.s.s.s.s.s.s.s.s.s.s.s.s.s.s.s.s.s.s.s.s.g.s.g.<.v s.s.s.e.s.s.e.e.e.e.e.s.s.s.e.e.s.s.s.s.s.s.s.s.s.s.s.s.s.s.s.s.s.s.s.s.s.s.s.s.s.s.s.s.s.s.s.s.e.e.e.e.e.e.e.e.s.s.s.s.s.s.s.s.s.s.s.s.s.s.s.s.s.e.s.s.e.g.%.V M.s.e.e.s.s.e.e.e.e.e.s.s.e.e.e.e.e.e.e.e.e.e.e.e.e.e.e.e.e.e.e.e.e.e.e.e.e.e.e.s.s.s.e.e.e.e.e.e.e.e.e.e.e.e.e.e.e.e.e.e.e.e.e.e.e.e.e.e.e.e.e.e.e.e.e.e.s.%.S G.g.s.s.e.s.s.e.s.s.s.s.s.s.s.s.s.s.s.s.s.s.s.s.s.s.s.s.s.s.s.s.s.s.e.e.s.s.e.e.e.s.s.s.s.s.s.s.s.s.s.s.s.s.s.s.s.s.s.s.s.s.s.s.s.s.s.s.s.s.e.e.e.s.s.s.s.g.%.: ",
"M.s.e.e.s.s.s.s.s.s.s.s.s.s.s.s.s.s.s.e.e.e.s.s.e.s.e.s.s.s.s.s.s.s.s.s.e.s.s.s.s.s.s.s.s.s.s.s.s.s.s.s.s.s.s.s.s.s.s.s.s.s.s.s.s.s.s.s.s.s.s.s.s.e.s.e.s.s.g.S :.Z.e.s.s.g.e.s.e.e.s.s.s.s.e.e.s.s.s.s.s.s.s.s.s.s.s.s.s.s.s.s.s.s.s.s.s.s.s.s.s.s.s.s.s.s.s.s.s.s.s.s.s.s.s.s.s.s.s.s.s.s.s.s.s.s.s.s.e.e.e.e.s.e.g.s.s.s.s.V e.M.s.s.g.s.s.s.s.s.s.s.s.s.s.s.s.s.s.s.s.s.s.s.s.s.s.s.s.s.s.s.s.s.s.s.e.e.s.s.s.s.s.s.s.s.s.s.s.s.s.s.s.s.s.s.s.s.s.s.e.e.e.s.e.e.e.s.s.s.s.s.s.<.s.s.s.s.e.v g.M.s.e.s.s.e.s.s.s.s.s.s.s.s.s.s.s.s.s.s.s.s.s.s.s.s.s.s.s.s.s.s.s.s.s.s.s.s.s.s.s.s.e.e.e.s.g.s.s.s.s.s.s.s.s.s.s.s.s.s.s.s.s.s.s.s.s.s.s.s.s.e.s.e.s.e.s.:.p g.g.s.s.s.s.s.s.s.s.s.s.s.s.s.s.s.s.s.s.s.s.s.s.s.s.s.s.s.s.s.s.e.e.s.s.s.s.s.s.s.s.s.s.s.s.s.s.s.s.s.s.s.s.s.s.s.s.s.s.s.s.s.s.s.s.s.s.s.s.s.s.s.s.s.g.s.g.<.v s.e.e.e.e.e.e.e.e.e.e.s.s.s.e.e.s.s.s.s.s.s.s.s.s.s.s.s.s.s.s.s.s.s.s.s.s.s.s.s.s.s.s.s.s.s.s.s.s.s.s.s.s.s.s.s.s.s.s.s.s.s.s.s.s.s.s.s.s.s.s.s.s.e.s.s.e.g.:.V M.s.e.e.s.s.e.e.e.e.e.e.s.e.e.e.e.e.e.e.e.e.e.e.e.e.e.e.e.e.e.e.e.e.e.e.e.e.e.e.s.s.e.e.e.e.e.e.e.e.e.e.e.e.e.e.e.e.e.e.e.e.e.e.e.e.e.e.e.e.e.e.e.e.e.e.e.s.%.S G.s.e.s.e.s.g.s.s.s.s.s.s.s.s.s.s.s.s.s.s.s.s.s.s.s.e.s.s.s.s.s.s.s.e.e.e.s.e.e.e.e.s.s.s.s.s.s.s.s.s.s.s.s.s.s.s.s.s.s.s.s.s.s.s.s.s.s.s.s.e.e.e.s.s.s.s.g.%.: ",
"Z.g.s.s.s.s.e.e.s.s.s.s.s.s.s.s.s.s.s.s.e.e.s.e.e.e.e.s.s.s.s.s.s.s.s.e.e.s.s.s.s.s.s.s.s.s.s.s.s.s.s.s.s.s.s.s.s.s.s.s.s.s.s.s.s.s.s.s.s.s.s.s.s.e.s.e.s.s.g.S :.Z.<.s.s.g.s.s.e.s.s.s.s.s.e.e.e.e.s.s.s.s.e.e.s.s.s.s.s.s.s.s.s.s.s.s.s.s.s.s.s.s.s.s.s.s.s.s.s.s.s.s.s.s.s.s.s.s.s.s.s.s.s.s.s.s.s.s.s.e.e.e.s.e.g.s.s.s.s.V e.M.s.s.g.s.s.s.s.s.s.s.s.s.s.s.s.s.s.s.s.s.s.s.s.s.s.s.s.s.s.s.s.s.s.s.e.e.s.s.s.s.s.s.s.s.s.s.s.s.s.s.s.s.s.s.s.s.s.s.e.e.e.e.e.e.s.s.s.s.s.s.s.<.s.s.s.s.e.v g.M.s.e.s.s.e.s.s.s.s.s.s.s.s.s.s.s.s.s.s.s.e.e.s.s.s.s.s.s.s.s.s.s.s.s.s.s.s.s.s.s.s.e.e.e.s.s.s.e.e.s.s.s.s.s.e.e.s.s.s.s.s.s.s.s.s.s.s.s.s.s.s.s.e.s.e.s.:.p g.g.s.s.s.s.s.s.s.s.s.s.s.s.s.s.s.s.s.s.s.s.s.s.s.s.s.s.s.s.s.s.s.s.s.s.s.s.s.s.s.s.s.s.s.s.s.s.e.e.s.s.s.s.s.s.s.s.s.s.s.s.s.s.e.e.s.s.s.s.e.e.s.s.s.s.s.g.<.v s.e.e.e.e.e.e.e.e.s.e.s.s.s.s.s.s.s.s.s.s.s.s.s.s.s.s.s.s.s.s.s.s.s.s.s.s.s.s.s.s.s.s.s.s.s.s.s.s.s.s.s.s.s.s.s.s.s.s.s.s.s.s.s.s.s.s.s.s.s.s.s.s.e.s.s.s.g.:.V M.s.e.e.s.e.e.e.e.e.e.e.e.e.e.e.e.e.e.e.e.e.e.e.e.e.e.e.e.e.e.e.e.e.e.e.e.e.e.e.s.s.e.e.e.e.e.e.e.e.e.e.e.e.e.e.e.e.e.e.e.e.e.e.e.e.e.e.e.e.e.e.e.e.e.e.e.s.%.S G.s.s.s.s.s.g.s.s.s.s.s.s.s.s.s.s.s.s.s.s.s.s.s.s.s.e.s.s.s.s.s.s.s.s.s.e.e.e.e.s.s.s.s.s.s.s.s.s.s.s.s.s.s.s.s.s.s.s.s.s.s.s.s.s.s.s.s.s.s.e.e.e.s.s.s.s.g.%.: ",
"G.M.s.s.s.s.s.s.s.s.s.s.s.s.s.s.s.s.e.e.e.s.s.s.s.s.s.s.s.s.s.e.s.s.s.e.e.s.s.s.s.s.s.s.s.s.s.s.s.s.s.s.s.s.s.s.s.s.s.s.s.s.s.s.s.s.s.s.e.e.s.s.g.e.g.s.s.s.g.S %.M.<.e.s.g.s.s.e.e.s.s.s.s.e.e.s.s.s.s.s.s.s.s.s.s.s.s.s.s.s.s.s.s.s.s.s.s.s.s.s.s.s.s.s.s.s.s.s.s.s.s.s.s.s.s.s.s.s.s.s.s.s.s.s.s.s.s.s.s.s.s.g.e.g.s.s.s.s.V e.M.s.s.g.s.s.s.g.s.s.s.s.s.s.s.s.s.s.s.s.s.s.s.s.s.s.s.s.s.s.s.s.s.s.e.e.e.s.s.s.s.s.s.s.s.s.s.s.s.s.s.s.s.s.s.s.s.s.s.e.s.e.e.s.s.s.s.s.s.e.e.s.e.s.s.s.s.s.v g.M.s.e.s.s.e.s.s.s.s.s.s.s.s.s.s.s.s.s.s.s.s.s.s.s.s.s.s.s.s.s.s.s.e.s.s.s.s.s.e.s.s.s.e.e.e.s.s.s.s.s.s.s.s.s.e.e.e.s.s.s.s.s.s.s.s.s.s.s.s.s.s.s.s.s.s.s.<.v g.s.s.s.s.s.s.s.s.s.s.s.s.s.s.s.s.s.s.s.s.s.s.s.s.s.s.s.s.s.e.e.s.s.s.s.s.s.s.s.s.s.s.s.s.s.s.s.e.e.e.s.s.s.s.s.s.s.s.s.s.s.s.s.e.e.s.s.s.s.s.e.s.s.s.s.s.g.<.v s.e.e.e.e.s.e.e.s.s.s.s.s.s.s.s.s.s.s.s.s.s.s.s.s.s.s.s.s.s.s.s.s.s.s.s.s.s.s.s.s.s.s.s.s.s.e.e.s.s.s.s.s.s.s.s.s.s.s.s.s.s.s.s.s.s.s.s.s.e.s.s.s.e.s.s.s.g.:.V M.s.e.e.s.e.e.e.e.e.e.e.e.e.e.e.e.e.e.e.e.e.e.e.<.e.e.e.s.e.e.<.e.e.e.e.e.e.e.e.e.e.e.e.e.e.e.e.e.e.e.e.e.e.e.e.e.e.e.e.e.e.e.e.e.e.e.e.e.e.e.e.e.e.e.e.e.s...S G.g.s.s.s.s.g.s.s.s.s.s.s.s.s.s.e.e.s.s.s.s.s.s.s.s.e.s.s.s.s.s.s.s.s.s.s.s.s.s.s.s.s.s.s.s.s.s.s.s.s.s.s.s.s.s.s.s.s.s.s.s.s.s.s.s.s.s.s.s.s.s.s.g.s.s.s.g.%.: ",
"G.M.s.s.s.s.s.g.s.s.s.s.s.s.s.s.s.s.e.e.e.e.s.s.s.s.s.s.s.s.e.e.s.s.s.e.e.s.s.s.s.s.s.s.s.s.s.s.s.s.s.s.s.s.s.s.s.s.s.s.s.s.s.s.s.s.s.e.e.e.e.e.g.e.g.s.s.s.g.S %.M.<.e.s.g.s.s.e.e.s.s.s.s.e.e.s.s.s.s.s.s.s.s.s.s.s.s.s.s.s.s.s.s.s.s.s.s.s.s.s.s.s.s.s.s.s.s.s.s.s.s.s.s.s.s.s.s.s.s.s.s.s.s.s.s.s.s.s.s.s.s.g.e.g.s.s.s.s.V e.M.s.s.g.s.s.s.g.s.s.s.s.s.s.s.s.s.s.s.s.s.s.s.s.s.s.s.s.s.s.s.e.e.s.s.e.e.s.s.s.s.s.s.s.s.s.s.s.s.s.s.s.s.s.s.s.s.s.s.e.e.e.e.s.s.s.s.s.s.e.e.s.e.s.s.s.s.s.v g.M.s.e.s.s.e.s.s.s.s.s.s.s.s.s.e.s.s.s.s.s.s.s.s.s.s.s.s.s.s.s.s.s.e.s.s.s.s.s.e.s.s.s.e.e.e.e.s.s.s.s.s.e.e.e.e.e.e.s.s.s.s.s.s.s.s.s.s.s.s.s.s.s.s.s.s.s.<.v g.s.s.s.s.s.s.s.s.s.s.s.s.s.s.s.s.s.s.s.s.s.s.s.s.s.s.s.s.s.e.e.s.s.s.s.s.s.s.s.s.s.s.s.s.s.s.s.e.e.e.s.s.s.s.s.s.s.s.s.s.s.s.s.e.e.s.s.s.s.s.e.s.s.s.s.s.g.<.v g.s.e.e.e.s.s.s.s.s.s.s.s.s.s.s.s.s.s.s.s.s.s.s.s.s.s.s.s.s.s.s.s.s.s.s.s.s.s.s.g.s.s.s.s.s.s.e.s.s.s.s.s.s.s.s.s.s.s.s.s.s.s.s.s.s.s.s.s.e.s.s.s.e.s.s.s.g.:.V M.s.e.e.s.e.e.e.s.e.e.e.e.e.e.s.e.e.e.e.e.e.e.e.<.e.e.s.s.e.e.<.e.e.e.e.e.e.e.e.e.e.e.e.e.e.e.e.e.e.e.e.e.e.e.e.e.e.e.e.e.e.e.e.e.e.e.e.e.e.e.e.e.e.e.e.e.s...S G.g.s.s.s.s.g.s.s.s.s.s.s.s.s.s.e.e.s.s.s.s.s.s.s.s.e.s.s.s.s.s.s.s.s.s.s.s.s.s.g.s.s.s.s.s.s.s.s.s.s.s.s.s.s.s.s.s.s.s.s.s.s.s.s.s.s.s.s.s.s.s.s.g.s.s.s.g.%.: ",
"G.M.s.s.s.s.s.s.s.s.s.s.s.s.s.s.s.s.e.s.s.s.s.s.s.e.s.s.e.e.e.e.s.s.s.s.s.s.s.s.s.s.s.s.s.s.s.g.e.e.e.s.s.s.s.s.s.s.s.s.s.e.e.e.s.s.s.e.e.e.e.s.s.e.g.s.s.s.g.S <.Z.e.s.e.s.s.s.s.s.s.s.s.e.e.e.s.s.s.s.s.s.s.s.s.s.s.s.s.s.e.e.s.s.s.s.s.s.s.s.s.s.s.s.s.s.s.s.s.s.s.s.s.s.s.s.s.s.s.s.s.s.s.s.s.s.s.e.s.s.s.s.g.e.g.s.s.s.s.V e.M.e.e.g.e.s.e.s.s.s.s.s.s.s.s.s.s.s.e.e.e.e.e.e.e.s.s.s.s.s.s.s.s.s.s.s.s.s.s.s.s.s.s.s.s.s.s.s.s.s.s.s.s.s.s.s.s.e.e.e.s.s.g.s.s.s.e.e.s.s.s.s.e.s.s.s.s.s.v s.g.s.e.s.s.s.g.s.s.s.s.s.s.s.s.s.s.s.s.s.s.e.e.s.s.s.s.s.g.g.g.e.e.e.e.e.s.s.s.s.s.s.s.s.s.s.s.s.s.s.s.e.e.e.e.<.e.e.s.s.s.s.s.s.s.s.s.s.s.s.s.s.s.e.s.e.s.:.p M.g.s.s.s.s.s.s.s.s.s.s.s.s.s.s.s.s.s.s.s.s.s.s.s.s.s.s.s.s.s.e.s.s.s.s.s.s.s.s.s.s.s.s.s.s.s.s.s.s.s.s.s.s.s.s.s.s.s.s.s.s.s.e.e.e.s.s.s.s.s.s.s.s.s.g.s.g.<.v s.e.e.s.s.s.s.s.s.s.s.s.s.s.s.s.s.s.s.s.s.s.s.s.s.s.s.e.e.e.s.s.s.s.s.s.s.s.s.s.e.s.s.s.s.s.s.s.s.s.s.s.s.s.s.s.s.s.s.s.s.s.s.s.s.s.e.e.e.s.s.s.s.s.e.s.s.s.<.V M.s.e.e.s.e.e.e.e.e.e.e.e.e.e.s.e.e.e.e.e.e.e.e.e.e.e.s.e.e.e.e.e.e.e.e.e.e.e.e.e.e.s.s.s.e.e.e.e.e.e.e.s.s.e.e.e.e.e.s.s.s.e.e.e.e.e.e.e.e.e.e.<.e.e.e.e.e...S G.g.e.s.s.s.g.e.s.s.s.s.s.s.s.s.s.s.s.s.s.g.g.s.s.s.s.s.s.s.s.s.s.s.s.s.s.s.s.s.s.s.s.e.e.s.s.g.s.s.s.s.s.s.s.s.s.s.s.s.s.s.s.s.s.s.s.s.s.s.s.s.s.s.s.s.s.g...: ",
"G.M.s.s.s.s.s.g.s.s.s.s.s.s.s.s.s.e.s.s.s.s.s.s.e.e.s.e.s.e.e.e.s.s.s.s.s.s.s.s.s.s.s.s.s.s.s.s.e.e.e.s.s.s.s.s.s.s.s.e.s.e.e.e.s.s.s.e.e.e.s.s.s.e.g.s.s.s.s.V <.Z.e.s.e.s.s.s.s.s.s.s.s.s.s.s.s.s.s.s.s.s.s.s.s.s.s.s.s.s.e.e.s.s.s.s.s.s.s.s.s.s.s.s.s.s.s.s.s.s.s.e.s.s.s.s.s.s.s.s.s.s.s.s.s.s.s.e.s.s.s.s.g.e.g.s.g.s.g.V e.M.e.e.g.e.s.e.s.s.s.s.s.s.s.s.s.s.s.e.e.s.e.e.e.s.s.s.s.s.s.s.s.s.s.s.s.s.s.s.s.s.s.s.s.s.s.s.s.s.s.s.s.s.s.s.s.s.e.e.e.s.s.g.s.s.s.s.s.s.s.s.s.e.g.s.s.s.s.v s.g.s.e.s.s.e.g.s.s.s.s.s.s.s.s.e.e.s.s.s.s.s.e.s.s.s.s.s.s.s.s.e.e.e.e.s.s.s.s.s.s.s.s.s.s.s.s.s.s.s.s.s.s.e.e.e.e.s.s.s.s.s.s.s.s.s.s.s.s.s.s.s.s.s.s.e.s.:.p M.g.s.s.s.s.s.s.s.s.s.s.s.s.s.s.s.s.s.s.s.s.s.s.s.s.s.s.s.s.s.e.s.s.s.s.s.s.s.s.s.s.s.s.s.s.s.s.s.s.s.s.s.s.s.s.s.s.s.s.s.s.s.s.e.e.s.s.s.s.s.s.s.s.s.g.s.s.<.v e.e.e.s.s.s.s.s.s.s.s.s.s.s.s.s.s.s.s.s.s.s.s.s.s.s.s.e.e.e.s.s.s.s.s.s.s.s.s.s.e.s.s.s.s.s.s.s.s.s.s.s.s.s.s.s.s.s.s.s.s.s.s.s.s.s.s.s.s.s.s.s.s.s.e.s.s.s.<.V M.s.e.e.s.e.e.e.e.e.e.e.e.e.e.e.e.e.e.e.e.e.e.e.e.e.e.s.e.e.e.e.e.e.e.e.e.e.e.e.e.e.e.e.s.s.e.e.e.e.<.e.e.s.e.e.e.e.e.s.s.s.e.e.e.e.e.e.e.e.e.e.e.e.e.e.e.e...S G.g.s.s.s.s.g.e.s.s.s.s.s.s.s.s.s.s.s.s.s.s.s.s.s.s.s.s.s.s.s.s.s.s.s.s.s.s.s.s.s.s.e.e.e.s.s.s.s.s.s.s.s.s.s.s.s.s.s.s.s.s.s.s.s.s.s.s.s.s.s.s.s.s.s.s.s.g...: ",
"Z.g.s.s.s.s.s.g.s.s.s.s.s.s.s.s.s.s.s.s.s.s.s.s.s.s.s.s.s.s.s.s.s.s.s.s.s.s.s.s.s.s.s.s.s.s.s.s.e.s.e.s.s.s.s.s.s.s.s.s.e.e.e.e.s.s.s.s.s.s.e.e.s.e.g.s.s.e.s.V <.Z.e.s.e.s.s.s.s.s.s.s.s.s.s.s.s.s.s.s.s.s.s.s.s.s.s.s.s.s.e.e.s.s.s.s.s.s.s.s.s.s.s.s.s.s.s.s.s.s.e.e.e.s.s.s.s.s.s.s.s.s.s.s.s.s.s.s.s.s.s.s.g.e.g.s.s.s.s.V e.M.e.s.g.e.s.e.s.s.s.s.s.s.s.s.s.s.s.s.s.e.e.e.s.s.s.s.s.s.s.s.s.s.s.s.s.s.s.s.s.s.s.s.s.s.s.s.s.s.s.s.s.s.s.s.s.s.s.s.s.s.s.s.s.s.s.s.s.s.s.s.s.e.g.s.s.s.s.v g.g.s.e.s.s.e.g.s.s.s.s.s.s.s.s.e.e.e.s.s.s.s.s.s.s.s.s.s.s.s.s.s.s.s.s.s.s.s.s.s.s.s.s.s.s.s.s.s.s.s.s.s.s.s.s.e.s.s.s.s.s.s.s.s.s.s.s.s.s.s.s.s.s.s.s.s.s.:.p M.g.s.s.s.s.s.s.e.e.e.s.s.s.s.s.s.s.s.s.s.s.s.s.s.s.s.s.s.s.s.e.e.s.s.s.s.s.s.s.s.s.s.s.s.s.s.s.s.s.s.s.s.s.s.s.s.s.s.s.s.s.e.e.e.e.s.s.s.s.s.s.s.s.s.g.s.g.<.v s.e.e.s.s.s.s.s.s.s.s.s.s.s.s.s.s.s.s.s.s.s.s.s.s.s.s.s.s.s.s.s.s.s.s.s.s.s.s.s.s.s.s.s.s.s.s.s.s.s.s.s.s.s.s.s.s.s.s.s.s.s.s.s.s.s.s.s.s.s.s.s.s.s.e.s.s.s.<.V M.s.e.e.s.e.e.e.e.e.e.e.e.e.e.e.e.e.e.e.e.e.e.e.e.e.e.s.e.e.e.e.e.e.e.e.e.e.e.e.e.e.e.s.s.s.e.e.e.e.<.e.e.s.e.e.e.e.e.s.s.s.e.e.e.e.e.e.e.e.e.e.s.e.e.e.e.e...S G.g.e.s.s.s.g.e.s.s.s.s.s.s.s.s.s.s.s.s.s.s.e.e.s.s.s.s.s.s.s.s.s.s.s.s.s.s.s.s.s.s.s.e.e.s.s.s.s.s.s.s.s.s.s.s.s.s.s.s.s.s.s.s.s.s.s.s.s.s.s.s.s.g.s.s.s.g...: ",
"Z.g.s.s.s.s.s.g.s.s.s.s.s.s.s.s.s.s.s.s.s.s.s.s.s.s.s.s.s.s.s.s.s.s.s.s.s.s.s.s.e.s.s.s.s.s.s.e.e.s.e.s.s.s.s.s.s.s.s.s.e.e.e.e.s.s.s.s.e.e.s.s.g.e.g.s.s.e.s.V <.Z.e.g.e.s.s.s.e.e.s.s.s.s.s.s.s.s.s.s.s.s.s.s.s.s.s.s.s.s.s.s.s.s.s.s.s.s.s.s.s.s.s.s.s.s.s.s.s.s.e.e.e.e.s.s.s.s.s.s.s.s.s.s.s.s.s.s.s.s.s.s.g.e.s.s.s.s.s.V e.M.e.s.g.s.s.s.s.s.s.s.s.s.s.s.s.s.s.s.s.s.s.s.e.s.s.s.s.s.s.s.s.s.s.s.s.s.s.s.s.s.s.s.s.s.s.s.s.s.s.s.s.s.s.s.s.s.s.s.s.s.s.s.s.s.s.s.s.s.s.s.s.e.s.s.s.s.s.v g.g.s.e.s.s.e.g.e.e.e.e.e.e.e.e.e.e.s.s.s.s.s.s.s.s.s.s.s.s.e.e.e.e.e.s.s.s.s.s.s.s.s.s.s.s.s.s.s.s.s.s.s.s.s.s.s.s.s.s.s.s.s.s.e.e.s.s.s.s.s.s.s.g.s.s.s.s.:.p g.g.s.s.s.s.e.s.e.e.s.s.s.s.s.s.s.s.s.s.s.s.s.s.s.s.s.s.s.s.s.s.s.s.s.s.s.s.s.s.s.s.s.s.s.s.s.s.s.s.s.s.s.s.s.s.s.s.s.s.s.s.e.e.e.e.s.s.s.s.s.s.s.s.s.g.s.g.<.v s.s.s.s.s.s.s.s.s.s.s.s.s.s.s.s.s.s.s.s.s.s.s.s.s.s.s.s.s.s.s.s.s.s.s.s.s.s.s.s.s.s.s.s.e.e.s.s.s.s.s.s.s.s.s.s.e.e.s.s.s.s.s.s.s.s.s.s.s.s.s.s.s.s.e.s.s.s.<.V M.s.e.e.s.e.e.e.e.e.e.e.e.e.e.e.e.e.e.e.e.e.e.e.e.e.e.s.e.e.e.e.e.e.e.e.e.e.e.e.e.e.e.e.s.s.e.e.e.e.<.<.e.e.e.e.e.e.e.e.e.e.e.e.e.e.e.e.e.e.e.e.s.e.e.e.e.e...S G.g.s.s.s.s.g.e.s.s.s.s.s.s.s.s.s.s.s.s.s.s.s.s.s.s.s.s.s.s.s.s.s.s.s.s.s.s.s.s.s.s.s.e.e.s.s.s.s.s.s.s.s.s.s.s.s.e.e.e.s.s.s.s.s.s.s.s.s.s.s.s.s.g.s.s.s.g...: ",
"Z.M.s.s.s.e.e.s.s.s.s.s.s.s.s.s.s.s.s.s.s.s.s.s.s.s.s.s.s.s.s.s.s.s.s.s.s.s.s.s.s.s.s.s.s.s.e.e.e.s.s.s.s.s.s.s.s.s.s.s.s.s.s.s.s.s.s.e.s.s.s.s.g.e.g.s.s.e.s.V <.Z.s.g.e.s.s.s.s.e.e.s.s.s.s.s.s.s.s.s.s.s.s.s.s.s.s.s.s.s.s.s.s.s.s.s.s.s.s.s.s.s.s.s.s.s.s.s.s.s.e.e.e.e.s.s.s.s.s.s.s.s.s.s.s.s.s.s.s.s.s.s.s.e.s.e.s.s.s.v e.M.e.s.g.s.s.e.s.s.s.s.s.s.s.s.s.s.s.s.s.s.s.s.s.s.s.s.s.s.s.s.s.s.s.s.s.s.s.s.s.s.s.s.s.s.s.s.s.s.s.s.s.s.s.s.s.s.s.s.s.s.s.s.s.s.s.s.s.s.s.s.s.e.g.s.s.s.s.v g.M.s.e.s.s.e.s.e.e.s.s.s.s.e.e.s.s.s.s.s.s.s.e.s.s.s.s.s.s.e.e.e.e.e.s.s.s.s.s.s.s.s.s.s.s.s.s.s.s.s.s.s.s.s.s.s.s.s.s.s.s.s.s.e.e.s.s.s.s.s.s.s.g.s.s.s.s.:.p g.g.s.s.e.e.e.e.s.s.s.s.s.s.s.g.s.s.s.s.s.s.s.s.s.s.s.s.s.s.s.s.s.s.s.s.s.s.s.s.s.s.s.s.s.s.s.s.s.s.s.s.s.s.s.s.s.s.s.s.s.e.e.e.e.e.s.s.s.s.s.s.s.s.s.g.s.g.<.v s.s.s.s.s.s.s.s.s.s.s.s.s.s.s.s.s.s.s.s.s.s.s.s.s.s.s.s.s.s.s.s.s.s.s.s.s.s.s.s.s.s.s.s.e.e.s.s.s.s.s.s.s.s.s.s.s.s.s.s.s.s.s.s.s.s.s.s.s.s.s.s.s.s.e.s.s.s.<.V M.s.e.e.e.e.e.e.e.e.e.e.e.e.e.e.e.e.e.e.e.e.e.e.e.e.e.e.e.e.e.e.e.e.e.e.e.e.e.e.e.e.e.e.e.s.e.e.e.<.<.<.e.e.e.e.e.e.e.e.e.e.e.e.e.e.e.e.e.e.e.e.s.e.e.e.e.e...S G.s.s.s.s.s.s.e.s.s.s.s.s.s.s.s.e.e.s.s.s.s.s.s.s.s.s.s.s.s.s.s.s.s.s.s.s.s.s.s.s.s.e.e.s.s.s.s.s.s.s.s.s.s.s.s.e.e.e.e.s.e.e.e.s.s.s.s.s.s.s.s.s.g.s.s.s.g...: ",
"Z.M.s.s.s.s.e.s.s.s.s.s.s.s.s.s.s.s.s.s.s.s.s.s.s.s.s.s.s.s.s.s.s.s.s.s.s.s.s.s.s.s.s.s.s.e.e.e.e.s.e.s.s.s.s.s.s.s.s.s.s.s.s.s.s.s.s.s.s.s.s.s.g.e.g.s.s.s.s.V <.Z.s.g.e.s.s.s.s.s.s.s.s.s.s.s.s.s.s.s.s.s.s.s.s.s.s.s.s.s.s.s.s.s.s.s.s.s.s.s.s.s.s.s.s.s.s.s.s.s.e.e.e.s.s.s.s.s.s.s.s.s.s.s.s.s.s.s.s.s.s.s.s.e.s.e.s.s.s.v e.M.e.s.g.e.s.s.s.s.s.s.s.s.s.s.s.s.s.s.s.s.s.s.s.s.s.e.s.s.s.s.s.s.s.s.s.s.s.s.s.s.s.s.s.s.s.s.s.s.s.s.s.s.s.s.s.s.s.s.s.s.s.s.s.s.s.s.s.s.s.s.s.e.g.s.s.s.s.v g.M.s.e.s.s.e.s.s.s.s.s.s.s.s.s.s.s.s.s.s.s.s.e.s.s.s.s.s.s.e.e.e.e.e.s.s.s.s.s.s.s.s.s.s.s.s.s.s.s.s.s.s.s.s.s.s.s.s.s.s.s.s.s.s.s.s.s.s.s.s.s.s.s.s.s.s.s.:.p M.g.s.s.e.s.s.e.s.s.s.s.s.s.s.s.s.s.s.s.s.s.s.s.s.s.s.s.s.s.s.s.s.s.s.s.s.s.s.s.s.s.s.s.s.s.s.s.s.s.s.s.s.s.s.s.s.s.s.s.s.e.e.e.e.e.s.s.s.s.s.s.s.s.s.g.s.g.<.v s.s.s.s.s.s.s.s.s.s.s.s.s.s.s.s.s.s.s.s.s.s.s.s.s.s.s.s.s.s.s.s.s.s.s.s.s.s.s.s.s.s.s.e.e.e.s.s.s.s.s.s.s.s.s.s.s.s.s.s.s.s.s.s.s.s.s.s.e.s.s.s.s.s.e.s.s.s.<.V M.s.e.e.e.e.e.e.e.e.e.e.e.e.e.e.e.e.e.e.e.e.e.e.e.e.e.e.e.e.e.e.e.e.e.e.e.e.e.e.e.e.e.e.e.e.e.e.e.e.<.<.e.e.e.e.e.e.e.e.e.e.e.e.e.e.e.e.e.e.e.e.s.e.e.e.e.e...S G.s.s.s.s.s.s.e.s.s.s.s.s.s.s.s.e.e.e.s.s.s.s.s.s.s.s.s.s.s.s.s.s.s.s.s.s.s.s.s.e.e.s.s.s.s.s.s.s.s.s.s.s.s.s.s.e.e.e.s.s.e.e.e.s.s.s.s.s.s.s.s.s.g.s.s.s.g...: ",
"Z.g.s.s.s.s.s.s.s.s.s.s.s.s.s.s.s.s.s.s.s.s.e.e.s.s.s.s.s.s.s.s.s.s.s.s.s.s.s.s.s.s.s.e.e.e.e.e.e.s.e.s.s.s.s.s.s.s.s.s.s.s.s.s.s.s.s.s.s.s.s.s.g.s.g.s.s.s.g.S <.Z.s.g.e.s.s.s.s.s.s.s.s.s.s.s.s.s.s.s.s.s.s.s.s.s.s.s.s.s.e.e.s.s.s.s.s.s.s.s.s.s.s.s.s.s.s.s.e.e.s.s.s.s.s.s.s.s.s.s.s.s.s.s.s.s.s.s.s.s.s.s.s.e.s.e.s.s.s.v e.M.e.e.g.s.s.s.s.s.s.s.s.s.s.s.s.s.s.s.s.s.s.s.s.s.s.e.s.e.s.s.s.s.s.s.s.s.s.s.s.s.s.s.s.s.s.s.s.s.s.s.s.s.s.s.s.s.s.s.s.s.s.s.s.s.s.s.s.s.s.s.s.e.g.s.s.s.s.v g.M.s.e.s.s.e.s.s.s.s.s.s.s.s.s.s.s.s.s.s.s.s.s.s.s.s.s.s.s.s.s.s.e.e.e.e.s.s.s.s.s.s.s.s.s.s.s.s.s.s.s.s.s.s.s.s.s.s.s.s.s.s.s.s.s.s.s.s.s.s.s.s.s.s.s.e.s.:.p M.g.s.s.s.s.s.s.s.s.s.s.s.s.s.s.s.s.s.s.s.s.s.s.g.s.s.s.s.s.s.s.s.s.s.s.s.s.s.e.s.s.s.s.s.s.s.s.s.s.s.s.s.s.s.s.s.s.s.s.s.e.e.e.e.e.s.s.s.s.s.s.s.s.s.g.s.g.<.v g.s.s.s.s.s.s.s.s.s.s.s.s.s.s.s.s.s.s.s.s.s.s.s.g.s.s.s.s.s.s.s.s.s.s.s.s.s.s.s.s.s.s.e.e.e.e.s.s.s.s.s.s.s.s.s.s.s.s.e.e.e.e.e.s.s.e.e.e.e.s.s.s.s.e.s.s.s.<.V M.s.e.e.e.e.e.e.e.e.e.e.e.e.e.e.e.e.e.e.e.e.e.e.e.e.e.e.e.e.e.e.e.e.e.e.e.e.e.e.e.e.e.e.e.e.e.e.e.e.e.e.e.e.e.<.e.e.e.e.e.e.e.e.e.e.e.e.e.e.e.e.e.e.e.e.e.e...V G.g.s.s.s.s.s.e.s.s.s.s.s.s.s.s.s.s.s.s.s.s.s.s.s.s.s.s.s.s.s.s.s.s.s.s.s.e.e.e.e.e.s.s.s.s.s.s.s.s.s.s.s.s.s.s.e.e.s.s.s.s.s.e.s.s.s.s.s.s.s.s.s.g.s.s.s.g...: ",
"M.s.s.s.s.s.s.s.s.s.s.s.s.s.s.s.s.s.s.s.s.e.e.e.s.s.s.s.s.s.s.s.s.s.s.s.s.s.s.s.s.s.s.e.e.e.e.e.e.s.e.s.s.s.s.s.s.s.s.s.s.s.e.e.s.s.s.s.s.s.s.s.g.s.g.s.s.s.g.S <.Z.s.g.e.s.s.s.s.s.s.s.s.e.e.e.s.s.s.s.s.s.s.s.s.s.s.s.s.s.e.e.s.s.s.s.s.s.s.s.s.s.s.s.s.s.s.s.e.s.s.s.g.g.s.s.s.s.s.s.s.s.s.s.s.s.s.s.s.s.s.s.g.e.s.s.s.s.s.V e.M.e.e.g.s.s.s.s.s.s.s.s.s.s.s.s.s.s.s.s.s.s.s.s.s.s.e.e.e.s.s.s.s.s.s.s.s.s.s.s.s.s.s.s.s.s.s.s.s.s.s.s.s.s.s.g.s.s.e.e.e.s.s.e.s.s.s.s.s.s.s.s.e.g.s.s.s.s.v g.M.s.e.s.s.e.s.e.e.s.s.s.s.e.e.s.s.s.e.s.s.s.g.s.s.s.s.s.s.s.s.s.s.s.s.e.e.e.e.s.s.s.s.s.s.s.s.s.s.s.s.s.s.s.s.s.s.s.s.s.s.s.g.s.s.s.s.s.s.s.s.s.s.s.s.e.s.:.p M.g.s.s.s.s.s.s.s.s.s.s.s.s.s.e.s.s.s.s.s.s.s.s.g.s.s.s.s.s.s.s.s.s.s.s.s.s.e.e.s.s.s.s.s.s.s.s.s.s.s.s.s.s.s.s.s.s.s.s.s.e.e.e.e.e.s.s.s.s.s.s.s.s.s.g.s.g.<.v g.s.s.s.s.s.s.s.s.s.s.s.s.s.s.s.s.s.s.s.s.s.s.s.g.g.s.s.s.s.s.s.s.s.s.s.s.s.s.s.s.s.s.e.e.e.e.s.s.s.s.s.s.s.s.s.s.s.s.e.e.e.e.e.e.e.e.e.e.e.e.s.s.s.e.s.s.s.<.V M.s.e.e.e.e.e.e.e.e.e.e.e.e.e.e.e.e.e.e.e.e.e.e.e.e.e.s.e.e.e.e.e.e.e.e.e.e.e.e.e.e.e.e.e.e.e.<.e.e.e.e.e.e.<.<.e.e.e.e.e.e.e.e.e.e.e.e.e.e.e.e.e.e.e.e.e.e...V G.g.s.s.s.s.s.e.s.s.s.s.s.s.s.s.g.g.s.s.s.s.s.s.s.s.s.s.s.s.s.s.s.s.s.s.e.e.e.e.e.e.s.s.s.s.s.s.s.s.s.s.s.s.s.s.s.s.s.s.s.s.s.s.s.s.s.s.s.s.s.s.s.g.s.s.s.g...: ",
"G.g.s.s.s.s.s.s.s.s.e.e.e.s.s.s.g.s.s.s.e.e.e.s.e.e.s.s.s.s.s.s.s.s.s.s.s.s.s.s.s.s.e.<.e.e.s.s.s.s.s.s.s.s.s.s.s.s.s.s.s.s.e.e.e.e.e.s.s.s.s.s.g.e.s.s.s.s.s.V :.Z.e.s.s.s.e.s.s.s.s.s.e.e.s.s.s.s.s.s.s.s.s.s.s.s.s.s.s.s.s.s.s.s.s.e.e.s.s.s.g.s.s.s.e.s.s.s.e.e.s.s.s.s.s.s.e.e.s.s.s.s.s.s.s.s.s.e.e.s.s.s.s.s.s.s.s.e.g.v e.M.e.e.g.s.g.s.s.s.s.e.e.e.e.e.e.e.e.s.s.s.s.s.e.s.s.s.s.s.s.s.s.s.s.s.s.s.s.e.e.e.e.s.s.s.s.s.e.s.s.s.s.s.s.s.s.s.s.s.s.s.s.s.e.e.e.e.e.e.s.s.s.e.s.e.s.e.e.v s.g.s.e.s.s.e.g.s.s.s.s.s.s.s.s.s.s.s.s.s.s.s.s.s.s.e.e.s.s.s.e.s.s.s.s.s.s.s.s.s.s.s.s.s.s.s.s.s.s.s.s.s.s.s.s.s.s.s.s.s.s.s.s.s.s.s.s.s.s.s.s.s.s.e.s.e.s.:.p M.g.s.e.e.s.s.s.s.s.s.s.s.s.s.s.e.e.e.s.s.s.s.s.s.s.e.e.s.s.s.s.s.s.s.e.e.e.s.s.e.s.s.s.s.s.s.e.s.s.s.s.s.s.s.s.s.s.s.e.e.e.e.e.s.s.s.s.s.s.s.s.s.s.e.s.s.s.<.v s.s.s.e.s.s.s.s.s.s.s.s.s.s.s.s.e.e.s.s.s.e.e.e.s.s.s.s.s.s.s.s.e.e.e.s.s.s.s.s.e.s.s.e.e.e.e.s.s.s.s.s.s.s.s.s.s.s.e.e.e.e.s.s.s.e.s.s.s.s.s.s.e.s.s.s.e.s.<.v M.e.e.e.e.e.e.<.e.e.e.e.e.e.e.e.e.e.e.e.e.e.e.e.e.e.e.e.e.e.e.e.e.e.e.e.e.e.e.e.e.e.e.e.e.<.<.<.e.e.e.e.e.e.e.e.s.s.e.e.e.e.e.s.e.e.<.<.<.<.<.<.e.e.e.e.e.e...V G.g.s.s.e.s.s.e.s.s.e.e.e.e.s.s.s.s.s.s.s.s.s.s.s.s.s.s.s.s.e.e.e.e.e.e.e.e.e.s.s.s.s.s.s.s.s.s.e.e.e.e.e.e.e.e.e.e.e.s.s.s.s.s.s.s.s.s.s.s.s.s.e.s.e.e.s.g...: ",
"Z.g.s.s.s.s.e.s.s.s.e.e.e.s.s.s.s.s.e.e.e.e.e.e.e.s.s.s.s.s.s.s.s.s.s.s.s.s.s.s.s.e.e.e.e.s.s.s.s.s.s.s.s.s.s.s.s.s.s.s.e.e.e.e.e.e.e.e.s.s.s.e.s.e.s.s.s.s.s.V :.Z.e.s.s.s.e.s.s.s.s.s.e.e.s.s.s.s.s.s.s.s.s.s.s.s.s.s.s.s.s.s.s.s.s.e.e.s.s.s.s.s.s.e.e.s.s.e.e.e.s.s.s.s.s.s.e.e.s.s.s.s.s.s.s.s.s.e.e.s.s.s.s.s.s.s.s.e.g.v e.M.s.e.g.s.g.s.s.s.e.e.s.e.e.e.s.s.s.s.s.s.s.s.e.e.s.s.s.s.s.s.s.s.s.s.s.s.e.e.e.e.e.s.s.s.s.s.e.s.s.s.s.s.s.s.e.e.e.e.e.s.s.s.e.e.e.e.e.s.s.s.s.e.s.e.s.s.e.v s.g.s.e.s.s.e.s.s.s.s.s.s.s.s.e.s.s.s.s.s.s.s.s.s.e.e.e.s.s.s.s.s.s.s.s.s.s.s.s.s.s.s.s.s.s.s.s.s.s.s.s.s.s.s.s.s.s.s.s.s.s.s.s.s.s.s.s.s.s.s.s.s.s.e.s.e.s.:.p M.g.s.e.s.s.s.s.s.s.s.s.s.s.s.s.e.e.e.s.s.s.s.s.s.s.e.e.e.s.s.s.s.s.s.e.e.e.e.e.s.s.s.s.s.s.e.e.s.s.s.s.s.s.s.s.s.s.s.e.e.e.e.e.s.s.s.s.s.s.s.s.s.s.e.s.e.s.<.v s.e.e.e.e.s.s.e.s.s.s.s.s.s.s.s.e.e.e.s.s.s.e.e.s.s.s.s.s.s.s.s.e.e.e.s.s.s.s.s.s.s.s.e.e.e.e.s.s.s.s.s.s.s.s.s.e.s.e.e.s.e.s.s.e.e.e.e.s.s.s.s.s.s.s.s.e.s.<.V M.e.e.e.e.e.e.<.e.e.e.e.e.e.e.e.e.e.e.e.e.e.e.e.e.e.e.e.e.e.e.e.e.e.e.e.e.e.e.e.e.e.e.e.e.<.<.<.e.e.e.e.e.e.e.e.s.e.e.e.e.e.e.s.e.e.e.e.e.e.e.e.e.e.e.e.e.e...V G.s.s.s.s.s.s.e.e.e.e.e.e.e.s.s.s.s.s.s.s.s.s.s.s.s.s.s.s.s.e.e.e.e.e.e.e.e.s.s.s.s.s.s.s.s.s.s.e.e.e.e.e.e.e.e.e.e.s.s.s.s.s.s.s.s.s.s.s.s.s.s.e.s.e.e.s.g...: ",
"Z.g.s.s.s.s.s.s.e.e.e.e.s.s.s.e.e.e.e.e.e.e.e.e.e.s.s.s.s.s.s.s.s.s.s.s.s.s.s.s.e.e.e.e.e.s.e.e.s.s.s.s.s.s.e.e.e.e.e.e.e.e.e.e.e.e.e.s.s.e.e.e.s.e.s.e.s.s.s.V :.Z.e.s.s.s.e.s.e.s.s.s.e.e.e.s.s.e.s.e.e.s.s.s.s.s.s.s.s.s.s.s.s.s.e.e.e.e.s.s.s.s.s.e.e.e.e.e.e.e.s.s.s.s.s.s.e.e.s.s.s.s.s.s.s.s.s.s.e.s.s.s.s.s.s.s.s.e.g.v e.M.e.e.g.s.s.s.s.s.s.e.s.e.s.s.s.s.s.s.s.s.e.e.e.e.e.s.s.s.s.s.s.s.e.e.s.e.e.e.e.e.e.s.s.s.s.e.e.s.s.s.s.s.s.e.e.e.e.e.e.e.s.s.e.e.e.s.s.s.s.s.s.e.s.e.s.s.e.v s.g.s.e.s.s.e.s.e.e.e.e.e.e.s.s.s.s.s.s.s.s.s.s.s.s.e.e.s.s.s.e.s.s.e.e.e.e.s.s.e.s.s.s.s.s.s.s.s.s.e.e.e.e.e.e.e.s.e.e.s.s.s.s.s.s.s.s.s.s.s.s.s.s.e.s.e.s.:.p M.g.s.s.s.s.s.s.s.s.s.s.s.s.s.s.e.e.e.s.s.s.s.s.s.e.s.e.s.s.s.s.s.s.s.e.s.e.e.e.s.s.s.s.s.s.s.s.s.s.s.s.s.s.s.s.s.s.s.s.e.e.e.s.s.s.s.s.s.s.e.s.s.s.e.s.e.s.:.v e.e.e.e.e.e.e.e.e.e.s.s.s.s.e.e.e.e.e.s.s.s.s.s.s.s.s.s.s.s.s.s.e.e.s.s.s.s.s.s.s.s.s.e.e.e.e.s.s.s.s.s.e.e.e.e.e.e.s.s.s.s.s.s.e.e.e.e.e.e.s.s.s.s.s.s.e.s.<.V M.e.e.e.e.e.e.<.e.e.e.e.e.e.e.e.e.e.e.e.e.e.e.e.e.e.e.e.e.e.e.e.e.e.e.e.e.e.e.e.e.e.e.e.e.e.e.e.e.e.e.e.e.e.e.e.e.e.<.<.e.e.e.s.e.e.e.e.e.e.e.e.e.e.e.e.e.e...V Z.s.s.s.e.e.s.e.e.e.e.e.e.s.s.s.s.s.s.s.s.s.s.s.s.s.s.s.s.s.e.e.e.e.e.e.e.s.s.s.s.s.s.e.s.s.s.s.s.s.e.e.e.e.s.s.s.s.s.s.s.s.s.s.s.s.s.s.s.s.s.s.e.s.e.e.s.g...: ",
"G.g.s.e.s.s.s.s.e.e.e.s.s.s.s.e.e.e.e.e.e.e.e.e.e.e.s.s.s.s.s.s.s.s.s.s.s.s.s.s.e.<.e.e.s.s.e.e.e.e.s.s.s.s.e.e.e.e.e.e.e.e.e.e.e.e.s.s.s.e.e.e.s.e.s.e.s.s.s.V :.Z.e.s.s.s.e.s.e.e.e.e.e.e.e.s.s.s.s.s.s.s.s.s.e.s.s.s.s.s.s.s.s.s.e.e.e.e.s.s.e.e.e.e.e.e.e.s.e.s.s.s.s.e.s.e.e.e.s.s.s.s.s.s.s.s.s.s.e.s.s.s.s.s.s.s.s.e.g.v e.M.s.s.g.s.s.s.e.e.e.e.s.s.s.s.s.s.s.s.s.s.e.e.s.e.e.e.s.s.s.s.s.s.e.s.e.e.e.<.e.e.e.s.s.s.s.s.s.s.s.s.s.s.s.e.e.e.e.e.e.e.s.s.s.s.s.s.s.s.s.s.s.e.s.e.s.s.e.v g.g.s.e.s.e.e.s.e.e.e.e.e.e.s.s.s.s.s.s.s.s.s.s.s.e.e.e.e.s.s.e.s.e.s.e.e.e.e.s.e.e.e.s.s.s.s.s.s.s.e.e.e.e.e.e.e.e.e.e.e.s.s.s.s.s.s.s.s.s.s.s.s.s.e.s.e.s.:.p M.g.s.s.s.s.s.s.s.s.s.s.s.s.s.s.e.e.e.s.s.s.s.s.s.s.e.e.s.s.s.s.e.e.s.s.s.e.e.e.s.s.s.s.s.s.s.s.s.s.s.s.s.s.s.s.s.s.s.s.e.e.e.e.s.s.s.s.e.e.e.e.e.s.e.s.e.s.:.p e.e.e.e.e.e.e.e.e.e.s.s.s.s.e.e.e.e.e.s.s.s.s.s.e.e.s.s.e.e.e.e.s.s.s.s.s.s.s.s.s.s.s.e.e.e.e.s.s.s.s.e.s.e.e.e.e.e.e.s.s.s.s.s.e.e.e.e.e.e.e.s.s.s.e.s.e.s.<.V M.e.e.e.e.e.s.e.e.e.e.e.e.e.e.e.e.e.e.e.e.e.e.e.e.e.e.e.e.e.e.e.e.e.e.e.e.e.e.e.e.e.e.e.e.e.e.e.e.e.e.e.e.e.e.e.e.e.<.<.<.e.e.s.e.e.e.e.e.e.e.e.e.e.e.e.e.e...V Z.s.s.s.s.e.s.<.e.e.e.e.e.e.s.s.s.s.s.s.s.s.s.s.s.s.s.s.s.s.e.e.s.s.s.s.s.s.s.s.e.e.e.e.e.e.e.e.s.e.e.e.e.e.s.s.s.s.s.s.s.e.e.e.s.s.s.s.s.s.s.s.e.s.e.e.s.g...: ",
"G.M.s.e.s.e.e.s.e.e.e.s.s.s.s.e.e.e.e.e.s.s.e.e.s.s.s.s.s.s.s.s.s.s.s.s.s.s.s.s.e.<.e.e.s.s.e.e.e.e.s.s.s.e.e.e.e.e.e.e.e.s.s.s.e.s.s.s.s.s.s.s.s.e.s.e.s.s.s.V :.Z.e.s.s.s.e.s.e.e.e.e.e.e.s.s.s.s.s.s.s.s.s.s.e.e.s.s.s.s.s.s.s.s.e.e.e.e.s.s.e.e.e.e.e.e.s.s.e.s.s.s.s.e.e.e.e.e.s.s.s.s.s.s.s.s.s.e.e.s.s.s.s.s.s.s.s.e.g.v e.M.s.s.g.e.s.e.e.e.e.s.s.s.s.s.e.e.e.s.s.s.s.s.e.e.e.e.s.s.s.s.e.e.e.e.e.e.<.e.s.e.s.s.s.s.s.e.e.s.s.s.s.s.s.e.s.s.s.e.e.e.e.s.s.s.s.s.s.s.s.s.s.e.s.s.s.e.e.p g.g.s.e.s.e.<.e.e.e.e.e.e.e.e.s.s.s.s.s.s.s.s.s.s.s.e.e.e.s.s.e.s.s.e.e.e.s.s.s.s.s.s.s.s.s.s.s.s.s.e.e.e.e.e.s.e.e.e.e.s.s.s.s.s.s.s.e.e.s.s.s.s.s.e.s.e.s.:.p M.g.s.s.e.s.s.s.s.s.s.e.e.s.s.s.e.e.e.s.s.s.s.s.e.e.s.s.e.s.s.e.e.e.e.e.e.e.e.e.s.s.e.e.e.e.s.s.s.s.s.s.s.s.s.s.e.s.s.s.s.s.s.s.s.s.s.e.e.e.e.e.e.s.e.s.e.s.:.p s.e.e.e.e.s.s.e.e.e.s.s.s.s.e.e.e.e.e.s.s.s.s.s.e.e.e.e.e.e.e.e.s.s.s.s.s.s.s.s.s.s.s.e.e.e.s.s.s.s.s.e.s.e.e.e.e.e.e.s.s.s.s.s.e.e.e.e.e.e.e.e.e.e.e.e.<.s.<.v M.e.e.e.e.e.s.e.e.e.e.e.e.e.e.e.e.e.e.e.e.e.e.e.e.e.e.e.e.e.e.e.e.e.e.e.e.e.e.e.e.e.<.e.e.e.e.e.e.e.e.e.e.e.e.e.e.e.<.<.e.e.e.e.e.e.e.e.e.e.e.e.e.e.e.e.e.e...V Z.s.s.s.s.s.s.e.e.e.e.e.e.e.s.s.s.s.s.s.s.s.s.s.s.s.s.s.s.s.s.s.s.s.s.s.s.s.s.s.s.s.e.e.e.e.e.e.s.s.e.e.e.e.s.s.s.s.s.s.s.s.e.e.s.s.s.s.s.s.s.s.e.s.e.s.s.g...: ",
"G.M.s.e.e.s.e.s.s.e.e.e.s.s.s.e.e.e.s.s.s.s.s.s.s.s.s.s.s.s.s.s.s.s.s.s.s.s.s.s.e.e.e.s.s.s.e.e.s.s.s.s.s.e.e.e.s.s.s.s.s.s.s.s.s.s.s.s.s.s.s.s.s.e.s.e.s.s.s.V :.Z.e.s.s.s.e.s.e.e.e.e.e.s.s.s.s.s.s.s.s.s.s.s.e.e.s.s.s.s.s.s.s.s.e.e.e.e.s.s.e.e.e.e.e.e.s.s.e.s.s.s.e.e.e.e.e.e.s.s.s.s.s.s.s.s.s.e.e.s.s.s.s.s.s.s.s.e.g.v e.M.e.e.s.e.s.e.e.e.e.s.s.s.s.s.e.e.e.s.s.s.s.s.e.e.e.s.s.s.s.s.e.e.s.e.e.e.e.e.s.s.s.s.s.s.e.e.e.s.s.s.s.s.s.e.s.s.s.s.e.e.e.e.s.s.s.s.s.e.e.e.s.e.s.e.s.s.e.v g.g.s.e.s.e.<.e.e.e.e.e.s.e.e.s.s.s.s.s.s.s.s.s.s.s.e.e.e.s.s.e.s.s.e.e.e.e.s.s.s.s.s.s.e.s.s.s.s.s.e.e.e.e.e.s.e.s.e.e.s.s.s.s.s.s.e.e.e.e.s.s.s.s.e.s.e.s.:.p M.g.s.s.e.s.s.s.s.s.e.e.e.e.s.s.s.e.s.s.s.s.s.s.e.e.e.s.s.e.e.e.e.e.e.e.e.e.e.e.e.e.e.<.e.e.e.e.s.s.s.s.s.s.s.s.e.e.s.s.s.s.s.s.s.s.s.e.e.e.e.e.s.s.e.s.e.s.:.v s.s.e.e.s.s.s.s.e.e.s.s.s.e.e.e.e.e.e.s.s.s.s.s.s.s.s.s.s.s.s.s.s.s.s.s.s.s.e.s.e.s.s.e.e.e.s.s.s.s.s.s.s.s.s.s.e.e.s.s.e.s.s.s.e.e.e.s.e.e.e.e.e.e.e.e.e.s.<.v M.e.e.e.e.e.s.e.e.e.e.e.e.e.e.e.e.e.e.e.e.e.e.e.<.e.e.<.e.e.e.e.e.e.e.e.e.e.e.e.<.<.e.e.e.e.e.e.e.e.e.<.<.e.e.e.e.e.e.e.e.e.e.e.e.e.e.e.e.e.e.e.e.e.e.e.e.e...V Z.s.s.s.e.s.s.e.e.e.e.e.e.e.e.e.s.s.s.s.s.s.s.s.s.s.s.s.s.s.s.s.s.s.s.s.s.s.s.s.s.s.e.e.e.e.e.e.s.s.e.e.e.e.s.s.s.e.e.s.s.e.e.e.s.s.s.s.s.s.s.s.e.s.e.s.s.g...: ",
"G.g.e.e.e.e.e.s.s.s.e.e.e.s.s.s.e.e.s.s.s.s.s.e.s.s.s.s.s.s.s.s.e.e.e.e.s.s.s.s.s.e.s.s.s.s.s.e.s.s.s.s.s.s.s.e.s.s.s.s.s.s.s.s.s.s.s.e.e.e.e.s.g.e.g.s.s.s.s.V :.Z.e.s.e.s.e.e.e.e.e.s.s.s.s.g.e.e.s.s.s.s.e.e.e.e.e.s.s.s.s.s.s.s.e.e.e.e.s.s.s.s.s.s.e.s.s.s.s.s.s.s.e.e.e.e.s.s.s.s.s.s.s.s.s.s.s.e.e.s.s.s.e.e.s.s.s.e.g.v e.M.s.e.s.e.s.e.e.e.e.s.s.s.s.e.s.s.s.s.s.s.s.s.e.e.e.e.e.s.e.e.e.s.s.s.e.e.e.e.s.s.s.s.s.s.e.e.e.s.s.s.s.s.s.e.s.s.s.s.s.s.s.s.s.s.s.s.e.e.e.e.s.e.s.s.s.e.e.v s.g.s.e.s.e.<.e.s.s.s.s.s.e.e.e.s.s.s.s.s.s.s.s.s.e.e.e.e.s.s.e.s.s.s.s.s.s.s.s.s.s.s.s.e.e.e.e.e.e.e.s.s.s.s.s.s.s.s.s.s.s.s.s.s.s.e.e.s.s.s.s.s.s.e.s.e.s.:.p M.g.s.e.e.s.s.s.s.s.e.e.s.s.s.s.s.s.s.s.s.s.e.e.e.e.e.s.s.e.e.e.s.s.e.e.e.e.e.e.e.e.e.e.e.e.e.e.s.s.s.s.s.s.s.s.e.e.e.e.e.s.s.s.s.s.s.s.s.s.e.e.s.s.s.s.s.s.<.v s.s.s.s.s.s.s.s.s.s.s.s.e.e.e.e.e.s.s.s.s.s.e.e.s.s.s.s.s.s.s.s.s.s.s.s.s.e.s.s.e.e.s.e.e.e.s.s.s.s.s.s.s.s.s.s.s.s.e.e.e.e.s.s.e.e.s.s.s.s.s.s.e.s.e.s.e.s.<.v M.e.e.e.e.e.e.<.e.e.e.e.e.e.e.e.e.e.e.e.e.e.e.e.<.<.<.<.e.e.e.e.e.e.e.e.e.e.e.e.e.e.e.e.e.e.e.e.e.e.<.<.<.<.e.e.e.e.e.e.e.e.e.e.e.e.e.e.e.e.e.e.e.e.e.<.<.e...V G.s.e.s.e.s.s.e.s.s.s.s.e.e.e.e.s.s.s.s.s.s.s.s.s.s.s.s.s.s.s.e.s.s.s.s.e.e.s.s.s.s.s.e.e.e.e.e.s.s.s.e.e.s.s.s.e.e.e.e.e.e.s.s.e.e.e.s.e.e.e.e.e.s.e.s.s.g...: ",
"G.g.e.e.e.e.e.s.s.s.e.e.e.s.s.s.e.e.s.s.s.s.e.e.s.s.s.s.s.s.s.e.e.e.e.e.e.s.s.e.s.s.s.s.s.s.s.e.s.s.s.s.s.s.s.s.s.s.s.s.s.s.s.s.s.s.e.e.e.e.e.s.g.e.g.s.s.s.s.V :.Z.e.s.e.s.<.e.e.e.s.s.s.s.s.g.e.e.e.e.e.e.e.e.e.e.e.e.s.s.s.s.s.s.e.e.e.e.s.s.s.s.s.s.s.s.s.s.s.s.s.s.e.e.e.e.s.s.s.s.s.s.s.s.s.s.s.e.e.s.s.s.e.e.s.s.s.<.g.v e.M.s.e.s.e.s.e.e.e.s.s.s.s.e.e.s.s.s.s.s.s.s.s.e.e.e.e.e.e.e.e.e.s.s.s.e.e.e.e.s.s.s.s.s.s.e.e.e.s.s.s.s.s.s.e.e.e.e.e.e.s.s.s.e.s.s.s.e.e.e.e.s.e.s.s.s.e.e.p s.g.s.e.s.e.<.e.s.s.s.s.s.s.e.e.s.s.s.s.s.s.s.s.s.s.e.e.e.s.s.e.s.s.s.s.s.s.s.s.s.s.s.s.e.e.e.e.e.e.e.s.s.s.s.s.s.s.s.s.s.s.s.s.s.e.e.e.e.s.s.s.s.s.e.s.e.s.:.p M.g.s.e.e.s.s.s.s.e.e.e.e.s.s.s.s.s.s.s.s.e.e.e.e.e.e.s.s.e.e.e.s.s.e.e.e.e.s.e.s.s.s.e.e.s.s.s.s.s.s.s.s.s.s.s.e.e.e.e.e.s.s.s.s.s.s.s.s.s.s.s.s.s.s.s.s.g.<.v s.s.e.e.s.s.s.s.s.s.s.e.e.e.e.e.s.s.s.s.s.e.e.e.s.s.s.s.s.s.s.s.s.s.s.s.s.e.s.s.e.e.s.s.e.s.s.g.s.s.s.s.s.s.s.s.s.s.e.e.e.e.s.e.e.e.s.s.s.s.s.s.e.s.s.s.s.g.<.v M.e.e.e.e.e.e.<.e.e.e.e.e.e.e.e.e.e.e.e.e.e.e.e.<.<.<.<.e.e.e.e.e.e.e.e.e.e.e.e.e.e.e.e.e.e.e.e.e.e.e.<.<.<.e.e.e.e.e.e.e.e.e.e.e.e.e.e.e.e.e.e.e.e.e.<.<.e...V G.g.e.s.e.s.s.s.s.s.s.s.s.s.e.e.s.s.s.s.s.s.s.s.s.s.s.s.s.s.e.e.s.s.s.e.e.e.e.e.s.s.s.s.e.e.s.s.s.s.s.e.e.e.s.s.e.e.e.e.e.e.e.s.e.e.e.s.s.e.e.e.e.s.e.s.s.g...: ",
"G.g.s.s.s.s.s.s.s.s.s.s.s.s.s.s.e.e.s.s.s.s.e.e.s.s.s.s.s.e.e.e.s.s.s.s.s.s.e.e.s.s.s.s.s.s.s.s.s.s.s.s.s.s.s.s.s.s.s.s.e.e.e.e.<.<.e.e.e.e.s.s.s.e.s.e.s.s.g.V <.Z.e.s.<.s.e.e.s.s.e.e.e.s.s.s.e.e.e.e.e.e.e.e.s.s.s.e.e.e.s.s.s.s.s.e.e.s.s.s.e.e.e.e.e.e.e.s.e.e.e.e.e.e.s.s.e.e.s.s.s.s.s.s.s.s.e.e.e.e.e.s.e.<.s.e.s.e.s.V e.M.s.e.s.e.s.e.s.s.s.s.s.s.s.s.s.s.s.s.e.e.e.e.e.e.s.s.s.s.s.e.s.s.e.e.e.e.s.s.s.s.s.e.e.e.e.e.s.s.s.s.e.e.e.<.e.e.e.e.e.e.s.s.e.e.e.s.s.s.s.s.e.<.s.e.s.e.e.v s.M.e.s.g.e.s.s.s.s.s.s.s.s.s.s.s.s.s.s.s.s.s.s.e.e.s.s.s.s.s.s.s.s.s.s.s.s.s.s.s.s.e.e.e.e.s.s.e.e.e.e.e.s.s.s.e.e.s.s.s.s.s.s.s.s.s.s.s.s.s.s.s.s.e.s.e.s.:.v g.s.e.e.s.s.s.s.s.s.s.s.s.s.s.s.s.s.s.s.e.e.e.e.s.s.s.s.s.s.s.s.s.s.s.s.s.s.s.s.e.e.e.s.s.s.s.s.s.s.e.e.e.s.s.s.e.e.e.e.e.e.e.s.s.s.e.e.s.s.s.s.s.s.e.s.s.g.<.v s.s.e.e.s.s.s.e.s.s.e.e.e.e.s.s.e.e.e.s.e.e.e.e.s.s.s.s.s.s.e.e.s.s.s.s.s.e.e.e.e.s.s.s.s.s.s.e.s.s.s.s.s.s.s.s.s.s.e.e.e.e.s.s.e.e.e.e.e.e.e.e.s.s.e.s.e.e.:.v Z.e.e.e.e.e.e.<.e.e.e.e.e.e.e.e.e.e.e.e.e.e.e.e.e.e.e.e.e.e.e.e.e.e.e.e.e.e.e.e.<.<.<.e.e.e.e.e.e.e.e.e.e.e.<.<.e.e.e.e.e.e.e.e.e.e.e.e.e.e.e.e.<.<.<.e.e.e...V G.g.s.s.e.s.s.e.s.s.s.s.e.e.s.s.s.s.e.e.e.e.e.e.s.s.s.s.s.s.s.s.e.e.e.e.e.e.e.e.s.s.e.e.s.s.s.s.e.s.s.s.e.e.e.s.s.s.s.e.e.s.e.e.e.e.s.s.s.s.s.s.e.s.s.s.s.g...: ",
"G.g.s.e.s.s.s.s.s.s.s.s.s.s.s.s.e.e.s.s.s.s.e.e.s.s.s.s.s.s.s.s.s.s.s.s.s.s.e.e.s.s.s.s.s.s.s.s.s.s.s.s.s.s.s.s.s.s.s.s.e.e.e.e.e.e.e.s.s.s.s.s.s.e.s.e.s.s.g.S <.Z.e.s.<.s.e.e.s.s.e.e.e.s.s.s.s.s.e.e.e.e.e.e.e.e.e.e.e.e.e.e.s.s.s.s.s.s.s.s.e.e.e.e.e.e.s.s.e.e.e.e.e.e.e.e.e.e.s.s.s.s.s.s.s.s.s.e.s.s.s.s.s.<.s.e.s.s.s.V e.M.s.s.s.e.s.e.s.s.s.s.s.s.s.s.s.s.s.s.s.e.e.e.e.e.e.s.s.s.s.e.s.s.e.e.e.e.s.s.s.s.s.e.e.e.e.e.s.s.s.s.s.e.e.<.s.e.e.e.e.e.s.s.e.e.e.s.s.s.s.s.s.<.s.e.s.e.e.v s.M.e.s.g.e.s.s.s.s.s.s.s.s.s.s.s.s.s.s.s.s.s.s.e.e.e.s.s.s.s.s.s.s.s.s.s.s.s.s.s.s.e.e.e.e.s.s.s.e.s.s.e.s.s.s.s.s.s.s.s.s.s.e.s.s.s.s.s.s.s.s.s.s.s.s.e.s.:.v g.s.e.e.s.s.s.s.s.s.s.s.s.s.s.s.s.s.s.e.e.e.e.e.s.s.s.s.s.s.s.s.s.s.s.s.s.s.s.s.e.e.e.s.s.s.s.s.s.e.e.e.e.e.e.e.e.e.e.e.e.s.e.s.s.s.e.e.s.s.s.s.s.s.e.e.e.s.<.v s.s.e.e.e.e.s.s.s.s.s.e.e.e.e.e.e.e.e.s.e.e.e.e.s.s.s.s.s.e.s.e.s.s.s.s.s.e.e.e.e.s.s.s.s.s.s.e.s.s.s.s.s.s.s.s.s.s.e.e.e.e.s.s.e.e.s.s.e.e.e.e.s.s.e.s.e.e.:.v M.e.e.e.e.e.e.<.e.e.e.e.e.e.e.e.e.e.e.e.e.e.e.e.e.e.e.e.e.e.e.e.e.e.e.e.e.e.e.e.e.<.e.e.e.e.e.e.e.e.e.e.e.e.e.<.e.e.e.e.e.e.e.e.e.e.e.e.e.e.e.e.<.<.e.e.e.e...V G.g.s.s.e.e.s.e.s.s.s.s.e.e.s.s.s.s.s.e.e.e.e.e.s.s.s.s.s.s.s.s.s.s.s.s.e.e.e.e.s.s.e.e.e.s.s.s.s.s.s.s.e.e.e.e.e.e.s.s.s.s.e.e.e.e.s.s.s.s.s.s.e.g.s.s.s.g...: ",
"G.g.e.e.e.e.s.s.s.s.s.s.s.s.s.s.e.e.s.s.s.s.e.e.s.s.s.s.s.s.s.s.e.s.e.e.e.e.e.e.s.s.s.s.s.s.s.s.s.s.s.s.e.e.e.e.e.e.e.e.e.e.e.e.s.s.s.s.s.s.s.s.s.e.s.s.s.s.s.V <.M.e.s.<.s.s.s.s.e.e.e.s.s.s.s.s.s.s.s.s.s.s.s.e.e.e.e.e.e.e.e.s.s.s.s.s.s.s.e.e.e.e.e.e.s.s.s.e.e.e.e.e.e.e.e.e.e.s.s.s.s.s.e.s.s.s.s.s.s.s.s.s.e.s.s.s.s.s.V e.M.s.s.s.e.s.e.s.s.s.s.s.s.s.s.s.s.s.s.s.e.e.e.e.e.s.s.s.s.s.e.s.e.e.e.e.e.s.s.s.s.s.s.e.e.e.s.s.s.s.s.s.e.e.e.s.s.e.e.e.e.s.s.e.e.s.s.s.s.s.s.s.<.s.e.s.e.e.v s.M.e.s.s.e.s.s.s.s.s.s.s.s.s.s.e.e.e.e.e.e.e.s.e.e.e.s.s.s.s.s.s.s.s.s.s.s.s.s.s.s.e.e.e.e.s.s.s.s.s.s.s.s.e.e.s.s.s.s.s.s.e.e.s.s.s.s.s.s.s.s.s.s.e.s.s.s.:.p M.s.s.e.s.s.s.s.s.s.s.s.s.s.s.s.s.s.e.e.e.e.s.s.s.s.s.s.s.s.s.s.s.s.s.s.s.s.s.s.e.e.s.s.s.s.s.s.e.e.<.<.e.e.e.e.s.e.e.e.e.e.s.s.s.s.s.e.e.e.e.e.s.s.<.e.e.s.<.v s.s.e.e.e.e.s.s.s.s.s.e.e.e.e.e.e.e.e.s.s.s.s.s.s.s.e.e.e.e.e.s.e.e.e.e.e.e.e.e.e.s.s.s.s.s.s.e.s.s.s.s.s.s.e.e.s.s.e.e.e.e.s.s.s.s.s.s.s.s.s.s.s.s.e.s.e.e.:.V M.e.e.e.<.e.e.<.e.e.e.e.e.e.e.e.e.e.e.e.e.e.e.e.e.e.e.e.e.e.e.e.e.e.e.e.e.e.e.e.e.e.e.e.e.e.e.e.e.e.e.e.e.e.e.e.e.e.e.e.e.e.e.e.e.e.e.e.e.e.e.e.e.<.e.e.e.e...V Z.s.e.s.e.e.s.e.s.s.s.s.e.e.s.s.s.s.s.e.e.e.e.s.s.s.s.s.s.s.s.s.s.s.s.s.s.e.e.s.s.s.e.e.e.e.s.s.s.s.s.s.e.e.e.e.e.s.s.s.s.e.e.s.e.e.e.e.s.s.s.e.e.s.s.s.e.s...: ",
"Z.g.e.e.e.e.s.s.s.s.s.s.s.s.s.s.e.e.s.s.s.s.s.s.e.e.e.s.s.s.s.s.e.e.e.e.e.e.e.e.s.s.s.s.s.s.s.s.s.s.e.s.e.e.e.e.<.e.e.e.s.e.e.e.s.s.s.s.s.s.s.s.s.e.s.s.s.s.s.V <.M.e.s.<.s.s.s.s.s.e.e.s.s.s.s.s.s.s.s.s.s.s.s.s.s.e.e.e.e.s.e.e.s.s.s.s.s.e.e.s.s.s.s.s.s.s.s.e.e.e.e.e.e.e.e.e.s.s.s.s.s.s.e.s.s.s.s.s.s.s.s.s.e.g.s.s.s.s.V e.M.s.s.g.e.s.e.s.s.s.s.s.s.s.s.s.s.s.s.s.e.e.<.e.e.s.s.s.s.s.e.s.e.e.e.e.s.s.s.s.e.s.s.e.e.e.e.s.s.s.s.s.e.e.e.s.s.e.e.e.e.e.s.s.s.s.s.s.s.s.s.s.<.s.e.s.s.s.v s.M.e.s.s.e.s.s.e.e.e.s.e.e.e.e.e.e.e.e.e.e.e.e.e.e.e.s.s.s.e.s.e.e.e.e.e.e.e.e.s.s.e.e.e.e.s.s.s.s.s.s.s.e.e.e.s.s.s.s.s.e.e.e.s.s.s.s.s.s.s.s.e.s.e.s.s.s.:.p M.g.s.e.s.s.s.s.s.s.s.s.s.s.s.s.e.e.e.e.s.s.s.s.s.s.s.s.s.s.s.s.s.s.s.s.s.s.s.s.s.s.s.s.s.s.s.s.e.e.<.e.e.e.e.e.s.s.e.e.e.e.s.s.s.s.s.e.e.e.e.e.s.s.e.e.e.s.<.v s.e.e.<.e.e.s.s.s.s.s.e.e.e.e.e.e.e.e.s.s.s.s.s.s.e.e.e.e.e.e.e.e.e.e.e.e.e.e.e.e.s.s.s.s.s.s.e.s.s.s.s.s.s.e.e.s.s.e.e.e.e.s.s.s.s.s.s.s.s.s.s.s.s.e.s.e.s.:.V M.e.e.e.<.e.e.<.e.e.e.e.<.e.e.e.e.e.e.e.e.e.e.e.e.e.e.e.e.e.e.e.e.e.e.e.<.<.<.<.e.e.e.e.e.e.e.e.<.e.e.e.e.e.e.e.e.e.e.e.e.e.e.e.e.e.e.e.e.e.e.<.e.e.e.e.e.s...V Z.s.e.s.e.e.s.e.s.s.e.e.e.e.s.s.s.s.s.s.e.e.e.e.s.s.s.s.s.s.s.s.s.s.s.s.s.e.e.s.s.s.e.e.e.e.s.s.s.s.s.s.s.e.e.e.e.s.e.e.s.e.e.e.s.s.e.e.s.s.e.e.e.s.e.e.e.s...- ",
"M.s.e.e.s.s.e.e.s.s.s.s.s.s.s.s.e.e.s.s.s.s.e.s.s.e.e.s.s.s.s.s.e.e.e.e.e.e.e.e.s.s.s.s.s.s.s.s.s.s.e.e.e.e.e.e.<.<.e.e.s.s.s.s.s.s.s.s.e.s.e.e.s.<.s.s.s.s.g.S <.Z.e.s.<.s.s.s.s.e.e.e.e.s.s.s.s.s.s.s.s.s.s.s.s.s.s.s.s.s.s.s.e.e.s.s.s.s.e.e.s.s.s.s.s.s.s.s.s.s.s.s.e.e.e.e.s.s.s.s.s.s.e.e.e.e.e.s.s.s.e.e.g.e.g.s.s.s.s.V e.M.s.s.s.e.s.s.s.s.s.s.s.s.s.s.s.s.s.s.s.e.e.e.e.e.e.s.s.s.s.e.s.s.e.e.e.e.s.s.s.s.s.s.e.e.e.s.s.s.s.s.s.s.e.e.s.s.s.s.s.e.e.e.s.s.s.s.s.s.s.s.s.e.s.s.s.s.s.v s.M.e.e.s.e.s.s.s.s.s.s.e.e.s.s.e.e.e.e.e.e.e.e.s.s.s.s.s.e.e.e.e.e.s.s.e.e.e.e.s.s.e.e.e.e.s.s.s.s.s.e.s.e.e.e.s.s.s.s.s.e.e.e.s.s.s.s.s.s.s.s.e.s.e.s.s.s.:.p M.g.s.e.e.s.s.s.s.s.s.s.s.s.s.s.s.e.e.e.s.s.s.s.s.s.s.s.s.s.s.s.s.s.s.s.s.s.s.s.s.s.s.s.s.s.s.s.e.e.e.e.s.s.s.e.s.s.e.e.e.s.s.s.s.s.s.e.e.e.e.e.s.s.e.s.e.g.<.v s.e.<.<.e.e.s.s.e.e.e.e.e.e.s.s.e.e.e.s.s.s.s.s.s.e.e.e.e.e.e.s.e.e.s.s.s.s.s.s.e.s.s.s.s.s.s.e.s.s.s.s.s.s.e.e.s.e.e.e.e.e.s.s.s.s.s.s.s.s.s.s.s.s.e.s.e.e.:.V M.e.<.e.<.e.e.<.e.e.e.e.e.e.e.e.e.e.e.e.e.e.e.e.e.e.e.e.e.e.e.e.<.<.e.e.e.<.<.<.e.e.e.e.e.e.<.<.<.e.e.e.e.e.e.e.<.e.e.e.e.e.e.e.e.e.e.e.e.e.e.<.e.e.e.e.e.e...V Z.s.e.e.e.e.s.e.s.s.e.e.e.e.s.s.s.s.s.e.e.e.e.e.s.s.s.s.s.s.s.s.s.e.e.e.s.e.e.e.s.s.e.e.e.e.s.s.s.s.s.e.e.e.e.e.s.s.e.e.s.s.s.s.s.s.s.e.s.s.e.e.e.s.e.e.e.s...- ",
"M.s.e.s.s.s.e.e.s.s.s.s.s.s.s.s.e.e.s.s.s.s.e.s.s.s.s.s.s.s.s.s.s.s.e.e.e.e.e.e.s.s.s.s.s.s.s.s.s.e.e.e.e.e.e.e.e.e.e.e.s.s.s.s.s.s.s.s.e.e.e.e.s.<.s.s.s.s.g.S <.M.e.s.<.s.s.s.s.e.e.e.e.s.s.s.s.e.s.s.s.s.s.s.e.e.e.e.e.e.e.e.e.s.s.s.s.s.s.e.s.s.s.s.s.s.s.s.s.s.s.s.s.s.s.s.e.s.s.s.s.e.e.e.e.e.e.e.s.s.e.e.s.e.g.s.s.e.s.v e.M.e.e.s.e.s.e.s.s.s.s.s.s.s.s.s.s.s.e.e.e.e.e.e.e.e.s.s.s.s.e.s.s.e.e.e.e.s.s.s.s.s.s.e.s.s.s.s.s.s.s.s.s.s.e.s.s.s.s.s.s.e.e.s.s.s.s.s.s.s.e.s.e.s.s.s.s.s.v s.M.e.e.s.e.s.s.s.s.s.s.e.e.s.s.e.e.s.s.e.e.s.e.e.s.s.s.s.e.e.e.s.s.s.s.s.s.s.s.s.s.e.e.e.e.s.s.s.s.s.e.e.e.s.e.s.s.s.s.s.s.e.e.s.s.s.s.s.s.s.s.e.s.e.s.e.s.:.p M.g.s.e.e.s.s.s.s.s.s.s.s.s.s.s.s.e.e.e.s.s.s.s.s.s.s.s.s.s.s.s.s.s.s.s.s.s.s.s.s.s.s.s.s.s.e.e.e.e.e.s.s.s.s.s.s.s.e.e.e.s.s.s.s.s.e.e.e.e.e.s.s.s.e.s.s.g.<.v e.e.e.e.e.e.s.s.e.e.e.e.e.s.s.s.e.e.s.s.s.s.s.s.s.s.e.e.e.e.e.s.s.s.s.s.s.s.s.s.e.s.s.s.s.s.s.e.s.s.s.s.s.s.e.e.s.e.e.e.e.e.s.s.s.s.s.s.s.s.s.s.s.s.e.s.e.e.:.V M.e.<.e.<.e.s.e.e.e.e.e.e.e.e.e.e.e.e.e.e.e.e.e.e.e.e.e.e.e.e.e.e.e.e.e.e.e.e.e.e.e.e.e.e.e.<.<.<.e.e.e.e.e.e.e.<.<.e.e.e.e.<.e.<.e.e.e.e.e.e.<.e.e.e.e.e.e...V Z.s.e.s.e.e.s.e.s.s.e.e.e.e.s.s.s.s.s.e.e.e.e.s.s.s.s.s.s.s.s.s.e.e.e.e.s.e.e.e.s.s.e.e.e.e.s.s.s.e.e.s.s.s.e.e.s.s.s.e.e.s.s.s.s.s.s.s.s.e.e.e.e.s.s.s.e.s...: ",
"Z.g.e.e.s.s.e.e.s.s.s.s.s.s.s.s.s.s.s.s.s.s.e.e.s.s.s.s.s.s.s.s.s.s.s.s.e.s.e.e.s.s.s.s.s.s.s.s.e.e.e.e.s.s.s.s.e.e.e.s.s.s.s.s.s.s.s.e.e.e.e.e.s.e.s.s.s.s.g.V <.Z.e.g.e.s.s.s.s.s.e.e.e.s.s.s.e.e.e.e.e.e.s.s.e.e.e.e.e.e.e.e.s.s.s.s.s.s.s.s.s.s.s.s.s.s.s.s.s.s.s.s.s.s.s.s.s.s.s.e.e.e.e.e.<.e.e.e.s.s.e.s.s.e.g.s.e.e.e.v <.g.e.e.s.e.s.e.s.s.s.s.s.s.s.s.s.s.e.e.e.e.e.s.e.e.e.s.s.s.s.e.s.s.s.e.s.s.s.s.e.e.e.e.e.s.s.s.s.s.s.s.s.s.e.e.e.e.s.s.s.s.s.s.s.s.s.s.s.s.e.e.s.e.s.s.s.s.s.v s.M.e.e.g.e.s.s.s.s.e.e.e.e.s.s.s.s.s.s.s.s.s.s.s.s.s.s.s.e.e.e.s.s.s.s.s.s.s.s.s.s.s.e.e.s.s.s.e.e.s.s.e.s.s.s.s.s.s.s.s.s.s.e.s.s.s.s.s.s.s.s.s.s.e.s.e.s.:.p g.g.e.e.e.s.s.s.s.s.s.s.s.s.s.s.s.s.e.e.e.e.s.s.s.s.s.s.s.s.s.s.s.s.s.s.s.s.s.s.s.s.s.s.s.e.e.e.e.e.e.s.s.s.s.s.s.s.e.e.s.s.s.s.s.s.e.e.s.s.s.s.s.s.e.s.s.g.<.p e.e.e.e.s.s.s.s.e.e.e.e.e.e.s.s.s.s.s.s.s.s.e.e.s.s.s.s.s.s.s.e.s.s.s.s.s.s.e.e.s.s.s.s.s.s.s.e.s.s.s.s.s.s.e.e.s.s.s.s.s.e.e.s.e.e.e.e.s.s.s.e.s.s.e.s.e.s.:.V M.e.<.e.e.e.s.e.e.e.e.<.<.e.e.e.e.<.<.<.e.e.e.e.e.e.e.e.e.e.e.e.e.e.e.e.e.e.e.e.e.e.e.e.e.e.e.<.e.e.e.e.e.e.e.<.<.e.e.e.e.e.e.e.e.e.<.<.e.e.e.e.e.<.e.e.e.e.' V Z.s.e.s.e.e.s.e.s.s.e.e.e.s.s.s.s.s.s.e.e.e.s.s.s.s.s.s.s.s.s.s.s.s.s.s.s.s.s.s.e.e.e.e.e.s.s.s.s.e.e.e.s.s.s.s.s.s.e.e.e.e.s.e.s.s.s.s.s.e.e.e.e.s.s.s.s.g...: ",
"G.g.e.e.e.s.e.s.s.s.s.s.s.s.s.s.s.s.s.s.s.s.e.e.s.s.s.s.s.e.e.e.s.s.s.s.s.s.e.e.s.s.s.s.s.s.s.s.s.s.e.e.s.s.s.s.s.s.s.s.s.s.s.e.s.s.s.s.s.e.e.e.s.<.s.s.s.s.g.S <.Z.s.g.e.s.e.e.s.s.e.e.e.s.s.s.e.e.e.e.e.e.s.e.s.s.s.s.s.s.s.s.s.s.s.e.s.s.s.s.s.s.s.e.e.e.e.e.e.e.e.e.s.s.s.s.s.s.s.e.e.e.e.e.e.e.e.s.s.s.s.s.s.e.s.e.e.e.e.v <.g.e.e.s.e.s.e.s.s.s.s.s.s.s.s.s.s.e.<.<.e.e.s.e.e.s.s.s.s.s.e.s.s.s.s.s.s.s.s.e.e.e.e.e.s.s.s.s.s.s.s.s.s.s.e.e.e.s.s.s.s.s.s.s.s.s.s.s.s.e.e.s.e.s.s.s.s.s.v s.M.e.e.g.e.s.s.e.e.e.e.e.e.e.e.s.s.s.s.s.s.s.s.s.s.s.s.s.e.e.e.s.s.s.s.s.s.s.s.s.s.s.e.e.s.s.s.e.e.s.s.e.s.s.s.e.e.s.s.s.s.s.s.s.s.s.s.s.s.s.s.s.s.e.e.e.e.:.p g.s.e.e.e.s.s.s.s.s.s.s.s.s.s.s.s.s.e.e.e.e.s.s.s.s.s.s.s.s.s.s.s.s.s.s.s.s.s.s.s.s.s.s.s.e.e.e.e.e.e.s.s.s.s.e.s.s.e.e.s.s.s.s.s.s.e.e.s.s.s.s.e.e.e.s.s.g.:.p e.e.e.s.s.s.s.s.s.s.e.e.e.e.e.s.s.s.s.s.s.s.e.e.s.s.s.s.s.s.s.e.s.s.s.s.s.e.e.e.s.s.s.s.s.s.s.e.s.s.s.s.s.s.e.e.s.s.s.s.s.s.s.s.e.e.e.e.e.e.e.e.s.s.e.s.e.e.:.V M.e.<.e.e.e.s.e.e.e.<.<.<.<.e.e.<.<.<.<.<.<.<.<.e.e.e.e.e.e.e.e.e.e.e.e.e.e.e.e.e.e.e.e.e.e.e.e.e.e.e.e.e.e.e.<.<.<.e.e.e.e.e.e.e.e.<.<.<.e.e.e.e.<.<.e.e.e.' v Z.s.e.s.e.e.s.e.s.s.e.e.s.s.s.s.s.s.s.s.e.e.s.s.s.s.s.s.s.s.s.s.s.s.s.s.s.s.s.s.e.e.e.e.s.e.s.s.s.e.e.e.s.s.s.s.s.s.e.e.e.e.e.s.s.s.s.s.s.e.e.e.e.s.s.s.s.g...: ",
"Z.g.e.e.e.e.e.e.e.e.e.e.e.e.e.e.e.e.e.e.e.s.s.s.s.s.s.s.s.e.e.e.e.e.e.s.s.s.s.s.s.s.s.s.s.s.s.e.e.e.e.e.s.s.s.s.e.e.e.e.e.e.e.e.e.e.e.e.e.e.s.s.s.e.e.e.s.e.M.S :.Z.e.e.e.s.e.s.s.s.e.s.s.s.s.s.s.s.s.s.s.s.s.s.e.e.e.e.e.e.e.e.s.s.s.s.s.s.s.s.e.e.e.e.e.e.e.e.s.s.s.s.s.e.e.e.s.s.s.s.s.e.e.e.e.s.s.s.s.s.s.s.s.e.s.e.s.s.s.V <.g.e.e.s.e.s.s.e.s.s.s.s.e.e.e.e.e.e.e.e.s.s.e.e.e.e.s.s.s.s.s.e.s.s.s.e.e.e.e.e.e.s.s.s.s.s.s.s.s.s.s.s.s.e.e.e.e.s.s.e.s.s.s.s.s.s.s.e.s.s.s.s.e.s.s.s.s.s.v s.M.e.e.s.e.s.s.s.s.e.e.e.e.e.e.s.s.s.s.s.s.s.s.s.e.e.e.e.e.e.e.s.s.s.s.s.s.s.s.s.s.e.e.e.e.s.s.s.s.s.s.s.s.s.s.e.e.e.e.e.e.e.e.s.s.s.s.s.s.e.e.e.e.e.s.e.s.:.p M.g.s.s.s.s.s.e.e.s.s.s.s.s.s.s.e.e.s.s.s.s.s.s.s.s.e.e.e.e.s.s.e.s.s.s.s.s.s.e.s.s.e.e.e.e.s.s.s.s.e.e.e.s.s.s.s.s.s.s.s.s.s.s.e.e.e.s.s.e.s.s.s.s.e.e.e.s.<.v s.s.s.s.e.s.s.s.e.e.s.s.s.s.s.s.s.s.s.s.s.e.s.s.s.s.s.s.s.s.s.s.e.s.s.s.s.e.e.e.s.s.s.s.s.s.s.s.s.e.e.e.e.s.s.e.e.e.e.e.e.e.e.e.e.e.r.r.r.r.e.e.r.r.6.r.e.r.:.v M.e.e.s.e.e.s.e.e.e.e.e.e.e.e.e.<.<.<.<.<.<.<.<.e.e.e.e.e.e.e.e.e.e.e.e.e.e.e.e.e.e.e.e.e.e.e.e.e.e.e.e.e.e.e.e.e.e.e.<.<.e.e.s.e.e.e.e.e.e.e.e.s.e.e.e.<.<.' v Z.e.e.s.s.s.s.s.s.s.s.s.e.e.s.s.s.s.s.s.s.s.s.s.e.e.e.e.e.e.e.e.s.s.s.s.s.s.s.s.e.e.e.e.e.e.e.e.e.s.s.s.s.s.s.e.e.s.s.s.s.s.s.s.e.e.e.e.e.e.e.e.s.s.e.e.e.s...- ",
"Z.g.e.e.e.e.e.s.e.s.s.s.e.e.e.s.e.e.e.e.s.s.s.s.s.s.s.s.s.e.e.e.s.e.s.s.s.s.s.s.s.s.e.e.s.s.e.e.e.e.e.e.s.s.s.s.e.e.e.e.e.e.e.e.e.e.e.e.e.e.s.s.s.s.e.e.s.e.g.V :.Z.e.e.e.s.e.s.s.s.e.e.s.s.s.s.s.s.s.s.s.s.s.s.e.e.s.e.e.s.s.e.s.s.s.s.s.s.s.s.e.e.e.e.e.e.e.e.s.s.s.s.s.s.e.s.s.s.s.s.s.e.e.e.s.s.s.s.s.s.s.s.s.e.s.e.s.s.s.v <.g.e.e.s.e.s.s.s.s.s.s.s.e.e.e.e.e.e.e.s.s.s.s.s.s.s.s.s.s.s.s.s.s.s.s.s.s.s.s.e.s.s.s.s.s.s.s.e.e.s.s.s.s.e.e.e.e.s.s.e.s.s.s.s.s.s.e.e.s.s.s.s.e.s.e.s.s.s.v s.M.e.e.g.e.s.s.s.s.e.e.e.e.e.e.s.s.s.s.s.s.s.s.s.e.e.e.e.e.e.e.s.s.s.s.s.s.s.s.s.s.e.e.e.e.s.s.s.s.s.s.s.s.s.s.e.e.e.e.e.e.s.s.e.s.s.s.s.s.e.e.e.e.e.s.e.s.:.p M.g.s.s.s.s.e.e.e.e.e.s.e.s.s.s.e.e.s.s.s.s.s.s.s.s.e.e.e.e.s.s.e.s.s.s.s.s.s.e.s.s.e.e.e.e.s.s.s.s.e.e.e.s.s.s.s.s.s.s.s.s.s.s.s.e.e.s.s.s.s.s.s.s.e.e.e.s.<.v s.s.s.s.e.s.s.s.e.e.s.e.s.s.s.s.e.e.e.e.e.e.e.e.s.s.s.s.s.s.s.s.s.s.s.s.e.e.e.e.s.s.s.s.s.s.s.s.s.e.e.e.e.s.e.e.e.e.e.e.s.s.s.e.e.e.r.r.r.r.e.e.r.r.e.r.e.r.:.v M.e.e.e.e.e.s.e.e.e.e.e.e.e.e.e.e.e.e.e.e.e.e.e.e.e.e.e.e.e.e.e.e.e.e.e.e.e.e.e.e.e.e.e.e.e.e.e.e.e.e.e.e.e.e.e.e.e.e.<.<.e.e.s.e.e.e.e.e.e.e.e.e.e.e.e.e.e.' V Z.e.e.s.s.s.s.s.s.s.s.e.e.e.s.s.s.s.s.s.s.s.s.s.s.s.e.e.e.e.s.s.s.s.s.s.s.s.s.s.e.e.e.e.e.e.e.e.e.s.s.s.s.s.s.e.e.s.s.s.s.s.s.s.s.e.e.e.s.e.e.e.e.s.e.e.e.s...- ",
"Z.g.e.e.s.s.e.s.s.s.s.s.s.s.s.s.e.e.s.s.s.s.s.s.s.s.s.s.s.s.e.e.s.s.s.s.s.s.s.s.e.e.e.e.e.e.e.e.e.e.e.e.s.s.s.s.s.s.e.e.e.e.s.s.s.s.e.e.e.s.s.s.s.e.e.e.s.e.g.V :.Z.e.s.e.s.e.s.s.e.e.e.e.s.e.e.e.e.s.s.s.s.s.s.s.s.e.e.s.s.s.s.s.s.s.s.s.s.s.s.s.s.e.e.e.e.s.s.s.s.s.s.e.s.s.s.s.s.s.s.s.s.e.e.s.s.s.s.s.s.s.s.s.e.s.e.s.s.s.v e.M.e.e.s.e.s.s.s.s.s.s.s.e.e.e.s.s.s.s.s.s.s.s.s.s.s.s.s.s.s.s.s.s.s.s.s.s.s.s.s.s.s.s.s.s.s.s.e.e.e.e.s.e.e.e.s.s.s.s.e.s.s.s.s.s.s.e.e.s.s.s.s.e.s.e.s.s.s.v s.M.e.s.g.e.s.s.s.s.e.e.e.e.e.e.s.s.s.s.s.s.e.e.e.e.e.e.e.e.e.e.e.e.s.e.s.s.e.e.s.e.e.e.e.e.s.s.s.s.s.s.s.s.s.s.s.s.s.s.s.s.s.s.e.e.e.s.s.s.s.s.e.e.e.s.s.s.:.p M.g.s.s.e.e.e.e.e.e.e.e.e.s.s.e.e.e.s.s.s.s.s.s.s.s.e.s.e.e.s.s.e.s.s.s.s.s.s.e.s.s.e.e.e.e.s.s.s.s.e.e.e.s.s.s.s.s.s.s.s.s.s.s.s.s.s.s.s.s.s.s.s.s.e.s.e.s.<.v e.e.s.e.e.s.s.s.e.e.e.e.e.e.e.e.e.e.s.s.e.e.e.e.s.s.s.s.s.s.s.s.s.s.s.s.e.e.e.e.s.s.s.s.s.s.s.s.s.e.e.e.e.s.e.e.e.e.s.s.s.s.e.e.e.e.r.r.r.r.e.e.r.r.6.s.e.r.:.v M.e.<.e.e.e.s.e.<.<.e.e.e.e.e.e.e.e.e.e.e.e.e.e.e.e.e.e.e.e.e.e.s.e.e.e.e.e.e.e.e.e.e.e.e.e.e.e.e.e.e.e.e.e.e.e.e.e.<.<.<.e.e.e.e.e.e.e.e.e.e.e.e.<.e.<.e.e...V Z.s.e.s.s.e.s.s.e.e.e.e.e.e.s.s.s.s.s.s.s.s.s.s.s.s.s.s.s.s.s.s.e.e.e.e.e.e.e.e.s.e.e.e.s.s.s.s.s.s.s.s.s.s.s.e.s.s.s.s.s.s.s.e.s.s.s.s.s.s.s.s.e.s.e.e.e.s...- ",
"Z.g.e.e.s.s.s.s.s.s.s.s.s.s.s.s.e.e.s.s.s.s.s.s.s.s.s.s.s.s.s.s.s.s.s.s.s.s.s.s.e.e.e.e.e.e.e.<.e.e.e.e.s.s.s.s.s.e.e.e.e.e.s.s.s.s.s.s.s.s.s.s.s.s.e.e.s.<.g.V :.Z.e.s.e.s.e.s.e.e.e.e.e.e.e.e.e.e.s.s.s.s.s.s.s.s.s.s.s.s.s.s.s.s.s.s.s.s.s.s.s.e.e.e.e.e.s.s.s.s.e.e.e.e.s.s.s.s.s.s.s.s.s.s.s.s.s.s.s.s.s.s.s.e.s.e.s.s.s.v e.M.s.e.s.e.s.s.s.s.s.s.e.e.e.e.s.s.s.s.s.s.s.e.s.s.s.s.s.e.e.e.e.e.e.e.e.e.e.e.e.s.s.s.s.s.s.s.e.e.e.e.s.s.e.e.s.s.s.s.e.s.s.s.s.s.s.e.e.s.s.s.s.e.s.e.s.s.s.v s.M.e.s.g.e.s.s.s.s.e.e.e.e.s.s.s.s.s.s.s.s.e.e.e.e.e.s.s.e.e.e.e.e.e.e.e.e.e.e.e.e.e.e.e.e.s.s.s.s.s.s.s.s.s.s.s.s.s.s.s.s.s.s.e.e.e.e.s.s.s.s.e.s.e.s.s.s.:.p M.g.s.e.e.e.e.e.e.e.s.s.s.s.s.e.e.e.s.s.s.s.s.s.s.s.e.s.e.e.s.s.e.s.s.s.s.s.s.e.s.s.e.e.e.e.s.s.s.s.e.e.e.s.s.s.e.e.e.e.e.e.e.e.s.s.s.s.s.s.s.s.s.s.e.s.e.s.<.v e.e.e.e.e.s.s.s.s.e.s.e.e.e.e.e.s.s.s.s.s.s.s.s.s.s.s.s.s.s.s.s.s.s.s.e.e.e.e.s.s.s.s.s.s.s.s.s.s.e.e.e.s.s.e.e.e.e.s.s.s.s.e.e.e.e.r.r.r.r.e.e.r.r.6.s.r.r.:.v M.e.<.e.e.e.e.e.<.<.<.e.e.e.e.e.e.e.e.e.e.e.e.e.e.e.e.e.e.e.e.e.s.e.e.e.e.e.e.e.e.e.e.e.e.e.e.e.e.e.e.e.e.e.e.e.e.e.e.<.<.e.e.e.e.e.e.e.e.e.e.e.e.<.e.e.e.e...V Z.s.e.s.e.e.s.e.e.e.e.e.e.e.s.s.s.s.s.s.s.s.s.s.s.s.s.s.s.s.s.s.e.e.e.e.e.e.e.e.s.s.s.s.s.s.s.s.s.s.s.s.s.s.s.e.s.s.s.s.s.s.s.e.s.s.s.s.s.s.s.s.e.s.e.e.e.s...- ",
"Z.g.e.e.s.s.s.s.s.s.s.s.s.s.s.s.s.s.s.s.e.s.s.s.s.s.s.s.s.s.s.s.s.e.e.e.s.s.s.s.e.e.<.e.e.e.e.e.e.e.e.e.s.s.s.s.s.s.e.e.e.e.s.s.s.s.s.s.s.s.s.s.s.s.e.e.s.<.g.V :.Z.e.s.e.s.e.s.e.e.e.e.e.e.e.e.e.e.s.s.s.s.s.s.s.s.s.s.s.s.s.s.s.s.s.s.s.s.s.s.s.s.e.e.e.e.s.s.s.e.e.e.e.e.s.s.s.s.s.s.s.s.s.s.s.s.s.s.s.s.s.s.s.e.g.s.s.s.s.v e.M.e.e.s.e.s.s.s.s.s.s.s.s.e.e.s.s.s.s.s.s.s.e.s.s.s.s.s.e.e.e.e.e.e.e.e.e.e.e.e.e.e.e.e.e.e.e.s.s.s.e.e.e.e.e.s.e.s.s.s.s.s.s.s.s.s.e.e.s.s.s.s.e.s.e.s.s.s.v s.M.e.s.g.e.s.s.s.s.e.e.e.e.s.s.s.s.e.e.e.e.e.e.e.e.s.s.s.s.e.e.e.e.e.e.e.e.e.e.e.e.e.e.e.e.e.s.s.s.s.s.s.s.s.s.s.s.s.s.s.s.s.s.s.s.s.s.e.e.e.e.s.s.e.s.s.s.:.p M.g.s.e.e.e.e.e.s.s.s.s.s.s.s.s.e.e.s.s.s.s.s.s.s.s.s.s.e.e.s.s.e.s.s.s.s.s.s.e.s.s.e.e.e.e.s.s.s.s.s.e.e.s.s.s.e.e.e.e.e.e.e.e.s.s.s.s.s.s.e.e.s.s.e.s.s.g.:.p e.e.s.s.s.s.s.s.e.e.e.e.e.e.e.s.s.s.s.s.s.s.s.s.s.s.s.s.s.e.s.s.s.s.s.e.e.e.s.s.s.s.s.s.s.s.s.s.s.e.e.e.e.s.s.e.e.s.s.s.e.e.e.e.e.e.r.r.r.r.e.e.r.r.e.s.r.r.:.b M.e.<.e.<.e.e.<.<.<.<.e.e.e.e.e.e.e.e.e.e.e.e.e.e.e.e.e.e.e.e.e.e.e.e.e.e.e.e.e.e.e.e.e.e.e.e.e.e.e.e.e.e.e.e.e.e.e.e.e.e.e.e.e.e.e.e.e.e.e.e.e.e.e.e.e.e.e...V Z.s.e.s.e.e.e.e.e.e.e.e.e.s.s.s.s.s.s.s.s.s.s.s.s.e.e.e.e.e.s.s.e.e.e.e.e.e.e.e.s.s.s.s.s.s.s.s.e.s.s.s.s.s.s.s.e.s.s.s.s.s.s.e.s.s.s.s.s.s.s.s.e.g.s.e.s.g...- ",
"Z.g.e.e.s.s.s.s.s.s.s.s.s.s.s.e.s.s.s.s.e.s.s.s.e.e.s.s.s.s.s.s.e.s.e.e.s.e.e.e.e.e.e.e.e.s.e.e.s.s.s.s.s.s.s.s.s.s.e.e.e.e.s.s.s.s.s.s.s.s.s.s.s.s.e.e.s.e.g.V :.Z.e.s.e.s.e.s.s.s.e.e.e.s.s.e.e.e.s.s.s.s.s.s.s.s.s.s.s.e.s.s.s.s.s.s.s.s.s.s.s.s.e.e.e.e.s.s.e.e.e.e.e.e.s.s.e.e.s.s.s.s.s.s.s.s.s.s.s.s.s.s.s.e.g.s.s.s.s.v e.M.e.e.s.e.s.e.e.e.s.s.s.s.s.e.e.e.s.s.s.s.s.s.s.s.s.s.s.s.s.s.s.s.s.s.s.s.s.s.e.e.e.e.e.e.e.e.s.s.e.e.e.s.e.s.e.e.e.e.s.s.s.s.s.s.s.e.e.s.s.s.s.e.s.e.s.s.s.v s.M.e.s.s.e.s.s.s.s.e.e.e.e.s.s.s.s.s.s.e.e.e.e.e.e.s.s.s.s.s.s.e.e.e.e.e.e.e.e.e.e.e.e.e.e.e.e.s.s.s.s.s.s.s.s.s.s.s.s.s.s.s.s.s.s.s.s.e.e.e.e.s.s.e.s.s.s.:.p g.g.s.e.e.s.s.e.s.s.s.s.s.s.s.s.e.e.s.s.s.s.s.s.s.s.s.s.e.e.s.s.e.s.s.s.s.s.s.e.e.s.e.e.s.s.s.s.s.s.e.e.e.s.s.s.s.e.e.e.s.s.e.s.s.s.s.s.e.e.e.e.s.s.e.s.s.g.:.p e.e.s.s.e.s.s.s.e.e.e.e.e.e.s.s.e.e.e.e.e.e.s.s.s.s.s.s.e.e.e.e.e.s.s.e.e.e.s.s.s.s.s.s.s.s.s.s.s.e.e.e.e.s.s.s.s.s.s.s.s.s.s.s.e.e.r.r.r.r.e.e.r.r.e.f.r.r.>.b M.e.<.e.<.<.e.<.e.<.e.e.e.e.e.e.e.e.e.e.e.e.e.e.e.e.e.e.e.e.e.e.e.e.e.e.e.e.e.e.e.e.e.e.e.e.e.e.e.e.e.e.e.e.e.e.e.e.e.e.e.e.e.e.e.e.e.e.e.e.e.e.e.e.e.e.e.e.' V Z.s.e.s.e.e.e.e.e.e.e.e.s.s.s.s.s.s.s.s.s.s.s.s.e.e.e.e.e.e.e.e.e.e.s.s.e.s.e.e.s.s.s.s.s.s.s.s.e.s.s.s.s.s.s.s.e.s.s.s.s.s.s.e.s.s.s.s.s.s.s.s.s.g.s.s.s.g...- ",
"G.M.s.s.s.e.e.s.s.s.e.s.e.e.e.e.e.s.e.e.e.s.s.s.e.e.e.s.s.s.s.s.s.e.e.e.e.e.e.e.s.e.e.s.s.s.s.s.s.s.s.s.s.s.s.s.s.s.s.e.e.s.s.s.s.s.s.s.s.s.s.e.s.s.e.s.s.e.g.V :.Z.e.e.e.s.e.s.s.s.s.s.s.s.s.s.e.e.s.s.s.s.s.s.s.s.s.e.e.e.e.e.s.s.s.s.s.s.s.s.s.s.s.e.e.s.s.s.e.e.e.e.e.e.e.s.e.e.e.s.s.s.s.s.s.s.s.s.s.e.e.e.s.e.g.s.s.e.s.v e.M.e.e.s.e.s.e.e.e.e.s.s.s.s.e.e.e.e.e.s.s.s.e.s.s.s.s.s.s.s.s.s.s.s.s.s.s.s.s.e.e.e.e.e.s.e.e.s.s.s.s.e.e.e.e.e.e.e.e.s.s.s.s.s.s.s.e.e.s.s.s.s.e.s.e.s.s.s.v s.M.e.e.s.e.s.s.s.s.s.e.e.s.s.s.s.s.s.s.s.s.s.s.s.s.e.s.s.s.s.s.s.s.s.s.s.s.s.s.s.s.e.s.e.e.e.e.s.s.s.s.s.s.s.s.e.e.e.e.e.e.e.s.s.s.s.e.e.e.e.e.s.s.s.s.s.s.:.p g.s.s.e.e.s.s.s.s.s.s.s.e.e.e.e.e.e.s.s.s.s.s.s.s.s.e.e.e.e.s.s.s.s.s.s.s.s.s.s.e.e.e.s.s.s.s.e.e.e.e.e.s.s.s.s.s.s.s.e.s.s.s.s.s.s.s.e.e.e.e.e.e.s.e.s.s.g.<.p e.s.s.s.e.s.s.s.e.e.e.e.s.s.s.s.e.e.e.e.e.e.e.s.s.s.s.e.e.e.e.s.e.e.s.s.s.s.s.s.s.s.s.s.s.s.s.s.e.e.e.e.e.s.s.s.s.s.s.s.s.s.s.s.e.e.r.r.r.r.e.e.r.r.e.f.r.r.>.b M.e.e.e.<.<.e.<.e.e.e.e.e.e.e.e.e.e.e.e.e.e.e.e.e.e.e.e.e.e.e.e.<.e.<.e.e.e.e.e.e.e.e.e.e.e.e.e.e.e.e.e.e.e.e.e.e.e.e.e.e.e.e.e.e.e.e.e.e.e.e.e.e.e.e.e.e.e...V G.s.e.s.e.e.e.e.e.s.s.s.s.s.e.s.s.s.s.s.s.s.s.s.s.s.s.s.e.e.e.e.s.s.s.s.s.s.s.s.s.s.s.s.s.s.s.s.e.s.s.s.s.s.s.e.e.s.s.s.s.s.s.e.s.s.s.s.s.s.s.s.s.g.s.s.s.g...- ",
"G.M.s.s.s.e.e.e.s.s.e.e.e.e.e.e.e.e.e.e.e.s.s.s.e.e.e.s.s.s.s.s.s.e.e.e.e.e.e.e.s.e.e.s.s.s.s.s.s.s.s.s.s.s.s.s.s.s.s.e.e.e.s.s.s.s.s.s.s.s.e.e.s.s.e.e.s.e.M.V :.Z.e.e.e.s.e.s.s.s.s.s.s.s.s.e.e.e.s.s.s.s.s.s.e.e.e.e.e.e.e.e.s.s.s.s.s.s.s.s.s.s.s.e.e.e.s.s.e.e.s.s.s.s.s.s.e.e.e.s.s.s.s.s.s.s.s.s.s.e.e.e.s.e.g.s.s.e.s.v e.M.s.e.s.e.s.e.e.e.e.s.s.s.s.s.e.e.e.e.s.s.s.e.e.e.e.s.s.s.s.s.e.e.e.e.s.s.s.e.e.e.s.s.s.s.s.s.s.s.s.s.e.e.s.s.e.e.e.e.s.s.s.s.s.s.s.e.e.s.s.s.s.e.s.e.s.s.s.v s.M.e.e.s.e.s.s.s.s.s.s.s.s.s.s.s.s.s.s.s.s.s.s.s.s.e.e.e.s.s.s.s.s.s.s.s.s.s.s.s.s.s.s.s.s.e.e.s.s.s.s.s.s.s.s.e.e.e.e.e.e.e.e.s.s.e.e.e.e.s.s.s.s.s.s.s.s.:.p g.s.s.e.s.s.s.s.s.e.e.e.e.e.e.e.e.e.s.s.s.s.s.s.s.s.e.e.e.e.s.s.s.s.s.s.s.s.s.e.e.e.e.s.s.s.s.e.e.e.e.e.s.s.s.s.s.s.e.e.e.e.e.s.e.s.e.e.e.e.e.<.e.s.e.s.s.g.<.p e.s.s.s.e.s.s.s.s.e.s.s.s.s.s.s.e.e.e.s.s.s.s.s.s.s.s.e.e.e.s.e.e.e.s.s.s.s.s.s.s.s.s.s.s.s.s.s.e.e.e.e.e.s.s.s.s.s.s.s.s.s.s.s.e.e.r.r.r.r.e.e.r.r.e.f.r.s.>.b Z.e.e.e.<.<.e.<.s.e.e.e.e.e.e.e.e.e.e.e.e.e.e.e.e.e.e.e.e.e.e.e.<.<.<.e.e.e.e.e.e.e.e.e.e.e.e.e.e.e.e.e.e.e.e.e.e.e.e.e.e.e.<.<.<.<.<.<.<.<.<.e.e.<.<.<.e.e...S G.s.e.s.e.e.e.e.s.s.s.s.s.s.s.e.s.s.s.s.s.s.s.s.s.s.s.s.s.s.s.s.s.s.s.s.s.s.s.s.s.e.e.e.e.e.e.e.e.s.s.s.s.s.s.e.e.s.s.s.s.s.s.e.s.s.s.s.s.e.e.e.s.g.s.s.s.g...- ",
"Z.M.g.e.e.e.e.e.s.s.s.s.s.e.e.s.s.s.s.s.e.s.s.s.s.s.s.s.s.s.s.s.e.e.e.e.s.s.s.s.s.s.s.e.e.s.s.s.s.s.s.s.s.s.s.s.e.e.e.e.e.s.s.s.e.e.e.e.s.s.s.s.e.e.s.<.g.g.g.V :.Z.g.e.s.s.s.e.s.s.s.s.s.s.s.s.s.s.s.s.s.s.s.s.e.e.e.s.s.s.s.s.s.s.s.s.e.e.e.e.s.s.e.s.e.e.e.e.e.e.e.s.s.s.s.s.e.e.e.e.e.e.e.s.e.e.e.e.e.e.s.s.s.s.s.<.s.g.s.V e.Z.g.s.g.e.e.e.s.s.s.s.s.e.e.e.s.s.s.s.s.s.e.e.s.s.s.s.s.s.s.s.e.s.s.s.s.s.s.s.s.s.s.s.s.s.s.s.e.e.s.e.e.e.s.s.s.s.s.e.e.s.s.s.s.s.s.s.s.s.s.s.s.s.s.<.g.g.s.v g.g.s.s.e.e.e.e.s.s.s.s.s.s.s.s.s.s.e.e.e.e.e.e.e.e.s.s.s.s.e.e.s.s.s.s.s.s.s.s.s.s.s.e.s.s.s.s.e.e.e.s.s.s.s.s.s.s.e.e.e.e.s.s.s.e.e.e.s.s.s.s.e.s.e.e.e.s.:.e g.g.g.s.s.s.s.s.s.e.<.<.e.s.s.e.e.e.e.e.e.e.e.e.e.e.e.e.e.s.s.s.s.s.s.s.s.s.s.s.s.s.s.s.s.s.s.s.e.e.e.e.s.s.s.s.s.s.s.s.s.e.e.e.e.e.e.s.s.s.s.s.g.e.<.e.e.s.:.V e.<.e.g.s.<.<.g.s.s.s.e.e.s.e.e.s.s.s.s.s.s.s.s.s.s.s.s.e.s.s.s.e.s.s.s.s.s.s.s.e.e.e.e.s.s.s.s.s.e.e.e.s.s.e.e.e.e.s.s.s.s.s.s.e.e.e.r.r.r.r.r.e.6.e.r.r.s.{ v g.s.e.e.<.e.e.<.e.e.e.e.e.e.e.<.e.e.e.e.e.e.e.e.<.<.e.e.e.e.e.e.<.<.e.e.e.e.e.e.e.e.e.<.e.e.e.e.e.e.e.e.e.e.e.e.s.s.e.e.e.e.e.e.e.e.e.e.e.e.e.e.g.e.<.<.<.<.' V Z.s.e.e.<.e.s.e.s.s.s.s.s.e.e.e.s.s.s.s.s.s.s.s.s.s.s.s.s.s.s.s.s.s.e.e.e.e.s.s.e.e.s.s.s.s.e.e.s.s.s.s.s.s.e.e.e.e.s.s.s.s.s.s.s.s.s.s.s.s.s.s.g.s.<.e.s.s.' : ",
"Z.g.s.e.s.s.e.e.s.s.s.s.s.s.s.s.s.s.s.s.s.s.s.s.s.s.s.s.s.s.s.s.s.s.s.s.s.s.s.s.s.s.s.s.s.s.s.s.s.s.s.s.s.s.s.s.e.e.e.s.s.s.s.s.s.s.s.s.s.s.s.s.e.s.g.<.s.s.s.S :.M.s.e.s.s.g.e.s.s.s.s.s.s.s.s.s.s.s.s.s.s.s.s.e.e.s.s.s.s.s.s.s.s.s.s.s.s.e.e.s.s.s.s.s.s.s.s.e.s.s.s.s.s.s.s.e.e.e.s.s.s.s.s.s.s.s.e.s.s.s.s.e.s.g.e.g.s.e.v e.M.s.e.s.e.s.e.s.s.s.s.s.s.s.s.s.s.s.s.s.s.s.s.s.s.s.s.s.s.s.s.s.s.s.s.s.s.s.s.s.s.s.s.s.s.s.s.e.s.s.s.s.s.s.s.s.s.s.e.e.s.s.s.s.e.e.e.s.s.s.e.<.e.g.e.g.s.e.v g.s.e.e.e.s.s.s.s.s.s.s.s.s.s.s.s.s.s.s.s.e.s.s.e.s.s.s.s.s.s.e.s.s.s.s.s.s.s.s.s.s.s.s.s.s.s.s.s.s.s.s.s.s.s.s.s.s.s.e.e.s.s.s.s.s.s.s.s.s.s.s.e.s.s.s.e.g.<.v M.g.s.e.s.s.s.s.s.e.e.e.e.s.s.s.s.s.s.s.s.s.e.e.e.e.e.e.s.s.s.s.s.s.s.s.s.s.s.s.s.s.s.s.s.s.s.s.s.s.s.s.s.s.s.s.s.s.s.s.s.e.e.e.s.s.s.s.s.s.s.s.e.e.e.s.e.s.:.p s.e.e.s.e.<.<.s.s.s.s.s.e.s.s.s.s.s.s.s.s.s.s.s.s.s.s.s.s.s.s.s.e.s.s.s.e.e.e.e.e.e.e.e.s.s.e.e.s.s.s.s.s.s.s.e.s.s.s.s.s.s.s.s.r.r.r.r.r.r.r.r.r.s.f.s.s.f.o.V M.s.e.e.:.e.s.<.e.e.e.e.e.e.e.e.e.e.e.e.e.e.e.e.<.<.<.<.<.<.<.<.e.e.e.e.e.e.e.e.e.e.e.e.e.e.e.e.e.e.e.e.e.e.e.e.e.e.e.e.e.e.e.e.e.e.e.e.e.e.e.e.<.e.e.e.s.s.%.S Z.s.s.s.e.e.s.s.s.s.s.s.s.s.s.s.s.s.s.s.s.s.s.s.s.s.s.s.s.s.s.s.s.e.e.e.e.s.s.s.e.e.s.s.s.s.s.s.s.s.s.s.s.s.e.e.e.s.s.s.s.s.s.s.e.e.s.s.s.s.s.s.e.s.s.g.g.g.%.1 ",
"Z.g.e.e.s.s.e.<.s.e.e.e.e.e.e.e.e.e.s.s.s.e.e.e.e.e.e.e.e.s.s.s.s.s.s.s.s.s.s.s.s.e.e.e.e.e.s.s.s.s.s.s.s.s.s.s.e.e.e.e.e.s.e.s.e.s.e.e.s.s.s.s.e.s.s.<.e.e.s.S :.g.e.<.s.s.g.e.e.e.s.e.s.s.e.e.s.s.s.s.s.s.s.s.e.e.e.e.s.s.s.s.s.s.s.s.s.e.e.e.e.e.s.e.e.e.e.e.e.e.e.e.s.s.s.s.e.e.e.e.e.s.s.s.s.s.s.s.s.e.s.s.e.s.g.e.s.s.e.v e.M.e.e.s.e.s.e.s.s.s.s.e.e.e.e.e.e.e.e.e.e.e.e.s.s.s.e.s.s.s.e.e.e.e.s.s.s.s.s.s.s.s.s.s.s.s.s.e.e.e.e.e.s.e.e.s.e.e.e.e.e.e.s.e.e.e.e.e.e.e.e.<.e.s.e.s.s.e.v g.s.e.<.e.s.s.s.e.e.s.e.s.s.e.e.s.e.e.e.e.e.e.e.e.e.e.e.e.e.e.e.s.e.e.e.e.e.e.e.s.s.e.e.e.s.e.e.e.e.e.e.s.e.s.s.s.e.e.e.e.e.s.s.s.s.e.e.s.s.s.e.e.s.e.s.<.e.:.p M.g.e.e.s.s.s.s.e.e.<.<.e.s.e.e.s.s.s.s.s.e.e.e.e.e.e.s.e.s.s.s.e.e.e.e.e.e.e.e.s.s.s.s.s.s.e.s.e.e.e.e.e.e.e.s.s.s.e.e.e.e.e.s.s.s.e.e.e.e.s.s.<.s.e.s.e.s.:.p s.e.e.e.e.e.e.s.e.e.e.e.e.e.s.s.s.s.e.e.e.e.e.e.s.e.e.e.e.s.s.s.e.s.e.e.e.e.e.e.e.e.e.e.e.e.s.s.e.e.e.e.s.e.e.e.e.e.e.e.e.e.e.s.r.r.r.r.e.e.e.e.<.r.f.e.6.f.%.b M.e.<.<.:.<.s.e.<.e.e.e.e.e.e.e.e.e.e.e.e.e.e.e.e.s.s.s.s.s.s.s.<.<.e.e.e.e.e.e.e.e.<.e.e.e.e.e.e.e.e.e.e.e.e.e.e.e.<.<.<.e.e.e.e.e.e.e.e.e.e.e.<.e.s.e.<.e...V Z.s.e.s.e.e.s.s.s.s.s.s.e.e.e.e.e.e.e.e.s.s.s.s.e.e.e.e.e.e.e.e.e.e.e.e.e.e.e.e.e.e.e.e.e.e.e.e.e.e.e.e.e.e.e.e.e.e.e.s.s.s.s.s.e.e.e.e.e.e.s.s.<.s.s.s.e.s...- ",
"G.M.s.s.s.s.e.s.s.s.s.s.s.s.s.s.s.s.s.g.s.s.s.e.e.e.e.e.s.s.s.s.s.s.s.s.s.s.s.s.s.s.s.s.s.s.s.s.s.s.s.s.s.s.s.s.s.s.s.s.s.s.s.s.s.s.s.s.s.s.s.s.s.s.s.e.g.g.s.S <.Z.g.s.g.s.g.e.s.s.s.s.s.s.s.s.s.s.s.s.s.s.s.s.s.s.s.s.s.s.s.s.s.s.s.s.s.s.s.s.s.s.s.s.s.s.s.s.s.s.s.s.s.s.s.s.e.e.e.s.s.s.s.s.s.s.s.s.s.s.s.g.g.s.s.e.s.g.s.S s.Z.s.s.g.e.s.s.s.s.s.s.s.s.s.s.s.s.s.s.s.s.s.s.s.s.s.s.s.s.s.s.s.s.s.s.s.s.s.s.s.s.s.s.s.s.s.s.s.s.s.s.s.s.s.s.s.s.e.e.e.e.s.s.s.s.s.s.s.s.s.s.s.s.s.e.g.g.s.S M.g.g.s.s.s.s.g.s.s.s.s.s.s.s.s.s.s.s.s.s.s.s.s.s.s.s.s.s.s.s.s.s.s.s.s.s.s.s.s.s.s.s.s.s.s.s.s.s.s.s.s.s.s.s.s.s.s.s.e.e.s.s.s.g.s.s.s.s.s.s.e.s.s.s.s.s.s.:.p M.g.s.s.s.s.s.g.e.e.e.e.s.s.s.s.s.s.s.s.s.s.s.s.s.s.s.s.s.s.s.g.s.s.s.s.s.s.s.s.s.s.s.s.s.s.s.s.s.s.s.s.s.s.s.s.s.s.s.e.s.s.s.s.g.s.s.e.s.s.s.s.s.g.s.e.e.g.e.V s.g.s.s.s.g.g.s.s.s.s.s.s.s.s.s.s.s.s.s.s.s.s.s.s.s.s.s.s.s.s.s.g.g.g.s.s.e.s.s.s.s.s.s.g.s.g.s.s.s.s.s.s.s.s.s.s.s.s.s.s.s.s.s.s.s.r.r.r.r.r.r.6.s.f.e.r.x.:.b M.e.e.e.e.e.s.e.e.e.e.e.e.s.e.e.e.e.e.e.e.e.e.e.<.<.<.<.<.<.<.<.e.e.e.e.e.e.e.s.e.e.e.e.e.e.s.e.e.e.e.e.e.e.e.e.e.e.e.e.e.s.s.s.e.e.e.e.e.e.e.e.e.s.s.<.<.s.%.V G.s.e.g.s.s.s.s.s.s.s.s.s.s.s.s.e.e.e.s.s.s.s.s.e.e.e.s.s.s.s.e.e.e.s.s.s.s.s.s.e.s.s.s.s.s.s.s.s.s.s.s.s.s.e.e.e.s.s.s.s.s.s.s.s.s.s.s.s.s.s.s.s.M.s.e.e.g.%.- ",
"Z.g.e.e.e.<.e.s.e.e.e.e.e.e.e.e.e.e.e.e.e.e.e.<.<.<.<.<.e.e.e.e.e.e.e.e.e.e.e.e.e.e.e.e.e.e.e.e.e.e.e.e.e.e.e.e.e.e.e.e.e.e.e.e.e.e.e.e.e.e.e.e.e.e.e.<.g.s.e.v %.g.s.s.e.<.e.e.e.e.e.e.e.e.e.e.e.e.e.e.e.e.e.e.e.e.e.e.e.e.e.e.e.e.e.e.e.e.e.e.e.e.e.e.e.e.e.e.e.e.e.e.e.e.e.e.<.<.<.e.e.e.e.e.e.e.e.e.e.e.e.e.s.e.e.<.s.s.e.v :.g.s.e.e.<.e.e.e.e.e.e.e.e.e.e.e.e.e.e.e.e.e.e.e.e.e.e.e.e.e.e.e.e.e.e.e.e.e.e.e.e.e.e.e.e.e.e.e.e.e.e.e.e.e.e.e.e.e.<.e.e.e.e.e.e.e.e.e.e.e.e.s.e.e.<.s.e.<.p <.s.s.s.e.<.e.s.e.e.e.e.e.e.e.e.e.e.e.e.e.e.e.e.e.e.e.e.e.e.e.e.e.e.e.e.e.e.e.e.e.e.<.e.e.e.e.e.e.e.e.e.e.e.e.e.e.e.e.e.e.e.e.e.e.e.<.e.e.e.<.<.e.e.<.s.s.g.:.p s.e.e.s.e.<.e.s.<.<.<.e.e.e.e.e.e.e.e.e.e.e.e.e.e.e.e.e.e.e.e.e.e.e.e.e.e.e.e.e.e.e.e.e.e.e.e.e.e.e.e.e.e.e.e.e.e.e.<.<.e.e.e.s.s.e.e.e.<.e.e.e.s.s.e.e.e.s.:.u <.e.e.e.e.s.s.e.s.e.e.e.e.<.<.<.e.e.e.e.e.e.e.e.e.e.e.e.e.e.e.e.e.s.s.e.e.<.<.e.e.e.e.e.s.s.s.s.e.e.e.e.e.e.e.e.e.e.e.e.e.e.e.e.e.e.e.e.6.6.6.6.e.r.r.<.e.g.o.i g.<.<.e.<.<.e.:.<.<.<.<.e.e.<.<.<.<.<.<.<.<.<.<.s.s.s.s.s.s.s.s.<.<.<.<.<.<.<.<.<.<.<.<.<.<.<.<.<.<.<.<.<.<.e.e.<.<.<.<.<.e.e.e.<.<.<.<.<.<.<.<.<.<.<.:.<.s.%.V Z.e.<.s.e.e.e.e.e.e.e.e.e.e.e.e.<.<.e.<.<.<.<.<.<.<.e.e.e.e.<.<.e.e.e.e.e.e.<.e.e.e.e.e.e.e.e.e.e.e.e.e.e.e.e.e.<.e.e.e.e.e.e.e.e.e.e.e.e.e.e.e.e.s.<.<.e.g.%.- ",
"G.M.s.s.s.s.g.M.g.g.g.s.s.s.s.s.g.g.g.g.g.s.s.s.s.s.s.s.g.g.g.g.g.g.g.g.g.g.g.g.g.g.s.g.s.s.g.g.g.g.g.g.g.g.g.g.g.g.g.g.g.g.g.s.g.g.g.g.g.g.g.g.M.s.g.s.M.g.s.V <.M.g.g.g.s.g.g.g.g.g.g.g.g.g.g.g.g.g.g.g.g.g.g.g.g.g.g.g.g.g.g.s.s.g.g.g.g.g.g.g.g.g.g.g.g.s.s.g.g.g.g.g.g.g.g.s.s.s.g.s.g.g.g.g.g.g.s.g.g.g.g.g.s.g.g.Z.g.e.v e.M.s.s.g.s.g.g.g.g.g.g.g.g.g.g.g.g.g.g.g.g.g.g.g.g.g.g.g.g.g.g.g.g.g.g.g.g.g.g.g.g.g.g.g.g.g.g.g.g.g.g.g.g.g.g.g.g.s.s.g.g.g.g.g.g.g.g.s.s.g.s.M.s.g.g.M.g.e.v s.g.g.g.s.s.g.M.g.g.g.g.g.g.g.g.g.g.g.g.g.g.s.s.g.g.s.s.g.g.g.g.s.s.s.s.s.s.g.g.g.g.s.g.g.g.g.s.g.s.g.s.g.g.g.g.g.g.g.g.g.g.g.g.g.s.s.s.s.s.s.s.M.g.s.g.g.g.<.p M.g.g.M.g.s.s.g.s.s.s.g.g.g.g.g.g.g.g.g.g.g.g.g.g.g.g.g.g.g.g.g.g.g.g.g.g.g.g.g.g.g.g.g.g.g.g.g.g.s.g.g.s.g.g.g.s.g.s.s.g.g.g.g.g.g.g.s.s.g.g.g.g.g.s.M.g.g.:.p g.s.s.s.g.M.g.s.g.g.s.s.s.e.e.e.g.g.g.g.g.g.g.g.g.g.g.g.g.g.g.g.s.s.g.g.s.s.s.s.g.g.g.g.g.g.g.g.g.g.s.g.g.g.g.g.s.f.s.s.g.g.g.g.f.f.f.f.f.f.f.f.x.f.f.r.s.g.o.b Z.e.e.g.s.s.s.e.s.s.s.s.s.s.s.s.s.s.s.s.s.s.s.s.e.e.e.e.e.e.e.e.s.s.s.s.s.s.s.s.s.s.s.s.s.s.s.s.s.s.s.s.s.s.g.s.s.s.s.s.s.s.s.s.s.s.s.s.s.s.s.s.s.e.e.s.s.s...V J.g.s.g.g.s.g.g.g.g.g.g.g.g.g.g.s.s.s.s.s.s.s.s.s.s.s.g.g.s.s.s.g.g.g.g.g.s.s.s.s.g.g.g.g.g.g.g.s.g.g.g.g.g.g.g.s.s.g.g.g.g.g.g.s.s.s.s.g.g.g.g.g.g.s.g.M.M...- ",
"J.g.<.<.e.e.e.e.e.e.e.<.e.e.e.<.e.e.e.e.<.<.<.<.e.e.e.e.e.e.e.e.e.e.e.e.e.e.e.e.e.e.e.<.e.e.e.e.e.e.e.e.e.e.e.e.e.e.e.e.e.e.e.e.e.e.e.e.<.<.e.e.e.e.e.<.e.<.e.J e.M.<.<.e.<.e.e.e.e.e.e.e.e.e.e.e.e.e.e.e.e.e.e.<.<.e.e.e.e.e.e.e.e.<.<.e.e.e.e.e.e.e.e.e.e.e.e.e.e.e.e.e.e.<.<.<.<.e.e.e.e.e.e.e.e.e.<.<.<.<.e.<.<.e.e.s.e.e.S s.M.<.<.e.e.s.e.e.e.e.e.e.e.e.e.e.e.e.e.e.e.e.e.e.e.e.e.e.e.e.e.e.e.e.e.e.e.e.e.e.e.e.e.e.e.e.e.e.e.e.e.e.e.e.e.e.e.e.e.e.e.e.e.e.e.e.<.e.e.e.e.e.<.s.e.s.<.<.V s.s.e.e.e.e.e.e.e.e.e.e.e.e.e.e.e.e.e.e.e.e.e.e.e.e.e.e.e.e.e.e.e.<.<.<.e.e.e.e.e.e.<.e.e.e.e.<.<.<.e.<.e.e.e.e.e.e.e.e.<.e.e.e.e.e.<.<.e.e.e.e.s.s.e.e.:.<.%.v G.s.<.e.e.e.<.e.<.<.e.e.e.<.e.e.e.<.<.e.e.e.e.e.e.e.e.e.e.e.e.e.e.e.e.e.e.e.e.e.e.e.e.e.e.e.e.<.e.e.e.e.e.e.e.e.e.e.e.e.e.e.e.e.e.e.e.e.<.e.e.e.e.<.<.g.e.<.:.S M.e.:.<.e.e.<.e.<.<.<.<.<.<.<.<.e.e.e.e.e.e.e.e.e.e.e.e.<.<.e.e.<.e.e.<.<.<.<.<.<.<.<.e.e.e.e.e.e.e.e.e.e.e.e.e.e.e.e.e.e.e.e.e.6.6.6.6.6.6.6.e.e.<.<.>.:.>.{ F Z.<.:.e.<.<.<.:.<.<.<.<.<.<.<.<.<.<.<.<.<.<.<.<.e.e.e.e.e.e.e.e.<.<.<.<.<.<.<.<.<.<.<.<.<.<.<.<.<.<.<.<.<.<.<.e.<.<.<.<.<.<.<.<.<.<.<.<.<.<.<.<.e.:.<.<.:.%./ S J.e.<.e.e.<.e.e.e.e.e.<.<.<.e.e.<.<.<.<.<.<.<.<.<.e.e.e.e.<.<.<.e.e.<.<.e.<.e.e.e.e.e.e.e.e.e.e.e.e.e.e.e.e.e.e.e.e.e.e.e.e.e.<.<.<.<.<.e.e.e.e.e.e.<.s.e.<.' 1 ",
":.P p v V V v p v v v v v v v v V V v v v v v v V V V V V V v v v v v v v v v v v v v v v v v v v v v v v v v v V V v v v v v v v v v v v v v v v v S v V v J 1 ^ Y v p v v V v V V V V V V V V v v v v v v v v v v v v v v v v v v v v v v v v v v v v v v v v v v v v v v v v v v v v v v v v v v v v v v v v v v V v v v J 1 ^ ^ v p V V V p V V V V v v v v v v v v v v v v V V V v v v v v v v V V V V v v v v v v v v v v v v v v v v v v V V v v v v V V V V V V V V V V v v V p v v J 1 ^ J V v v V v p V V V V V V V V v v v v v v v v v v v v v v V V v v v v v v v v v v v v v v v v v v v v v v v v V v v v v v v v v v v v V V V v p v V V v V S 1 ' J p v V V v v p v V v v v v v v v v v v v v v v v v v v v v v v v V V V V V V v v v v v v v v v v v v v v V V v v v V V v v v p v v v v v v v V p p V v p V 5 ^ S p v V v v V v v v v v V V V V V V v v v V V V V v v v v v v v v v v v v v v v v v v v v v v V v v v v V v v v v v v v v v v v v v v v v b b V h v b h v h 9 ^ V p v v v v v v v v v v p p p v v v v p p p p v v p p p p p p v v v v v v p p v v p p p p v v v v v v v v v v v v v p p p p p v v v v v v v v v u p p p p v u / V v V V v v V v v v v v v v v v v v v v v v V v v v v v v v v v v v v v v v v v v v v V v v v v v v v V v V V v v v v v v v v v v v v v v v v V v p V V V V $ ",
"g.s.s.g.M.g.g.M.g.g.M.M.g.g.g.g.g.g.g.g.g.g.g.g.M.g.g.g.g.g.g.g.M.M.g.g.g.M.M.M.M.M.g.s.s.g.g.M.M.M.g.g.g.M.M.M.M.g.g.g.s.s.s.s.g.g.g.g.g.g.g.g.M.g.M.g.M.g.Z...%.M.s.M.g.M.g.g.g.g.g.g.g.g.M.M.M.g.g.g.g.g.g.g.g.g.g.g.g.g.g.M.g.g.g.g.g.g.g.g.M.M.g.g.g.g.M.M.g.g.g.g.g.g.g.g.g.g.g.g.g.g.g.g.g.g.g.g.g.g.g.g.Z.g.g.s.s.g.J...<.M.s.g.M.g.g.s.g.g.g.g.g.g.g.g.g.g.M.M.M.g.g.g.g.g.M.M.M.M.g.g.g.g.g.g.g.g.g.g.M.g.g.g.g.g.M.M.g.g.g.M.g.g.g.g.M.M.M.g.g.s.e.e.g.g.g.g.g.g.g.g.M.e.s.g.M.g.Z.' <.M.g.M.M.s.g.M.M.g.g.M.g.s.s.g.g.g.g.g.g.g.g.g.M.M.g.g.g.g.g.s.g.g.g.g.g.g.g.g.g.g.M.M.M.g.g.g.g.g.g.g.g.g.g.g.M.M.g.g.g.g.M.M.g.M.M.g.g.g.g.s.e.g.M.M.s.M.M./ <.<.<.<.e.<.<.:.<.<.<.<.<.<.<.<.:.<.<.<.<.<.<.<.<.<.<.<.<.<.<.<.<.<.<.<.<.<.<.<.<.<.<.<.<.<.<.<.<.<.<.<.:.:.:.:.<.<.<.<.<.<.<.:.<.<.<.<.<.<.<.<.<.e.<.e.<.s.s.^ e.e.g.M.g.s.g.Z.g.g.g.g.M.g.g.g.M.g.g.g.M.M.M.M.g.g.g.s.s.g.g.g.M.g.g.g.g.M.g.g.M.M.g.g.g.g.g.s.g.g.g.g.M.M.M.M.g.g.g.g.g.g.g.g.g.g.g.g.g.M.M.g.M.g.s.g.g.Z.M./ g.g.g.M.M.g.g.g.g.g.g.g.g.g.g.g.g.g.g.g.g.g.g.g.M.M.M.g.g.g.g.g.g.g.g.g.g.M.M.M.g.g.g.g.g.g.g.g.g.g.g.g.g.g.g.g.g.g.g.g.g.g.g.s.g.g.g.g.g.g.g.g.s.s.s.g.g.Z.s./ M.s.g.M.g.g.M.g.g.g.g.g.g.g.g.g.e.s.s.g.g.g.g.g.g.g.g.g.s.s.s.g.s.s.g.g.g.g.M.M.M.M.M.g.g.g.g.g.M.M.M.g.g.g.g.g.g.g.g.g.g.g.g.g.g.g.g.g.M.M.g.g.g.M.g.M.s.M.M.^ ",
"J.G.Z.Z.Z.M.M.Z.M.M.Z.M.M.M.M.M.Z.Z.Z.Z.Z.Z.Z.Z.Z.Z.Z.Z.Z.Z.Z.Z.M.M.M.M.M.M.M.M.Z.M.M.M.M.M.M.Z.M.M.M.M.M.M.Z.Z.Z.Z.Z.Z.M.M.M.M.M.M.M.M.M.M.M.M.M.M.Z.M.M.g.M.^ e.G.g.Z.M.Z.M.M.M.M.M.M.M.M.M.Z.M.M.M.M.M.M.M.M.M.M.M.M.M.M.M.M.M.M.M.M.M.M.M.M.M.M.M.M.M.M.M.M.M.M.M.M.M.M.M.M.Z.Z.Z.Z.Z.Z.Z.Z.M.M.M.M.M.M.M.M.M.s.M.M.M.g.M.P g.G.Z.Z.G.M.Z.M.Z.Z.Z.Z.Z.Z.Z.Z.M.M.M.M.M.M.M.M.M.M.M.M.M.M.M.M.Z.Z.Z.Z.Z.Z.Z.Z.G.Z.Z.Z.Z.Z.G.G.Z.Z.Z.Z.Z.Z.Z.Z.Z.M.M.M.M.M.g.g.Z.Z.Z.Z.Z.Z.Z.Z.Z.g.M.M.M.g.M.Y M.J.Z.G.G.M.Z.Z.G.Z.Z.Z.Z.M.M.Z.M.M.M.M.M.M.M.M.Z.Z.Z.Z.Z.Z.M.M.M.M.M.M.M.M.M.M.M.M.M.M.M.M.M.M.Z.Z.Z.Z.Z.Z.Z.Z.M.M.g.g.g.M.M.M.M.Z.Z.M.M.Z.M.g.Z.Z.M.M.g.M.s.J g.g.s.s.s.s.e.e.s.s.s.s.s.s.s.s.s.s.g.g.g.s.g.g.s.s.s.s.s.s.s.s.g.g.g.g.s.g.g.g.g.g.g.g.g.g.g.g.s.s.g.s.s.s.s.s.s.s.s.s.s.e.s.s.g.g.g.g.g.g.g.g.s.s.s.s.e.s.e.P G.Z.M.Z.Z.M.M.Z.M.Z.Z.Z.Z.Z.Z.Z.Z.Z.M.M.Z.Z.Z.Z.Z.Z.M.Z.Z.Z.Z.Z.M.M.M.M.M.Z.M.Z.Z.M.M.M.M.M.M.g.M.M.M.M.M.M.M.Z.Z.Z.Z.Z.Z.Z.Z.Z.M.M.M.M.M.Z.M.M.Z.M.g.M.g.M.g.P G.Z.M.Z.M.M.M.M.Z.Z.Z.Z.Z.Z.Z.Z.Z.Z.Z.Z.Z.Z.Z.Z.M.M.M.M.M.M.M.M.Z.Z.Z.Z.Z.Z.Z.Z.Z.Z.Z.Z.Z.Z.Z.Z.Z.Z.Z.Z.Z.Z.Z.Z.Z.Z.Z.Z.Z.Z.Z.Z.Z.M.M.M.M.M.M.M.M.g.g.g.g.M.e.Y G.M.M.Z.M.M.M.M.M.M.M.M.M.M.M.M.M.M.M.Z.Z.Z.Z.Z.Z.Z.Z.Z.Z.Z.Z.Z.g.M.M.M.M.M.M.Z.M.M.M.M.M.M.M.M.M.M.M.M.M.M.M.M.Z.Z.Z.Z.Z.Z.Z.Z.M.M.M.M.Z.Z.Z.M.M.Z.M.Z.M.g.:.u ",
"J.Z.g.s.s.e.s.s.g.g.M.M.g.g.g.g.s.s.s.s.s.s.s.s.g.g.g.g.s.s.s.g.g.g.g.g.g.g.g.g.M.g.g.g.g.g.g.M.g.g.g.g.g.g.g.M.g.g.s.s.s.s.s.s.g.g.g.g.g.g.g.g.g.g.M.s.g.g.g.S e.G.g.M.g.M.g.g.g.g.g.g.g.g.g.M.g.g.g.g.g.g.g.g.g.g.g.g.g.g.g.g.g.g.g.g.g.g.M.M.g.g.g.g.g.g.g.g.g.g.g.g.g.g.g.g.s.s.s.s.s.g.g.g.g.g.g.s.g.g.g.M.M.s.M.M.M.g.s.v e.M.s.s.g.s.g.s.s.s.s.s.s.s.g.g.g.g.M.M.M.M.g.g.M.g.g.g.g.g.g.M.s.s.s.g.g.g.g.g.g.g.g.g.g.g.g.g.g.g.g.g.g.s.s.s.g.g.g.g.g.g.g.g.s.s.s.s.g.g.g.g.M.s.M.g.g.g.g.V g.Z.s.s.g.e.s.s.g.g.g.g.s.e.e.s.g.g.g.g.g.g.g.g.s.s.s.s.s.s.s.s.g.g.g.g.g.g.g.g.g.g.g.g.g.g.g.g.s.s.s.s.s.s.s.s.g.g.g.s.g.g.g.g.g.M.M.g.g.M.g.s.M.g.s.s.s.M.e.V M.g.g.s.s.s.s.e.e.e.e.e.e.e.e.e.<.<.e.e.e.e.e.e.s.s.s.s.s.s.s.s.e.e.e.e.e.e.e.e.e.e.e.e.e.e.e.e.e.e.e.e.e.e.e.e.s.s.s.s.s.s.s.s.e.e.e.e.e.e.e.e.s.s.e.s.s.s.<.V Z.g.e.e.s.s.s.s.s.s.s.s.s.s.s.s.g.s.s.s.s.s.s.e.s.s.s.s.s.s.s.s.M.g.g.g.g.g.M.M.M.M.M.g.M.g.g.g.g.g.g.g.g.g.g.g.s.s.s.s.s.s.g.g.M.g.g.g.g.M.g.g.g.g.g.M.g.g.<.V G.Z.g.g.g.g.g.M.s.s.s.s.s.s.s.s.s.s.s.s.g.g.s.s.g.g.g.g.g.g.g.g.s.s.s.s.s.s.s.s.s.s.s.s.s.g.s.s.g.g.g.g.g.s.s.s.s.g.g.g.g.s.s.s.g.g.g.g.g.M.M.g.g.g.g.s.s.g.%.J G.g.g.M.g.g.g.g.g.g.g.g.M.g.g.g.s.s.s.s.s.s.s.g.g.s.s.s.s.s.s.s.g.g.g.g.g.g.g.M.g.g.g.g.g.g.g.g.g.g.g.g.g.g.g.g.s.s.s.s.s.s.g.g.g.g.g.g.M.M.g.g.g.g.g.Z.Z.M...- ",
"J.Z.g.s.s.s.s.g.s.s.g.g.s.s.s.s.g.g.g.g.g.g.g.g.g.g.s.s.s.s.s.s.s.s.s.s.s.s.s.s.s.s.s.s.s.s.s.s.s.s.s.s.s.s.s.s.g.s.s.s.s.s.g.g.s.s.s.s.s.s.s.s.e.s.g.e.g.g.g.V e.G.s.g.s.g.s.s.s.s.g.s.s.s.s.g.s.s.s.s.s.s.s.s.s.s.s.s.s.s.s.g.s.s.s.s.g.g.g.g.s.g.s.s.s.s.s.s.s.s.s.s.s.s.s.s.g.g.g.g.g.g.g.g.s.s.e.e.e.s.s.g.M.e.g.s.g.g.g.V s.Z.s.s.g.s.g.s.s.s.s.s.s.s.g.g.s.s.g.g.g.g.s.s.g.s.s.s.s.s.s.g.s.s.s.s.g.g.g.g.g.g.g.g.g.g.g.g.s.s.s.g.g.g.s.s.s.s.e.e.s.s.g.g.g.g.g.s.g.g.g.g.e.e.g.e.s.g.s.v M.Z.s.s.g.s.s.s.g.g.g.g.g.s.s.g.s.s.s.s.s.s.s.s.g.g.g.g.g.s.s.s.s.s.s.s.s.s.s.s.s.s.s.s.s.s.s.s.g.s.s.s.s.s.s.g.g.s.s.s.s.s.s.g.s.g.s.s.s.s.s.s.s.e.<.s.s.M.e.v M.g.s.e.e.e.e.e.s.s.s.s.e.e.e.e.e.e.s.s.s.s.s.s.s.e.s.e.s.s.s.s.s.s.s.s.s.s.s.s.s.s.s.s.s.s.s.s.e.e.e.e.s.s.s.s.s.s.s.s.s.s.s.s.s.s.s.s.s.s.s.s.s.s.e.s.s.s.<.v Z.s.<.e.g.g.g.g.s.s.s.s.s.s.s.s.g.g.s.s.s.s.s.s.g.s.s.s.s.s.g.g.s.s.s.s.s.s.s.g.s.s.s.s.g.g.g.g.s.s.s.s.s.s.s.s.s.s.s.s.s.s.s.g.g.s.s.s.s.g.s.s.s.s.s.g.s.s.<.V G.M.s.s.s.s.s.g.g.g.g.g.g.s.s.s.s.s.s.s.g.g.s.s.s.s.s.s.s.s.s.s.g.g.g.g.g.g.s.s.s.s.s.s.s.g.s.s.g.g.g.g.g.g.s.s.s.g.g.g.g.g.s.s.s.s.s.s.s.g.s.s.s.e.s.s.s.g.%.S G.g.s.s.s.s.g.s.s.s.s.s.g.s.s.s.g.g.s.s.s.s.s.g.g.g.s.s.s.s.s.g.s.s.g.s.s.s.s.s.s.s.s.s.s.s.s.s.g.g.s.s.s.s.s.s.s.s.s.s.s.s.s.g.s.s.s.s.s.s.s.s.g.g.e.g.M.M.%.: ",
"J.Z.g.g.g.g.g.M.g.g.g.g.g.g.g.g.g.g.g.g.g.g.g.g.g.g.g.g.g.g.g.g.g.g.g.g.g.g.g.g.g.g.g.g.g.g.g.g.g.g.g.g.g.g.g.g.g.g.g.g.g.g.g.g.g.g.g.g.g.g.g.g.s.g.g.e.g.M.M.S e.G.s.g.s.g.g.g.g.g.g.g.g.g.g.g.g.g.g.g.g.g.g.g.g.g.g.g.g.g.g.g.g.g.g.g.g.g.g.g.g.g.g.g.g.g.g.g.g.g.g.g.g.g.g.g.g.g.g.g.g.g.g.g.g.s.s.s.s.s.g.g.M.s.s.e.s.g.g.S g.G.g.g.g.s.g.g.g.g.g.g.g.g.g.g.g.g.g.g.g.g.g.g.g.g.g.s.s.g.g.g.g.g.g.g.g.g.g.g.g.g.g.g.g.g.g.g.s.s.g.g.g.g.g.g.g.g.s.s.g.g.g.g.g.g.g.g.g.M.g.M.s.s.M.s.s.M.M.V M.Z.s.s.M.g.g.g.g.M.M.g.g.g.g.g.g.g.g.g.g.g.g.g.g.g.g.g.g.g.g.g.s.s.s.g.g.g.g.g.s.s.s.s.s.s.g.g.g.g.g.g.g.g.g.g.g.g.g.g.g.g.g.g.g.g.g.s.s.g.g.s.g.g.s.g.g.M.e.V M.g.s.s.s.s.s.s.s.s.s.s.s.s.s.s.s.s.g.g.s.s.s.g.s.s.s.s.s.s.s.s.g.g.g.g.g.g.g.g.s.s.s.s.s.s.s.s.s.s.s.s.s.s.s.s.s.s.s.s.g.g.g.g.g.g.g.g.g.g.g.g.g.s.e.g.g.g.e.V M.g.s.s.M.M.M.M.g.g.g.g.g.M.g.g.g.g.g.g.g.M.M.g.g.g.g.g.g.g.g.g.g.g.g.g.g.g.g.g.g.g.g.g.g.g.g.g.g.g.g.g.g.g.s.s.g.g.g.g.g.g.g.g.g.g.g.g.g.g.g.g.g.g.s.g.g.g.e.S G.M.g.g.g.g.g.g.g.g.M.M.M.g.g.g.g.g.g.g.g.g.g.g.g.g.g.g.g.g.g.g.g.g.g.g.g.g.g.g.g.g.g.g.g.g.g.g.g.g.g.g.g.g.g.g.g.g.g.g.g.g.g.g.g.g.g.g.g.g.g.g.g.s.s.g.g.M.:.J G.g.s.g.s.g.M.g.g.g.g.g.g.g.g.g.g.g.g.g.g.g.g.g.g.g.g.g.g.g.g.g.g.g.g.g.g.g.g.g.g.g.g.g.g.g.g.g.g.g.g.g.g.g.g.g.g.g.g.g.g.g.g.g.g.g.g.g.g.g.g.g.M.M.s.s.s.g.%.1 ",
"G.M.s.s.g.s.s.s.g.g.g.g.g.g.g.g.s.s.s.s.s.s.s.s.s.s.s.s.s.s.s.s.g.g.g.g.g.g.g.g.g.g.g.g.g.g.g.g.g.g.g.g.g.g.g.g.s.s.s.s.s.s.s.s.g.g.g.g.g.g.g.g.g.g.g.e.g.g.g.S e.Z.s.g.s.g.g.g.g.g.M.g.g.g.g.g.g.g.g.g.g.g.g.g.g.g.g.g.g.g.g.g.g.g.g.g.g.g.g.g.M.g.g.g.g.g.g.g.g.g.g.g.g.g.g.g.s.s.s.s.s.s.s.s.g.g.g.g.g.g.g.g.g.s.g.s.g.g.g.V s.Z.s.s.s.e.s.s.s.s.s.s.s.s.s.s.g.g.g.g.g.g.g.g.g.g.g.g.g.g.g.g.s.s.s.s.s.s.s.s.s.s.s.s.s.s.s.s.e.e.e.s.s.s.g.g.g.g.g.g.g.g.g.g.s.s.s.s.s.s.s.g.M.g.M.s.g.M.g.V g.M.e.e.g.s.g.s.s.g.g.s.e.e.e.<.g.g.g.g.g.g.g.g.s.s.s.g.g.s.s.s.g.g.g.g.g.g.g.g.s.s.s.g.g.g.g.g.s.s.s.s.s.s.s.s.g.g.g.g.g.g.g.g.g.g.g.s.s.g.g.g.s.g.g.g.s.g.e.V M.g.s.s.s.s.g.g.e.e.e.e.e.e.e.e.e.e.s.s.e.e.e.e.s.s.s.s.s.s.s.s.e.e.e.e.e.e.e.e.e.e.e.e.e.e.e.e.e.e.e.e.e.e.e.e.g.g.g.g.s.s.s.s.s.s.s.s.e.s.s.e.g.g.e.s.s.s.<.v g.s.s.s.g.s.s.s.s.s.s.s.g.g.g.s.s.s.s.s.s.g.g.s.s.s.s.s.s.s.s.s.g.g.g.g.g.g.g.g.g.g.g.g.g.g.g.g.g.g.g.g.g.g.g.g.s.s.s.s.s.s.s.s.g.g.g.g.g.g.g.g.M.g.s.g.s.g.<.S Z.g.s.g.M.M.g.g.s.s.g.g.g.s.s.s.s.s.s.s.s.s.s.s.g.g.g.g.g.g.g.g.s.s.s.s.e.e.e.e.s.s.s.s.s.s.s.s.s.s.s.s.s.s.s.s.s.s.s.s.s.s.s.s.g.g.g.g.g.g.g.g.g.s.s.g.g.M.:.S G.g.s.g.g.g.M.g.g.g.g.g.g.g.g.g.s.s.s.s.s.s.s.s.s.s.s.s.s.s.s.s.g.g.g.g.g.g.g.g.g.g.g.g.g.g.g.g.g.g.g.g.g.g.g.g.s.s.s.s.s.s.s.s.g.g.g.g.g.g.g.g.s.g.s.s.s.g.%.: ",
"I.Z.g.g.g.g.g.g.s.g.g.g.s.s.s.s.M.M.g.g.g.g.g.g.g.g.g.g.g.g.g.g.s.g.g.g.g.g.g.g.g.g.g.g.s.s.s.s.s.s.g.g.g.g.s.s.g.g.g.g.g.g.g.g.g.g.g.g.g.g.g.g.g.s.g.e.g.e.e.S <.Z.s.g.s.g.g.g.g.g.g.g.s.s.s.g.g.g.s.s.s.s.s.s.g.g.s.s.g.g.g.g.s.s.g.g.g.g.g.g.g.g.g.g.s.s.g.g.g.g.g.g.g.g.g.g.M.M.g.g.g.g.g.g.g.g.g.g.g.s.s.s.s.s.M.s.s.s.g.V g.G.g.g.M.g.M.g.g.g.g.g.g.g.M.M.g.g.g.g.g.g.g.g.s.s.s.s.s.s.s.s.g.g.g.g.g.g.g.g.g.g.M.M.g.g.g.g.g.g.g.M.g.M.M.g.g.g.s.s.g.g.g.s.g.g.g.g.M.M.M.M.g.s.g.s.g.g.s.v M.Z.s.g.M.g.g.g.g.M.M.g.s.g.g.s.g.g.g.g.g.g.g.g.g.g.g.M.M.M.g.g.g.s.s.g.g.g.g.g.s.s.s.g.g.g.g.g.g.g.g.M.M.g.M.M.g.s.g.g.g.g.s.s.s.g.g.s.s.g.g.g.s.s.s.g.s.M.e.S g.g.s.s.e.s.s.s.g.s.s.s.g.g.g.g.g.g.g.g.s.s.s.s.s.s.s.s.e.e.e.e.s.s.s.s.s.s.s.s.s.s.s.s.s.s.s.s.s.s.s.s.g.g.s.s.s.s.s.s.s.s.s.s.g.g.g.g.g.g.g.g.s.s.e.s.s.s.:.v Z.M.g.g.M.g.g.g.g.g.g.M.M.M.M.M.M.g.g.g.M.M.g.g.M.M.g.g.g.g.M.M.g.g.g.g.g.g.g.g.s.s.s.s.s.s.s.s.s.s.s.g.g.g.g.g.g.g.g.g.g.M.M.M.g.g.s.s.g.g.s.s.g.g.s.g.s.s.<.V Z.g.s.s.g.g.s.s.g.g.M.M.M.g.g.g.g.g.g.M.M.M.M.g.g.g.g.g.g.g.s.s.s.s.s.g.g.g.g.g.g.g.g.g.g.g.g.g.g.g.g.g.g.g.g.g.g.g.g.g.M.M.g.g.g.s.s.s.g.g.g.s.g.s.s.s.g.g.%.S G.g.s.g.s.g.g.s.s.s.g.g.g.g.g.g.g.g.g.g.g.g.g.g.g.g.g.g.g.g.g.M.s.g.g.g.g.g.g.g.g.g.g.g.g.s.s.s.g.g.g.g.g.s.s.s.g.g.g.g.g.M.M.M.g.g.g.g.g.g.g.g.e.s.s.s.g.M.%.: ",
"J.M.s.s.s.g.g.g.g.g.g.g.g.g.g.g.g.g.g.g.g.g.g.g.g.g.g.g.s.s.s.s.g.g.g.g.g.g.g.g.M.M.g.g.g.s.s.s.s.s.g.g.g.g.s.s.g.g.s.s.s.s.s.s.g.g.g.g.g.g.g.g.g.s.g.g.M.s.s.J e.G.g.M.s.g.g.g.g.g.g.g.s.s.s.g.g.g.s.s.s.s.s.s.g.g.g.g.g.g.g.g.s.s.g.g.g.g.g.g.g.g.g.g.g.g.g.g.g.g.g.g.g.g.g.g.g.g.g.g.s.s.s.s.g.g.g.M.g.g.s.s.s.s.g.e.e.s.M.J s.Z.g.s.g.s.g.s.s.s.s.s.g.g.g.g.g.g.g.g.g.g.g.g.s.s.g.g.g.g.s.s.s.s.s.s.s.s.s.s.g.s.g.g.s.s.s.s.g.g.g.g.g.g.s.s.g.g.g.g.g.g.g.g.g.g.g.g.g.g.g.g.g.e.g.g.M.g.s.V g.Z.s.s.g.e.s.s.e.s.s.s.s.g.M.g.g.g.g.g.g.g.g.g.s.s.s.s.s.s.s.s.g.g.g.g.g.g.g.g.s.s.g.g.g.g.g.g.s.g.g.g.g.g.g.g.g.g.g.g.g.g.g.g.g.g.g.s.s.g.g.g.M.g.s.g.g.M.e.V M.g.g.s.s.s.s.s.s.s.s.s.s.s.s.s.s.s.g.s.s.e.e.e.s.s.e.s.e.e.e.e.s.s.e.e.s.s.s.s.e.e.s.s.s.e.e.e.s.s.s.s.s.s.s.s.s.s.s.s.s.s.s.s.s.s.s.s.s.s.s.s.s.s.s.M.g.g.<.V Z.g.e.s.g.g.s.s.s.s.s.g.g.g.g.g.g.g.g.g.g.g.g.s.g.g.g.g.g.g.g.g.g.g.g.g.g.g.g.g.g.g.g.g.g.g.s.s.g.g.g.g.g.g.g.M.g.g.g.g.g.g.g.g.g.g.g.g.g.g.g.s.s.g.g.M.g.g.e.V G.g.s.s.g.g.g.g.s.s.g.g.g.s.s.s.s.g.g.g.g.g.g.g.g.g.g.g.g.g.s.s.s.s.s.s.s.s.s.s.g.g.g.g.g.g.g.g.s.s.s.g.s.s.s.s.s.s.s.g.g.g.g.g.g.g.g.g.g.g.g.g.g.s.s.s.g.M.:.J J.M.s.g.g.g.g.s.g.g.g.g.g.g.g.g.s.s.g.g.g.g.g.s.s.s.s.s.s.s.g.g.g.g.g.g.g.g.g.M.g.g.g.g.g.g.s.s.g.g.g.g.g.g.s.s.g.g.g.g.g.g.g.g.g.g.g.g.g.g.g.g.g.M.s.s.g.Z.%.: ",
"J.M.s.s.g.g.s.s.g.g.g.g.g.g.s.s.s.s.s.g.g.g.g.g.g.g.g.g.g.g.g.g.g.g.g.g.g.g.g.g.g.g.g.g.g.g.g.g.s.s.g.g.g.g.g.g.g.g.g.g.g.g.g.g.g.g.g.g.g.g.g.g.g.s.s.s.g.s.M.S <.G.s.g.s.g.s.g.g.g.g.g.g.g.g.g.s.s.s.s.s.g.g.g.g.g.g.g.g.g.g.g.s.s.s.g.g.g.g.g.g.g.g.s.s.g.g.g.g.g.g.g.g.g.g.g.g.g.g.s.s.s.s.g.g.g.g.g.g.s.s.s.s.g.g.g.g.g.M.V s.Z.g.g.g.s.g.s.s.s.s.g.g.g.g.g.g.g.g.g.g.g.g.g.g.g.g.g.g.g.g.g.g.g.g.g.g.g.g.g.g.g.g.g.g.g.g.g.g.g.g.g.s.s.g.g.g.g.g.g.g.g.g.g.g.g.g.g.g.g.g.g.g.s.g.s.g.g.g.v g.Z.s.s.g.s.g.g.g.g.g.g.s.g.g.g.g.g.s.s.s.s.g.g.g.g.g.g.g.g.g.g.g.g.g.g.s.s.g.g.s.s.s.s.s.s.s.s.g.g.g.g.g.g.g.g.g.g.g.g.g.g.g.g.g.g.g.s.s.g.g.g.g.g.s.g.g.M.e.V M.g.s.s.s.s.s.s.s.s.s.s.s.s.s.s.g.s.s.s.s.e.e.e.s.s.s.s.s.s.s.s.s.s.s.s.s.s.s.s.s.s.s.s.s.s.s.s.s.s.s.s.s.s.s.s.s.s.s.s.s.s.s.s.s.s.s.s.s.s.s.s.s.g.s.s.e.s.<.v Z.M.g.g.g.g.g.g.g.g.g.g.g.g.g.g.g.g.g.g.g.g.g.g.g.g.g.g.g.g.g.g.g.g.g.g.g.g.g.g.g.g.g.g.g.g.g.g.g.g.g.g.g.g.g.g.g.g.g.g.g.g.g.g.g.g.g.g.g.g.g.g.s.g.s.g.g.g.:.V G.g.g.M.g.g.g.s.s.g.g.g.g.g.g.g.g.g.g.g.g.g.g.g.g.g.g.g.g.g.s.s.s.s.g.g.g.g.g.g.g.g.g.g.g.g.g.g.g.g.s.s.s.s.s.s.s.s.s.s.s.g.g.g.g.g.g.g.g.g.g.g.g.g.g.g.g.M.:.J G.g.g.g.g.g.M.g.g.g.g.g.g.g.g.g.g.g.g.s.s.s.s.s.g.g.g.g.s.s.s.s.g.g.g.g.g.g.g.g.g.g.g.g.g.g.g.g.g.g.g.g.g.g.s.s.g.g.g.g.g.g.g.g.g.g.g.g.g.g.g.g.g.g.g.g.s.M.:.: ",
"J.M.s.s.g.g.s.s.g.g.g.g.g.g.s.s.s.g.s.g.g.g.g.g.g.g.g.g.g.g.g.g.g.g.g.g.g.g.g.g.g.g.g.g.g.g.g.g.s.s.g.g.g.g.g.g.g.g.g.s.s.g.g.g.g.g.g.g.g.g.g.g.g.s.s.s.g.s.M.S <.G.s.g.s.g.s.g.g.g.g.g.g.g.g.g.s.s.s.s.s.g.g.g.g.g.g.g.g.g.g.g.s.s.s.s.g.g.g.g.g.g.g.s.s.g.g.g.g.g.g.g.g.g.g.g.g.g.g.g.s.s.s.g.g.g.g.g.g.s.s.s.s.g.g.g.g.s.M.V s.Z.g.g.g.s.g.s.s.s.s.g.g.g.g.g.g.g.g.g.g.g.g.g.g.g.g.g.g.g.g.g.g.g.g.g.g.g.g.g.g.g.g.g.g.g.g.g.g.g.g.g.s.s.g.g.g.g.g.g.g.g.g.g.g.g.g.g.g.g.g.g.g.s.g.s.g.g.g.v g.Z.s.g.M.s.g.g.g.g.g.s.s.g.g.g.g.g.g.s.s.g.g.g.g.g.g.g.g.g.g.g.g.g.g.g.s.s.g.g.s.s.s.s.s.s.s.s.g.g.g.g.g.g.g.g.g.g.g.g.g.g.g.g.g.g.g.g.g.g.g.g.g.g.s.g.g.M.e.V M.g.e.s.s.s.s.s.s.s.s.s.s.s.s.s.s.s.s.s.s.e.e.e.s.s.s.s.s.s.s.s.s.s.s.s.s.s.s.s.s.s.s.s.s.s.s.s.s.s.s.s.s.s.s.s.s.s.s.s.s.s.s.s.s.s.s.s.s.s.s.s.s.s.s.s.e.s.<.v Z.M.g.g.g.g.g.g.g.g.g.g.g.g.g.g.g.g.g.g.g.g.g.g.g.g.g.g.g.g.g.g.g.g.g.g.g.g.g.g.g.g.g.g.g.g.g.g.g.g.g.g.g.g.g.g.g.g.g.g.g.g.g.g.g.g.g.g.g.g.g.g.s.g.s.g.g.g.:.V G.g.g.g.s.s.g.s.g.g.g.g.g.g.g.g.g.g.g.g.g.g.g.g.g.g.g.g.g.g.s.s.s.s.g.g.g.g.g.g.g.g.g.g.g.g.g.g.g.g.g.s.s.s.s.s.s.s.s.s.s.s.g.g.g.g.g.g.g.g.g.g.g.g.g.g.g.g.:.J G.g.g.g.g.g.M.g.g.g.g.g.g.g.g.g.g.g.g.s.s.s.s.s.g.g.g.s.s.g.g.g.g.g.g.g.g.g.g.g.g.g.g.g.g.g.g.g.g.g.g.g.g.g.s.s.g.g.g.g.g.g.g.s.g.g.g.g.g.g.g.g.g.g.g.M.s.M.:.: ",
"J.M.s.s.g.g.s.s.g.g.g.g.g.g.s.s.s.s.s.g.g.g.g.g.g.g.s.s.s.s.g.g.g.g.g.g.g.g.g.g.g.g.g.g.g.g.g.g.s.s.g.g.g.g.g.g.g.g.s.s.s.s.g.g.g.g.g.g.g.g.g.g.g.s.s.s.g.s.M.S <.G.s.g.s.g.s.g.g.g.g.g.g.g.g.g.s.s.s.s.s.g.g.g.g.g.g.g.g.g.g.g.s.s.s.s.s.g.g.g.g.g.g.s.s.g.g.g.g.g.g.g.g.g.g.g.g.g.g.g.s.s.s.g.g.g.g.g.s.s.s.s.g.g.g.g.g.s.M.V s.Z.s.s.g.s.g.s.g.g.g.g.g.g.g.g.g.g.g.g.g.g.g.g.g.g.g.g.g.g.g.g.g.g.g.g.g.g.g.g.g.g.g.g.g.g.g.g.g.g.g.g.s.s.g.g.g.g.g.g.g.g.g.g.g.g.g.g.g.g.g.g.g.s.g.s.g.g.g.V g.Z.s.g.M.s.g.g.g.g.s.s.s.s.g.g.g.g.g.s.s.g.g.g.g.g.g.g.g.g.g.s.g.g.g.g.s.s.s.s.s.s.s.s.s.s.s.s.g.g.g.g.g.g.g.s.s.s.s.s.g.g.g.g.g.g.g.g.g.g.g.g.g.g.s.g.g.M.e.V M.g.s.s.s.s.s.s.s.s.s.s.s.s.s.s.s.s.s.e.e.e.e.e.s.s.s.s.s.s.s.s.s.s.s.s.s.s.s.s.s.s.s.s.s.s.s.s.s.s.s.s.s.s.s.s.s.s.s.s.s.s.s.s.s.s.s.s.s.s.s.s.s.s.s.s.e.s.<.v Z.M.g.s.g.g.g.g.g.g.g.g.g.g.g.g.g.g.g.g.g.g.g.g.g.g.g.g.g.g.g.g.g.g.g.g.g.g.g.g.g.g.g.g.g.g.g.g.g.g.g.g.g.g.g.g.g.g.s.s.s.s.g.g.g.g.g.g.g.g.g.g.s.g.s.g.g.g.:.V G.g.g.g.s.s.g.s.g.g.g.s.s.s.s.s.g.g.g.g.g.g.g.g.g.g.g.g.g.s.s.s.s.s.g.g.g.g.g.g.g.g.g.g.g.g.g.g.g.g.g.s.s.s.s.s.e.s.s.s.s.s.g.g.g.g.g.g.g.g.g.g.g.s.g.g.g.g.:.J G.g.g.g.s.g.g.g.g.g.g.s.g.g.g.g.g.g.s.s.s.s.s.s.s.s.s.s.g.g.g.g.g.g.g.g.g.g.g.g.g.g.g.g.g.g.g.g.g.g.g.g.g.s.s.s.g.g.g.g.g.g.g.s.g.s.g.g.g.g.g.g.g.g.g.g.s.M.:.: ",
"J.M.s.s.g.g.s.s.g.g.g.g.g.g.s.s.s.s.s.s.s.g.g.g.s.s.s.s.s.s.s.s.g.g.g.g.g.g.g.g.g.g.g.g.g.g.g.g.s.s.g.g.g.g.s.s.s.s.s.s.s.s.s.s.s.s.g.g.g.g.g.g.g.s.s.s.g.s.M.S <.G.s.g.s.g.s.g.g.g.g.g.g.g.g.g.s.s.s.s.s.g.g.g.g.g.g.g.g.g.g.g.s.s.s.s.s.s.s.g.g.g.g.s.s.g.g.g.g.g.g.g.g.g.g.g.s.g.g.g.s.s.s.g.g.g.s.s.s.s.s.s.g.g.g.g.g.s.M.V s.Z.s.s.g.s.g.s.g.g.g.g.g.g.g.g.g.g.g.g.g.g.g.g.g.g.g.g.g.g.g.g.g.g.g.g.g.g.g.g.g.g.g.g.g.g.g.g.g.g.g.g.s.s.g.g.g.g.g.g.g.g.g.g.g.g.g.g.g.g.g.g.g.s.g.e.s.g.g.V g.Z.s.s.g.s.g.g.g.s.s.s.s.s.g.g.g.g.g.g.g.g.g.g.g.s.s.s.g.g.g.s.g.g.g.g.g.s.s.s.s.s.s.s.s.s.s.s.g.g.g.g.g.g.s.s.s.s.s.s.s.g.g.g.g.g.g.g.g.g.g.g.g.g.s.g.s.g.e.V M.s.e.s.s.s.s.s.s.s.s.s.s.s.s.s.s.s.s.e.e.e.e.e.s.s.s.s.s.s.s.s.s.s.s.s.s.s.s.s.s.s.s.s.s.s.s.s.s.s.s.s.s.s.s.s.s.s.s.s.s.s.s.s.s.s.s.s.s.s.s.s.s.s.s.s.e.s.<.v Z.M.g.s.s.g.g.s.g.g.g.g.g.g.g.s.s.s.s.g.g.g.g.g.g.g.g.g.g.g.g.g.g.g.g.g.g.g.g.g.g.g.g.g.g.g.g.g.g.g.g.g.g.g.g.g.s.s.s.s.s.s.s.s.s.s.s.s.s.g.g.g.s.g.s.g.g.g.:.V G.g.g.g.s.s.g.s.g.g.g.s.s.s.s.s.g.g.g.g.g.g.g.g.g.g.g.g.g.g.s.s.s.g.g.g.g.g.g.g.g.g.g.g.g.g.g.g.g.g.g.g.s.s.s.s.e.e.s.s.s.s.g.g.g.g.g.g.g.g.g.g.g.s.g.g.g.g.:.J G.g.s.g.s.g.g.s.g.g.g.s.s.g.g.g.g.g.s.s.s.s.s.g.g.s.s.s.g.g.g.g.g.g.g.g.g.g.g.g.g.g.g.g.g.g.g.g.g.g.g.s.s.s.s.s.g.g.g.g.g.g.s.s.g.g.g.g.g.g.g.g.g.g.g.g.s.M.:.: ",
"J.M.s.s.g.g.s.s.g.g.g.g.g.g.s.s.s.s.s.s.s.s.s.s.s.s.s.s.s.s.s.s.g.g.g.g.g.g.g.g.g.g.g.s.s.g.g.g.s.s.s.g.g.s.s.s.s.s.s.s.s.s.s.s.s.s.s.g.g.g.g.g.g.s.s.s.g.s.M.S <.G.s.g.s.g.s.g.s.g.g.g.g.g.g.s.s.s.s.s.s.g.g.g.g.g.g.g.g.g.g.g.s.s.s.s.s.s.s.g.g.g.g.s.s.g.g.g.g.g.g.s.s.g.g.g.s.s.g.g.s.s.s.g.s.s.s.s.s.s.s.s.g.g.g.g.g.s.M.V s.Z.s.s.g.s.g.s.g.g.g.g.g.g.g.g.g.g.g.g.g.g.g.g.s.g.g.g.g.g.g.s.g.g.g.g.g.g.g.g.g.g.g.g.g.g.g.g.g.g.g.g.s.s.s.g.g.g.g.g.g.g.g.g.g.g.g.g.g.g.g.g.g.s.g.e.s.g.g.V s.M.e.s.g.e.s.s.s.s.s.s.s.s.g.g.g.g.g.g.g.g.g.g.s.s.s.s.s.s.s.s.s.s.g.g.g.s.s.s.s.s.s.s.s.s.s.s.s.g.g.g.g.g.s.s.s.s.s.s.s.g.g.g.g.g.s.s.s.s.g.g.g.g.s.g.s.g.e.V g.s.e.s.s.s.s.s.s.s.s.s.s.s.s.s.e.e.e.e.e.e.e.s.s.s.s.s.s.s.s.s.s.s.s.s.s.s.s.s.s.s.s.s.s.s.s.s.s.s.s.s.s.s.s.s.s.s.s.s.s.s.s.s.s.s.s.s.s.s.s.s.s.s.e.s.e.s.<.v Z.M.g.s.s.g.g.s.g.g.g.g.g.s.s.s.s.s.s.s.s.s.s.s.g.g.g.g.g.g.s.s.g.g.g.g.g.g.g.g.g.g.g.s.s.g.g.g.g.g.g.g.g.g.g.g.s.s.s.s.s.s.s.s.s.s.s.s.s.s.g.g.s.M.s.g.g.g.:.V G.g.s.g.s.s.g.s.g.g.g.s.s.s.s.s.s.g.g.g.g.g.g.s.g.g.g.g.g.g.g.s.g.g.g.g.g.g.g.s.g.g.g.g.g.g.g.g.s.s.g.g.g.s.s.s.e.e.s.s.s.s.g.g.g.g.g.g.g.g.g.g.g.s.s.g.g.g.:.J G.g.s.g.s.g.g.s.g.g.s.s.s.s.g.g.g.s.s.s.s.s.g.g.g.g.g.g.s.s.s.g.g.g.g.g.g.g.g.g.g.g.g.g.g.g.g.g.g.s.s.s.s.s.s.s.g.g.g.g.g.g.s.s.s.s.g.g.g.g.g.g.g.g.g.g.s.g.:.: ",
"J.M.s.s.g.g.s.s.g.g.g.g.g.g.s.s.s.s.s.s.s.s.s.s.s.s.s.s.s.s.s.s.g.g.g.g.g.g.g.g.g.g.s.s.s.s.g.g.s.s.s.g.s.s.s.s.s.s.s.s.s.s.s.s.s.s.s.g.g.g.g.g.g.s.s.s.g.s.M.S <.G.s.g.s.g.s.g.s.s.g.g.g.g.s.s.s.s.s.s.s.g.g.g.g.g.g.g.g.g.g.g.s.s.s.s.s.g.g.g.g.g.g.s.s.g.g.g.g.g.s.s.s.s.g.g.s.s.g.s.s.s.s.g.s.s.s.s.s.s.s.s.g.g.g.s.g.s.M.v s.Z.s.s.g.s.g.g.g.g.g.g.g.g.g.g.g.g.g.g.g.g.g.g.s.s.g.g.g.g.s.s.g.g.g.g.g.g.g.g.g.g.g.g.g.g.g.g.s.g.g.g.g.s.s.s.g.g.g.g.g.g.g.g.g.g.g.g.g.g.g.g.g.e.g.e.s.g.g.V s.M.e.s.g.e.s.s.s.s.s.s.s.s.g.g.s.g.g.g.g.g.g.s.s.s.s.s.s.s.g.g.s.s.g.g.g.s.s.s.s.s.s.s.s.s.s.s.s.s.s.g.g.g.g.g.s.s.s.s.g.g.g.g.s.s.s.s.s.s.s.s.g.g.s.g.s.g.<.V g.s.e.e.s.s.s.s.s.s.s.s.s.s.s.s.e.e.e.e.e.s.s.s.s.s.s.s.s.s.s.s.s.s.s.s.s.s.s.s.s.s.s.s.s.s.s.s.s.s.s.s.s.s.s.s.s.s.s.s.e.e.e.s.s.s.s.s.s.s.s.s.e.s.s.s.e.s.<.V Z.M.g.s.s.g.g.s.g.g.g.g.s.s.s.s.s.s.s.s.s.s.s.s.s.g.s.g.g.s.s.s.g.g.g.g.g.g.g.g.g.g.s.s.s.s.g.g.g.g.g.g.g.g.g.g.s.s.s.s.s.s.s.s.s.s.s.s.s.s.s.g.s.g.s.s.g.s.:.S G.g.s.g.s.s.g.s.g.g.g.s.s.s.s.s.s.s.g.g.g.g.s.s.s.s.g.g.g.g.g.g.g.g.g.g.g.g.s.s.g.g.g.g.g.g.g.g.s.s.g.g.g.s.s.s.s.s.s.s.s.s.g.g.g.g.g.g.g.g.g.g.g.s.s.s.g.g.%.J G.g.s.g.s.g.g.s.g.s.s.s.s.s.g.g.s.s.s.s.s.s.g.g.g.g.g.g.s.s.s.s.g.g.g.g.g.g.g.g.g.g.g.g.g.g.g.g.g.g.s.s.s.s.s.s.g.g.g.g.g.s.s.s.s.s.g.g.g.g.g.g.g.g.s.g.s.g.%.- ",
"J.M.s.s.g.g.s.s.g.g.g.g.g.g.s.s.g.s.s.s.s.s.s.s.g.s.s.s.s.s.s.g.s.s.s.s.s.s.s.s.g.g.s.s.s.s.g.g.s.s.s.s.s.s.s.s.s.s.s.g.s.g.g.s.s.s.s.g.g.g.s.s.g.s.s.s.g.s.M.S <.G.s.g.s.g.s.g.s.s.g.g.g.g.s.s.s.s.s.s.s.g.g.g.s.s.s.s.s.s.s.s.s.s.s.s.g.g.g.g.g.g.g.s.s.g.g.g.g.g.s.s.s.s.g.g.g.g.g.s.s.s.s.s.s.s.s.g.g.g.g.s.g.g.g.s.g.s.M.v s.Z.s.s.g.s.g.g.s.s.s.g.g.g.g.g.s.s.s.s.s.s.s.s.s.s.g.g.g.g.s.s.g.g.g.g.g.g.g.g.s.s.s.s.s.s.s.s.s.g.g.g.g.s.s.s.s.s.s.s.s.s.s.s.s.s.s.s.s.s.s.s.s.e.g.s.g.g.g.v s.M.e.s.g.e.s.s.s.s.s.s.s.s.s.g.s.g.g.g.g.g.g.s.s.s.s.s.g.g.g.g.s.s.s.s.g.s.s.s.s.s.s.s.s.s.s.s.s.s.s.s.g.g.g.g.g.g.g.g.g.g.g.g.g.s.s.s.s.s.s.g.g.g.s.g.s.g.<.v g.e.<.e.s.s.e.s.e.e.e.e.s.s.s.s.s.s.e.e.s.s.s.s.s.s.s.s.s.s.s.s.s.s.s.s.s.s.s.s.s.s.s.s.s.s.s.s.e.e.e.s.e.e.e.e.s.s.s.e.e.e.e.e.s.s.e.e.e.e.e.e.e.s.s.s.s.s.<.V M.g.s.s.s.g.g.s.g.g.g.s.s.s.s.s.s.s.s.s.s.s.s.s.s.s.s.s.s.s.s.s.s.s.s.s.s.s.s.s.g.g.s.s.s.s.g.g.s.s.s.s.s.s.s.s.g.s.s.s.s.s.s.g.g.g.g.g.g.s.s.s.s.g.s.s.s.s.:.S G.g.s.g.s.s.g.s.g.g.g.g.g.g.g.g.s.s.g.g.g.g.s.s.s.s.g.g.g.g.g.g.g.g.g.g.g.g.s.s.g.g.g.g.g.g.g.g.s.s.g.g.g.g.s.s.s.s.s.s.s.s.g.g.s.s.s.s.s.s.s.s.g.s.s.s.g.g.%.S G.g.s.g.s.g.g.s.s.s.s.s.s.g.g.g.s.s.s.s.s.g.g.g.g.g.g.s.s.g.g.g.g.g.g.g.g.g.g.g.s.s.s.s.s.s.s.s.g.g.s.s.s.s.s.g.s.g.g.g.g.s.s.s.s.s.g.g.g.g.g.g.g.g.s.g.s.g.%.- ",
"J.M.s.s.g.g.s.s.g.g.g.g.g.g.s.s.g.s.s.s.s.s.s.s.g.g.s.s.s.s.g.g.s.s.s.s.s.s.s.s.g.s.s.s.s.s.s.g.s.s.s.s.s.s.s.s.s.s.s.g.g.g.g.g.s.s.g.g.g.s.s.s.g.s.s.s.g.s.M.S <.G.s.g.s.g.s.g.s.s.s.g.g.s.s.s.s.s.s.s.s.g.g.g.s.s.s.s.s.s.s.s.s.s.s.s.g.g.g.g.g.g.g.s.s.g.g.g.g.s.s.s.s.s.s.g.g.g.g.s.s.s.s.s.s.g.g.g.g.g.g.g.g.g.g.s.g.s.M.v s.Z.s.s.g.s.g.g.s.s.s.g.g.g.g.g.s.s.s.s.s.s.s.s.s.s.s.g.g.s.s.s.g.g.g.g.g.g.g.g.s.s.s.s.s.s.s.s.s.s.g.g.g.s.s.s.s.s.s.s.s.s.s.s.s.s.s.s.s.s.s.s.s.e.g.s.g.g.g.v s.M.s.s.g.e.s.s.s.s.s.s.s.s.g.g.s.s.g.g.g.g.s.s.s.s.s.g.g.g.g.g.s.s.g.g.s.s.s.s.s.s.s.s.s.s.s.s.e.s.s.s.g.g.g.g.g.g.g.g.g.g.g.g.g.g.g.s.s.g.g.g.g.g.s.g.s.g.<.v g.e.<.e.s.s.e.s.e.e.e.e.s.s.s.s.s.s.s.e.s.s.s.s.s.s.s.s.s.s.s.s.s.s.s.s.s.s.s.s.s.s.s.s.s.s.s.s.e.e.e.s.s.e.e.e.s.s.s.e.e.e.e.e.s.s.e.e.e.e.e.e.e.s.s.s.s.s.<.V M.g.s.s.s.g.g.g.g.g.g.s.s.s.s.s.s.s.s.s.s.s.s.s.s.s.s.s.s.s.s.s.s.s.s.s.s.s.s.s.g.s.s.s.s.s.s.g.s.s.s.s.s.s.s.s.g.g.s.s.s.s.g.g.g.g.g.g.g.s.s.s.s.g.s.s.s.s.:.S G.g.s.s.e.s.g.s.s.g.g.g.g.g.g.g.s.s.s.g.g.s.s.s.s.s.s.g.g.g.g.g.g.g.g.g.g.g.s.s.g.g.g.g.g.g.g.g.s.s.g.g.g.g.s.s.s.s.s.s.g.g.g.g.s.s.s.s.s.s.s.s.g.s.s.s.g.g.%.S G.g.s.g.s.s.g.s.s.s.s.g.g.g.s.s.s.s.s.s.s.g.g.g.s.s.s.s.g.g.g.g.g.g.g.g.g.g.g.g.s.s.s.s.s.s.s.s.g.g.s.s.s.s.s.g.s.s.g.g.g.s.s.s.s.s.g.g.g.g.g.g.g.g.s.g.s.g.%.- ",
"G.M.s.s.g.g.s.g.s.g.g.g.g.g.g.s.g.g.g.g.s.s.s.s.g.g.g.g.g.s.s.s.g.g.g.g.g.g.g.s.g.g.g.s.s.s.s.s.s.s.s.s.s.s.s.s.s.s.s.g.g.g.s.s.s.s.s.s.s.s.s.s.g.g.s.g.g.s.M.S <.G.s.s.s.g.s.g.g.g.g.g.s.s.g.g.s.s.s.s.s.g.g.g.s.s.s.s.s.s.s.s.g.g.g.g.g.g.g.g.g.g.g.g.g.g.g.g.s.s.g.g.g.g.g.g.s.s.s.s.s.g.g.g.s.g.g.g.g.g.g.g.g.s.g.s.g.s.s.V s.Z.s.s.g.s.g.s.s.s.s.g.g.g.g.s.g.s.s.s.s.g.g.g.g.g.g.g.g.g.g.g.s.s.s.s.s.s.s.s.g.g.s.s.s.s.s.g.s.s.s.s.s.s.s.s.g.g.g.g.g.g.g.g.g.g.g.g.g.s.s.s.g.e.g.s.g.s.s.V s.M.s.g.M.s.g.s.s.s.s.s.s.s.s.s.g.g.g.g.g.g.g.g.s.s.s.s.s.s.s.s.g.g.g.g.g.g.g.g.s.g.g.g.g.s.s.s.s.s.s.s.s.g.g.g.g.g.g.g.g.g.g.g.g.g.g.g.g.g.g.s.s.g.s.g.s.g.e.V M.g.s.s.s.s.s.s.e.e.e.e.e.s.s.s.e.e.s.s.s.s.s.s.e.e.e.s.s.s.s.e.e.e.e.e.e.e.e.s.s.s.s.s.s.s.s.s.e.e.e.e.e.e.s.s.e.e.e.e.e.s.s.s.s.s.s.e.e.e.e.e.e.s.s.s.e.s.<.v Z.g.s.s.s.s.s.g.s.g.g.g.g.g.s.s.g.g.s.s.s.s.s.s.g.g.g.g.g.g.g.s.s.s.s.s.s.s.s.s.s.s.e.s.s.s.s.s.s.s.s.g.g.s.s.s.g.g.g.g.g.g.g.g.s.s.s.g.g.g.g.g.s.e.g.g.s.M.<.S G.g.s.g.s.s.g.s.s.s.s.s.s.s.s.s.s.s.s.s.s.s.s.s.g.g.g.s.s.s.s.s.s.s.s.g.g.g.g.s.g.s.s.s.g.g.s.s.g.g.s.s.s.s.s.s.s.s.s.g.g.g.g.g.s.s.s.s.g.g.g.g.s.s.s.s.g.g.%.S G.g.s.g.s.g.M.g.g.g.g.g.g.g.g.g.s.s.s.s.s.g.g.g.s.s.s.s.s.s.s.s.g.g.g.s.s.g.g.g.s.g.g.g.g.s.s.s.s.s.s.s.s.s.s.g.s.g.g.g.g.s.g.g.g.g.g.g.g.g.g.g.g.g.g.g.s.g.%.- ",
"J.M.g.s.g.g.s.g.s.g.g.g.g.g.g.s.g.g.g.s.s.s.s.s.g.g.g.g.g.g.g.g.g.g.g.g.g.g.s.s.g.g.g.g.s.s.s.s.s.s.s.s.s.s.s.s.s.s.s.g.g.g.g.g.s.s.s.s.s.s.s.s.g.s.s.s.g.s.M.S <.G.s.g.s.g.s.g.g.g.g.g.g.g.g.g.s.g.g.g.g.g.g.g.s.s.s.s.s.s.s.s.g.g.g.g.g.g.g.g.g.g.g.g.g.g.g.g.s.s.g.g.g.g.g.g.s.s.s.s.g.g.g.g.s.s.g.g.g.g.g.g.g.s.g.s.g.s.s.V s.Z.s.s.g.s.g.s.s.s.g.g.g.g.g.g.g.s.s.s.s.g.g.g.g.g.g.g.g.g.g.g.s.s.s.s.s.s.s.s.g.g.s.s.s.s.s.g.s.s.s.s.s.s.s.s.g.g.g.g.g.g.g.g.g.g.s.s.s.s.s.s.s.e.g.s.s.s.s.v e.g.e.s.g.e.s.s.g.g.g.g.g.g.g.g.g.g.g.g.g.g.g.g.s.s.s.s.g.g.s.s.g.g.g.g.g.g.g.g.s.g.g.g.g.s.s.s.s.s.s.s.s.g.g.g.g.g.g.g.g.g.g.g.g.g.g.g.g.g.g.s.s.g.s.g.s.g.e.V M.s.s.s.s.s.s.s.e.e.s.e.e.s.s.s.e.e.s.s.s.s.s.s.e.e.e.s.s.s.s.e.e.e.e.e.e.e.e.e.s.s.s.s.s.s.s.s.e.e.e.e.s.e.s.s.e.e.e.e.e.s.s.s.s.s.s.s.e.e.e.e.e.s.s.s.e.s.<.v Z.g.s.s.g.s.s.g.g.g.g.g.g.g.s.s.g.g.g.g.g.g.s.s.g.g.g.g.g.g.s.s.s.s.s.s.s.s.s.g.s.s.e.s.s.s.s.s.s.s.g.g.g.s.s.s.g.g.g.g.g.g.g.g.s.s.g.g.g.g.g.g.s.e.g.g.s.M.<.S G.g.s.g.s.s.g.s.s.s.s.s.s.s.s.s.g.g.g.g.g.g.g.g.g.g.g.s.s.s.s.s.s.s.s.s.s.s.s.s.g.s.s.s.g.g.g.s.g.s.s.s.s.s.s.s.s.s.s.g.g.g.g.g.g.g.g.g.g.g.g.g.s.s.s.s.g.g.%.S G.g.s.g.s.g.g.g.g.g.g.g.g.g.g.g.s.s.s.s.g.g.g.g.s.s.s.s.s.s.s.s.g.g.g.s.s.g.g.g.g.g.g.g.s.s.s.s.s.s.s.s.s.s.s.s.s.g.g.g.s.s.g.g.g.g.g.g.g.g.g.g.g.g.g.g.s.g.%.- ",
"J.Z.g.g.g.g.s.g.s.s.g.g.g.g.s.s.g.g.s.s.s.s.s.s.s.s.s.g.g.g.g.g.g.g.g.g.g.s.s.s.g.g.g.g.g.g.g.s.g.g.g.g.g.g.g.g.s.g.g.g.g.g.g.g.s.s.s.s.s.s.s.s.g.s.s.s.g.s.M.S <.G.s.g.s.g.e.s.s.s.s.s.s.s.s.s.g.g.g.g.g.g.g.g.g.g.g.g.g.g.g.g.g.g.g.g.g.g.g.g.g.g.g.g.g.g.g.g.s.s.g.g.s.s.s.s.s.g.g.g.g.g.g.g.s.s.s.g.g.g.g.g.g.s.g.s.g.s.s.V e.M.s.s.g.s.g.s.g.g.g.g.g.g.g.g.g.s.s.s.s.g.g.g.g.g.g.g.g.g.g.g.s.s.s.s.s.s.s.s.g.g.s.s.s.s.s.s.s.s.s.s.s.s.s.s.g.g.g.g.g.g.g.g.s.s.s.e.s.s.s.s.s.<.s.s.s.s.s.v e.M.s.s.M.s.g.g.g.g.g.g.g.g.g.g.g.g.g.g.g.g.g.g.s.s.s.g.g.g.g.s.g.g.g.g.g.g.g.g.s.s.g.g.g.s.s.s.s.s.s.s.g.g.g.g.g.g.g.g.g.g.g.g.g.g.g.g.s.s.g.g.s.g.s.g.s.g.e.V M.s.e.s.s.s.e.s.s.s.s.s.s.s.s.s.e.e.s.s.s.s.s.s.e.e.s.s.s.s.s.s.e.e.e.e.e.e.e.e.s.s.s.s.s.s.s.s.e.e.s.s.s.s.s.s.s.s.e.e.e.s.s.s.s.s.s.s.s.s.s.e.e.s.s.s.s.s.<.v Z.g.s.s.s.s.s.g.g.g.g.g.g.g.s.s.g.g.g.g.g.g.g.g.g.g.g.g.g.s.s.s.s.s.s.g.g.g.g.g.g.s.s.s.s.g.g.s.g.g.g.g.g.s.s.s.g.g.g.g.g.g.g.g.g.g.g.g.g.s.s.s.s.e.g.g.s.M.<.S G.g.s.g.s.s.g.s.s.s.s.s.s.s.s.s.g.g.g.g.g.g.g.g.g.g.g.s.s.s.s.s.e.s.s.s.s.s.s.s.g.g.s.g.g.g.g.s.s.s.s.s.s.s.s.s.s.s.s.g.g.g.g.g.g.g.g.g.g.g.g.g.s.s.s.s.g.g.%.S G.g.s.g.s.s.g.s.g.g.g.g.g.g.g.g.s.g.g.g.g.g.g.g.s.s.s.s.s.s.g.g.g.g.s.s.s.s.g.g.g.g.g.s.s.s.s.s.s.s.s.s.s.s.s.g.s.g.g.g.s.s.g.g.g.g.g.g.g.g.g.g.g.g.g.g.s.g.%.: ",
"J.Z.g.g.g.g.s.g.s.s.g.g.g.g.s.s.s.s.s.s.s.s.s.s.s.s.s.s.g.g.g.g.g.g.g.g.s.s.s.s.g.g.g.g.g.g.g.g.g.g.g.g.g.g.g.g.g.g.g.g.g.g.g.g.s.s.s.s.s.s.s.s.g.s.s.s.g.s.M.S <.G.s.g.s.g.e.s.s.s.s.s.s.s.s.s.s.s.g.g.g.g.g.g.g.g.g.g.g.g.g.g.g.g.g.g.g.g.g.g.g.g.g.g.g.g.g.g.s.g.g.g.g.s.s.s.g.g.g.g.g.g.g.g.s.s.s.s.g.g.g.g.g.s.g.s.g.s.s.V e.M.s.s.g.s.g.s.g.g.g.g.g.s.s.s.g.s.s.s.s.g.g.g.g.g.g.g.g.g.g.g.s.s.s.s.s.s.s.s.g.s.s.s.s.s.s.g.s.s.s.s.s.s.s.s.g.g.g.g.g.g.g.g.g.s.s.e.e.s.s.s.s.e.s.s.s.s.s.v s.M.s.s.M.s.g.g.g.g.g.g.g.g.g.g.s.s.s.s.s.s.s.s.s.s.g.g.g.g.g.g.s.s.s.s.s.s.s.s.s.s.s.s.s.s.s.s.s.s.s.g.g.g.g.g.s.s.s.s.s.s.s.s.g.g.s.s.s.s.g.g.s.g.s.g.s.g.e.V M.s.e.e.s.s.e.s.s.e.e.e.s.s.s.s.e.e.s.s.s.s.e.e.e.e.s.s.s.s.s.s.e.e.e.e.e.e.e.e.s.s.s.s.e.e.e.e.s.s.s.s.s.s.s.s.s.e.e.e.e.s.s.s.s.s.s.s.s.s.s.s.e.s.s.s.e.s.<.V Z.M.s.s.g.g.s.g.g.g.g.g.g.s.s.s.g.g.g.g.g.g.g.g.g.g.g.g.s.s.s.s.g.g.g.g.g.g.g.g.g.s.s.s.g.g.g.g.g.g.g.g.g.s.s.s.s.s.s.s.s.s.s.s.g.g.g.g.s.s.s.s.g.s.g.g.s.g.<.S G.g.s.g.s.s.g.s.s.s.s.s.s.s.s.s.g.g.g.g.s.s.g.g.g.s.s.s.s.s.s.s.s.s.s.g.s.g.g.s.g.g.s.g.g.g.g.g.s.s.s.s.s.s.s.s.s.s.s.g.g.g.g.g.g.g.g.g.g.g.g.g.s.s.s.s.g.g.%.S G.g.s.g.s.s.g.s.s.s.s.s.s.s.s.s.g.g.g.g.g.g.g.g.s.s.s.s.s.s.g.g.g.g.s.s.s.s.g.g.g.g.g.s.s.s.s.s.s.s.s.s.s.s.g.g.s.g.g.g.s.s.s.g.s.s.s.s.s.s.s.s.g.g.s.g.e.g.%.: ",
"J.Z.g.g.g.g.s.g.s.s.s.g.s.s.s.s.s.s.s.s.s.s.s.s.s.s.s.s.s.g.g.g.g.g.s.s.s.s.s.s.g.g.g.g.g.g.g.g.g.g.g.g.g.g.g.g.g.g.s.s.s.g.g.g.s.s.s.s.s.s.s.s.g.s.s.s.g.s.M.S <.G.s.g.s.g.e.s.s.s.s.s.s.s.s.s.s.s.s.s.s.s.s.s.g.g.g.g.g.g.g.g.g.g.g.g.g.g.g.g.g.g.g.g.g.g.g.g.s.g.g.g.s.s.s.s.s.s.g.g.g.g.g.g.s.s.s.s.s.s.g.g.g.s.g.s.s.s.s.V e.M.s.s.g.s.g.s.g.g.s.s.s.s.s.s.g.s.s.s.s.g.g.g.g.g.g.g.g.g.g.g.s.s.s.s.s.s.s.s.g.s.s.s.s.s.s.g.s.s.s.s.s.s.s.s.g.g.g.g.g.g.g.g.g.s.s.s.s.s.s.g.s.e.g.s.s.s.s.V e.M.e.s.g.e.s.s.s.s.s.s.s.s.s.s.s.s.s.s.s.s.s.s.s.s.s.g.g.g.g.s.s.s.s.s.s.s.s.s.s.s.s.s.s.s.s.s.s.s.s.g.g.g.s.s.s.s.s.s.s.s.s.s.g.g.s.s.s.s.s.s.s.g.s.g.s.g.e.V M.s.e.e.s.e.e.s.s.s.e.e.e.e.s.s.e.e.e.s.s.e.e.e.e.e.e.s.e.e.e.e.s.s.e.e.e.e.s.s.s.e.s.s.e.e.e.e.s.s.s.s.s.s.s.s.s.s.e.e.e.s.s.s.s.s.s.s.s.s.s.s.s.s.e.s.e.s.<.V Z.M.s.g.g.s.s.g.g.g.s.s.s.s.s.s.g.g.g.g.g.g.s.s.g.g.s.s.s.s.s.s.g.g.g.g.g.g.g.g.g.s.s.s.g.g.g.s.g.g.g.g.g.s.s.s.s.s.s.s.s.s.s.s.g.g.g.s.s.s.s.s.g.s.g.g.s.g.:.S G.g.s.s.s.s.g.s.s.s.s.s.s.s.s.s.g.g.g.g.g.g.g.g.s.s.s.s.s.s.s.g.s.s.s.g.g.g.g.s.g.g.s.s.g.g.g.s.s.s.s.s.s.s.s.s.s.s.s.g.g.g.s.s.s.s.s.s.s.s.g.g.s.s.s.s.g.g.%.S G.g.s.g.e.s.s.e.s.s.s.s.s.s.s.s.s.s.g.g.g.g.g.g.s.s.s.s.s.s.g.g.g.s.s.s.s.s.s.g.g.g.s.s.s.s.s.s.g.s.s.s.s.s.g.g.s.s.g.g.s.s.s.g.s.s.s.s.s.s.s.s.s.s.s.g.e.g.%.: ",
"G.M.s.s.g.g.s.g.s.s.s.s.s.s.s.s.s.s.s.s.s.s.s.s.s.s.s.s.s.s.s.s.s.s.s.s.s.s.s.s.s.s.s.s.s.g.g.g.g.g.g.g.g.s.g.g.g.s.s.s.s.s.g.g.s.s.s.s.s.s.s.s.s.s.s.s.g.e.M.S <.G.e.s.s.s.e.s.s.s.s.s.s.s.s.s.s.s.s.s.s.s.s.s.g.g.g.g.g.g.g.g.g.g.g.g.g.g.g.g.g.g.g.g.g.g.g.g.s.g.g.g.s.s.s.s.s.s.s.s.s.g.g.g.s.s.s.s.s.s.s.s.g.s.g.s.g.s.s.V e.Z.s.s.g.e.s.s.s.s.s.s.s.s.s.s.g.s.s.s.s.g.g.g.g.g.g.g.g.g.g.g.s.s.s.s.s.s.s.s.s.s.s.s.s.s.s.s.s.s.s.s.s.s.s.s.g.g.g.g.g.g.g.g.g.g.s.s.s.s.g.g.g.e.g.s.g.s.s.V s.M.e.s.g.e.s.g.s.s.s.s.s.s.s.s.s.s.s.s.s.s.s.s.s.s.s.s.s.s.s.s.s.s.s.s.s.s.s.s.s.s.s.s.s.s.s.s.s.s.g.g.g.g.s.s.s.s.s.s.s.s.s.s.g.s.s.s.s.s.s.s.s.g.s.g.s.g.e.V M.s.e.e.s.e.e.s.s.s.s.e.e.e.s.s.e.e.e.s.e.e.e.e.e.e.e.s.e.e.e.e.s.s.s.s.s.s.s.s.e.e.e.s.e.e.e.e.s.e.s.s.s.s.s.s.s.s.e.e.e.s.s.s.s.s.s.e.s.s.e.e.e.s.e.s.e.s.<.V Z.M.s.s.g.s.s.s.s.g.s.s.s.s.s.s.g.g.g.s.s.s.s.s.s.s.s.s.s.s.s.s.s.s.s.g.g.g.g.g.g.s.s.s.s.g.g.s.g.g.g.g.g.s.s.s.s.s.s.s.s.s.s.s.g.g.g.s.s.s.s.s.g.s.g.g.s.g.:.S G.g.s.s.s.s.g.s.s.s.s.s.s.s.s.s.s.s.s.s.s.s.s.s.s.s.s.s.s.g.g.g.s.s.s.s.s.s.s.s.g.s.s.s.g.g.s.s.s.s.s.s.s.s.s.s.s.s.g.g.g.g.s.s.e.s.s.s.s.s.g.g.s.s.s.s.g.g.%.S G.g.s.s.s.s.s.e.s.s.s.s.s.s.s.s.s.s.g.s.s.s.s.s.s.s.s.s.s.s.g.g.s.s.s.s.s.s.s.s.g.s.s.s.s.s.s.s.g.s.s.s.s.s.s.g.s.s.g.s.s.s.s.g.s.s.s.s.s.s.s.s.s.s.s.s.e.g.%.: ",
"G.M.s.s.g.s.s.g.s.s.s.s.s.s.s.s.s.s.s.s.s.s.s.s.s.s.s.s.s.s.s.s.s.s.s.s.s.s.s.s.s.s.s.s.s.s.s.s.s.s.s.s.s.s.s.s.s.s.s.s.s.s.s.g.s.s.s.s.s.s.s.s.s.s.s.s.g.e.M.S <.G.e.s.e.s.e.s.s.s.s.s.s.s.s.s.s.s.s.s.s.s.s.s.s.s.s.s.s.s.s.s.s.s.s.s.s.s.s.s.g.g.g.g.g.g.g.g.g.g.g.s.s.s.s.s.s.s.s.s.s.s.s.s.s.s.s.s.s.s.s.s.g.s.g.s.g.s.s.V s.Z.s.s.g.e.s.e.s.s.s.s.s.s.s.g.g.s.s.s.s.g.g.g.s.s.s.s.s.s.s.s.s.s.s.s.s.s.s.s.s.s.s.s.s.s.s.s.s.s.s.s.s.s.s.s.s.s.s.s.s.s.s.s.s.s.s.s.s.s.s.g.s.e.g.s.g.s.s.v g.Z.s.s.g.s.g.g.s.s.s.s.s.s.s.s.s.s.s.s.s.s.s.s.e.e.s.s.s.s.s.s.s.s.s.s.s.s.s.s.s.s.s.s.s.s.s.s.s.s.g.g.g.s.s.s.s.s.s.s.s.s.s.s.s.s.s.s.s.s.s.s.s.g.s.g.s.g.e.V M.s.e.s.s.e.e.s.s.s.s.e.e.s.e.e.e.e.s.s.s.e.e.e.e.e.e.e.e.e.e.e.s.s.e.e.e.e.s.s.e.e.s.s.s.s.s.s.e.e.e.e.e.e.s.s.s.s.s.e.e.s.s.s.s.s.e.e.e.e.e.e.e.s.e.e.e.s.<.V Z.M.s.s.s.s.s.s.s.g.s.s.s.s.s.s.g.g.s.s.s.s.e.e.s.s.s.s.s.s.s.s.s.s.s.s.s.s.s.g.s.s.s.s.s.s.s.s.s.s.g.g.g.s.s.s.s.s.s.s.s.s.s.s.s.s.s.s.s.s.s.s.g.s.g.g.s.g.:.V G.s.s.s.e.s.g.s.s.s.s.s.s.s.s.s.s.s.s.s.s.s.s.s.s.s.s.s.s.g.g.g.s.s.s.s.s.s.s.s.s.s.s.s.s.s.s.s.s.s.s.s.s.s.s.g.s.s.g.g.g.s.s.s.s.s.s.s.s.s.s.s.s.s.s.s.g.g.%.S G.g.s.s.s.s.g.s.s.s.s.s.s.s.s.s.s.s.s.s.s.s.s.s.s.s.s.s.s.s.s.s.s.s.s.s.s.s.s.s.s.s.s.s.e.s.s.s.s.s.s.s.s.s.s.s.s.s.g.s.s.s.s.s.s.s.s.s.s.s.s.s.s.s.s.s.e.g.%.: ",
"Z.g.s.s.s.s.s.g.s.s.s.s.s.s.s.s.s.s.s.s.s.s.s.s.g.s.s.s.s.s.s.s.s.s.s.s.s.s.s.s.s.s.s.s.s.s.s.s.s.s.s.s.s.s.s.s.s.s.s.e.s.s.s.g.s.s.s.s.s.s.s.s.s.s.s.s.s.e.M.S <.G.e.s.e.s.e.s.s.s.s.s.s.s.s.s.s.s.s.s.s.g.g.g.s.s.s.s.s.s.s.s.s.s.s.s.s.s.s.s.g.g.g.g.g.g.g.g.g.g.g.s.s.s.s.s.s.s.s.s.s.s.s.s.s.s.s.s.s.s.s.s.g.s.g.s.g.s.s.V s.Z.s.s.s.e.s.e.s.s.s.s.s.s.g.g.g.s.s.s.s.g.g.g.s.s.s.s.s.s.s.s.s.s.s.s.s.s.s.s.s.s.s.s.s.s.s.s.s.s.s.s.s.s.s.s.s.s.s.s.s.s.s.s.s.s.s.s.s.s.s.s.s.e.s.s.s.s.s.v s.M.e.e.s.e.s.s.s.s.s.s.s.s.s.s.s.s.s.s.s.s.s.s.e.e.s.s.s.s.s.s.s.s.s.s.s.s.s.s.s.s.s.s.s.s.s.s.s.s.g.g.g.s.s.s.s.s.s.s.s.s.s.s.s.s.s.s.s.s.s.s.s.g.s.g.s.g.e.V M.s.e.e.s.e.e.s.s.s.s.e.e.e.e.e.e.e.s.s.s.e.e.e.e.e.e.e.e.e.e.e.s.s.s.s.e.e.e.s.e.e.e.e.e.e.e.e.e.e.e.e.e.e.s.s.s.s.s.e.e.s.s.s.e.e.e.e.e.e.e.e.e.e.e.e.<.s.<.V Z.g.s.s.s.s.s.s.g.s.s.s.s.s.s.s.g.g.s.s.s.s.e.e.s.s.s.s.s.s.s.s.s.s.s.s.s.s.s.s.s.s.s.s.s.s.s.s.s.s.s.g.g.g.s.s.s.s.s.s.s.s.s.s.s.s.s.s.s.s.s.s.g.s.g.g.s.g.:.V G.s.s.s.s.s.g.s.s.s.s.s.s.s.s.s.s.s.s.s.s.s.s.s.s.s.s.s.s.g.g.g.s.s.s.g.g.g.g.s.s.s.s.s.s.s.s.s.s.s.s.s.s.s.g.g.s.s.g.g.g.s.s.s.g.g.g.s.s.s.s.s.s.s.s.s.g.g.%.S G.g.s.s.s.s.g.s.s.s.s.s.s.s.s.s.s.s.s.s.s.s.s.s.g.s.s.s.s.s.s.s.s.s.s.s.s.s.s.s.s.s.e.e.e.s.s.g.s.s.s.s.s.s.s.s.s.s.s.s.s.s.s.s.s.s.s.s.s.s.s.s.s.s.s.s.e.s.%.: ",
"J.Z.s.s.g.g.s.s.s.s.s.s.s.s.s.s.s.s.s.s.s.s.g.g.s.s.s.s.s.s.s.s.s.s.s.s.s.s.s.s.s.s.s.s.s.s.s.s.g.g.s.s.s.s.s.s.s.s.s.s.s.s.s.s.s.s.s.s.s.s.s.s.g.s.g.s.s.s.g.S <.Z.e.s.e.s.s.s.s.s.s.s.s.s.s.s.s.s.s.s.s.s.s.s.g.s.s.s.s.s.s.s.s.s.s.s.s.s.s.s.s.s.s.s.s.s.s.s.s.s.s.s.s.e.e.e.s.s.s.s.s.s.s.s.s.s.s.s.s.s.s.s.s.s.g.e.s.s.g.V s.M.s.s.g.e.s.s.s.s.s.s.s.s.s.s.s.s.s.s.s.s.s.s.s.s.s.s.s.s.s.s.g.g.g.s.s.s.s.s.s.s.s.s.s.s.s.s.s.s.g.g.g.g.s.s.s.s.s.s.s.s.s.s.s.s.s.s.s.s.s.s.g.e.g.s.g.s.s.V g.Z.s.s.M.s.g.g.s.s.s.s.s.s.s.s.s.s.s.s.s.s.s.s.e.s.s.s.s.e.e.e.s.e.s.s.s.s.s.s.s.s.s.s.s.s.s.s.s.s.s.s.s.g.s.s.s.s.s.s.s.s.s.s.s.s.s.s.s.s.s.s.s.g.s.g.s.g.e.V g.g.s.e.e.s.s.e.s.s.e.e.e.e.s.s.s.s.s.s.s.s.s.s.e.e.e.s.s.s.s.s.e.e.e.e.e.s.s.s.e.e.s.s.s.e.e.e.s.s.s.s.s.s.e.s.e.e.e.e.s.s.e.e.e.e.e.e.e.e.e.e.e.s.e.s.e.s.<.v Z.M.s.s.s.s.s.s.s.s.s.s.s.s.s.s.s.s.s.e.e.e.e.s.s.s.s.s.s.s.s.s.s.s.s.s.s.s.s.s.s.s.s.s.s.s.g.g.s.s.s.s.s.s.s.s.s.s.s.s.s.s.s.s.g.g.s.s.s.s.s.s.s.s.s.g.s.s.<.V Z.g.s.s.g.s.s.s.s.s.s.s.s.s.s.s.s.s.g.s.s.s.s.g.s.s.s.s.s.s.s.s.g.s.s.s.s.s.s.s.s.s.s.s.s.s.s.g.s.s.s.s.s.g.g.g.s.s.s.s.g.s.s.g.s.s.s.s.s.s.s.s.s.e.s.s.s.g.%.S G.s.s.g.g.s.g.s.g.g.s.s.s.s.s.s.s.s.s.s.s.s.g.g.g.s.s.s.s.s.s.s.s.s.s.s.s.s.s.s.s.s.e.s.s.s.s.s.s.s.s.s.s.s.s.s.s.s.s.s.s.g.s.s.s.s.s.s.s.g.g.g.s.g.e.e.e.g.%.: ",
"J.M.s.s.s.s.s.s.s.s.s.s.s.s.s.s.s.s.s.s.s.s.g.g.s.s.s.s.s.s.s.s.s.s.s.s.s.s.s.s.s.s.s.s.s.s.s.s.g.g.s.s.s.s.s.s.s.s.s.s.s.s.s.s.s.s.s.s.s.s.s.s.g.e.g.s.s.s.g.S <.Z.e.g.e.g.s.s.s.s.s.s.s.s.s.s.s.s.s.s.s.s.s.s.g.s.s.s.s.s.s.s.s.s.s.s.s.s.s.s.s.s.s.s.s.s.s.s.s.s.s.s.s.e.e.e.s.s.s.s.s.s.s.s.s.s.s.s.s.s.s.s.s.s.g.e.s.s.g.V e.M.s.s.g.e.s.s.s.s.s.s.s.s.s.s.s.s.s.s.s.s.s.s.s.s.s.s.s.s.s.s.g.g.s.s.s.s.s.s.s.s.s.s.s.s.s.s.s.s.g.g.g.g.s.s.s.s.s.s.s.s.s.s.s.s.s.s.s.s.s.s.g.e.g.s.g.s.s.V g.M.s.s.g.s.g.g.s.s.s.s.s.s.s.s.s.s.s.s.s.s.s.s.s.s.s.s.s.s.e.e.s.s.s.s.s.s.s.s.s.s.s.s.s.s.g.g.s.s.s.s.s.g.s.s.s.s.s.s.s.s.s.s.s.s.s.s.s.s.s.s.s.g.s.g.s.g.e.V g.g.s.e.e.s.s.e.s.s.e.e.e.e.s.s.s.e.s.s.e.e.e.e.e.e.e.s.s.s.s.s.e.e.e.e.e.s.s.s.e.e.s.s.s.e.e.e.s.s.s.s.e.e.e.e.e.e.e.e.s.s.s.e.e.s.e.e.s.s.e.e.e.s.e.s.e.s.<.v Z.g.s.s.s.e.e.s.s.s.s.s.s.s.s.s.s.s.s.s.e.e.e.s.s.s.s.s.s.s.s.s.s.s.s.s.s.s.s.s.s.s.s.s.s.s.g.g.s.s.s.s.s.s.s.s.s.s.s.s.s.s.s.s.g.g.s.s.s.s.s.s.s.s.s.g.s.s.<.V Z.g.s.s.g.s.s.s.s.s.s.s.s.s.s.s.s.s.s.s.s.s.s.g.s.s.s.s.s.s.s.s.g.s.s.s.s.s.s.s.s.s.s.s.s.s.s.s.s.s.s.s.s.s.g.g.s.s.s.s.s.g.g.g.s.s.s.s.s.s.s.s.s.s.s.s.g.g.%.S G.g.s.g.s.s.s.s.g.g.s.s.s.s.s.s.s.s.s.s.s.s.s.g.s.s.s.s.s.s.g.g.s.s.s.s.s.s.s.s.s.s.e.s.s.s.s.s.s.s.s.s.s.s.s.s.s.s.s.s.s.g.s.s.s.s.s.s.s.s.s.g.s.g.e.e.e.g.%.: ",
"J.M.e.s.s.s.s.s.s.s.s.s.s.s.s.s.s.s.s.s.g.s.s.s.s.s.s.s.s.s.s.s.s.s.s.s.s.s.s.s.s.s.s.s.s.s.s.s.g.g.s.s.s.s.s.s.s.s.s.s.s.s.s.s.s.s.s.s.s.s.s.s.s.e.g.s.s.s.g.S <.Z.s.g.s.g.s.s.s.s.s.s.s.s.s.s.s.s.s.s.s.s.s.s.s.s.s.s.s.s.s.s.g.s.s.s.s.s.s.s.s.s.s.s.s.g.g.g.s.s.s.s.s.s.s.s.s.s.s.s.s.s.s.s.s.s.s.s.s.s.s.s.s.s.g.s.s.s.g.V e.M.s.s.g.e.s.e.s.s.s.s.s.s.s.s.s.s.s.s.s.s.s.s.s.s.s.s.s.s.s.s.s.s.s.s.s.s.s.s.s.s.s.s.s.s.s.s.s.s.g.g.g.g.s.s.s.s.s.s.s.s.s.s.s.s.s.s.s.s.s.s.g.e.g.s.g.s.s.V g.M.e.s.g.e.s.s.s.s.s.s.s.s.s.s.s.s.s.s.s.s.s.s.s.s.s.s.s.s.s.e.s.s.g.s.s.s.s.s.s.s.s.s.g.g.g.g.s.s.s.s.s.g.s.s.s.s.s.s.s.s.s.s.s.s.s.s.s.s.s.s.s.g.s.g.s.g.e.V g.g.s.e.e.s.s.e.s.s.e.e.e.e.s.s.s.s.e.e.e.e.e.e.e.e.e.e.s.s.e.e.e.e.e.e.e.e.e.s.e.s.s.s.e.e.e.e.s.s.e.e.e.e.e.e.e.e.s.s.s.s.e.e.s.s.e.e.s.s.s.s.s.s.e.s.e.s.<.v Z.g.e.e.s.e.e.s.s.s.s.s.s.s.s.s.s.s.s.s.s.s.s.s.s.s.s.s.s.s.s.s.s.s.s.s.s.s.s.s.s.s.s.s.s.s.g.g.s.s.s.s.s.s.s.s.s.s.s.s.s.s.s.s.g.g.s.s.s.s.s.s.s.s.s.g.s.s.<.V Z.g.s.s.g.s.s.s.s.s.s.s.s.s.s.s.s.g.g.s.s.s.s.s.s.s.s.s.s.s.s.s.g.s.s.s.s.s.s.s.s.s.s.s.s.s.s.s.s.s.s.s.s.s.g.g.s.s.s.s.s.s.s.s.s.s.s.s.s.s.s.s.s.s.s.g.g.g.%.J J.g.s.g.s.s.s.s.g.g.s.s.s.s.s.s.s.s.s.s.s.s.s.s.s.s.s.s.s.g.g.g.s.s.s.s.s.s.s.s.s.s.s.s.s.s.s.s.s.s.s.s.s.s.s.s.s.s.s.s.s.g.s.s.s.s.s.s.s.s.s.s.s.g.e.e.s.g.%.: ",
"G.M.e.e.s.s.s.s.s.e.e.s.s.s.s.e.e.s.s.s.g.s.s.s.s.s.s.s.s.s.s.s.s.s.s.s.s.s.s.s.s.s.s.s.s.s.s.s.g.g.s.s.s.s.s.s.s.s.s.s.s.s.s.s.s.s.s.s.s.s.s.s.s.e.s.e.s.s.g.S <.Z.s.g.s.g.s.s.s.s.s.s.s.s.s.s.s.s.s.s.s.s.s.s.s.s.s.s.s.s.s.s.g.g.g.s.s.s.s.s.s.s.s.s.s.s.s.s.s.s.s.s.s.s.s.s.s.s.s.s.s.s.s.s.s.s.s.s.s.s.s.s.s.e.g.s.s.s.g.V e.M.s.s.g.e.s.e.s.s.s.s.s.s.s.s.s.s.s.s.s.s.s.s.s.s.s.s.s.s.s.s.s.s.s.s.s.s.s.s.s.s.s.s.s.s.s.s.s.s.g.g.g.g.s.s.s.s.s.s.s.s.s.s.s.s.s.s.s.s.s.s.g.e.g.s.g.s.s.V s.M.e.s.g.e.s.s.s.s.s.s.s.s.s.g.s.s.s.s.s.s.s.s.s.s.s.s.s.s.s.s.g.g.s.s.s.s.s.s.s.s.s.s.s.s.s.s.s.s.s.s.s.g.s.s.s.s.s.s.s.s.s.s.s.s.s.s.s.s.s.s.s.g.s.g.s.g.e.V g.g.s.e.e.s.s.e.s.s.e.e.e.e.e.e.e.e.e.e.e.e.e.e.e.e.e.e.s.s.e.e.e.e.e.e.e.e.e.s.s.s.s.s.s.e.e.e.s.e.e.e.e.e.e.e.e.e.s.s.s.s.e.e.s.e.e.e.s.s.s.s.s.s.e.s.e.s.<.v Z.g.s.s.s.s.s.s.s.s.s.s.s.s.s.s.s.s.s.s.s.s.s.s.s.s.s.s.s.s.s.s.s.s.s.s.s.s.s.s.s.s.s.s.s.s.s.g.s.s.s.s.s.s.s.s.s.s.s.s.s.s.s.s.g.g.s.s.s.s.s.s.s.s.s.g.s.s.<.V Z.g.s.s.g.s.s.s.s.s.s.s.s.s.s.s.s.s.s.s.s.s.s.s.s.s.s.s.s.s.s.s.g.s.s.s.s.s.s.s.g.s.s.s.s.s.s.s.s.s.s.s.s.s.s.s.g.g.s.s.s.s.s.s.s.s.s.s.s.s.s.s.g.s.g.g.g.g.%.J J.g.s.g.s.e.s.s.s.s.s.s.s.s.s.s.s.s.s.s.s.s.s.s.s.s.s.s.s.s.s.g.s.s.s.s.s.s.s.s.s.s.s.s.s.s.s.s.s.s.s.s.s.s.s.s.s.s.s.s.s.g.s.s.s.s.s.s.s.s.s.s.s.g.s.s.s.g.%.: ",
"G.M.e.e.s.s.s.s.s.s.s.s.s.s.s.e.e.s.s.s.g.s.s.s.s.s.s.s.s.s.s.s.g.g.g.s.s.s.s.s.s.s.s.s.s.s.s.s.s.s.s.s.s.s.s.s.s.s.s.s.s.s.s.s.s.s.s.s.s.s.s.s.s.e.s.e.s.s.g.S <.Z.s.g.s.g.s.s.s.s.s.s.s.s.s.s.s.s.s.s.s.s.s.s.s.s.s.s.s.s.s.s.g.g.s.s.s.s.s.s.g.g.g.g.s.s.s.e.s.s.s.s.s.s.s.s.s.s.s.s.s.s.s.s.s.s.s.s.s.s.s.s.s.e.g.s.s.s.g.V s.M.s.s.g.e.s.e.s.s.s.s.s.s.s.s.s.s.s.s.s.s.s.s.s.s.s.s.s.s.s.s.s.s.s.s.s.s.s.s.s.s.s.s.s.s.s.s.s.s.g.g.g.g.s.s.s.s.s.s.s.s.s.s.s.s.s.s.s.s.s.s.g.e.g.s.g.s.s.V s.M.e.e.g.e.s.s.s.s.s.s.s.s.s.g.s.s.s.s.s.s.s.s.s.s.s.s.s.s.s.s.s.s.s.s.s.s.e.e.s.s.s.s.s.s.s.s.s.s.s.s.s.g.s.s.s.s.s.s.s.s.s.s.s.s.s.s.s.s.s.s.s.g.s.g.s.g.<.V g.g.s.e.e.s.s.e.s.e.e.e.e.e.e.e.e.e.e.e.e.e.e.e.e.e.e.s.s.s.e.e.e.e.e.e.e.e.e.s.s.s.e.e.s.s.s.s.e.e.e.e.e.e.e.e.e.s.s.s.e.e.e.e.e.e.e.s.s.s.s.s.e.e.e.s.e.s.<.v Z.M.s.s.g.s.s.g.s.s.s.s.s.s.s.s.s.s.g.s.s.s.s.g.s.s.s.s.s.s.s.s.s.s.s.s.s.s.s.s.s.s.s.s.s.s.s.s.s.s.s.s.s.s.s.s.s.s.s.s.s.s.s.s.g.s.s.s.s.s.s.s.s.s.s.g.s.s.<.V Z.g.s.s.g.s.s.s.s.s.s.s.s.s.s.s.s.s.s.s.s.s.s.s.s.s.s.s.s.s.s.s.g.s.s.s.s.s.s.s.g.s.s.s.s.s.s.s.s.s.s.s.s.s.s.s.s.s.s.s.s.s.s.s.s.s.s.s.s.s.s.s.g.s.g.g.g.g.%.S G.g.s.g.s.e.s.s.s.s.s.s.s.s.s.s.s.s.s.s.s.s.s.s.e.e.s.s.s.s.s.s.s.s.s.s.s.s.s.s.s.s.s.s.s.s.s.s.s.s.s.s.s.s.s.s.s.s.s.s.s.g.s.s.s.s.s.s.s.s.s.s.s.g.e.s.s.g.%.: ",
"G.g.e.e.s.s.s.s.s.s.s.s.s.s.s.s.s.s.s.s.s.s.s.s.s.s.s.s.s.s.s.s.g.g.g.g.s.s.s.s.s.s.s.s.s.s.s.s.s.s.s.s.s.s.s.s.s.s.s.s.s.s.s.s.s.s.s.s.s.s.s.s.s.e.g.s.s.s.g.S <.Z.s.g.s.g.s.s.s.s.s.s.s.s.s.s.s.s.s.s.s.s.s.s.s.s.s.s.s.s.s.s.g.s.s.s.s.s.s.s.g.g.g.g.s.s.e.e.s.s.s.s.s.s.s.s.s.s.s.s.s.s.s.s.s.s.s.s.s.s.s.s.s.e.g.s.s.g.g.V s.M.s.s.g.e.s.s.s.s.s.s.s.s.s.s.s.s.s.s.s.s.s.s.s.s.s.s.s.s.s.s.s.s.s.s.s.s.s.g.s.s.g.s.s.s.s.s.s.s.g.g.g.g.s.s.s.s.s.s.s.s.s.s.s.s.s.s.s.s.s.s.g.e.g.s.s.s.s.v s.M.e.s.g.e.s.s.s.s.s.s.s.s.s.s.s.s.s.s.s.s.g.g.s.s.s.s.s.s.s.s.s.s.s.s.s.e.e.e.s.s.s.s.g.s.g.g.s.s.s.s.s.g.s.s.s.s.s.s.s.s.s.s.s.s.s.s.s.s.s.s.s.g.s.g.s.g.<.V g.s.s.e.e.s.s.e.s.s.e.e.e.e.e.e.e.s.e.e.e.e.e.e.e.e.e.s.s.s.e.e.e.e.e.e.e.e.e.s.s.e.e.e.s.s.s.s.e.e.e.e.s.e.e.e.s.s.s.s.s.s.e.e.e.e.e.e.s.s.s.s.e.e.e.e.e.s.:.v Z.g.s.s.s.s.s.g.s.s.s.s.s.s.s.s.s.s.s.s.s.s.s.g.s.s.s.s.s.s.s.s.s.s.s.s.s.s.s.s.s.s.s.s.s.s.s.s.s.s.s.s.s.s.s.s.s.s.s.s.s.s.s.s.s.s.s.s.s.s.s.s.s.s.s.g.s.s.<.V Z.g.s.s.g.s.s.s.s.s.s.s.s.s.s.s.s.s.s.s.s.g.g.s.s.s.s.s.s.s.s.s.g.s.s.s.s.s.s.s.s.s.s.s.s.s.s.s.s.s.s.s.s.s.s.s.s.s.s.s.s.s.s.s.s.s.s.s.s.s.s.s.g.s.g.g.g.g.%.S G.s.s.s.e.e.s.s.s.s.s.s.s.s.s.s.s.s.s.s.s.s.s.s.e.e.s.s.s.s.s.s.s.s.s.s.s.s.s.s.s.s.s.s.s.s.s.s.s.s.s.s.s.s.s.s.s.s.s.s.s.g.s.s.s.s.s.s.s.s.s.s.s.g.s.s.s.g.%.: ",
"G.M.e.e.s.s.s.s.s.s.s.s.s.s.s.s.s.s.s.s.s.s.s.s.s.s.s.s.s.s.s.s.g.g.g.g.s.s.s.s.s.s.s.s.s.s.s.s.s.s.s.s.s.s.s.s.s.s.s.s.s.s.s.s.s.s.s.s.s.s.s.s.g.e.g.s.s.s.g.S <.Z.e.g.e.g.s.s.s.s.s.s.s.s.s.s.s.s.s.s.s.s.s.s.s.s.s.g.g.s.s.s.s.s.s.s.s.s.s.s.g.g.g.g.s.s.s.e.s.s.s.s.s.s.s.s.s.s.s.s.s.s.s.s.s.s.s.s.s.s.s.s.s.e.g.s.s.g.g.V s.Z.s.s.g.e.s.s.s.s.s.s.s.s.s.s.s.s.s.s.s.s.s.s.s.s.s.s.s.s.s.s.s.s.s.s.s.s.s.s.g.g.s.s.s.s.s.s.s.s.g.g.g.g.s.s.s.s.s.s.s.s.s.s.s.s.s.s.s.s.s.s.g.e.g.s.s.s.s.v g.M.e.s.g.s.s.s.s.s.s.s.s.s.s.s.s.s.s.s.s.g.g.s.s.s.s.s.s.s.s.g.s.s.s.s.s.s.e.e.s.s.s.s.s.s.s.s.s.s.s.s.s.s.s.s.s.s.s.s.s.s.s.s.s.s.s.s.s.s.s.s.s.g.s.g.s.g.<.V g.s.s.e.e.s.s.e.e.e.e.e.e.e.s.s.s.s.s.e.e.e.e.e.e.e.e.s.s.e.e.e.e.e.e.e.e.e.s.s.s.s.e.e.e.e.s.s.s.s.s.s.s.s.e.e.e.s.s.s.s.s.s.s.e.e.e.e.e.e.e.s.e.e.e.e.e.s.<.v Z.g.s.s.s.s.s.g.s.s.s.s.s.s.s.s.s.s.s.s.s.s.s.g.s.s.s.s.s.s.s.s.s.s.s.s.s.s.s.s.s.s.s.s.s.s.s.s.s.s.s.s.s.s.s.s.s.s.s.s.s.s.s.s.s.s.s.s.s.s.s.g.s.s.s.g.s.s.<.V Z.g.s.s.g.s.s.s.s.s.s.s.s.s.s.s.g.s.s.s.s.g.g.s.s.s.s.s.s.s.s.s.g.s.s.s.s.s.s.s.s.s.s.s.s.s.s.s.s.s.s.s.s.s.s.s.s.s.s.s.s.s.s.s.s.s.s.s.s.s.s.s.g.s.g.s.s.s.%.S G.s.s.g.e.e.s.g.s.s.s.s.s.s.s.s.g.s.s.s.s.s.s.s.s.s.s.s.g.g.s.s.s.s.s.s.s.s.s.s.s.s.s.s.s.s.s.s.s.s.s.s.s.s.s.s.s.s.s.s.s.s.s.s.s.s.s.s.s.s.s.g.s.g.s.s.s.g.%.: ",
"G.M.e.e.s.s.s.s.s.s.s.s.g.g.s.s.g.g.g.s.s.s.s.g.s.s.s.s.s.s.s.s.s.s.s.s.s.s.s.s.s.s.s.s.s.s.s.s.s.s.s.s.s.s.s.s.s.s.s.s.s.s.s.s.s.s.s.s.s.s.s.s.g.s.g.s.s.s.g.S <.Z.e.s.e.s.s.s.s.s.s.s.s.s.s.s.s.s.s.s.s.s.s.s.s.s.s.g.g.s.s.s.s.s.s.s.s.s.s.s.s.s.s.s.s.s.s.s.s.s.s.s.s.s.s.s.s.s.s.s.s.s.s.s.s.s.s.s.s.s.s.s.s.e.g.s.s.g.g.V e.Z.s.s.g.e.s.s.s.s.s.s.s.s.s.s.s.s.s.s.s.s.s.s.s.s.s.s.s.s.s.s.s.s.s.s.s.s.s.s.g.s.s.s.s.s.s.s.s.s.g.g.g.g.s.s.s.s.s.s.s.s.s.s.s.s.s.s.s.s.s.s.g.s.g.s.s.s.s.v g.M.e.s.g.s.s.s.g.s.s.s.s.s.s.s.s.s.s.s.g.g.g.g.s.s.s.s.s.s.s.s.s.s.s.s.s.s.s.s.s.s.s.s.s.s.s.s.s.s.s.s.s.s.s.s.s.s.s.s.s.s.s.s.s.s.s.s.s.s.s.s.s.g.s.g.s.g.e.V g.s.s.e.e.s.e.e.e.e.e.e.e.e.s.s.s.s.s.s.e.e.s.s.e.e.e.s.s.s.e.e.e.e.e.e.e.s.s.s.s.s.e.e.e.e.s.s.s.s.s.s.s.s.e.e.e.s.s.s.s.s.s.e.<.<.e.e.e.e.e.e.e.e.<.e.e.s.<.v Z.g.s.s.g.s.s.g.s.s.s.s.s.s.s.s.e.s.s.s.s.s.s.s.s.s.s.s.s.s.s.s.s.s.s.s.s.s.s.s.s.s.s.s.s.s.s.s.s.s.s.s.s.s.s.s.s.s.s.s.s.s.s.s.s.s.s.s.s.s.s.g.s.s.s.g.s.s.<.V Z.g.s.s.g.s.s.s.s.s.s.s.s.s.s.s.g.s.s.s.s.g.g.s.s.s.s.s.s.s.s.s.g.s.s.s.s.s.s.s.s.s.s.s.s.s.s.s.s.s.s.s.s.s.s.s.s.s.s.s.s.s.s.s.s.s.s.s.s.s.s.s.s.s.s.s.s.s.%.S Z.s.s.s.e.e.s.g.s.s.s.s.s.s.s.s.g.g.s.s.s.s.s.s.s.g.g.g.g.g.s.s.s.s.s.s.s.s.s.s.s.s.s.s.s.s.s.s.s.s.s.s.s.s.s.s.s.s.s.s.s.s.s.s.s.s.s.s.s.s.g.g.s.g.s.s.s.g.%.: ",
"G.M.s.s.s.s.s.s.s.s.s.s.s.s.s.s.e.s.s.s.s.s.s.s.s.s.e.e.s.s.s.s.s.s.s.s.s.s.s.s.s.s.s.s.s.s.s.s.s.s.s.e.e.s.s.g.s.s.s.s.s.s.s.s.s.s.s.s.s.s.s.s.s.s.s.s.g.e.M.S :.Z.e.s.e.s.e.s.s.s.s.s.s.s.s.s.s.s.s.s.s.s.s.s.s.s.s.s.s.s.s.s.e.s.s.s.s.s.s.s.s.s.s.s.s.s.s.s.s.s.s.s.s.s.s.s.s.s.s.s.s.s.s.s.s.s.s.s.s.s.s.s.s.e.s.e.s.s.s.V e.M.e.e.s.e.g.s.s.s.s.s.s.s.s.s.s.s.s.s.s.s.s.s.g.g.s.s.s.s.s.s.s.s.s.s.s.s.s.s.s.s.s.s.s.s.s.s.s.s.s.s.s.s.s.s.s.s.s.s.s.s.s.g.s.e.e.s.s.s.s.s.s.e.g.e.s.s.s.v s.M.e.e.g.e.s.s.s.s.s.e.e.s.s.s.s.s.s.s.s.s.s.s.s.s.e.s.s.s.s.s.s.s.s.s.s.s.s.s.s.s.s.s.s.s.e.e.s.s.s.s.g.s.s.s.s.s.s.s.s.s.s.s.s.s.s.s.s.s.s.s.s.s.e.s.s.g.e.V g.s.e.e.e.s.e.e.e.e.e.e.e.e.s.s.e.e.e.e.e.e.e.e.s.s.e.e.e.e.s.s.s.s.e.e.e.e.e.e.s.s.s.s.s.s.e.e.e.s.s.s.e.e.e.e.e.e.e.e.e.e.e.e.e.e.e.e.e.e.e.e.e.s.e.s.e.s.<.v Z.g.s.s.s.s.s.s.s.s.s.s.s.s.s.s.s.s.s.s.s.s.s.s.s.s.s.s.s.s.s.s.s.s.s.s.s.s.s.s.s.s.s.s.s.s.s.s.s.s.s.s.s.s.s.s.s.s.s.s.s.s.s.s.s.s.s.s.s.s.s.s.s.s.s.e.s.g.:.S Z.s.e.s.s.s.g.s.s.s.s.s.s.s.s.s.s.s.s.s.s.s.s.s.s.s.s.s.s.s.s.s.s.s.s.s.s.e.e.e.s.s.s.s.s.s.s.s.s.s.s.s.s.s.s.s.s.s.s.s.s.s.s.s.s.s.s.s.s.s.s.s.s.s.s.s.s.s.%.S G.g.s.s.e.s.s.s.s.s.s.s.s.e.e.e.s.s.s.s.s.s.s.s.s.s.s.s.s.s.s.s.s.s.s.s.s.s.s.s.s.s.s.s.s.s.s.s.s.s.s.s.s.s.e.e.s.s.s.s.s.s.s.s.s.s.s.s.s.s.s.s.e.g.s.s.s.g...: ",
"G.M.s.s.s.s.s.s.s.s.s.s.s.s.s.s.e.e.s.s.s.s.s.s.s.s.e.e.s.s.s.s.s.s.s.s.s.s.s.s.s.s.s.s.s.s.s.s.s.s.s.e.s.s.s.s.s.s.s.s.s.s.s.s.s.s.s.s.s.s.s.s.s.s.s.s.g.e.M.V :.Z.e.s.e.s.e.g.s.s.s.s.s.s.s.s.s.s.s.s.s.s.s.s.s.s.s.s.s.s.s.s.s.s.s.s.s.s.s.s.s.s.s.s.s.s.s.s.s.s.s.s.s.s.s.s.s.s.s.s.s.s.s.s.s.s.s.s.s.s.s.s.s.e.s.e.s.s.s.V e.M.s.e.s.e.s.s.s.s.s.s.s.s.s.s.s.s.s.s.s.s.s.s.s.s.s.s.e.e.s.s.s.s.s.s.s.s.s.s.s.s.s.s.s.s.s.s.s.s.s.s.s.s.s.s.s.s.s.s.s.s.s.s.s.e.e.s.s.s.s.s.s.e.g.e.s.s.s.v s.M.e.s.g.e.s.s.s.s.s.e.e.s.s.s.s.s.s.s.s.s.s.s.e.e.e.s.s.s.s.s.s.s.s.s.s.s.s.s.s.s.s.s.s.s.s.s.s.s.s.s.s.s.s.s.s.s.s.s.s.e.e.s.s.s.s.s.s.s.s.s.s.s.e.s.s.g.e.V g.s.e.e.e.s.e.e.e.e.e.e.e.e.s.s.e.e.e.e.e.e.e.e.s.e.e.e.e.e.e.s.s.s.e.e.e.e.e.e.s.s.s.s.e.s.e.e.s.s.s.s.e.e.e.e.e.e.e.e.e.e.e.e.e.e.e.e.e.e.e.e.e.e.e.e.e.s.<.v Z.g.s.s.s.s.s.s.s.s.s.s.s.s.s.s.s.s.s.s.s.s.s.s.s.s.s.s.s.s.s.s.s.s.s.s.s.s.s.s.s.s.s.s.s.s.s.s.s.s.s.s.s.s.s.s.s.s.s.s.s.s.s.s.s.s.s.s.s.s.s.s.e.e.s.e.e.g.%.S Z.s.e.s.s.s.g.s.s.s.s.s.s.s.s.s.s.s.s.s.s.s.s.s.s.s.s.s.s.s.s.s.s.s.s.s.s.e.e.e.s.s.s.s.s.s.s.s.s.s.s.s.s.s.s.s.s.s.s.s.s.s.s.s.s.s.s.s.s.s.s.s.s.s.s.s.s.s.%.S G.g.s.s.e.s.g.s.s.s.s.s.s.s.e.e.s.s.s.s.s.s.s.s.s.s.s.s.s.s.s.s.s.s.s.s.s.s.s.s.s.s.s.s.s.s.s.s.s.s.s.s.s.s.s.s.s.s.s.s.s.s.s.s.s.s.s.s.s.s.s.s.s.g.s.s.s.g...: ",
"G.M.s.s.s.s.s.s.s.s.s.s.s.s.s.s.e.e.s.s.s.s.s.s.s.s.e.e.s.s.s.s.s.s.s.s.s.s.s.s.s.s.s.s.s.s.s.s.s.s.s.e.s.s.s.s.s.s.s.s.s.s.s.s.s.s.s.s.s.s.s.s.s.s.s.s.g.e.M.S :.G.e.s.s.s.e.g.s.s.s.s.s.s.s.s.s.s.s.s.s.s.s.s.s.s.s.s.s.s.s.s.s.s.s.s.s.s.s.s.s.s.s.s.s.s.s.e.s.s.s.s.s.s.s.s.s.s.s.s.s.s.s.s.s.s.s.s.s.s.s.e.g.e.s.s.s.s.s.V e.M.s.e.s.e.s.s.s.s.s.s.s.s.s.s.s.s.s.s.s.s.s.s.s.s.e.e.e.e.s.s.s.s.s.s.s.s.s.e.s.s.s.s.s.s.s.s.s.s.s.s.s.s.s.s.s.s.e.e.e.e.e.e.s.s.s.s.s.s.s.s.s.e.g.e.s.s.s.v s.M.s.s.g.e.s.s.s.s.s.e.e.s.s.s.s.s.s.s.s.s.s.s.e.e.e.e.s.s.s.s.s.s.s.s.s.s.s.s.s.s.s.s.s.s.s.s.s.s.s.s.s.s.s.s.s.s.s.s.e.e.e.e.s.s.s.s.s.s.s.s.s.s.e.s.s.g.e.V g.s.e.e.e.s.e.e.e.e.e.e.e.e.e.e.e.e.e.e.e.e.e.e.e.e.e.e.e.e.e.e.e.e.e.e.e.e.e.e.e.e.e.e.e.e.e.e.s.s.e.e.e.e.e.e.e.e.e.e.e.e.e.e.e.e.e.e.e.e.e.e.e.e.e.e.e.s.:.v M.g.s.s.s.e.e.s.s.s.s.s.s.s.s.s.s.s.s.s.s.s.s.e.s.s.s.s.s.s.s.s.s.s.s.s.s.s.e.s.s.s.s.s.s.s.s.s.s.s.s.s.s.s.s.s.s.s.s.s.s.s.s.s.s.s.s.s.s.s.s.s.e.e.e.e.s.s.%.V Z.g.s.s.s.s.g.s.s.s.s.s.s.s.s.s.s.s.s.s.s.s.s.s.s.s.s.s.s.s.s.s.s.s.s.s.s.s.s.s.s.s.s.s.s.s.s.s.s.s.s.s.s.s.s.s.s.s.s.s.s.s.s.s.s.s.s.s.s.s.s.s.s.s.s.s.s.s.%.S G.g.s.s.e.s.g.s.s.s.s.s.s.s.s.s.s.s.s.s.s.s.s.s.s.s.s.s.s.s.s.s.s.s.s.s.s.s.s.s.s.s.s.s.s.s.s.s.s.s.s.s.s.s.s.s.s.s.s.s.s.s.s.s.s.s.s.s.s.s.s.s.s.g.s.s.s.g...: ",
"G.M.s.s.s.s.s.s.s.s.s.s.s.s.s.s.e.s.s.s.s.s.s.s.s.s.e.e.s.s.s.s.s.s.s.s.s.s.s.s.s.s.s.s.s.s.s.s.s.s.s.s.s.s.s.s.s.s.s.s.s.s.s.s.s.s.s.s.s.s.s.s.s.s.s.s.g.e.M.S <.G.s.s.s.s.e.g.s.s.s.s.s.s.s.s.s.s.s.s.s.s.s.s.s.s.s.s.s.s.s.e.s.s.s.s.s.s.s.s.s.s.s.s.s.s.s.e.s.s.s.s.s.s.s.s.s.s.s.s.s.s.s.s.s.s.s.s.e.e.e.e.g.e.g.s.s.s.s.V e.M.e.e.s.e.s.s.s.s.s.s.s.s.s.s.s.s.s.s.s.s.s.s.e.e.e.e.e.e.s.s.s.s.s.s.s.s.s.e.s.s.s.s.s.s.s.s.s.s.s.s.s.s.s.s.s.s.e.e.e.e.e.s.s.s.s.s.s.s.s.s.s.e.s.e.s.s.s.v s.M.s.s.g.e.s.s.s.s.s.e.e.s.s.s.s.s.s.s.s.s.s.s.e.e.e.e.s.s.s.s.s.s.s.s.s.s.s.s.s.s.s.s.s.s.s.s.s.s.s.s.s.s.s.s.s.s.s.s.e.e.e.e.s.s.s.s.e.e.e.e.s.s.e.s.s.g.e.V g.s.e.e.s.s.e.e.e.e.e.e.e.e.e.e.e.e.e.e.e.e.e.e.e.e.e.e.e.e.e.e.e.e.s.s.e.e.e.e.e.e.e.e.e.e.e.e.e.e.e.e.e.e.e.e.s.s.s.s.e.e.e.e.e.e.e.e.e.e.e.e.e.e.e.e.e.s.:.v M.g.e.s.s.e.e.e.s.s.s.s.s.s.s.s.s.s.s.s.s.s.s.e.s.s.s.s.s.s.s.s.s.s.e.e.s.s.e.e.s.s.s.s.s.s.s.s.s.s.s.s.s.s.s.s.s.s.s.s.s.s.s.s.s.s.s.s.s.s.s.s.e.e.s.e.s.g.%.V G.g.s.s.s.s.g.s.s.s.s.s.s.s.s.s.s.s.s.s.s.s.s.s.s.s.s.s.s.s.s.s.s.s.s.s.s.s.s.s.s.s.s.s.s.s.s.s.s.s.s.s.s.s.s.s.s.s.s.s.s.s.s.s.s.s.s.s.s.s.s.s.s.s.s.s.s.s.%.S G.g.s.s.e.s.g.s.s.s.s.s.s.s.s.s.s.s.s.s.s.s.s.s.s.s.s.s.s.s.s.s.s.s.s.s.s.s.s.s.s.s.s.s.s.s.s.e.s.s.s.s.s.s.s.s.s.s.s.s.s.s.s.s.s.s.s.s.s.s.s.s.e.g.s.s.s.g...: ",
"G.M.s.s.s.s.s.s.s.s.s.s.s.s.s.s.s.s.s.s.s.s.s.s.s.s.s.s.s.s.s.s.s.s.s.s.s.s.s.s.s.s.s.s.s.s.s.s.s.s.s.s.s.s.s.s.s.s.s.s.s.s.s.s.s.s.s.s.s.s.s.s.s.s.s.s.g.e.g.V <.G.s.s.s.s.e.s.s.s.s.s.s.s.s.s.s.s.s.s.s.s.s.s.s.s.s.s.s.e.e.e.s.s.s.s.s.s.s.s.s.s.s.s.s.s.s.e.s.s.s.s.s.s.s.s.s.s.s.s.s.s.s.s.s.s.s.e.e.e.e.e.g.e.s.s.s.s.s.v e.M.e.e.s.e.s.s.s.s.s.s.s.s.s.s.s.s.s.s.s.s.s.s.e.e.e.s.s.s.s.s.s.s.s.s.s.s.s.e.s.s.s.s.s.s.s.s.s.s.s.s.s.s.s.s.s.s.e.e.e.e.s.s.s.s.s.s.s.s.s.s.s.e.s.e.s.s.s.v g.Z.s.s.s.e.s.s.s.s.s.e.e.s.s.s.s.s.s.s.s.s.s.s.s.s.e.e.s.s.s.s.s.s.s.s.s.s.s.s.s.s.s.s.s.s.s.s.s.s.s.e.e.e.s.s.s.s.s.s.e.e.e.e.e.e.e.e.e.e.s.s.s.g.s.g.s.g.<.v g.s.e.e.e.s.e.e.e.e.e.e.e.e.e.e.e.e.e.e.e.e.e.e.e.e.e.e.e.e.e.e.e.e.s.s.e.e.e.e.e.e.e.e.e.e.e.e.e.e.e.e.e.e.e.e.s.s.s.s.s.s.s.s.e.e.e.e.e.e.e.e.e.s.e.e.e.s.<.v M.g.e.s.s.e.e.e.s.s.s.s.s.s.s.s.e.s.s.s.s.s.s.e.s.s.s.s.s.s.s.s.s.s.e.e.e.e.e.e.s.s.s.s.s.s.s.s.s.s.s.s.s.s.s.s.s.s.s.s.s.s.s.s.s.s.s.s.s.s.s.s.s.s.s.s.s.g.:.S G.g.s.s.s.s.g.s.s.s.s.s.s.s.s.s.s.s.s.s.s.s.s.s.s.s.s.s.s.s.s.s.s.s.s.s.s.s.s.s.s.s.s.s.s.e.e.e.s.s.s.s.s.s.s.s.s.s.s.s.s.s.s.s.s.s.s.s.s.s.s.s.s.e.s.s.s.s.%.S G.s.e.e.e.e.g.s.s.s.s.s.s.s.s.s.s.s.s.s.s.s.s.s.s.s.s.s.s.s.s.s.s.s.s.s.s.s.s.s.s.s.s.s.s.s.e.e.s.s.s.s.s.s.s.s.s.s.s.s.s.s.s.s.s.s.s.s.s.s.s.s.e.g.s.s.s.g...: ",
"G.M.s.s.s.s.s.s.s.s.s.s.s.s.s.s.s.s.s.s.s.s.s.s.s.s.s.e.s.s.s.s.s.s.s.s.s.s.s.s.s.s.s.s.s.s.s.s.s.s.s.s.s.s.s.s.s.e.e.e.s.s.s.g.s.s.s.s.s.s.s.s.s.s.s.s.g.e.g.V :.G.s.s.s.s.e.s.s.s.s.s.s.s.s.s.s.s.s.s.s.s.s.s.s.s.s.s.e.e.e.e.e.s.s.s.s.s.s.s.s.s.s.s.s.s.s.s.s.s.s.s.s.s.s.s.s.s.s.s.s.s.s.s.s.s.e.e.e.e.e.e.g.e.s.e.s.s.s.v e.M.s.e.s.e.s.s.s.s.s.s.s.s.s.s.s.s.s.s.s.s.s.s.s.s.s.s.s.s.s.s.s.s.s.s.s.s.s.s.s.s.s.s.s.s.s.s.s.s.s.s.s.s.s.s.s.s.s.s.s.s.s.s.s.s.s.s.s.s.s.s.s.e.s.e.s.s.s.v s.M.s.s.s.e.s.s.s.s.s.e.e.s.s.s.s.s.s.s.s.s.s.s.s.s.e.e.s.s.s.s.s.s.s.s.s.s.s.s.s.s.s.s.s.s.s.s.s.s.e.s.e.s.e.s.s.s.s.s.s.e.e.s.s.s.s.s.s.s.s.s.s.g.s.g.s.g.<.v g.s.e.e.e.s.e.e.e.e.e.e.e.e.e.e.e.e.e.e.e.e.e.e.e.e.e.e.e.e.e.e.e.e.e.e.e.e.e.e.e.e.e.e.e.e.e.e.e.e.e.<.e.e.e.e.e.e.s.s.s.s.s.s.e.e.e.e.e.e.e.e.e.s.e.s.e.s.<.v M.g.s.s.s.s.e.s.s.s.s.s.s.s.s.s.s.s.s.s.s.s.s.e.s.s.s.s.s.s.s.s.s.s.s.s.e.e.e.e.s.s.s.s.s.s.s.s.s.s.s.s.s.s.s.s.s.s.s.s.s.s.s.s.s.s.s.s.s.s.s.s.s.s.s.s.g.g.:.S Z.s.s.s.e.s.s.e.s.s.s.s.s.s.s.s.s.s.s.s.s.s.s.s.s.s.s.s.s.s.s.s.s.s.s.s.s.s.s.s.s.s.s.s.s.s.s.s.s.s.s.s.s.s.s.s.s.s.s.s.s.s.s.s.s.s.s.s.s.s.s.s.e.e.e.e.e.s.%.S Z.s.e.s.e.e.s.s.s.s.s.s.s.s.s.s.s.s.s.s.s.s.s.s.s.s.s.s.s.s.s.s.s.s.s.s.s.s.s.s.s.s.s.s.s.e.e.e.s.s.s.s.s.s.s.s.s.s.s.s.s.s.s.s.s.s.s.s.s.s.s.s.e.s.s.s.s.s...: ",
"G.M.s.s.s.s.s.s.s.s.s.s.s.s.s.s.s.s.s.s.s.s.s.s.s.s.s.s.s.s.s.s.s.s.s.s.s.s.s.s.s.s.s.s.s.s.s.s.s.s.s.s.s.s.s.s.e.e.e.e.e.e.s.s.s.s.s.s.s.s.s.s.s.s.s.s.g.e.g.S :.G.s.s.e.s.e.s.s.s.s.s.s.s.s.s.s.s.s.s.s.s.s.s.s.s.s.s.s.e.e.e.e.e.s.s.e.e.e.s.s.s.s.s.s.s.s.s.s.s.s.s.s.s.s.s.s.s.s.s.s.s.s.s.s.s.s.e.e.s.s.s.g.e.g.s.s.s.s.v e.M.s.s.s.e.s.s.s.s.s.s.s.s.s.s.s.s.s.s.s.s.s.s.e.e.s.s.s.s.s.s.s.s.s.s.s.s.s.s.s.s.s.s.s.s.s.s.s.s.s.s.s.s.s.s.s.s.s.s.s.s.s.s.s.s.s.s.s.s.s.s.s.e.s.e.e.s.s.v s.M.e.s.g.e.s.s.s.s.s.e.e.s.s.s.s.s.s.s.s.s.s.s.s.s.e.s.s.s.s.s.s.s.s.s.s.s.s.s.s.s.s.s.s.s.s.s.e.e.e.e.s.s.e.e.s.s.s.s.s.s.s.s.s.s.s.s.s.s.s.s.s.g.s.g.s.g.<.v g.s.e.e.e.e.e.e.s.s.e.e.e.e.e.e.e.e.e.e.e.e.e.e.s.e.e.e.e.e.e.s.s.s.e.e.e.e.e.e.e.e.e.e.e.e.e.e.e.e.<.<.<.e.e.e.e.e.e.e.e.e.e.e.e.e.e.e.e.e.e.e.e.s.e.e.e.s.:.v M.g.e.s.s.s.e.s.s.s.s.s.s.s.s.s.s.s.e.e.s.s.s.s.s.s.s.s.s.s.s.s.s.s.s.s.s.s.s.s.s.s.s.s.s.s.s.s.s.s.s.s.s.s.s.s.s.s.s.s.s.s.s.s.s.s.s.s.s.s.s.s.e.s.s.s.g.g.%.S Z.s.e.s.e.e.s.e.s.s.s.s.s.s.s.s.s.s.s.s.s.s.s.s.s.s.s.s.s.s.s.s.s.s.s.s.s.s.e.e.s.s.s.s.s.s.s.s.s.s.s.s.s.s.s.s.s.s.s.s.s.s.s.s.s.s.s.s.s.s.s.s.e.e.e.e.e.s.%.S Z.s.e.s.e.s.g.s.s.s.s.s.s.s.e.e.s.s.s.s.s.s.s.s.s.s.s.s.s.s.s.s.s.s.s.s.s.s.s.s.s.s.s.s.s.e.e.e.s.s.s.s.s.s.s.s.s.s.s.s.s.s.s.s.s.s.s.s.s.s.s.s.e.s.s.s.e.s...: ",
"G.M.s.s.s.s.s.s.s.s.s.s.s.s.s.s.s.s.s.s.s.s.s.s.s.s.s.s.s.s.s.s.s.s.s.s.s.s.s.s.s.s.s.s.s.s.s.s.s.s.s.s.s.s.s.s.e.e.e.e.e.e.s.s.s.s.s.s.s.s.s.s.s.s.s.s.g.e.M.S <.G.s.s.e.s.<.s.s.s.s.s.s.s.s.s.s.s.s.s.s.s.s.s.s.s.s.s.s.e.e.e.e.e.e.s.e.e.e.e.s.s.s.s.s.s.s.s.s.s.s.s.s.s.s.s.s.s.s.s.s.s.s.s.s.s.s.s.s.s.s.s.g.e.g.s.s.s.s.v e.M.s.s.s.e.s.s.s.s.s.s.s.s.s.s.s.s.s.s.s.s.s.s.e.e.s.s.s.s.s.s.s.s.s.s.s.s.s.s.s.s.s.s.s.s.s.s.s.s.s.s.s.s.s.s.s.s.s.e.e.s.s.s.s.s.s.s.s.s.s.s.s.e.s.e.e.s.s.v s.M.e.s.g.e.s.s.s.s.s.e.e.s.s.s.s.s.s.s.s.s.s.s.s.s.e.e.s.s.s.s.s.s.s.s.s.s.s.s.s.s.s.s.s.s.s.s.e.e.e.s.s.s.e.e.s.s.s.s.s.s.s.s.s.s.s.s.s.s.s.s.s.g.s.g.s.g.<.v g.s.e.e.e.s.e.e.s.s.e.e.e.e.e.e.e.e.e.e.e.e.e.e.s.s.e.e.e.e.s.s.s.s.e.e.e.e.e.e.e.e.e.e.e.e.e.e.e.e.<.<.<.<.e.e.e.e.e.e.e.e.e.e.e.e.e.e.e.e.e.e.e.e.e.e.e.s.:.v Z.g.s.s.s.s.s.s.s.s.s.s.s.s.s.s.s.s.e.e.e.e.e.s.s.s.s.s.s.s.s.s.s.s.s.s.s.s.s.s.s.s.s.s.s.s.s.s.s.s.s.s.s.s.s.s.s.s.s.s.s.s.s.s.s.s.s.s.s.s.s.s.e.e.s.s.s.g.%.V Z.s.e.s.e.e.s.e.s.s.s.s.s.s.s.s.s.s.s.s.s.s.s.s.s.s.s.s.s.s.s.s.s.s.s.s.s.s.e.e.s.s.s.s.s.s.s.s.s.s.s.s.s.s.s.s.s.s.s.s.s.s.s.s.s.s.s.s.s.s.s.s.e.<.e.e.e.s.%.S G.s.e.s.e.s.g.s.s.s.s.s.s.s.e.e.s.s.s.s.s.s.s.s.s.s.s.s.s.s.s.s.s.s.s.s.s.s.s.s.s.s.s.s.e.e.e.e.s.s.s.s.s.s.s.s.s.s.s.s.s.s.s.s.s.s.s.s.s.s.s.s.e.s.e.s.e.s...: ",
"G.M.s.s.s.s.s.s.s.s.s.s.s.s.s.s.s.s.s.s.s.s.s.s.s.s.s.e.s.s.s.s.s.s.s.s.e.e.s.s.s.s.s.s.s.s.s.s.s.s.s.s.s.s.s.s.e.e.e.e.e.s.s.s.s.s.s.s.s.s.s.s.s.e.g.s.s.s.s.V :.M.e.s.<.s.s.s.s.s.s.s.s.s.s.s.s.s.s.s.s.s.s.s.s.s.s.s.s.s.s.s.e.e.e.s.s.s.s.s.e.s.s.s.s.s.s.s.s.s.s.s.s.e.e.e.s.s.s.s.s.s.s.s.s.s.s.s.s.e.e.e.s.e.g.e.s.s.s.V e.M.s.s.g.s.s.s.e.e.s.s.s.s.s.s.s.s.s.s.s.s.s.s.s.s.s.s.s.s.s.s.s.s.s.s.s.s.s.s.s.s.s.s.s.s.s.s.s.s.s.s.s.s.s.s.s.s.s.s.s.s.s.s.s.s.s.s.s.s.s.s.s.e.g.s.g.s.s.v s.M.s.e.s.e.g.s.s.s.s.s.s.s.s.s.s.s.s.s.s.s.s.s.s.s.s.s.s.s.s.s.e.e.e.e.e.e.e.e.s.s.s.s.s.s.s.s.s.s.s.s.s.s.s.s.s.s.s.s.s.s.s.s.s.s.s.s.s.s.s.s.s.s.s.s.s.g.<.V g.g.s.e.e.s.s.e.e.e.e.e.e.e.e.e.s.s.e.e.e.s.s.s.e.e.e.e.e.e.e.e.e.<.<.<.<.<.e.e.e.e.e.e.e.e.e.e.s.s.e.e.e.e.s.s.e.e.e.e.e.e.e.e.e.e.e.s.e.e.e.e.e.e.e.e.e.s.:.p M.s.s.s.s.s.e.s.s.s.s.s.s.s.s.s.s.s.e.e.e.s.g.g.s.s.s.s.e.e.s.s.s.s.s.s.s.s.s.s.s.s.s.s.s.s.s.s.s.s.s.e.s.s.s.g.s.s.s.s.s.s.s.s.s.s.s.s.s.s.s.s.s.s.e.g.s.s.<.V Z.g.s.s.s.s.s.s.s.s.e.e.e.s.s.s.s.s.s.s.s.s.s.s.e.e.s.s.s.e.e.e.e.e.e.e.e.e.e.e.s.s.s.s.s.s.s.s.s.s.s.s.s.s.s.s.s.s.s.s.s.s.s.s.s.s.s.s.s.s.s.s.s.e.s.s.s.s.%.S G.s.e.s.s.s.s.e.g.s.e.e.e.s.s.s.e.e.s.s.s.s.e.e.s.s.s.s.s.s.s.e.s.s.s.s.s.s.s.s.s.s.s.s.s.s.s.s.s.s.s.s.s.s.s.g.s.s.s.s.s.s.s.s.s.s.s.s.s.s.s.s.e.s.e.e.e.s...- ",
"G.M.s.s.s.s.s.s.s.s.s.s.s.s.s.s.s.s.s.s.s.s.s.s.s.s.s.e.s.s.s.s.s.s.s.s.e.e.s.s.s.s.s.s.s.s.s.s.s.s.s.s.e.e.e.e.s.s.s.s.s.s.s.s.s.s.s.s.s.s.s.s.s.e.g.s.s.s.s.V <.M.e.s.<.s.e.e.s.s.s.s.s.s.s.s.s.s.s.s.s.s.s.s.s.s.s.s.s.s.s.s.s.s.e.s.s.s.s.s.s.s.s.s.s.s.s.s.s.s.s.s.s.s.e.e.s.s.s.s.s.s.s.s.s.s.s.s.s.e.e.e.s.e.g.e.s.s.s.V e.M.s.s.g.s.s.s.e.e.s.s.s.s.s.s.s.s.s.s.s.s.s.s.s.s.s.s.s.s.s.s.s.s.s.s.s.s.s.s.s.s.s.s.s.s.s.s.s.s.s.s.s.s.s.s.s.s.s.s.s.s.s.s.s.s.s.s.s.s.s.s.s.e.g.s.s.s.s.v s.M.s.e.s.e.g.s.s.s.s.s.s.s.s.s.s.s.s.s.s.s.s.s.s.s.s.s.s.s.s.s.s.e.e.e.e.e.e.e.s.s.s.s.s.s.s.s.s.s.s.s.s.s.s.s.s.s.s.s.s.s.s.s.s.s.s.s.s.s.s.s.s.s.s.s.s.g.<.V g.g.s.e.e.s.s.e.e.e.e.e.e.e.e.e.e.e.e.e.e.e.e.e.e.e.e.e.e.e.e.e.e.<.e.<.<.e.e.e.e.e.e.e.e.e.e.e.s.e.e.e.e.e.e.s.e.e.e.e.e.e.e.e.e.e.e.e.e.e.e.e.e.e.e.e.e.s.:.v Z.g.s.s.s.s.s.s.s.s.s.s.s.s.s.s.s.e.e.e.e.s.s.g.s.s.s.s.e.e.s.s.s.s.s.s.s.s.s.s.s.s.s.s.s.s.s.s.s.s.s.e.s.s.s.g.s.s.s.s.s.s.s.s.s.s.s.s.s.s.s.s.s.s.e.s.s.s.<.V Z.g.s.s.g.s.s.s.s.s.e.e.e.e.s.s.s.s.s.s.s.s.s.s.e.s.s.s.s.e.e.e.e.e.e.e.s.e.s.s.s.s.s.s.s.s.s.s.s.s.s.s.s.s.s.s.s.s.s.s.s.s.s.s.s.s.s.s.s.s.s.s.s.e.s.s.s.s.%.S G.s.e.s.s.s.s.s.s.s.e.e.e.s.s.s.e.s.s.s.s.s.s.e.s.s.s.s.s.s.s.s.s.s.s.s.s.s.s.s.s.s.s.s.s.s.s.s.s.s.s.s.s.s.s.s.s.s.s.s.s.s.s.s.s.s.s.s.s.s.s.s.s.s.e.e.e.s...- ",
"G.M.s.s.s.s.s.s.s.s.s.s.s.s.s.s.s.s.s.s.s.s.s.s.s.s.e.e.s.s.s.s.s.s.s.s.e.s.s.s.s.s.s.s.s.s.s.s.e.e.e.e.e.e.e.s.s.s.s.s.s.s.s.s.s.s.s.s.s.s.s.s.s.e.g.s.s.s.s.V <.M.e.s.e.s.s.s.s.s.s.s.s.s.s.s.s.s.s.s.s.s.s.s.s.s.s.s.s.s.s.s.s.s.s.s.s.s.s.s.s.s.s.s.e.e.s.s.s.s.s.s.s.s.s.s.s.s.s.s.s.s.s.s.s.s.s.s.s.e.s.s.s.e.g.e.s.s.g.V e.M.s.s.g.s.s.s.s.s.s.s.s.s.s.s.s.s.s.s.s.s.s.s.s.s.s.s.s.s.s.s.s.s.s.s.s.s.s.s.s.s.s.s.s.s.s.s.s.s.s.s.s.s.s.s.s.s.s.s.s.s.s.s.s.s.s.s.s.s.s.s.s.e.s.s.g.s.s.v s.Z.s.e.s.e.g.s.s.s.s.s.s.s.s.s.s.s.s.s.s.s.s.s.s.s.s.s.s.s.s.s.s.s.e.s.s.s.e.e.s.s.s.s.s.s.s.s.s.s.s.s.s.s.s.s.s.s.s.s.s.s.s.s.s.s.s.s.s.s.s.s.s.s.s.s.s.g.<.V g.g.s.e.e.e.e.e.e.e.e.e.e.e.e.e.e.e.e.e.e.e.e.e.e.e.e.e.e.e.e.e.e.e.e.e.e.e.e.e.e.e.e.e.e.e.e.e.e.e.e.e.e.e.e.e.e.e.e.e.e.e.e.e.s.s.e.e.e.e.e.e.e.s.e.e.e.s.:.v Z.g.s.s.s.s.s.s.s.s.s.s.s.s.s.s.e.e.s.s.s.s.s.s.s.s.s.s.e.s.s.s.s.s.s.s.s.s.s.s.s.s.s.s.s.s.s.s.s.s.s.s.s.s.s.s.s.s.s.s.s.s.s.s.s.s.s.s.s.s.s.s.s.s.e.g.s.s.<.V Z.g.s.s.g.s.s.s.s.s.e.e.e.s.s.s.s.s.s.s.s.s.s.s.s.s.s.s.s.e.e.e.s.s.s.s.s.s.s.s.s.s.s.s.s.s.s.s.s.s.s.s.s.s.s.s.s.s.s.s.s.s.s.s.s.s.s.s.s.s.s.s.s.e.s.s.s.s.%.S G.s.e.s.s.s.s.s.s.s.e.e.s.s.s.s.s.s.s.s.s.s.s.s.s.s.s.s.s.s.s.s.e.e.s.s.s.s.s.s.s.s.s.s.s.s.s.s.s.s.s.s.s.s.s.s.s.s.s.s.s.s.s.s.s.s.s.s.s.s.s.s.s.s.s.s.s.g...: ",
"G.M.s.s.s.s.s.s.s.s.s.s.s.s.s.s.s.s.s.s.g.g.s.s.s.s.e.e.s.s.s.s.s.s.s.s.s.s.s.s.s.s.s.s.s.s.s.e.e.e.e.e.s.s.s.s.s.s.s.s.s.s.s.s.s.s.s.s.s.s.s.s.g.e.g.s.s.s.s.V <.Z.e.s.e.s.s.s.s.s.s.s.s.s.s.s.s.s.s.s.s.s.s.s.s.s.s.s.s.s.e.e.s.s.s.s.s.s.s.s.s.s.s.s.e.e.s.s.s.s.s.s.s.s.s.s.s.s.s.s.s.s.s.s.s.s.s.s.s.e.s.s.s.e.g.e.s.s.s.V e.M.s.s.g.s.s.s.s.s.s.s.s.s.s.s.s.s.s.s.s.s.s.s.s.s.s.s.s.s.s.s.s.s.s.s.s.s.s.s.s.s.s.s.s.s.s.s.s.s.s.s.s.s.s.s.s.s.s.s.s.s.s.s.e.s.s.s.s.s.s.s.s.e.g.s.g.s.s.v s.Z.s.e.s.e.s.s.s.s.s.s.s.s.s.s.s.s.s.s.s.s.s.s.s.s.s.s.s.s.s.s.s.s.s.s.s.s.s.e.s.s.s.s.s.s.s.s.s.s.s.s.s.s.s.s.s.s.s.s.s.s.s.s.s.s.s.s.s.s.s.s.s.s.s.s.s.g.<.V g.s.s.e.e.e.e.e.e.e.e.e.e.e.e.e.e.e.e.e.e.e.e.e.e.e.e.e.e.e.e.e.e.e.e.e.s.s.e.e.e.e.e.e.e.e.e.e.e.e.e.e.e.e.e.e.e.e.e.e.e.e.e.e.s.s.e.e.<.e.e.e.s.s.e.e.e.s.<.v Z.g.s.s.s.e.e.s.s.s.s.s.s.s.s.s.s.s.s.s.s.s.s.s.s.s.s.s.s.s.s.s.s.s.s.s.s.s.s.s.s.s.s.s.s.s.s.s.s.s.s.s.s.s.s.s.s.s.s.s.s.s.s.s.g.s.s.s.s.s.s.s.s.s.e.g.s.s.<.V Z.g.s.s.g.s.s.s.s.s.s.e.s.s.s.s.s.s.s.s.s.s.s.s.s.s.s.s.s.s.e.e.s.s.s.s.s.s.s.s.s.s.s.s.s.s.s.s.s.s.s.s.s.s.s.s.s.s.s.s.s.s.s.s.s.s.s.s.s.s.s.s.s.e.s.s.s.s.%.S G.s.e.s.s.s.s.s.s.s.e.e.s.s.s.s.s.s.s.e.e.s.s.s.s.s.s.s.s.s.s.s.<.e.e.s.s.s.s.s.s.s.s.s.s.s.s.s.s.s.s.s.s.e.e.e.s.s.s.s.s.s.s.s.s.s.s.s.s.s.s.s.s.g.s.s.s.g...: ",
"G.M.s.s.s.s.s.s.s.s.s.s.s.s.s.s.s.s.s.s.s.s.s.s.s.e.e.e.s.s.s.s.e.e.s.s.s.s.s.s.s.s.s.s.s.e.e.e.e.e.s.s.s.s.s.s.s.s.s.s.s.s.e.s.s.s.s.s.s.s.s.s.s.e.s.e.e.e.s.V <.Z.e.s.e.s.s.s.s.s.s.s.s.s.s.s.s.s.s.s.s.s.s.s.s.s.s.s.s.s.e.e.s.s.s.s.s.s.s.s.s.s.s.s.e.e.e.s.s.s.s.s.s.s.s.s.s.s.s.s.s.s.s.s.s.s.s.s.e.e.s.s.s.e.g.e.s.s.g.V e.M.s.s.g.e.s.s.s.s.s.s.s.s.s.s.s.s.s.s.s.s.s.s.s.s.s.s.s.s.s.s.s.s.s.s.s.s.s.s.s.s.s.s.s.s.s.s.s.s.s.s.s.s.s.s.s.s.s.s.s.s.e.e.e.s.s.s.s.s.s.s.s.e.g.s.g.s.s.v s.Z.s.e.s.s.g.s.s.s.s.s.s.s.s.s.s.s.s.s.s.s.s.s.s.s.s.s.s.s.s.s.s.s.s.s.s.s.s.s.s.s.s.s.s.s.s.s.s.s.s.s.s.s.s.s.s.s.s.s.s.s.s.s.s.s.s.s.s.s.s.s.s.s.s.s.s.g.<.V g.s.s.e.e.e.e.e.e.e.e.e.e.e.e.e.e.e.e.e.e.e.e.e.e.e.e.e.e.e.e.e.e.e.e.s.s.s.e.e.e.e.e.e.e.e.e.e.e.e.e.e.e.e.e.e.e.e.e.e.e.e.e.e.s.e.e.e.e.e.e.e.e.s.e.e.e.s.<.v Z.g.s.s.s.e.e.e.s.s.s.s.s.s.s.s.s.s.s.s.g.s.s.s.e.e.s.s.s.s.s.s.s.s.s.s.s.s.s.s.s.s.s.s.s.s.s.s.s.s.s.s.s.s.s.s.s.s.s.s.s.s.s.s.s.s.s.s.s.s.s.s.s.s.e.g.s.s.<.V Z.g.e.s.g.s.s.s.s.s.s.s.s.s.s.s.s.s.s.s.s.s.s.s.s.s.s.s.s.s.s.s.s.s.s.s.s.s.s.s.s.s.s.s.s.s.s.s.s.s.s.s.s.s.s.s.s.s.s.s.s.s.s.s.s.s.s.s.s.s.s.e.s.e.s.s.s.s.%.S G.s.<.s.s.s.g.s.s.e.e.e.s.s.s.s.s.s.s.s.s.s.s.s.s.s.s.s.s.s.s.e.<.e.e.s.s.s.s.s.s.s.s.s.s.s.s.s.s.s.s.s.s.s.s.e.s.s.s.s.s.s.s.s.s.s.s.s.s.s.s.s.s.g.s.s.s.g.%.: ",
"G.M.s.s.s.s.s.s.s.s.s.s.s.s.s.s.s.s.s.s.s.s.s.s.s.s.e.e.s.s.s.s.e.e.s.s.s.s.s.s.s.s.s.s.s.s.s.s.s.s.s.s.s.s.g.s.s.s.s.s.s.s.s.s.s.s.s.s.s.s.e.e.s.e.s.e.e.e.s.V <.Z.e.g.e.s.s.s.s.s.s.s.s.s.s.s.e.e.e.s.s.s.s.s.s.s.s.s.s.s.e.e.s.s.s.s.s.s.s.s.s.s.s.s.e.e.e.s.s.s.s.s.s.s.s.s.s.s.s.s.s.s.s.s.s.s.s.s.e.e.s.s.s.e.g.e.s.s.s.V e.M.s.s.g.s.s.s.s.s.s.s.s.s.s.s.s.s.s.s.s.s.s.s.s.s.s.s.s.s.s.s.s.s.s.s.s.s.s.s.s.s.s.s.s.s.s.s.s.s.s.s.s.s.s.s.s.s.s.s.s.e.e.e.e.s.s.s.s.s.s.s.s.e.g.s.g.s.s.v s.M.e.e.s.s.g.s.s.s.s.s.s.s.s.s.s.s.s.s.s.s.s.s.s.s.s.s.s.s.s.s.s.s.s.s.s.s.s.s.s.s.s.s.s.s.s.s.s.s.s.s.s.s.s.s.s.s.s.s.s.e.e.e.s.s.s.s.s.s.s.s.s.s.s.s.s.g.<.V g.s.e.e.e.e.e.e.e.e.e.e.e.e.e.e.e.e.e.e.e.e.e.e.e.e.e.e.e.e.e.e.e.e.e.e.s.s.e.s.e.e.e.e.e.e.e.e.e.e.e.e.e.e.e.e.e.e.e.e.e.e.e.e.e.e.e.e.e.e.e.e.e.e.e.e.e.s.<.v M.g.e.e.e.e.e.e.s.s.s.s.s.s.s.s.s.s.s.g.g.s.s.s.e.e.s.s.s.s.s.s.s.s.s.s.s.s.s.s.s.s.s.s.s.e.e.s.e.s.s.s.s.s.s.s.s.s.s.s.s.s.s.s.s.s.s.s.s.s.s.s.s.s.e.s.s.s.<.V M.s.e.e.s.s.s.s.s.s.s.s.s.s.s.s.s.s.s.s.s.s.s.s.s.s.s.s.s.s.s.s.s.s.s.s.s.s.s.s.s.s.s.s.s.s.s.s.s.s.s.s.s.s.s.s.s.s.s.s.s.s.s.s.s.s.s.s.s.s.s.s.s.e.s.s.s.s.%.S G.s.<.s.s.s.g.s.s.e.e.s.s.s.s.s.s.s.s.s.s.s.s.s.s.s.s.s.s.s.s.e.e.e.e.s.s.s.s.s.s.s.s.s.s.s.s.s.s.s.s.s.s.s.s.s.s.s.s.s.s.s.s.s.s.s.s.s.s.s.s.s.s.g.s.s.s.g.%.: ",
"G.M.s.s.s.s.s.s.s.s.s.s.s.s.s.s.s.s.s.s.s.e.e.e.s.e.e.e.s.s.s.s.e.e.e.s.s.s.s.s.s.s.s.s.s.s.s.s.s.s.s.s.s.s.s.s.s.s.s.s.s.s.s.s.s.s.s.s.s.e.e.e.s.e.s.e.s.s.s.S <.Z.s.g.e.g.s.s.s.s.s.s.s.s.e.e.e.e.s.e.s.s.s.s.s.s.s.s.s.s.s.s.s.s.s.s.s.s.s.s.s.s.s.s.e.e.s.s.s.s.s.s.s.s.s.s.s.s.s.s.s.s.s.s.s.s.s.s.e.e.s.s.s.e.g.e.s.s.s.V e.M.s.s.g.s.s.s.s.s.s.s.s.s.s.s.s.s.s.s.s.s.s.s.s.s.s.s.s.s.s.s.s.s.s.s.s.s.s.s.s.s.s.s.s.s.s.s.s.s.s.s.s.s.s.s.s.s.s.s.s.e.e.e.s.s.s.s.s.s.s.s.s.e.g.s.g.s.s.v s.M.e.e.s.s.s.s.s.s.s.s.s.s.s.s.s.s.s.s.s.s.s.s.s.s.s.s.s.s.s.s.s.s.s.s.s.s.s.s.s.s.s.s.s.s.s.s.s.s.s.s.s.s.s.s.s.s.s.s.s.e.e.e.s.s.s.s.s.s.s.s.s.s.s.s.s.g.<.V g.s.e.e.e.e.e.e.e.e.e.e.e.e.e.e.e.e.e.e.e.e.e.e.e.e.e.e.e.e.e.e.e.e.e.e.e.e.e.s.e.e.e.e.e.e.e.e.s.e.e.e.e.e.e.s.e.e.e.e.e.e.e.e.<.<.e.e.e.e.e.e.e.e.e.e.e.s.<.v M.g.e.s.s.e.e.e.s.s.s.s.s.s.s.s.s.s.s.s.s.s.s.s.e.e.e.s.s.s.s.s.s.s.s.s.s.s.s.s.s.s.s.s.s.e.s.e.e.s.s.s.s.s.s.s.s.s.s.s.s.s.s.s.s.s.s.s.e.e.e.s.e.s.e.s.s.s.:.V M.s.e.e.s.s.s.s.s.s.s.s.s.s.s.s.s.s.s.s.s.s.s.s.s.s.s.s.s.s.s.s.s.s.s.s.s.s.s.s.s.s.s.s.s.s.s.s.s.s.s.s.s.s.s.s.s.s.s.s.s.s.s.s.s.s.s.s.s.s.s.e.s.e.s.s.s.s.%.S G.s.e.s.s.s.s.s.s.s.s.s.s.s.s.s.s.s.s.s.s.s.s.s.s.s.s.s.s.s.s.e.s.s.s.s.s.s.s.s.s.s.s.s.s.s.s.s.s.s.s.s.s.s.s.s.s.s.s.s.s.s.s.s.s.s.s.s.s.s.s.s.s.s.e.s.s.g.%.: ",
"G.M.s.s.s.s.s.s.s.s.s.s.s.s.s.s.s.s.s.s.e.e.e.e.s.e.e.e.s.s.s.s.e.e.e.s.s.s.s.s.s.s.s.s.s.s.s.s.s.s.s.s.s.s.s.s.s.s.s.s.g.g.s.g.s.s.s.s.s.e.e.e.g.e.g.s.s.s.g.S <.Z.s.g.e.g.s.s.s.s.s.s.s.e.e.e.e.e.e.e.s.s.s.s.s.s.s.s.s.s.s.s.s.s.s.s.s.s.s.s.s.s.s.s.e.e.s.s.s.s.s.s.s.s.s.s.s.s.s.s.s.s.s.s.s.s.s.s.e.e.s.s.s.e.g.e.s.s.s.V e.M.s.s.g.s.s.s.s.s.s.s.s.s.s.s.s.s.s.s.s.s.s.s.s.s.s.s.s.s.s.s.s.s.s.s.s.s.s.s.s.s.s.s.s.s.s.s.s.s.s.s.s.s.s.s.s.s.s.s.s.e.e.e.s.s.s.s.s.s.s.s.s.e.g.s.g.s.s.v s.M.e.e.s.s.s.s.s.s.s.s.s.s.s.s.s.s.s.s.s.s.s.s.s.s.s.s.s.s.s.s.s.s.s.s.s.s.s.s.s.s.s.s.s.s.s.s.s.s.s.s.s.s.s.s.s.s.s.s.s.e.e.e.s.s.s.s.s.s.s.s.s.s.s.s.s.g.<.V g.s.e.e.e.e.e.e.e.e.e.e.e.e.e.e.s.s.e.e.e.s.s.s.e.e.e.e.e.e.e.e.e.e.e.e.e.e.e.s.e.e.e.e.e.e.e.e.s.s.e.e.e.e.s.s.e.e.e.e.e.e.e.e.<.<.<.e.e.e.e.e.e.e.e.e.e.s.:.v M.g.s.s.s.s.e.s.s.s.s.s.s.s.s.s.s.s.s.s.s.s.s.s.e.e.e.s.s.s.s.s.s.s.s.s.s.s.s.s.s.s.s.s.e.e.e.e.e.s.s.s.s.s.s.s.s.s.s.s.s.s.s.s.s.s.s.s.e.e.e.e.e.e.e.s.e.s.:.v M.s.<.e.s.s.e.e.e.s.s.s.s.s.s.e.s.s.s.s.s.s.s.s.s.s.s.s.s.s.s.s.s.s.s.s.s.s.s.s.s.s.s.s.s.s.s.s.s.s.s.s.s.s.s.s.s.s.s.s.s.s.s.s.s.s.s.s.s.s.s.e.s.e.s.s.s.s.%.S G.s.e.s.s.s.g.s.s.s.e.s.s.s.s.s.s.s.s.s.g.s.s.s.s.s.s.s.s.s.s.s.s.s.s.s.s.s.s.s.s.s.s.s.s.s.s.s.s.s.s.s.s.s.s.s.s.s.s.s.s.s.s.s.s.s.s.s.s.s.s.s.e.s.e.e.s.g.%.: ",
"Z.s.e.e.s.s.e.e.s.s.s.s.s.s.s.s.e.e.e.e.e.e.e.e.s.s.s.e.e.e.e.e.e.s.s.s.s.s.s.e.s.s.s.s.s.s.s.s.s.s.s.s.s.s.s.s.s.s.s.s.s.s.s.s.s.s.s.s.s.s.s.s.s.e.g.s.s.s.s.V :.Z.e.s.s.s.e.s.s.s.s.e.e.e.e.s.s.s.s.s.s.s.s.s.s.s.s.s.s.s.s.s.s.s.s.s.s.s.s.s.s.e.e.e.e.e.s.s.s.s.s.s.s.s.s.s.s.s.s.s.s.s.s.s.s.s.s.s.s.s.s.s.s.e.g.s.s.s.s.V e.M.s.s.s.e.s.e.s.s.s.s.e.e.s.s.s.s.s.e.s.s.s.s.s.s.s.s.s.s.s.s.s.s.s.s.s.s.s.s.s.s.s.s.s.s.s.s.e.e.e.e.e.e.e.e.e.s.s.s.s.s.s.s.s.s.s.e.e.s.s.s.s.e.g.e.s.s.s.v s.M.s.e.g.e.s.e.e.e.s.s.s.s.s.s.s.s.s.s.e.e.e.s.s.s.s.e.e.s.s.s.e.e.s.s.s.s.s.e.e.e.e.s.s.s.s.s.e.e.s.s.s.s.s.s.s.s.s.s.s.s.s.s.s.s.s.s.s.s.s.s.e.s.e.s.s.g.<.v g.s.e.<.e.e.s.s.e.e.e.e.e.e.e.e.e.e.e.e.e.e.e.e.e.e.e.e.e.e.e.e.e.e.e.e.e.e.e.e.e.e.e.e.e.e.e.s.e.e.e.e.e.e.e.e.e.e.e.e.e.e.e.e.e.e.e.e.e.e.e.e.e.e.<.e.<.s.:.v M.s.e.e.s.s.s.s.s.s.s.s.s.s.s.s.s.s.s.s.e.e.e.e.e.e.s.s.s.s.s.s.s.s.s.s.s.s.s.s.e.e.e.e.e.s.s.s.e.e.e.e.s.s.s.s.s.s.e.s.s.s.s.s.s.s.s.s.s.s.s.s.e.s.e.e.s.s.:.V Z.s.e.s.e.s.s.e.e.s.s.s.s.s.e.e.s.s.s.s.s.s.s.s.s.s.s.s.s.s.s.s.e.s.s.s.s.e.e.e.s.s.s.s.s.s.s.s.s.s.s.s.s.s.s.s.s.s.s.s.s.s.s.s.s.s.s.s.s.e.e.e.s.s.s.s.s.g.%.S G.s.e.g.s.s.g.s.s.s.s.s.s.s.s.s.s.s.s.s.s.s.s.s.e.e.s.s.s.s.s.s.s.s.s.s.s.s.s.s.s.s.s.s.e.e.s.s.s.s.s.s.s.s.s.s.s.s.s.s.s.s.s.s.s.s.s.s.s.s.e.e.e.s.s.s.s.g.%.: ",
"Z.s.e.e.s.s.e.e.s.s.s.s.s.s.s.s.e.e.s.s.e.e.s.s.s.s.s.e.e.e.s.s.e.s.s.s.s.s.s.e.e.s.s.e.e.e.e.s.e.e.s.s.s.s.s.s.s.s.s.s.s.s.s.s.s.s.s.s.s.s.s.s.s.e.g.s.s.s.s.V :.Z.e.s.e.s.e.s.s.s.s.e.e.e.e.s.s.s.s.s.s.s.s.s.s.s.s.s.s.s.s.s.s.s.s.s.s.s.s.s.s.s.e.e.e.e.s.s.s.s.s.s.s.s.s.s.s.s.e.e.s.s.s.e.s.s.s.s.s.s.s.s.s.e.g.s.s.s.s.V e.M.s.e.s.e.s.e.s.s.s.s.e.e.s.s.s.s.s.e.e.s.s.s.s.s.e.e.s.s.s.s.s.s.s.s.e.e.s.s.s.s.s.s.s.s.s.s.e.e.e.e.e.e.e.e.s.s.s.s.s.e.e.e.s.s.s.s.e.s.s.s.s.e.g.e.s.s.s.v s.M.e.e.s.e.s.e.e.e.e.e.e.s.e.e.s.s.s.e.e.e.s.s.s.s.s.e.e.s.s.s.e.e.s.s.s.s.s.e.e.e.e.e.e.s.s.s.e.e.s.s.s.s.s.s.s.s.s.s.e.e.e.s.s.s.s.s.s.s.s.s.e.s.e.s.s.g.<.v g.s.e.<.e.e.s.e.e.e.e.e.e.e.e.e.e.e.e.e.e.e.e.e.e.e.e.e.e.e.e.e.e.e.e.e.e.e.e.e.e.e.e.e.e.<.e.e.e.e.e.e.e.e.e.e.e.e.e.e.e.e.e.e.e.e.e.e.e.e.e.e.e.e.<.e.e.s.:.v M.s.e.e.s.s.s.s.s.s.s.s.s.s.s.s.s.s.s.e.s.e.e.e.e.e.s.s.s.s.s.s.s.s.s.s.s.s.s.s.e.e.e.e.e.s.s.s.e.e.e.e.s.s.s.s.s.s.e.e.s.s.s.e.s.s.s.s.s.s.s.s.e.s.e.e.s.s.:.V Z.s.e.s.e.s.s.e.e.e.s.e.s.e.e.e.s.s.s.s.s.s.s.s.s.s.e.e.s.s.s.s.e.s.s.s.s.e.e.e.s.s.s.s.s.s.s.s.s.e.e.e.s.s.s.s.s.s.s.s.s.s.s.s.s.s.s.s.s.e.e.e.s.s.s.s.s.s.%.S G.s.e.s.s.s.s.s.s.e.s.s.s.s.s.s.s.s.s.s.s.s.s.s.e.e.s.s.s.s.s.s.s.s.s.s.s.s.s.s.s.s.s.s.s.e.s.s.s.s.s.s.s.s.s.s.e.s.s.s.s.s.s.s.s.s.s.s.s.s.e.e.e.s.s.s.s.g.%.: ",
"Z.s.<.e.s.s.e.e.s.s.s.s.s.e.e.e.s.e.s.s.e.e.e.e.s.s.s.e.s.s.s.s.e.s.s.s.s.s.s.e.e.e.s.e.e.e.e.e.e.e.e.e.e.e.s.s.s.s.s.e.e.e.s.s.s.s.s.s.s.s.s.s.s.e.g.s.s.s.s.V <.G.e.s.e.s.e.s.s.s.s.e.e.e.e.s.s.s.s.s.s.s.s.s.s.s.s.s.s.s.s.s.s.s.s.s.s.s.s.s.s.s.s.s.s.s.s.s.s.s.s.s.s.s.s.s.s.s.e.e.e.s.e.e.s.s.s.s.s.s.s.s.s.e.g.s.s.s.s.V e.M.s.s.s.e.s.s.s.s.e.e.e.e.s.s.s.s.s.e.e.e.s.s.e.e.e.e.e.e.e.e.e.e.e.e.e.e.e.e.s.s.s.s.s.s.s.s.s.s.s.s.s.s.s.s.s.s.s.s.e.e.e.e.s.s.e.e.e.e.s.s.s.e.g.e.s.s.s.v s.M.e.e.s.e.s.e.e.e.e.e.s.s.s.e.s.e.e.e.e.s.s.s.s.s.s.e.e.s.s.s.s.s.s.s.s.s.e.e.e.e.e.e.e.e.e.e.e.e.e.e.s.s.s.s.s.s.e.e.e.e.e.e.s.s.s.s.s.s.s.s.e.s.e.s.s.g.<.v g.s.<.<.e.e.e.e.e.e.e.e.e.e.e.e.e.e.e.e.e.e.e.e.e.e.e.e.e.e.e.e.e.e.e.e.e.e.e.e.e.e.e.e.<.<.e.e.e.e.e.e.e.e.e.e.e.e.e.e.e.e.e.e.e.e.e.e.e.e.e.e.e.e.<.e.e.s.:.v M.g.s.s.s.s.s.s.s.s.s.s.s.s.e.e.s.s.s.e.e.e.s.s.s.s.s.s.s.s.s.s.s.s.s.s.s.s.s.s.e.e.e.e.e.s.e.s.s.s.s.e.s.s.e.e.s.s.e.s.s.s.s.e.s.s.s.s.s.s.s.s.e.g.e.e.s.s.:.V Z.s.e.s.s.s.s.e.s.s.s.e.e.s.s.s.s.s.s.s.s.s.s.s.e.e.e.e.e.s.s.s.e.s.s.s.s.e.e.e.s.s.s.s.s.s.s.s.e.e.e.e.e.s.s.e.s.s.s.e.e.e.e.e.s.s.s.s.s.e.e.e.s.s.s.s.s.s.%.S G.s.e.s.e.s.s.s.e.e.e.e.e.s.s.s.s.s.s.s.s.s.s.s.e.s.s.s.s.s.s.e.s.s.s.s.s.s.s.s.s.s.e.s.e.s.s.s.s.s.s.s.s.s.s.s.e.s.s.s.s.s.s.s.s.s.s.s.s.s.e.e.s.g.s.s.s.g.%.: ",
"Z.s.e.e.s.s.s.s.s.s.s.s.e.e.e.e.s.e.e.s.e.e.e.e.s.s.s.e.s.s.s.s.s.s.s.s.s.s.s.e.s.s.s.e.e.e.e.e.e.e.e.s.e.s.s.s.s.s.e.e.e.e.s.s.s.s.s.s.s.s.s.s.s.e.g.e.s.s.s.V <.G.e.s.e.s.e.s.s.s.s.e.e.e.e.s.s.s.s.s.s.s.s.s.s.s.s.s.s.s.s.s.s.s.s.s.s.s.s.s.s.s.s.s.s.s.s.s.s.s.s.s.s.s.s.s.s.e.e.e.e.e.e.e.s.s.s.s.s.s.s.s.s.e.g.s.s.s.s.V e.M.s.s.s.e.s.s.s.s.e.e.e.s.s.s.s.s.s.e.e.e.s.s.e.e.e.e.e.e.e.e.e.e.e.e.e.e.e.e.s.s.s.s.s.s.s.s.s.s.s.s.s.s.s.s.s.s.s.s.e.e.e.e.s.s.e.s.e.e.s.s.s.e.g.e.s.s.s.v s.M.e.<.e.e.s.e.s.s.s.s.s.s.s.s.s.e.e.e.e.s.s.g.s.s.s.e.e.s.s.s.s.s.s.s.s.e.e.e.e.e.s.s.s.s.e.e.e.e.e.e.s.s.s.s.s.s.e.e.e.e.e.e.s.s.s.s.s.s.s.s.e.s.e.s.s.g.<.v g.s.e.<.e.e.e.e.e.e.e.e.e.e.e.e.e.e.e.e.e.e.e.e.e.e.e.e.e.e.e.e.e.e.e.e.e.e.e.e.e.e.e.<.<.<.e.e.e.e.e.e.e.e.e.e.e.e.e.e.e.e.e.e.e.e.e.e.e.e.e.e.e.e.e.e.<.s.:.v Z.g.s.s.s.s.e.s.s.s.s.s.s.s.e.e.s.s.e.e.e.e.e.s.s.s.s.s.s.s.e.e.s.s.s.s.s.s.s.e.e.e.e.s.e.e.e.e.s.s.s.s.e.e.e.e.s.e.e.s.s.s.s.e.s.s.s.s.s.s.s.s.s.g.e.e.s.s.:.V Z.s.e.s.e.s.s.e.s.s.e.e.e.e.s.s.s.s.s.s.s.s.s.s.e.e.e.e.e.s.s.s.e.e.s.s.s.e.s.e.s.s.s.s.s.s.s.s.e.e.e.e.s.s.s.s.s.e.e.e.e.e.e.e.s.s.s.s.s.s.e.e.s.s.s.s.s.s.%.S G.s.<.s.s.e.s.e.e.e.e.e.e.e.s.s.s.s.s.s.s.s.s.s.s.s.s.s.s.s.e.e.e.e.e.e.e.e.e.e.s.e.e.e.s.s.s.s.e.e.e.e.s.s.s.e.e.e.s.s.s.s.s.s.s.s.s.s.s.s.e.e.s.g.s.s.s.g.%.: ",
"Z.g.e.e.s.s.s.s.s.s.s.e.s.e.e.e.s.s.e.e.e.e.s.e.s.s.s.s.s.e.e.e.e.s.s.s.s.s.s.s.s.s.s.e.e.e.e.e.s.s.e.e.s.s.s.s.e.e.e.e.e.e.s.s.s.s.s.s.s.s.s.s.s.e.s.e.s.s.s.V :.Z.e.s.s.s.e.s.e.e.e.e.s.s.s.s.s.s.s.s.s.s.s.s.s.s.s.s.s.s.s.s.s.s.s.s.s.s.s.s.s.s.s.s.s.s.s.s.s.s.s.s.s.s.s.s.s.e.e.e.e.e.e.e.s.s.s.s.s.s.s.s.s.e.g.s.s.s.s.V e.M.s.s.g.e.s.s.s.s.e.e.e.e.s.s.s.s.s.s.e.e.e.e.s.s.s.e.e.e.e.e.s.s.e.e.e.s.s.s.s.s.s.s.s.s.s.s.s.s.e.e.e.s.s.s.s.s.s.e.s.s.s.s.s.s.s.e.e.e.e.s.s.e.g.e.s.s.s.v s.M.e.e.s.<.s.e.s.s.s.s.s.s.s.s.e.e.e.e.e.s.s.g.s.s.s.e.e.s.s.s.s.s.s.e.e.e.e.e.s.s.s.s.s.s.s.s.e.e.e.e.e.s.s.s.s.e.e.e.e.e.e.e.s.s.s.s.s.s.s.s.s.s.e.s.s.g.<.v s.e.<.<.e.e.e.e.e.e.e.e.e.e.e.e.e.e.e.e.e.e.e.e.e.e.e.e.e.e.e.e.e.e.e.e.e.e.e.e.e.e.e.e.<.<.e.e.e.e.e.e.e.e.e.e.<.<.e.e.e.e.e.e.e.e.e.e.e.e.e.e.e.e.e.e.e.s.:.v Z.g.s.s.s.s.e.s.s.s.s.s.s.s.e.e.s.s.s.e.e.e.s.s.s.s.s.s.s.s.e.e.s.s.s.s.s.s.s.e.e.e.e.e.s.e.s.e.s.s.s.s.e.e.e.e.e.e.e.e.s.s.s.e.s.s.s.s.s.s.s.s.s.g.e.s.s.s.:.V Z.s.e.s.e.s.s.e.s.s.e.e.e.e.s.s.s.s.s.s.s.s.s.s.e.e.e.e.e.s.s.s.s.s.s.e.e.e.s.s.s.s.s.s.s.s.s.s.s.s.e.s.s.s.s.e.s.s.e.e.e.e.e.e.s.s.e.e.e.e.e.e.s.e.s.s.s.s...S G.s.e.s.e.e.s.e.e.e.e.e.e.e.s.s.s.s.s.s.s.s.s.s.s.s.s.s.s.s.e.e.e.e.e.e.e.e.e.e.s.e.e.s.s.s.s.s.e.e.s.s.s.s.e.e.e.s.s.s.s.s.s.s.s.s.s.s.s.s.e.e.s.g.e.s.s.g.%.: ",
"G.g.e.e.s.s.s.s.s.s.s.s.s.e.e.e.s.s.s.s.s.s.s.s.s.s.s.s.s.s.e.e.e.s.s.s.s.s.s.s.s.s.s.e.e.e.e.e.s.s.s.s.s.s.s.s.e.e.e.e.e.e.s.s.s.s.s.s.s.s.s.s.s.e.s.e.s.s.s.V :.Z.e.s.e.s.e.s.e.e.e.e.s.s.s.s.s.s.s.s.s.s.s.s.s.s.s.s.s.s.s.s.s.s.s.s.s.s.s.s.s.e.s.s.e.s.s.s.s.s.s.s.s.s.s.s.s.e.e.e.e.s.e.e.s.s.s.s.s.s.s.s.s.e.g.s.s.s.s.V e.M.s.s.s.e.s.s.s.s.e.e.e.e.s.s.s.s.s.e.e.e.e.e.s.s.s.s.e.s.s.s.s.s.s.e.s.s.s.s.s.s.s.s.s.s.s.s.e.e.e.e.e.e.e.e.e.e.e.e.s.s.s.s.s.s.e.e.e.e.e.e.s.e.g.e.s.s.s.v s.M.e.e.s.e.s.e.e.e.e.e.e.e.e.e.e.e.e.e.s.s.s.s.s.s.s.e.e.s.s.s.s.s.s.e.e.e.e.e.s.s.s.s.s.s.s.s.e.e.e.e.s.s.s.s.s.s.e.e.e.e.s.s.s.s.s.s.s.s.s.s.s.s.e.s.s.g.<.v s.s.e.<.e.e.e.e.e.e.e.e.e.e.e.e.e.e.e.e.e.e.e.e.e.e.e.e.e.e.e.e.e.e.e.e.e.e.e.e.e.e.e.e.e.e.e.e.e.e.e.e.e.e.e.e.<.<.<.e.e.e.e.e.e.e.e.e.e.e.e.e.e.e.e.e.e.s.:.v M.g.s.s.s.s.s.s.s.s.s.s.s.s.e.e.s.s.e.e.e.e.s.s.s.s.s.s.s.s.e.e.s.s.s.s.s.s.e.e.e.e.s.s.s.e.e.e.s.s.s.s.e.e.e.e.e.e.e.e.s.s.s.e.s.s.s.s.s.s.s.s.s.g.e.s.s.s.:.V Z.s.e.s.e.s.s.e.s.s.e.e.e.e.s.s.s.s.s.s.e.e.e.e.e.e.e.e.e.s.s.s.s.s.s.e.e.s.s.s.s.s.s.s.s.s.s.s.s.s.e.e.s.s.s.s.s.s.e.e.e.e.e.e.e.e.e.e.e.e.e.e.s.s.s.s.s.s...S G.s.<.s.e.e.s.e.e.e.e.e.e.s.s.s.s.s.s.s.s.s.s.s.s.s.s.s.s.e.e.e.s.s.s.s.s.s.s.s.e.e.s.s.s.s.s.s.e.e.s.s.s.s.e.e.e.s.e.s.s.s.s.s.s.s.s.s.s.s.e.e.e.s.s.s.s.g.%.: ",
"G.M.e.e.s.s.e.e.s.s.s.s.e.e.e.e.s.s.s.s.s.s.s.s.s.s.s.s.e.e.e.e.e.s.s.s.s.s.s.s.e.e.e.e.e.e.e.s.s.s.s.e.e.e.e.e.e.e.e.e.e.s.s.s.s.s.s.s.s.s.s.s.s.e.g.s.s.s.s.V :.Z.e.s.e.s.e.s.e.e.e.s.s.s.s.s.s.s.s.s.s.s.s.s.e.e.e.e.s.s.s.e.s.s.s.s.s.s.s.s.e.e.e.e.e.e.e.e.s.s.s.s.s.s.s.s.s.s.e.e.s.s.s.e.s.s.s.s.s.s.s.s.s.e.g.s.s.s.s.V e.M.s.e.s.e.s.s.s.s.s.e.e.s.s.s.s.s.s.e.e.e.e.e.s.s.s.e.e.s.s.s.s.s.s.e.e.s.s.s.s.s.s.s.s.s.s.s.e.e.e.e.s.s.s.s.s.s.e.e.e.e.e.e.s.s.e.e.e.e.e.e.s.e.g.e.s.s.s.v e.M.e.e.s.e.s.s.e.s.e.s.e.e.e.e.e.s.s.s.s.s.e.e.s.s.s.e.e.s.s.s.s.s.s.e.e.e.s.s.s.s.s.s.s.s.s.e.e.e.e.e.e.e.s.s.s.s.s.e.s.s.s.s.s.s.s.s.s.s.s.s.s.s.e.s.e.g.<.v s.s.e.e.e.e.e.e.e.e.e.e.e.e.e.e.e.e.e.e.e.e.e.e.e.e.e.e.e.e.e.e.e.e.e.e.e.e.e.e.e.e.e.e.<.e.e.e.e.e.e.e.e.e.e.e.e.e.<.e.e.e.e.e.e.e.e.e.e.e.e.e.e.e.e.e.e.s.:.v M.s.e.e.s.s.s.s.s.s.s.s.s.s.e.e.e.e.s.s.s.e.s.s.s.s.s.s.s.s.e.e.s.s.s.s.s.s.e.e.e.e.s.s.s.s.e.e.e.e.s.s.e.e.s.s.e.e.e.e.e.s.s.e.s.s.s.e.e.s.s.e.e.s.e.s.s.s.:.V Z.s.e.s.e.e.s.e.e.e.s.s.s.s.e.e.s.s.s.e.e.e.e.e.s.s.e.e.s.s.s.s.s.s.e.e.e.e.s.s.s.s.s.s.s.s.s.s.s.e.e.e.e.s.s.e.e.s.s.s.e.e.e.e.s.e.e.e.e.e.s.s.s.e.s.s.s.s.%.S G.s.<.s.e.e.s.s.e.s.s.s.s.s.s.s.s.s.s.s.s.s.s.s.s.s.s.s.s.e.e.e.s.s.s.s.s.s.s.s.e.s.s.s.s.s.s.e.e.s.s.s.e.e.e.e.e.e.e.s.s.s.s.e.s.s.s.s.s.s.e.e.e.s.e.s.s.g.%.: ",
"G.M.s.e.s.s.e.e.e.e.e.e.e.e.s.s.s.s.s.s.s.s.s.s.s.s.s.s.e.e.e.e.e.s.s.s.s.s.s.s.e.e.e.e.e.e.e.s.s.s.e.e.e.e.e.<.e.e.e.s.s.s.s.s.s.s.s.s.s.s.s.s.s.e.g.s.s.s.s.V :.Z.e.s.e.s.e.s.e.e.e.s.s.s.s.s.s.s.s.s.s.s.s.s.e.e.e.e.s.s.s.e.s.s.s.s.s.s.s.s.e.e.e.e.e.e.e.e.s.s.s.s.s.s.s.s.s.s.s.e.s.s.s.s.s.s.s.s.s.s.s.s.s.e.g.s.s.s.s.V e.M.s.s.s.e.s.e.s.s.s.e.e.e.s.s.s.s.s.e.e.e.e.e.s.s.s.e.e.e.s.s.s.s.e.e.e.e.s.s.s.s.s.s.s.s.s.s.s.s.s.s.s.s.s.s.s.s.s.e.e.e.e.e.s.s.e.e.e.e.e.e.s.e.g.e.s.s.s.v e.M.s.s.g.e.s.e.s.s.s.s.s.s.e.e.e.s.s.s.s.s.e.e.s.s.s.e.s.s.s.s.s.e.e.e.e.e.s.s.s.s.s.s.e.e.e.e.e.e.e.e.e.e.s.s.s.s.s.s.e.s.s.s.s.s.s.s.s.s.s.s.s.s.e.s.s.g.<.v s.s.e.e.e.e.e.e.e.e.e.e.e.e.e.e.e.e.e.e.e.e.e.e.e.e.e.e.e.e.e.e.<.<.<.<.<.<.<.<.e.e.e.e.e.e.e.e.e.e.e.e.e.e.e.e.<.e.e.e.e.e.e.e.e.e.e.e.e.e.e.e.e.e.e.e.e.s.:.v M.s.e.e.s.s.s.s.s.s.s.s.s.s.e.e.e.s.s.s.s.s.e.e.e.s.s.s.s.s.s.e.s.s.s.s.s.e.e.e.e.e.s.s.s.s.e.e.e.e.e.s.s.s.s.s.e.e.e.e.e.s.s.e.s.s.s.e.e.e.e.e.e.g.e.s.s.s.:.V M.e.e.s.e.e.s.e.e.e.s.s.s.s.e.e.s.s.s.e.e.e.e.e.s.s.e.e.s.s.s.s.s.s.e.e.e.e.s.s.s.s.s.s.s.s.s.s.e.e.e.e.e.e.e.e.e.e.s.s.s.s.s.s.s.e.e.e.e.s.s.s.s.e.s.s.s.s.%.S G.s.e.s.s.e.s.s.s.s.s.s.s.s.s.s.s.s.s.s.s.s.s.s.s.s.s.s.s.e.e.e.s.s.s.s.s.s.s.s.s.s.s.s.s.s.e.e.e.e.e.e.e.e.e.e.e.e.e.s.s.s.e.e.s.s.s.s.s.s.e.e.e.s.e.s.s.g.%.: ",
"G.M.s.s.s.s.s.s.e.e.e.e.e.e.e.s.s.s.s.e.e.s.s.s.e.e.e.e.e.e.e.e.s.s.s.e.e.e.e.e.s.s.s.s.s.s.s.s.s.s.s.e.e.e.s.s.e.e.s.s.s.s.s.s.s.s.s.s.e.s.s.s.s.s.s.s.s.e.g.V :.M.e.s.e.s.s.e.s.s.s.s.s.s.e.e.s.s.s.e.e.s.s.s.e.e.e.s.s.s.e.e.s.s.s.s.s.s.s.e.e.e.e.e.e.e.s.s.s.s.s.s.s.s.s.s.s.s.s.s.s.s.s.s.e.s.s.s.s.s.e.e.s.e.s.s.s.s.s.V e.M.e.s.s.e.s.e.e.e.s.s.s.s.s.s.s.s.s.s.s.s.s.s.e.s.s.s.s.s.s.s.s.s.s.s.s.s.s.s.e.e.e.e.e.e.e.s.e.s.s.s.s.s.s.e.s.s.s.s.s.s.e.s.e.e.e.e.s.s.s.s.s.e.g.s.s.s.e.v s.g.s.e.s.s.e.s.s.s.s.e.e.s.s.s.s.s.s.s.s.s.s.s.e.e.s.s.e.s.s.s.e.e.s.s.s.e.e.e.s.s.s.s.e.e.e.e.e.e.e.e.s.s.s.s.s.s.s.e.e.e.e.e.e.e.e.s.s.s.s.e.s.s.e.s.e.s.<.v g.s.e.e.e.e.e.e.e.e.e.e.e.e.<.<.<.<.<.e.e.e.e.e.e.e.e.e.e.e.e.e.e.e.e.e.e.e.e.e.e.e.e.e.e.e.e.e.e.e.e.e.e.e.e.e.<.<.<.e.e.e.e.e.e.e.e.e.e.e.e.e.<.e.e.e.e.e.:.p Z.g.s.s.s.s.e.e.s.s.s.s.s.s.s.s.s.s.s.s.s.s.s.s.e.e.s.s.s.s.s.s.s.s.s.s.e.e.e.<.e.e.s.s.s.s.e.e.e.e.s.s.s.s.s.s.s.s.s.s.s.s.s.s.e.e.e.s.s.e.s.s.e.s.s.s.s.g.%.S Z.g.e.e.s.s.s.s.e.e.s.s.s.s.s.s.e.e.e.e.e.e.s.s.s.s.s.s.s.s.s.s.s.s.s.e.e.e.s.s.s.e.e.e.e.e.e.e.<.e.e.e.e.e.e.e.e.s.s.s.s.s.s.s.s.s.s.s.s.s.s.s.s.e.s.s.s.s.%.S G.s.s.s.e.s.g.s.e.e.e.s.s.s.s.s.s.e.e.e.e.s.s.s.s.s.s.s.s.s.s.s.e.e.e.e.e.e.s.s.s.s.s.s.e.e.e.e.s.s.s.s.s.s.s.s.s.s.s.s.s.e.e.e.s.s.s.s.s.s.s.s.s.s.s.g.e.g.%.- ",
"G.M.s.s.s.e.e.e.e.e.e.e.e.e.e.s.s.s.s.e.e.s.s.s.e.e.s.e.s.s.s.s.s.s.s.e.e.e.e.e.s.s.s.s.s.s.s.s.s.s.s.e.e.e.s.s.e.e.s.s.s.s.s.s.s.s.s.e.e.s.s.s.s.s.e.s.s.e.g.V :.M.e.s.e.s.s.s.s.s.s.s.s.s.e.e.s.s.s.e.e.s.s.s.e.e.e.s.s.s.e.e.e.s.s.s.s.s.s.e.e.e.e.e.e.e.s.s.s.s.s.s.s.s.s.s.s.s.s.s.s.s.s.s.e.s.s.s.s.s.e.e.s.<.s.e.s.s.s.V e.M.s.e.s.e.s.e.e.e.s.s.s.s.s.s.s.s.s.s.s.s.s.s.e.e.s.s.s.s.s.s.s.s.s.s.s.s.s.s.e.e.e.e.e.e.e.s.e.s.s.s.s.s.s.e.s.s.s.s.s.s.e.e.e.e.e.e.s.s.s.s.s.e.s.s.s.s.e.v s.g.s.e.s.s.e.s.s.s.s.e.e.s.s.s.s.s.s.s.s.s.s.s.e.e.s.s.e.s.s.s.e.e.e.s.s.s.s.s.s.s.s.s.e.e.e.e.e.e.e.s.s.s.s.s.s.s.s.e.e.e.e.e.e.e.e.s.s.s.s.e.s.s.e.s.e.s.<.v g.s.e.e.e.e.e.e.e.e.e.e.e.e.e.e.e.e.e.e.e.e.e.e.e.e.e.e.e.e.e.e.e.e.e.e.e.e.e.e.e.e.e.e.e.e.e.e.e.e.e.e.e.e.e.e.<.e.e.e.e.e.e.e.e.e.e.e.e.e.e.e.e.e.e.e.<.e.:.p Z.g.s.s.s.s.e.e.s.s.s.s.s.s.s.s.s.s.s.s.s.s.s.s.s.s.s.e.s.e.s.s.s.s.s.s.e.e.e.e.e.e.s.s.s.s.e.e.e.e.s.s.s.s.s.s.s.s.s.s.s.s.s.s.e.e.e.s.s.s.s.s.e.e.s.s.s.g.%.S Z.g.e.e.s.s.s.s.e.e.s.s.s.s.s.s.s.s.s.s.s.s.s.s.s.s.s.s.s.s.s.s.s.s.s.e.e.e.s.s.e.e.e.e.e.e.e.e.e.e.e.e.e.s.s.s.e.e.s.s.s.s.s.s.s.s.s.s.s.s.s.s.s.e.s.s.s.s.%.S Z.s.s.s.s.s.s.e.e.e.e.s.s.s.s.s.s.e.e.e.e.s.s.s.s.s.s.s.s.s.s.s.s.e.e.e.s.s.s.s.s.s.s.s.e.e.e.s.s.s.s.s.s.s.s.s.s.s.s.s.s.s.s.s.s.s.s.s.s.s.s.s.s.s.s.g.e.s...- ",
"G.M.s.e.e.e.e.e.e.e.e.e.e.e.e.e.s.s.s.e.e.s.s.s.e.e.e.e.s.e.s.s.s.s.s.s.e.e.e.s.s.s.s.s.s.s.s.s.e.s.s.e.e.e.s.s.e.s.s.s.s.s.s.s.s.s.e.e.e.e.s.s.s.e.e.s.s.e.g.V :.M.e.s.e.s.s.e.s.s.s.s.s.s.e.e.s.s.s.e.e.s.s.s.e.e.s.s.s.s.s.s.e.e.s.s.s.e.e.e.e.e.e.e.e.s.s.s.s.s.s.s.s.s.s.s.s.s.s.s.s.s.s.s.e.s.s.s.s.s.e.e.s.<.s.e.s.s.s.V e.M.e.e.s.e.s.e.e.e.s.s.s.s.s.s.s.s.s.s.s.s.s.s.e.e.e.s.s.s.s.s.s.s.s.s.s.s.s.s.e.e.e.e.e.e.e.e.e.s.s.s.s.s.s.e.s.e.s.s.s.s.e.e.e.e.e.e.s.s.s.s.s.e.g.e.s.s.e.v s.M.s.e.s.s.e.s.s.s.s.e.e.s.s.s.s.s.s.s.s.s.s.s.s.s.s.e.e.s.s.e.e.e.e.s.s.s.s.s.e.e.e.e.s.e.e.e.s.s.s.s.s.s.s.s.s.s.s.e.e.e.s.s.e.e.e.s.s.s.s.e.s.s.e.s.e.g.<.v g.s.e.e.e.e.e.e.e.e.e.e.e.e.e.e.e.e.e.e.e.e.e.e.e.e.e.e.e.e.e.e.e.e.e.e.e.e.e.e.e.e.e.e.e.e.e.e.e.e.e.e.e.e.e.e.e.e.e.e.e.e.e.e.e.e.e.e.e.e.e.e.e.e.e.e.<.e.:.v Z.g.e.e.s.e.e.s.s.s.s.s.s.s.s.s.s.s.s.s.s.s.s.s.s.e.e.e.e.e.s.s.s.s.e.e.e.e.e.e.e.s.s.s.s.s.e.e.e.e.e.s.s.s.s.e.s.s.s.s.s.s.s.s.s.s.s.s.s.s.s.s.e.e.s.e.s.g.%.V Z.g.e.e.s.s.s.s.s.s.s.s.s.s.s.s.s.s.s.s.s.s.s.s.s.s.s.s.s.s.s.s.s.s.s.s.e.e.e.s.e.e.e.e.e.e.e.e.s.s.s.s.s.s.s.s.s.e.s.s.s.s.s.s.s.s.s.s.s.s.s.s.s.e.s.s.s.s.%.S Z.s.s.s.e.s.s.e.e.e.s.s.s.s.s.s.s.s.e.e.e.s.s.s.e.e.e.e.e.s.s.s.e.e.s.s.s.s.s.e.e.e.s.s.e.s.s.s.s.s.s.s.s.s.s.s.s.s.s.s.s.s.s.s.s.s.s.s.s.s.s.s.s.s.s.s.e.s...- ",
"J.M.e.e.e.e.e.e.e.e.e.s.e.e.s.s.s.s.s.e.e.s.s.s.e.e.e.e.s.s.s.s.s.e.s.s.e.e.e.e.s.s.s.s.s.s.s.s.e.s.s.e.e.e.s.s.s.s.s.s.s.s.s.s.s.e.e.e.e.e.s.s.s.e.e.s.s.e.g.V :.M.e.s.e.s.s.e.s.s.s.s.s.s.e.e.s.s.s.e.e.s.s.s.e.e.e.s.s.s.s.s.e.e.e.e.e.e.e.e.e.e.e.e.e.s.s.s.s.s.s.s.s.s.s.s.s.s.s.s.s.s.s.s.s.s.s.s.s.s.e.e.s.e.s.e.s.s.s.V e.M.e.e.s.e.s.e.e.s.s.s.s.s.s.s.s.s.s.s.s.s.s.s.e.e.e.e.s.s.s.s.s.s.s.s.s.e.e.e.e.e.s.e.e.e.s.s.e.s.s.s.s.s.s.e.e.e.s.s.s.s.e.e.e.e.e.e.s.s.s.s.g.e.g.s.s.s.e.v s.M.s.e.s.s.e.s.s.s.s.e.e.s.s.s.s.s.s.s.s.s.s.s.s.s.s.e.e.e.e.e.e.e.s.s.s.s.s.s.e.e.e.e.e.s.s.s.s.s.s.s.s.s.s.s.s.s.s.e.e.e.s.s.e.e.e.s.s.s.s.e.s.s.e.s.e.g.<.v g.s.e.e.e.e.e.e.<.<.e.e.e.e.e.e.e.e.e.e.e.e.e.e.e.e.e.e.e.e.e.e.e.e.e.e.e.e.e.e.e.e.e.e.e.e.e.e.e.e.e.e.e.e.e.e.e.e.e.e.e.e.e.e.e.e.e.e.e.e.e.e.e.e.e.e.<.e.:.v Z.g.e.e.e.e.e.s.s.s.s.s.s.s.s.s.s.s.s.s.s.s.s.s.e.e.e.e.e.e.e.e.s.s.e.e.e.e.s.s.s.s.s.s.s.e.e.e.e.e.s.s.s.s.e.e.s.s.s.s.s.s.s.s.s.s.s.s.s.s.s.s.e.e.s.e.s.g.%.S Z.g.e.s.s.s.s.s.s.e.s.s.s.s.s.s.s.s.s.s.s.s.s.s.s.s.s.s.s.s.s.s.s.s.s.e.e.e.e.e.e.e.e.e.e.s.s.s.s.s.s.s.s.s.s.s.s.s.s.s.s.s.s.s.s.s.s.s.s.s.s.s.s.e.s.s.s.s.%.S Z.s.e.s.e.s.s.e.s.s.s.s.s.s.s.s.s.s.e.e.s.s.e.e.e.e.e.e.e.e.s.s.e.s.s.s.s.s.e.e.e.e.s.e.e.s.s.s.e.s.e.e.e.e.s.s.e.e.s.s.s.s.s.s.s.s.s.s.s.s.s.s.s.s.s.s.<.s...- ",
"G.M.s.e.e.e.e.e.s.s.e.e.s.s.s.s.s.s.s.e.e.s.s.s.e.e.e.e.e.e.e.e.s.s.s.s.e.e.e.s.s.s.s.s.s.s.s.s.e.s.s.s.e.e.e.s.s.s.s.s.s.s.s.s.e.e.e.e.s.s.s.s.s.s.s.s.s.e.g.V :.M.e.s.e.s.s.s.s.s.s.s.s.s.s.s.s.s.s.s.e.s.s.s.e.e.s.s.s.s.s.s.e.e.s.e.e.e.e.e.s.s.e.e.s.s.s.s.s.s.s.s.s.s.s.s.s.s.s.s.s.s.s.s.s.s.s.s.e.e.e.e.s.<.s.e.s.s.s.V e.M.s.s.s.e.s.e.s.s.s.s.s.s.s.s.s.s.s.s.s.s.s.s.e.e.s.s.s.s.s.s.s.s.s.s.s.e.e.e.s.s.e.e.s.s.s.s.e.s.s.s.s.s.s.s.e.s.s.s.s.s.s.s.e.e.e.e.s.s.s.s.g.e.s.s.s.s.s.v s.M.s.e.s.s.e.s.s.s.s.e.e.s.s.s.s.s.s.s.s.s.s.s.s.s.s.e.e.e.e.e.s.s.s.s.s.s.e.e.e.e.e.e.s.s.s.s.s.s.s.s.s.s.s.s.s.s.s.e.e.e.s.s.e.e.s.s.s.s.s.e.s.s.e.s.e.g.<.v g.s.e.e.e.e.e.e.<.<.e.e.e.e.e.e.e.e.e.e.e.e.e.e.e.e.e.e.e.e.e.e.e.e.e.e.e.e.e.e.e.e.e.e.e.e.e.e.e.e.e.e.e.e.e.e.e.e.e.e.e.e.<.<.e.e.e.e.e.e.e.e.e.e.e.e.<.e.:.v Z.g.e.e.e.e.e.s.s.s.s.s.s.s.s.s.s.s.s.s.s.s.s.s.e.e.e.e.e.e.e.e.s.s.e.e.e.e.s.s.s.s.s.s.e.e.e.e.s.s.s.s.s.e.e.e.s.s.s.s.s.s.s.s.s.s.s.s.s.s.e.e.s.s.s.e.s.g.%.V Z.g.e.s.s.s.s.s.s.s.s.s.s.s.s.s.s.s.s.s.s.s.s.s.s.s.s.s.s.s.s.s.e.e.e.e.s.s.s.e.e.s.s.s.s.s.s.s.s.s.s.s.s.s.s.s.s.s.s.s.s.s.s.e.s.s.s.s.s.s.s.s.s.e.s.s.s.s.%.S Z.s.s.s.e.s.s.e.s.s.s.s.s.s.s.s.s.s.s.s.e.s.e.e.e.e.e.e.e.e.s.s.e.s.s.s.s.s.e.e.e.e.e.e.e.s.s.s.e.e.e.e.e.e.s.s.s.e.e.s.s.s.s.s.s.s.s.s.s.s.s.s.e.e.e.s.<.s.%.: ",
"G.g.s.e.s.e.e.s.s.s.e.s.s.s.s.s.s.s.s.e.e.s.s.s.s.s.s.s.s.s.s.s.s.s.s.s.e.s.s.s.s.s.s.s.s.s.s.s.e.s.s.e.e.e.e.s.s.s.s.s.s.s.s.e.e.e.e.e.e.s.s.s.s.s.s.s.s.e.g.V :.M.e.s.e.s.s.s.s.s.s.s.s.s.s.s.s.s.s.s.e.s.s.s.s.e.s.s.s.e.e.e.s.s.s.e.e.e.e.s.s.s.s.s.s.s.s.s.s.s.s.s.s.s.s.s.s.s.s.s.s.s.s.s.s.s.s.e.s.e.e.e.s.<.s.e.s.s.s.V e.M.e.s.s.e.s.e.s.s.s.s.s.s.e.s.s.s.s.s.s.s.s.s.e.e.e.s.s.s.e.e.s.s.s.s.s.s.s.s.s.s.e.s.s.s.s.s.e.s.s.s.s.s.s.s.e.e.s.s.s.s.s.s.s.s.s.s.s.s.s.s.g.e.g.s.s.s.e.v s.M.s.e.s.s.e.s.s.s.s.e.e.s.s.s.s.s.s.s.s.s.s.s.s.s.s.e.e.e.e.e.s.s.s.s.e.e.e.e.e.e.e.s.s.s.s.s.s.s.s.s.s.s.s.s.s.s.s.e.e.e.s.s.e.e.s.s.s.s.s.e.s.s.e.s.e.g.<.v g.s.e.e.<.e.e.e.e.e.e.e.e.e.e.e.e.e.e.e.e.e.e.e.<.<.e.e.e.e.e.e.e.e.e.e.e.e.e.e.e.e.e.e.e.e.e.e.e.e.e.e.e.e.e.e.e.e.e.e.e.e.e.e.e.e.e.e.e.e.e.e.e.e.e.e.<.e.:.v M.g.e.e.e.e.e.s.s.s.s.s.s.s.s.s.s.s.s.s.s.s.s.s.e.e.e.e.e.e.s.e.s.s.e.e.s.s.s.s.s.s.s.e.e.s.e.e.s.s.s.s.s.e.e.e.s.s.s.s.s.s.s.s.s.s.s.s.e.e.e.e.s.s.s.e.s.g.%.V Z.g.e.s.s.s.s.s.e.e.s.s.s.s.s.s.e.e.e.e.e.e.e.e.s.s.s.s.s.s.s.s.e.e.e.e.s.s.s.e.s.s.s.s.s.s.s.s.s.s.s.s.s.s.s.s.s.s.s.s.s.s.e.e.s.s.s.s.s.s.s.s.s.s.s.s.s.s.%.S G.s.e.s.e.e.s.e.s.s.s.s.s.s.s.s.s.s.s.s.s.e.e.e.e.e.e.e.e.s.s.s.e.s.s.s.s.e.e.e.e.e.e.e.e.s.s.s.e.e.e.e.e.e.s.s.s.s.s.s.s.s.s.s.s.s.s.s.s.s.s.s.e.e.e.s.e.s.%.: ",
"Z.M.s.s.s.s.s.s.s.s.s.s.s.s.s.s.s.s.s.e.e.s.s.s.s.s.s.s.s.s.s.s.e.e.e.e.e.s.s.s.s.s.s.s.s.s.s.s.s.s.s.e.e.e.s.s.s.s.s.s.s.e.e.e.e.e.e.e.e.s.s.s.s.s.s.s.s.e.g.v :.M.e.s.e.s.s.s.s.s.s.s.s.s.s.s.s.s.s.e.e.s.s.s.s.s.s.s.s.e.e.e.s.s.s.s.e.e.s.s.s.s.s.s.s.s.s.s.s.s.s.s.s.s.s.s.s.s.s.s.s.s.s.s.s.s.s.e.e.e.e.e.s.e.s.e.s.s.s.V e.M.s.e.s.e.s.e.s.s.s.s.s.s.s.e.s.s.s.s.s.s.s.s.e.e.e.e.s.s.s.e.s.s.s.s.s.s.s.s.s.s.s.s.s.s.s.s.s.s.s.s.s.s.s.e.e.e.s.s.s.s.s.e.s.s.s.s.s.s.s.s.g.e.g.s.s.s.s.v s.M.s.e.s.s.e.s.s.s.s.e.e.s.s.s.s.s.s.s.s.s.s.s.s.s.s.s.e.s.s.s.s.s.s.s.s.e.e.e.s.s.s.s.s.s.s.s.e.e.s.s.s.s.s.s.s.s.s.e.e.s.s.s.e.e.s.s.s.s.s.s.s.s.e.s.e.g.<.v g.s.e.<.<.e.e.e.e.e.e.e.e.e.e.e.e.e.e.e.e.e.e.e.e.e.e.e.e.e.e.e.e.e.e.e.e.e.e.e.e.e.e.e.e.e.e.e.e.e.e.e.e.e.e.e.e.e.e.<.e.e.e.e.e.e.e.e.e.e.e.e.<.e.e.e.e.e.:.v M.s.e.e.e.e.e.s.s.s.s.s.s.s.s.s.s.s.s.s.s.s.s.s.e.e.s.s.s.s.s.s.s.s.s.s.s.s.s.s.s.s.s.s.s.s.e.s.s.s.s.s.s.e.e.e.s.s.s.s.s.s.s.s.s.s.s.e.e.e.e.e.s.s.s.s.s.g.%.S Z.g.e.s.s.s.s.s.e.e.s.s.s.s.s.s.e.e.e.e.e.e.e.e.s.s.e.e.e.e.e.e.e.e.s.s.s.s.e.e.s.s.s.s.s.s.s.s.s.s.s.s.s.s.s.s.s.s.s.s.s.s.e.e.s.s.s.s.s.s.s.s.s.s.s.s.s.s.%.S G.s.e.e.e.e.s.s.s.s.s.s.s.e.s.s.s.s.s.s.s.s.e.e.e.e.s.s.s.s.s.s.s.s.s.s.e.e.e.e.s.s.s.s.e.e.e.e.s.s.e.e.e.e.e.e.s.s.s.s.s.s.s.s.s.s.s.s.s.s.s.s.e.e.e.s.e.g.%.: ",
"Z.g.s.s.s.s.s.s.s.s.s.s.s.s.s.s.s.s.s.e.s.s.s.s.s.s.s.s.s.s.s.s.e.e.e.e.e.s.s.s.s.s.s.s.s.s.s.s.s.s.s.e.e.e.s.s.s.s.s.s.e.e.e.e.e.e.e.e.e.s.s.s.s.s.s.s.s.e.g.v %.M.e.s.e.s.s.s.s.s.s.s.s.s.e.e.s.s.s.e.e.s.s.s.s.s.s.s.e.e.e.e.s.s.s.s.e.e.s.s.s.s.s.s.s.s.s.s.s.s.s.s.s.s.s.s.s.s.s.s.s.s.s.s.s.s.s.s.e.e.e.s.s.e.s.e.s.s.s.V e.M.s.e.s.e.s.e.s.s.s.s.s.s.e.e.s.s.s.s.s.s.s.s.e.e.e.e.s.s.e.e.e.e.e.s.s.s.s.s.s.s.s.s.s.s.s.s.s.s.s.s.s.s.s.e.e.e.s.s.s.s.e.e.s.s.s.s.s.s.s.s.g.e.g.s.s.s.s.v s.M.s.e.s.s.e.s.s.s.s.e.e.s.s.s.s.s.s.s.s.s.s.s.e.e.s.e.e.s.s.s.e.e.s.s.s.s.e.e.s.s.s.s.s.e.s.s.e.e.e.e.s.s.s.s.s.s.s.e.e.e.s.s.e.e.s.s.s.s.s.s.s.s.e.s.e.g.<.v s.s.e.<.<.e.e.e.e.e.e.e.e.e.<.<.e.e.e.e.e.e.e.e.e.e.e.e.e.e.e.e.e.e.e.e.e.e.e.e.e.e.e.e.e.e.e.e.e.e.e.e.e.e.e.e.e.e.e.e.e.e.e.e.e.e.e.e.e.e.e.e.<.e.e.e.e.s.:.p M.s.e.e.s.e.e.e.s.s.s.s.s.s.s.s.s.s.s.s.s.s.s.s.e.e.s.s.s.s.s.s.s.s.s.s.s.s.e.e.s.e.e.e.s.s.s.s.s.s.s.s.s.e.e.e.s.s.s.s.s.s.s.s.e.s.e.e.e.e.e.<.s.s.s.s.s.g.%.V Z.g.e.s.s.s.s.s.e.e.s.s.s.s.s.s.e.e.e.e.e.e.e.e.s.s.e.e.e.e.e.e.e.e.e.s.s.s.e.e.s.s.s.s.s.s.s.s.s.s.s.s.s.s.s.s.s.s.s.s.s.s.e.e.s.s.s.s.s.s.s.s.s.s.s.s.s.s.%.S G.s.e.e.<.e.s.s.s.s.s.s.s.e.s.s.s.s.s.s.s.s.e.e.s.s.s.s.s.s.s.s.s.s.s.s.e.e.e.e.s.s.s.s.e.e.e.e.e.e.e.e.e.e.e.e.s.s.s.s.s.e.e.e.s.s.s.s.s.s.s.s.s.s.s.g.e.g.%.- ",
"G.M.s.s.s.s.s.s.s.s.s.s.s.s.s.s.e.s.s.s.s.s.e.e.e.e.s.s.s.s.e.e.e.e.e.s.s.s.s.s.s.s.s.s.s.s.s.s.s.s.s.s.s.s.s.s.s.s.s.s.s.e.e.e.e.e.e.e.s.s.s.s.s.<.s.e.s.s.s.V :.M.e.g.e.s.e.e.s.s.s.s.s.s.s.s.e.e.s.s.s.s.s.s.s.s.s.s.s.s.s.s.s.s.s.s.s.s.s.s.s.s.s.s.s.e.e.e.s.s.e.e.e.e.s.s.e.e.s.s.s.s.e.e.s.s.s.s.s.s.s.s.s.e.s.e.s.s.s.v s.Z.s.s.s.e.s.s.s.s.e.e.s.s.s.e.e.e.s.s.s.s.s.s.s.s.e.e.e.s.s.s.s.s.s.s.s.s.s.s.s.s.s.s.s.e.e.e.s.s.s.s.s.s.s.s.s.s.s.s.s.s.s.s.s.s.s.s.s.s.s.s.s.e.s.e.s.s.e.v g.g.s.s.e.e.e.e.s.s.e.e.e.s.s.s.s.s.s.s.s.s.s.s.<.e.e.e.s.s.s.s.s.s.s.s.s.s.s.s.s.s.e.e.e.e.s.s.e.e.e.e.s.s.s.e.s.s.s.s.s.s.s.s.s.s.s.s.s.s.s.s.e.s.e.s.s.g.<.v g.s.e.e.e.s.s.s.e.e.e.e.e.e.e.e.e.<.e.e.e.e.e.e.e.e.e.e.e.e.e.e.e.e.e.e.e.e.e.e.e.e.e.e.e.e.e.e.e.e.e.e.e.e.e.e.e.e.e.e.e.e.e.e.e.e.e.e.e.e.<.<.e.s.e.s.e.e.:.v M.g.s.s.s.s.s.s.s.s.s.s.s.s.e.e.s.s.s.s.s.s.s.s.s.s.s.s.s.s.s.s.s.s.s.s.s.s.s.s.s.s.s.s.s.s.s.s.s.s.s.e.e.e.e.e.e.s.s.s.s.s.s.e.s.s.e.e.s.s.e.e.e.e.s.s.e.s.%.v Z.g.e.s.s.s.s.e.s.e.e.s.s.s.s.e.e.e.e.e.e.e.e.e.<.e.e.e.e.e.s.s.e.e.e.e.e.e.s.s.s.s.s.s.s.s.s.s.s.s.s.s.e.s.s.s.s.s.s.s.e.e.e.e.s.s.s.s.s.e.e.e.s.e.s.s.s.s...S Z.s.e.s.s.s.s.s.s.s.s.e.e.e.e.s.s.s.e.s.e.e.e.e.s.s.s.s.s.s.s.e.e.e.e.e.e.e.e.e.s.s.s.s.s.s.s.s.e.e.e.e.e.e.e.e.s.s.s.s.s.s.s.s.e.s.s.s.s.e.e.e.s.g.s.s.s.g...: ",
"G.g.s.e.s.s.s.s.s.s.e.e.s.s.s.s.e.e.s.s.s.e.e.e.e.e.e.e.e.e.e.e.e.e.e.s.s.s.s.s.e.e.s.s.s.s.s.s.s.s.s.s.s.s.s.s.s.s.s.s.s.e.e.e.e.e.e.e.s.s.s.s.s.<.s.e.s.e.s.V :.M.e.g.e.s.e.e.s.s.s.s.s.s.s.s.s.s.s.s.s.s.s.s.s.s.s.s.s.s.s.s.s.s.s.s.s.s.s.s.s.s.s.s.s.e.e.e.s.s.e.e.e.e.s.s.e.e.e.s.s.s.e.e.s.s.s.s.s.s.s.s.s.e.s.e.s.s.s.v <.M.s.s.s.e.s.s.s.s.e.e.s.s.s.e.e.e.s.s.s.s.s.s.s.s.e.e.e.s.s.s.s.s.s.s.s.s.s.s.s.s.s.s.s.s.s.s.s.s.s.s.s.s.s.s.s.s.s.s.s.s.s.s.s.s.s.s.s.s.s.s.s.e.s.e.s.e.e.v g.g.s.s.e.e.e.e.e.e.e.e.e.e.s.e.s.s.s.s.s.s.s.s.e.e.e.e.s.s.s.s.s.s.s.s.s.s.s.s.e.s.e.e.e.e.s.s.e.e.e.e.s.s.s.e.s.s.s.s.s.s.s.s.s.s.s.s.s.s.s.s.e.s.e.s.s.g.<.v s.s.e.<.<.e.e.e.e.e.e.e.e.e.e.e.e.e.e.e.e.e.e.e.e.e.e.e.e.e.e.e.e.e.e.e.e.e.e.e.e.e.e.e.e.e.e.e.e.e.e.e.e.e.e.e.e.e.e.e.e.e.e.e.e.e.e.e.e.e.<.<.e.e.e.s.<.e.:.v M.g.s.s.s.s.e.s.s.s.s.s.s.s.e.e.s.s.s.s.s.s.s.s.s.s.s.s.s.s.s.s.s.s.s.s.s.s.s.s.s.s.s.s.s.s.s.e.s.s.e.e.e.e.e.e.s.s.s.s.s.s.e.e.s.s.e.e.s.s.s.e.s.e.s.s.e.s.%.V Z.g.s.s.s.s.e.e.e.e.e.e.s.s.s.e.s.s.s.s.s.e.s.e.e.e.e.e.e.s.s.s.e.e.e.e.e.e.s.s.s.s.s.s.s.s.s.s.s.s.s.s.e.s.s.s.s.s.s.s.e.e.e.e.s.s.s.s.s.e.e.e.s.e.s.s.s.s...S Z.e.e.s.s.s.s.s.s.s.e.e.e.e.e.s.s.e.e.e.e.e.e.e.s.s.s.s.s.s.e.e.s.e.e.e.e.e.e.e.s.s.s.s.s.s.s.s.s.s.e.e.e.e.e.e.s.s.s.s.s.s.s.s.e.s.s.s.s.e.e.e.e.g.s.s.s.s...: ",
"G.M.e.e.s.s.e.e.s.s.e.e.e.s.e.s.s.s.s.s.e.e.e.e.e.e.e.e.e.e.e.e.e.e.e.s.s.s.s.s.e.e.e.s.s.s.s.e.s.s.s.s.s.s.s.s.s.s.s.s.s.s.e.e.e.e.s.s.s.s.s.s.s.<.s.e.s.s.s.V :.M.e.g.e.s.e.e.s.s.s.s.s.s.s.s.s.s.s.s.s.s.s.s.s.s.s.s.s.s.s.s.s.s.s.s.s.s.s.s.s.s.s.s.s.s.e.e.s.s.e.e.e.e.s.s.s.e.s.s.e.s.e.s.s.s.s.s.s.s.s.s.s.e.s.e.s.s.s.V :.g.e.s.s.e.s.e.s.s.e.s.s.s.e.e.e.e.s.s.s.s.s.s.s.s.e.e.e.s.s.s.s.s.s.s.s.s.s.s.e.e.e.s.s.s.s.s.s.s.s.s.s.s.s.s.s.s.s.s.s.s.s.s.s.s.s.s.s.s.s.s.s.e.s.e.s.e.e.v s.s.s.e.e.e.e.e.e.e.e.e.e.e.e.e.s.s.s.s.s.s.s.s.e.e.s.s.s.s.s.e.s.s.e.e.e.e.e.e.e.e.s.e.e.e.e.e.e.e.e.s.s.s.s.e.s.s.s.s.s.s.s.s.s.s.s.s.s.s.s.s.e.s.e.s.s.g.<.v s.e.<.<.<.e.e.e.e.e.e.e.e.e.e.e.e.e.e.e.e.e.e.s.e.e.e.e.e.e.e.e.e.e.e.e.e.e.e.e.e.e.e.e.e.e.e.e.e.e.e.e.e.e.e.e.e.e.e.e.e.e.e.e.e.e.e.e.e.e.<.<.e.e.e.s.e.s.:.p M.g.s.s.s.s.e.s.s.s.s.s.s.s.e.e.s.s.s.s.s.s.s.s.s.s.s.s.s.s.s.s.e.e.e.e.e.e.e.e.s.s.s.s.s.e.e.e.s.s.e.e.e.s.s.s.s.s.s.e.e.e.e.e.s.s.e.s.s.s.e.e.s.e.s.s.e.s.%.V Z.g.s.s.s.s.e.e.e.e.e.e.e.e.e.e.s.s.s.s.s.s.s.s.e.e.e.s.e.s.s.s.s.s.s.s.s.s.s.s.s.s.s.s.s.s.s.s.s.s.e.e.e.e.s.s.s.s.s.e.e.e.e.e.s.s.s.s.s.e.e.e.s.e.s.s.s.s...S Z.e.e.s.s.s.s.s.s.s.e.e.e.e.s.s.e.e.e.e.s.s.s.s.s.s.s.s.s.e.e.e.s.s.s.s.s.s.s.s.s.s.s.s.s.s.s.s.s.s.s.s.s.s.s.s.s.s.s.s.s.s.s.s.e.s.s.s.s.e.e.e.e.s.s.s.e.g...: ",
"G.M.e.e.e.e.e.e.s.s.e.e.e.e.e.e.s.e.e.e.e.e.e.e.s.s.e.s.e.e.s.e.e.e.e.s.s.s.s.s.e.s.s.s.s.s.e.e.s.s.s.s.s.s.s.s.s.s.s.s.s.s.e.e.s.s.s.s.s.s.s.s.s.e.s.e.s.s.s.V :.Z.e.g.e.s.s.e.s.s.s.s.s.s.s.s.s.s.s.s.s.s.s.s.s.s.s.s.s.s.s.s.s.s.s.s.s.s.s.s.s.s.s.s.s.s.s.s.s.s.e.e.e.e.s.s.s.s.s.e.e.e.s.s.s.s.s.s.s.s.s.s.s.<.s.e.s.s.s.V <.g.e.e.s.e.s.e.e.s.e.s.s.s.e.e.e.e.s.s.s.s.s.s.s.s.e.e.e.s.s.s.s.s.s.s.s.s.s.s.e.e.e.e.s.s.s.s.s.s.s.s.s.s.s.s.s.s.s.s.s.s.s.s.s.s.s.s.s.s.s.s.s.e.s.e.s.e.e.v s.s.s.e.e.e.e.e.e.e.e.e.s.s.e.e.s.s.s.s.s.s.s.s.s.s.s.s.s.s.e.e.e.e.e.e.e.e.e.e.e.e.s.s.s.s.e.e.s.e.e.s.s.s.s.e.s.s.s.s.s.s.s.s.s.s.s.s.s.s.s.s.e.s.e.s.s.g.<.v g.s.e.e.e.e.e.e.e.e.e.e.e.e.e.e.e.e.e.e.e.e.s.s.e.e.e.e.e.e.e.e.e.e.e.e.e.e.e.e.e.e.e.e.e.e.e.e.e.e.e.e.e.e.e.e.e.e.e.e.e.e.e.e.e.e.e.e.e.e.e.<.e.e.e.e.<.e.:.p M.g.s.s.s.s.e.s.s.s.s.s.s.s.e.e.s.s.s.s.s.s.s.s.s.s.s.s.s.s.s.s.e.e.e.e.e.e.e.e.s.s.s.e.e.e.e.e.s.e.e.e.s.e.s.s.s.s.e.e.e.e.e.e.s.s.e.s.s.s.e.e.g.e.s.s.e.s.%.V Z.g.e.e.s.e.e.e.s.s.e.e.e.e.e.e.s.s.s.s.s.s.s.s.e.e.s.s.s.s.s.s.s.s.s.s.s.s.s.s.s.s.s.s.s.s.s.s.s.s.e.e.e.e.s.s.s.s.s.e.e.e.e.s.s.s.s.s.s.e.e.e.s.e.s.s.s.s...S Z.s.e.s.s.e.s.s.e.e.e.e.e.s.s.s.e.e.e.e.e.s.s.s.s.s.s.s.e.e.e.e.s.s.s.s.s.s.s.s.s.s.s.s.s.s.s.s.s.s.s.s.s.s.s.s.s.s.s.s.s.s.s.s.e.s.s.s.s.e.e.e.e.s.e.s.e.g...: ",
"G.M.e.e.e.e.e.e.s.e.e.e.e.e.e.e.s.s.e.e.e.e.e.e.s.s.s.s.s.s.s.s.s.s.s.s.s.s.s.s.s.s.s.s.s.s.e.e.s.s.s.s.s.s.s.s.s.s.s.s.s.s.s.s.s.s.s.s.s.e.e.s.s.e.s.e.s.s.s.V <.Z.e.g.e.s.s.s.s.s.s.s.s.s.s.s.e.e.s.s.s.s.s.s.s.s.s.s.s.s.s.s.s.s.s.s.s.s.s.s.s.s.s.s.s.s.s.s.e.e.e.e.s.s.s.s.s.s.s.e.e.e.s.s.s.s.s.s.s.s.s.s.s.<.s.e.s.s.s.V e.M.s.e.s.<.s.s.e.e.e.s.s.s.e.e.e.s.s.s.s.s.s.s.s.s.s.e.s.s.s.s.s.s.s.s.s.s.s.s.e.e.e.e.s.s.s.s.s.s.s.s.s.s.s.s.s.s.s.s.s.s.s.s.s.s.s.s.s.s.s.s.s.<.s.e.s.e.e.v s.s.s.e.e.e.e.e.s.s.s.s.s.s.s.s.s.s.s.s.s.s.s.s.s.s.s.s.s.s.e.e.e.e.e.e.e.e.e.e.e.s.s.s.s.s.e.e.s.e.e.s.s.s.s.e.s.s.s.s.s.s.s.s.s.s.s.s.s.s.s.s.s.s.e.s.s.g.<.v g.s.e.e.e.e.s.s.e.e.e.e.e.e.e.e.e.e.e.e.e.e.e.e.e.e.e.e.e.e.e.e.e.e.e.e.e.e.e.e.e.e.e.e.e.e.e.e.e.e.e.e.e.e.e.e.e.e.e.e.e.e.e.e.e.e.e.e.e.e.e.<.e.e.e.e.<.e.:.v M.s.e.s.s.s.e.s.s.s.s.s.s.s.s.s.s.s.s.s.s.s.s.s.s.s.s.s.s.s.s.s.e.e.e.e.e.e.e.e.s.s.s.e.e.e.e.e.s.s.e.e.s.s.s.e.s.e.e.e.e.e.e.e.s.e.e.s.s.s.s.e.s.e.s.s.e.s.%.V M.s.e.e.s.s.s.s.s.s.s.e.e.e.e.s.e.e.s.s.s.s.e.e.s.s.s.s.s.s.s.s.s.s.s.s.s.s.s.s.s.s.s.s.s.s.s.s.s.e.e.e.e.s.s.s.s.s.e.e.e.e.s.s.s.s.s.s.e.e.e.e.s.e.s.s.s.s.%.S G.s.e.s.e.e.s.s.e.e.e.s.s.s.s.s.s.s.s.e.s.s.s.s.s.s.s.e.s.e.e.e.s.s.s.s.s.s.s.s.s.s.s.s.s.s.s.s.s.s.s.s.s.s.s.s.s.s.s.s.s.s.s.s.e.s.s.s.s.s.e.e.<.s.e.s.s.g...: ",
"G.M.e.e.s.e.e.e.s.s.e.e.e.s.e.e.e.e.e.e.e.e.e.e.s.s.s.s.s.s.s.s.s.s.s.s.s.s.s.s.s.s.s.s.s.e.e.e.s.s.s.s.s.s.s.s.s.s.s.s.s.s.s.s.s.s.s.s.s.s.e.e.s.e.s.e.s.s.s.V <.Z.e.s.e.s.s.s.s.s.s.s.s.s.s.s.e.e.s.s.s.s.s.s.s.s.s.s.s.s.s.s.s.s.s.s.s.s.s.s.e.e.s.s.s.s.s.s.e.e.e.s.s.s.s.s.s.e.s.s.e.s.e.s.s.s.s.s.s.s.s.s.s.e.s.e.s.s.s.V s.Z.s.e.s.<.s.s.s.e.e.e.s.s.e.e.e.e.s.s.s.s.s.s.s.s.e.e.s.s.s.s.s.s.s.s.s.s.s.s.e.e.e.e.s.s.s.s.s.s.s.s.s.s.s.s.s.s.s.s.s.s.s.s.s.s.s.s.s.s.s.s.s.<.s.e.e.e.e.v s.s.s.e.e.e.e.s.s.s.s.s.s.s.s.s.s.s.s.s.s.s.s.s.s.s.s.s.s.e.e.e.e.s.e.e.e.e.s.s.s.s.s.s.s.s.s.e.s.e.e.s.s.s.s.e.s.s.s.s.s.s.s.s.s.s.s.s.s.s.s.s.s.s.e.s.s.g.<.v g.s.e.<.e.e.e.e.e.e.e.e.e.e.e.e.e.e.e.e.<.<.e.e.e.e.e.e.e.e.e.e.e.e.e.e.e.e.e.e.e.e.e.e.e.e.e.e.e.e.e.e.e.e.e.e.e.e.e.e.e.e.e.e.e.e.e.e.e.e.e.<.e.s.e.e.<.e.:.v M.s.e.s.s.s.s.s.s.s.s.s.s.s.s.e.s.s.s.s.s.s.s.s.s.s.s.s.s.s.s.s.e.e.e.e.e.e.s.s.s.s.e.e.e.e.e.s.s.s.s.s.s.e.e.e.e.e.e.e.e.e.e.e.s.e.e.e.s.s.s.e.s.e.s.s.e.s.:.V M.s.e.e.e.e.e.s.s.s.s.e.e.e.s.s.e.e.e.e.e.s.e.e.s.s.s.s.s.s.s.s.s.s.s.s.s.s.s.s.s.s.s.s.s.s.s.s.s.e.e.e.e.e.s.s.s.s.s.e.e.s.s.s.s.s.s.s.e.e.e.e.s.e.s.s.s.s.%.S G.s.e.s.e.e.s.s.e.e.e.s.s.s.s.s.s.s.s.s.s.s.s.s.e.e.e.e.s.e.e.e.s.s.s.s.s.s.s.s.s.s.s.s.s.s.s.s.s.s.s.s.s.s.s.s.s.s.s.s.s.s.s.s.e.s.s.s.s.s.e.e.e.s.s.s.s.g...: ",
"G.g.s.e.s.s.s.s.s.s.e.e.e.e.s.s.e.e.e.e.e.s.s.s.s.s.s.s.s.s.s.s.s.s.s.s.s.s.s.s.s.s.e.e.s.e.e.e.s.s.s.s.s.s.s.s.s.s.s.s.s.s.s.s.e.s.e.e.s.s.e.e.s.e.s.e.s.s.s.V <.Z.e.s.e.s.s.s.s.s.s.s.s.s.s.s.e.e.s.s.s.s.s.s.s.s.s.s.s.s.s.s.s.s.s.s.s.s.s.s.e.e.e.s.s.s.s.s.s.e.s.s.s.s.s.s.e.e.s.s.s.s.e.e.e.e.e.e.s.s.s.e.s.<.s.e.s.s.s.V e.M.s.s.s.e.s.s.s.e.e.e.s.s.s.e.s.s.s.s.s.s.s.s.e.e.e.e.s.s.s.s.s.s.s.s.s.s.s.s.s.s.s.s.e.e.e.e.s.s.s.s.s.s.s.s.s.s.s.s.s.s.s.s.s.s.s.s.s.s.s.s.s.e.s.e.e.e.e.p s.s.s.s.e.s.e.s.e.s.s.s.s.s.s.s.s.s.s.s.s.s.s.s.s.e.s.s.e.e.e.e.s.s.s.s.s.s.s.s.s.s.s.s.e.s.s.s.e.e.e.s.s.s.s.e.s.s.s.s.s.s.s.s.s.s.s.s.s.s.s.s.s.s.e.s.e.g.<.v s.s.e.<.<.e.e.e.e.e.e.e.e.e.e.e.e.e.e.e.<.<.<.<.e.e.e.e.e.e.e.e.e.e.e.e.e.e.e.e.e.e.e.e.e.e.e.e.e.e.e.e.e.e.e.e.e.e.e.e.e.e.e.e.e.e.e.e.e.e.e.<.e.s.e.e.e.s.:.v M.s.e.s.s.s.s.s.s.s.s.s.s.s.e.e.s.s.e.e.e.e.e.e.s.s.s.s.s.s.s.s.s.s.s.s.s.s.s.s.s.s.e.e.e.e.s.s.s.s.s.s.s.e.e.e.e.e.e.e.e.s.s.s.s.e.e.e.s.s.s.e.e.e.s.s.e.s.:.V Z.g.e.e.e.e.e.e.e.e.s.e.e.e.e.s.s.s.s.s.s.s.s.s.s.s.s.s.s.e.e.e.s.s.s.s.s.s.s.s.e.e.e.e.s.s.s.e.e.e.e.e.e.e.e.e.e.e.s.s.s.s.s.s.s.s.s.s.e.e.e.e.s.e.s.s.s.s.%.S G.s.e.s.e.e.s.s.e.e.s.s.s.s.s.e.s.s.s.s.s.e.e.e.s.s.s.s.e.e.e.e.s.s.s.s.e.e.e.e.s.s.s.s.s.s.s.s.s.s.e.e.e.e.e.e.s.s.s.s.s.s.s.s.e.s.s.s.s.e.e.e.e.g.s.s.s.g...: ",
"Z.g.s.s.s.s.s.s.s.s.s.s.s.s.s.s.e.e.e.e.e.s.s.s.s.s.e.e.e.s.s.s.s.s.s.s.s.s.s.s.e.e.e.e.e.e.e.e.s.s.s.s.s.s.s.s.e.s.s.s.s.s.s.s.e.e.e.e.e.e.e.e.s.e.s.e.s.s.s.V <.Z.e.s.e.s.s.s.s.s.s.s.s.s.s.s.e.e.s.s.s.s.s.s.s.s.s.s.s.s.s.s.s.s.s.s.s.s.s.s.e.e.e.s.s.s.s.s.s.e.s.s.s.s.s.s.e.e.s.s.s.s.s.e.e.e.e.e.s.s.s.e.s.<.s.e.s.s.s.V <.g.s.s.s.e.s.s.s.s.e.e.s.s.s.e.s.s.s.s.s.s.s.s.e.e.e.e.s.s.s.s.s.s.s.s.s.s.s.s.s.s.s.s.e.e.e.e.s.s.s.s.s.s.s.s.s.s.s.s.s.s.s.s.s.s.s.s.s.s.s.s.s.e.s.e.e.e.e.p s.s.s.s.e.e.s.s.e.e.e.e.s.s.s.s.s.s.s.s.s.s.s.s.e.e.s.s.s.e.e.e.s.s.s.s.s.s.s.s.s.s.s.e.e.s.s.s.e.e.e.s.s.s.s.e.s.s.s.s.s.s.s.s.s.s.s.s.s.s.s.s.s.s.e.s.s.g.<.v s.s.e.e.e.e.e.e.e.e.e.e.e.e.e.e.e.e.<.<.<.<.<.<.e.e.e.e.e.e.e.e.e.e.e.e.e.e.e.e.e.e.e.e.e.e.e.e.e.e.e.e.e.e.e.e.e.e.e.e.e.e.e.e.e.e.e.e.e.e.<.<.e.e.e.s.e.s.:.p M.g.e.s.s.s.e.s.s.s.s.s.s.s.e.e.s.s.e.e.e.e.e.e.s.s.s.s.s.s.s.s.s.s.s.s.s.s.s.s.s.s.e.e.e.e.s.s.s.s.s.s.s.e.e.e.e.e.e.e.s.s.s.s.s.e.e.s.s.s.e.e.e.<.s.s.s.g.:.V Z.g.e.e.e.e.e.e.e.e.e.e.e.e.e.s.s.s.s.s.s.s.s.s.s.s.e.e.e.e.e.e.s.s.s.s.s.s.s.s.e.e.e.e.s.s.s.e.s.e.e.e.e.e.e.e.e.s.s.s.s.s.s.e.s.s.s.s.e.e.e.e.s.e.s.s.s.s...S G.s.e.s.e.e.s.e.e.e.s.s.s.s.e.e.s.s.s.s.s.e.e.e.s.s.s.s.e.e.e.e.s.s.s.e.e.e.e.e.s.s.s.s.s.s.s.s.e.e.e.e.e.e.e.e.s.s.s.s.s.s.s.s.e.s.s.s.s.s.e.e.s.g.s.s.s.g...: ",
"Z.g.s.s.s.e.e.e.e.s.s.s.s.s.s.s.s.s.s.s.s.s.s.s.s.s.s.s.s.s.s.s.s.s.s.s.s.e.e.s.e.e.s.e.e.e.e.s.s.s.s.s.s.s.s.s.s.s.s.s.s.s.s.s.e.e.s.s.s.e.e.e.e.e.s.<.s.s.e.v :.M.s.g.e.s.e.e.e.e.s.s.s.s.s.s.e.s.s.s.s.e.e.e.e.e.e.e.s.s.s.s.e.e.e.s.s.s.s.s.s.s.s.s.s.s.s.s.s.s.e.e.e.s.s.s.s.s.s.s.s.s.s.s.s.s.s.s.s.e.s.s.s.e.e.<.s.s.s.S <.M.s.e.s.s.g.e.s.s.s.s.s.e.e.e.e.e.e.e.e.e.e.e.s.s.s.s.s.s.s.s.e.e.s.s.s.s.s.s.e.e.e.s.s.s.e.e.g.s.s.s.s.s.s.s.s.s.s.e.s.s.e.e.s.s.s.s.s.s.s.s.e.<.e.e.g.s.e.V s.g.s.e.e.s.s.e.g.s.s.s.s.s.s.s.e.e.s.s.s.s.s.e.e.e.e.e.e.e.e.s.s.s.s.s.s.e.e.e.s.s.s.s.s.s.s.s.e.e.e.e.e.e.s.s.s.s.s.s.s.s.e.e.s.s.s.s.s.s.s.s.s.s.<.e.e.s.<.V s.s.e.<.<.<.e.e.e.e.e.e.e.e.e.e.e.<.e.e.e.e.e.e.e.e.e.e.e.e.e.e.e.e.e.e.e.e.e.e.e.e.e.e.e.e.e.e.e.e.e.e.e.e.e.e.s.s.e.e.e.e.e.e.e.e.e.e.e.e.e.e.e.e.<.e.e.e.%.p g.g.s.e.e.s.e.e.s.s.s.s.s.e.e.e.e.e.e.e.s.e.e.e.s.s.s.s.s.s.s.s.s.s.s.s.s.s.s.s.s.e.e.e.e.e.e.s.s.s.s.s.s.e.e.e.e.e.e.s.s.s.s.s.e.e.e.s.s.s.e.e.e.e.e.<.e.g.:.V Z.s.s.s.e.s.s.<.e.e.e.e.s.s.s.s.e.s.s.s.e.s.s.s.e.e.s.s.s.s.s.s.s.s.s.s.s.s.s.s.s.s.s.s.s.s.s.s.s.s.s.s.s.s.s.s.s.s.s.s.s.s.e.e.s.s.s.s.e.e.e.e.g.e.e.e.s.s...S Z.s.s.g.e.e.s.s.s.s.s.s.s.s.s.g.s.s.s.s.s.e.s.s.s.s.s.s.s.s.e.e.e.e.e.e.s.s.s.s.e.s.s.s.s.s.e.e.e.e.e.e.e.e.e.e.s.s.s.s.s.s.s.s.s.s.s.e.s.s.s.s.s.g.e.e.s.g...$ ",
"Z.g.e.e.s.e.s.s.e.s.s.s.s.s.s.s.s.s.e.e.s.s.s.s.s.s.s.s.s.s.s.s.s.s.s.s.s.e.e.e.e.e.e.e.e.e.e.s.s.s.s.s.s.s.s.s.s.s.s.s.s.s.e.e.s.s.s.s.s.s.s.s.<.e.s.<.s.g.g.J :.Z.e.g.s.g.g.s.s.s.s.s.e.e.e.e.s.s.s.s.s.s.s.e.e.e.e.e.s.s.s.s.e.e.e.s.s.s.s.s.s.s.s.s.s.s.s.e.s.s.s.s.s.s.s.s.s.s.s.s.s.s.s.s.s.s.s.s.s.s.s.s.s.s.s.e.g.g.s.V e.Z.s.e.s.s.g.e.s.s.s.s.s.s.s.s.s.s.s.s.s.s.s.s.s.s.s.s.s.s.e.e.e.e.e.e.s.s.s.s.s.s.s.s.s.s.s.s.s.s.s.e.s.s.s.s.s.s.s.s.s.s.s.s.e.e.e.e.s.e.s.s.s.s.g.e.g.s.e.V g.g.g.e.e.e.s.e.s.s.e.e.e.e.e.e.e.e.e.e.s.s.s.s.s.s.s.e.e.s.s.s.s.s.s.s.s.s.s.s.s.s.s.s.s.s.s.s.s.s.s.s.e.e.s.s.s.s.s.s.s.s.s.s.s.s.s.s.s.s.s.s.s.g.s.g.s.g.<.v s.s.e.<.<.e.e.e.e.e.e.e.e.e.e.e.e.<.e.e.e.e.e.e.e.e.e.e.e.e.e.e.e.e.e.e.e.e.e.e.e.e.e.e.e.e.e.e.e.e.e.e.e.e.e.e.e.e.e.e.e.e.e.e.e.e.e.e.e.e.e.e.e.s.s.g.s.s.:.v M.g.s.e.e.s.s.e.g.s.s.s.s.s.s.s.e.e.e.e.e.e.e.e.s.s.s.s.s.s.e.e.s.s.s.s.s.s.s.s.s.s.e.e.s.s.s.s.s.s.s.s.s.e.e.e.e.e.e.s.s.s.s.s.s.s.s.s.s.s.s.s.e.s.g.s.s.g.%.V M.s.s.s.e.s.s.<.e.e.e.s.s.s.s.s.s.s.s.s.e.e.e.e.e.s.s.s.s.s.s.s.s.s.s.s.s.s.s.s.s.s.s.s.s.s.s.s.s.s.s.s.s.s.s.s.s.s.s.s.s.s.s.s.s.s.s.e.e.e.e.e.e.e.s.s.g.g.%.S Z.s.s.g.e.e.s.s.e.e.s.s.s.s.s.s.e.s.s.e.e.e.s.s.s.s.s.s.s.s.e.e.e.e.e.e.s.s.s.s.e.s.e.s.s.s.e.e.s.s.e.e.s.s.s.s.e.e.e.e.s.s.s.s.s.s.s.e.s.s.s.s.e.s.s.s.g.M.%.: ",
"G.g.e.e.e.e.e.s.e.e.s.e.s.s.e.e.e.e.e.e.e.e.s.s.e.e.e.e.e.e.s.s.s.s.s.s.e.e.e.e.e.e.e.e.e.e.e.s.e.e.e.e.e.e.e.e.e.e.e.e.e.e.e.e.e.e.e.s.e.e.e.e.e.e.s.<.e.e.s.S :.M.<.s.e.s.s.e.e.e.e.e.e.e.<.<.s.s.s.s.s.s.e.e.e.e.e.e.e.e.e.e.e.e.e.e.e.e.e.e.e.e.e.e.e.e.e.e.s.e.e.e.s.e.s.s.e.s.s.s.e.e.e.e.s.s.e.e.e.e.e.e.e.e.s.<.s.s.e.v <.M.s.e.e.e.s.e.s.e.s.s.e.e.e.e.e.e.e.e.e.e.s.e.e.s.s.s.e.e.e.e.e.e.e.e.e.e.e.e.e.e.e.e.e.e.e.e.e.e.e.e.e.e.e.e.e.e.e.e.e.e.e.e.s.s.s.s.s.e.s.e.e.s.g.<.e.e.e.v s.s.e.<.:.:.<.<.e.e.<.<.<.<.<.<.e.e.e.e.e.e.s.s.s.s.e.e.e.e.s.s.s.s.s.s.e.e.e.e.e.e.e.e.s.s.e.e.e.e.e.s.s.e.e.e.s.s.e.e.e.e.e.e.e.e.e.e.s.s.e.e.<.s.s.e.e.s.<.v s.s.e.e.e.e.<.<.e.e.e.e.e.e.e.e.<.<.<.<.<.e.e.e.e.e.e.e.e.e.e.e.e.e.e.<.<.<.e.e.e.e.<.e.e.e.<.<.e.e.e.e.e.e.e.e.e.e.<.e.<.<.e.e.<.<.<.<.<.<.<.<.<.e.e.e.<.e.:.v M.g.e.<.e.e.e.e.s.s.e.e.e.e.e.e.e.e.e.e.e.e.s.s.e.e.s.e.s.s.s.s.s.s.s.s.s.s.e.e.e.e.e.e.e.e.s.s.s.s.s.e.e.e.e.e.e.e.s.e.s.s.s.s.e.e.e.e.e.e.e.e.e.s.g.e.e.s.%.V M.s.s.s.e.e.s.<.e.e.e.e.s.e.s.s.s.s.s.s.e.e.e.e.e.e.e.s.s.e.s.e.e.s.e.e.e.e.e.e.s.s.e.e.s.s.s.s.e.e.e.e.e.e.e.e.s.s.e.e.e.e.e.e.e.e.e.e.e.s.s.s.<.e.g.s.e.s.%.V Z.s.e.g.e.e.e.e.e.e.e.e.e.s.s.s.e.s.e.e.e.e.s.s.s.s.s.e.s.s.s.s.s.e.e.e.e.e.e.e.e.e.e.e.s.e.e.e.s.s.e.e.s.s.s.s.e.e.e.e.e.e.e.e.s.s.s.e.e.e.e.e.e.s.e.e.e.s.' - ",
"J.Z.g.s.s.s.s.e.s.s.s.s.s.s.s.s.s.s.s.s.s.s.s.s.s.s.s.s.s.s.s.g.g.g.g.g.s.s.s.s.s.s.s.s.s.s.s.g.s.s.s.s.s.s.s.s.s.s.s.s.s.s.s.s.s.s.s.s.s.s.s.s.g.s.g.e.s.s.e.V <.Z.e.g.s.s.e.e.s.s.s.s.s.e.e.e.s.s.s.s.s.s.s.s.g.g.s.s.s.s.s.s.e.e.s.s.s.s.s.s.s.s.s.s.s.s.s.s.s.s.s.s.s.s.s.s.s.s.s.s.s.s.s.s.s.s.s.s.s.s.s.s.e.s.s.:.e.s.g.S <.M.s.s.g.e.s.s.s.s.s.s.s.s.s.s.s.s.s.s.s.s.s.s.s.s.g.g.s.s.s.s.s.s.s.s.s.s.s.s.s.s.s.s.s.s.s.s.s.s.s.s.s.s.s.s.s.s.s.s.s.s.s.s.g.g.g.g.s.s.g.s.e.g.g.e.s.g.s.v s.s.s.e.<.:.<.e.s.e.e.e.e.e.e.e.e.e.e.e.e.s.s.g.s.s.s.s.s.s.s.s.s.s.s.s.s.s.s.s.s.s.s.s.s.s.s.s.e.s.s.s.s.s.s.s.s.s.s.s.s.s.s.s.s.s.s.s.s.s.s.s.e.g.e.<.<.g.s.V M.s.s.s.s.s.e.e.e.e.s.s.s.e.e.e.<.<.e.e.e.e.e.e.s.s.s.s.s.s.s.s.s.s.e.e.e.e.s.s.e.e.s.s.s.e.e.e.e.e.s.s.e.e.e.e.s.s.s.e.e.e.e.s.e.e.e.e.e.e.e.e.e.s.e.<.<.s.e.V M.g.e.e.s.s.s.s.s.s.s.s.s.s.e.e.s.s.s.e.s.s.g.g.s.s.g.s.g.g.g.g.s.s.s.s.g.s.s.s.e.e.e.e.s.s.s.s.g.g.s.s.s.s.s.g.s.s.s.s.s.g.s.s.s.s.s.s.s.s.s.s.g.s.s.e.e.g.:.J Z.s.s.g.s.s.s.e.s.s.s.s.s.s.s.s.s.s.s.s.s.s.s.s.s.s.s.s.s.s.s.s.s.s.s.s.s.s.s.s.g.g.s.s.s.s.g.g.s.s.s.s.s.s.s.s.s.s.s.s.s.s.s.s.s.s.s.s.g.g.g.g.s.g.g.e.e.g.:.S G.s.s.g.s.s.s.s.s.s.s.s.s.s.s.g.s.s.s.s.s.s.g.g.s.s.s.s.s.s.s.s.s.s.e.e.e.e.s.s.g.s.s.s.g.s.s.s.s.s.s.s.s.s.s.s.g.s.g.g.g.g.g.g.g.g.s.s.s.s.s.s.g.g.e.e.e.s...: ",
"Z.g.e.e.s.s.e.<.e.e.e.e.e.e.e.e.e.e.e.e.e.e.e.e.s.s.s.s.e.s.s.e.e.e.e.e.e.e.s.s.e.e.e.e.e.e.e.s.e.e.e.e.e.e.e.e.e.e.e.e.e.e.e.e.e.s.s.s.s.s.e.e.e.e.e.e.g.g.e.V :.M.e.g.e.e.e.s.e.e.e.e.e.e.e.e.e.e.e.e.e.e.e.e.s.s.e.e.e.e.e.e.e.<.<.e.e.e.e.e.e.e.e.e.e.e.e.e.e.e.e.e.e.e.e.e.e.e.e.e.e.e.e.e.e.e.e.e.e.e.e.e.e.s.s.:.e.e.e.V <.g.s.s.g.e.s.s.e.e.e.e.s.e.e.e.e.e.s.s.s.s.s.s.e.e.e.e.e.e.e.e.e.e.e.e.e.e.e.e.s.s.s.s.s.s.s.s.e.e.e.e.e.e.e.e.s.s.s.s.e.e.s.s.e.e.e.e.e.e.e.e.e.s.s.<.g.g.e.u e.s.s.e.<.<.<.<.<.<.:.:.<.<.<.:.<.<.<.<.<.<.e.e.e.e.e.e.e.e.e.e.e.e.e.e.e.e.e.e.e.e.e.e.e.e.e.e.e.e.e.e.e.e.e.e.e.e.e.e.e.e.e.e.e.e.e.e.e.e.e.e.s.s.e.e.e.g.<.p s.e.<.e.e.e.<.e.<.<.<.<.<.<.<.<.:.:.<.<.<.e.e.<.<.<.<.<.e.<.<.e.e.e.<.<.<.<.e.e.e.e.e.<.<.<.<.<.<.<.<.<.<.<.<.<.e.<.<.<.<.<.<.<.e.e.e.e.e.e.e.e.e.e.<.<.<.s.:.p g.e.<.e.s.s.s.s.s.s.e.e.e.e.e.e.e.e.e.<.e.e.s.s.e.e.e.e.e.e.e.e.e.e.e.e.e.e.e.e.<.<.<.<.e.e.e.e.e.e.e.e.e.e.e.e.e.e.e.e.e.e.e.e.s.s.s.s.s.s.s.s.s.e.e.<.e.g.%.V M.e.e.s.e.e.e.<.e.e.e.e.e.e.e.e.e.e.e.e.e.e.e.e.e.e.e.e.e.e.e.e.e.e.e.e.e.e.e.e.s.e.e.e.s.s.s.s.e.e.e.e.e.e.e.e.e.e.e.e.e.e.e.e.e.e.e.e.s.s.s.s.e.e.e.e.e.g.:.V Z.e.<.s.e.e.e.<.e.e.e.e.e.e.e.e.e.s.s.e.e.e.e.s.e.e.e.e.e.e.e.e.e.e.<.<.<.e.e.s.s.e.s.e.e.e.e.e.e.e.e.e.e.e.e.e.e.e.e.e.e.e.e.e.e.e.e.e.e.e.<.e.e.e.<.e.s.s...: ",
"J.M.s.s.g.g.s.s.s.s.g.g.g.g.g.g.s.s.s.s.s.g.g.g.g.g.g.g.g.g.g.g.s.s.s.g.g.g.g.g.s.g.g.g.s.s.g.g.s.s.s.s.s.s.g.g.s.s.s.s.s.s.s.s.s.s.s.s.s.s.s.s.g.s.s.s.M.g.s.S <.Z.s.M.s.s.s.g.g.g.g.g.g.g.g.g.g.g.g.g.g.g.g.g.g.s.s.s.s.s.s.s.s.s.s.s.s.s.g.g.g.g.g.s.g.s.s.s.g.g.g.g.g.g.g.g.g.g.g.g.s.g.g.g.g.g.g.s.s.s.g.g.s.s.M.s.g.s.e.V s.M.s.s.g.s.g.s.s.s.s.s.s.s.s.s.s.s.s.s.s.s.s.s.s.s.s.s.s.s.s.s.s.s.s.s.s.s.s.s.s.s.s.s.s.s.s.s.s.s.s.s.s.s.s.s.s.s.s.s.s.s.s.s.s.s.s.s.s.s.s.s.g.s.s.e.g.s.e.v M.g.s.s.s.s.e.s.s.e.e.e.e.e.e.e.e.e.e.e.e.s.s.s.g.s.s.s.s.s.g.g.g.g.g.g.s.g.g.g.s.s.s.s.s.g.s.s.s.s.g.g.g.g.g.g.g.g.g.g.g.g.g.g.s.s.s.s.g.g.g.s.g.g.s.g.g.M.<.p Z.s.e.s.s.s.s.s.e.e.e.e.e.e.e.e.e.e.s.s.s.s.s.s.e.e.e.e.e.s.s.s.s.s.s.e.e.s.s.s.s.s.s.s.e.s.s.s.s.s.s.s.s.s.s.s.s.s.s.e.s.s.s.s.s.s.s.s.s.s.s.s.s.s.e.g.s.s.:.p Z.s.e.s.g.g.s.s.s.s.s.s.s.s.s.s.s.s.s.s.s.s.s.s.s.s.s.s.s.s.s.s.s.s.s.s.s.s.e.e.s.s.s.s.s.s.s.s.s.s.s.s.s.s.s.s.s.s.s.s.s.s.s.e.s.s.s.s.s.s.s.s.s.e.e.s.g.g.%.V J.g.s.g.g.s.g.s.g.g.g.g.g.g.g.g.s.s.s.s.s.s.s.s.g.g.s.g.s.s.g.g.g.g.g.s.g.g.g.g.g.g.g.g.g.g.g.g.s.s.s.s.s.s.s.s.g.g.g.g.g.g.g.g.g.g.g.g.g.g.s.s.s.s.s.g.g.g.%.V J.s.e.g.s.s.s.s.s.s.s.s.s.s.s.s.s.s.g.g.s.s.g.g.g.g.g.g.g.g.g.g.s.s.s.s.s.g.g.g.g.g.g.g.s.g.g.g.g.g.g.g.g.g.g.g.g.g.g.g.g.g.g.g.s.s.s.s.s.s.s.s.s.s.s.g.g.s.' - ",
"J.g.<.:.<.e.e.e.<.<.e.e.e.e.e.e.<.<.<.<.e.e.e.e.e.<.e.<.e.e.e.e.<.<.<.<.<.e.e.e.<.e.e.<.<.<.<.e.e.<.<.<.e.e.e.e.<.<.<.<.<.<.<.<.<.:.:.:.:.:.:.<.e.<.e.<.<.:.<.S s.g.:.e.<.<.<.<.<.<.e.e.e.e.e.<.<.e.e.e.e.e.e.<.<.<.<.<.<.<.<.<.<.<.<.<.<.e.e.e.e.e.e.e.e.<.<.<.<.<.e.e.e.e.<.e.e.e.<.<.<.<.e.e.e.e.e.<.<.<.e.e.<.:.<.<.e.:.:.V s.g.%.%.<.:.:.:.:.:.:.:.:.:.:.:.:.:.:.:.:.:.:.:.:.:.:.<.<.:.:.:.<.<.<.<.<.<.<.<.:.:.:.:.:.:.:.:.:.:.:.:.:.<.<.<.:.:.:.:.:.:.:.:.:.:.:.:.:.:.:.:.<.:.:.:.<.%.:.V M.e.<.<.<.<.<.<.<.<.:.:.:.:.:.:.:.<.<.<.<.<.<.<.e.e.e.e.e.e.e.e.e.e.e.<.<.<.e.e.e.e.<.<.e.e.e.e.<.e.<.<.<.<.e.e.e.e.e.e.<.<.e.e.e.e.<.<.e.e.e.e.e.<.<.e.<.<.:.S M.e.:.<.<.<.:.<.<.<.:.:.:.:.:.:.:.<.<.<.<.<.<.<.:.:.:.:.<.<.<.<.<.<.:.:.:.<.<.<.<.<.<.<.<.<.<.<.<.<.<.<.<.<.<.<.<.<.<.:.<.<.<.<.:.:.:.:.:.:.:.:.:.:.:.e.<.:.%.V M.<.%.:.<.:.:.:.:.:.:.:.:.:.:.:.:.:.:.:.:.:.:.:.:.:.:.:.:.:.:.:.:.:.:.:.:.:.:.:.<.<.<.<.<.<.<.<.:.:.:.:.<.<.<.<.:.:.:.<.<.:.:.:.:.:.:.:.:.:.:.:.%.%.:.:.:.<...S Z.e.<.e.e.<.e.e.e.e.e.e.e.e.e.e.<.<.<.<.<.<.<.<.e.e.e.<.<.e.e.e.e.e.e.e.<.<.e.e.e.e.<.<.e.e.e.e.<.<.<.<.<.<.<.<.e.e.e.e.<.<.e.e.e.e.<.<.e.<.<.<.e.<.e.e.<.:.' J Z.e.:.<.<.<.e.<.e.e.<.<.<.<.<.<.<.e.e.<.<.<.<.e.e.e.e.e.<.<.<.<.<.<.<.<.e.e.e.e.e.e.e.<.<.<.e.e.e.e.e.e.e.e.e.e.<.<.<.<.<.<.<.<.<.<.<.<.<.<.<.<.<.e.e.e.:.:./ 1 ",
"%.Y V p p v v v v v v v v v v v v v v v v v v v v v v v v v v v v v v v v v v v v v v v v v v v v v v v v v v v v v v v v v v p v v v v v v v v p v V v v v J 1 ^ ^ p V v V v v v v v v v p p p v v v v v v v v v v v v v v v v v v v v v v v v V v V V v v v p v v v v v v v v v v v v v v v v v v v v v v v v S p p p V v S : Y P u u p u p p p p p p p p p p p p p p p p p p p p p p p p p p p p p p p p p p p p p p p p p p p p p p u p p p p u p p p p p p p p p p p p p p p u p p p u V : ^ J v v v v V V v v p p p v p p v v v v v v v v v v v v v v v v v v v v v v v v v v v v v v v v v v p p p v v v v v v v v v v v v v v v v v v v V v p V p v S 5 Y S p v v p p v v v v p p p p p p p v v v v p p p p p p v v v v p p p p v v p p p v v v v p p p p p p p p p p p v v v p p p p v v v v v v v v v v p p V p p V 5 ^ S u p p p p v p p p p p v v v p p p p p p p p p p p p p p p p p u p p p u u u p p p p p p p p p p p p p p p p u p p p p p p p p p p p p p p p p p v p p V v 5 Y V p v v p v V v v v v v v v v V V v v v v v v v v v v v v v v v v v v v v v v v v v v v v v v v v v v v v v v v v v v v v v v v v v v v v v v v p v V v v V v ^ V p v v v V v v v v v v v v v v v v v v v v v v v v v v v v v v v v v v v v v V V v v v v v v v v v v v v v v v v v v v v v v v v v v v v v v V V v v p v V $ ",
"Z.M.M.Z.Z.Z.Z.Z.Z.Z.M.M.Z.Z.M.M.Z.Z.Z.Z.Z.Z.Z.Z.Z.Z.Z.Z.M.M.M.M.M.M.Z.Z.Z.Z.Z.Z.Z.Z.Z.Z.Z.Z.Z.Z.Z.Z.Z.Z.M.Z.Z.M.Z.Z.Z.Z.Z.Z.Z.Z.g.M.M.M.M.Z.Z.Z.g.Z.J.M.M.M.J...:.Z.s.M.g.Z.M.M.M.M.M.g.g.g.M.M.M.M.M.g.g.g.g.g.M.M.M.M.M.M.M.M.g.g.g.g.M.M.M.M.M.M.M.M.M.M.M.M.M.M.M.M.M.M.M.M.M.M.M.M.M.M.M.M.x.x.x.x.x.x.g.g.M.g.x.s.M.N.Z.^ e.Z.M.N.A.M.Z.M.Z.Z.Z.M.M.M.M.M.M.Z.Z.Z.Z.Z.Z.Z.Z.Z.Z.Z.Z.Z.Z.Z.Z.Z.Z.M.g.g.M.Z.Z.Z.Z.Z.Z.Z.Z.Z.Z.Z.Z.Z.Z.Z.Z.Z.M.M.M.M.M.Z.Z.Z.Z.M.M.M.M.M.M.Z.G.g.M.M.Z.Z.J.' :.M.M.M.M.g.Z.G.Z.M.M.M.M.g.g.g.Z.Z.Z.Z.Z.Z.Z.Z.Z.Z.Z.Z.Z.Z.Z.Z.M.Z.Z.Z.Z.Z.Z.Z.M.M.M.Z.Z.Z.Z.Z.M.M.Z.Z.M.M.M.M.M.M.M.M.Z.Z.Z.Z.Z.Z.Z.Z.Z.Z.Z.Z.M.Z.Z.Z.M.Z.Z./ g.g.M.M.Z.Z.Z.M.Z.Z.M.M.M.M.M.M.Z.Z.M.M.Z.Z.Z.Z.Z.Z.Z.Z.Z.Z.Z.Z.M.M.Z.Z.Z.Z.M.M.Z.Z.Z.Z.Z.Z.M.M.Z.Z.Z.Z.Z.Z.Z.Z.Z.Z.Z.Z.Z.Z.Z.Z.Z.Z.Z.Z.Z.Z.Z.Z.M.Z.M.Z.M.G.Z./ g.M.M.Z.Z.Z.Z.Z.M.M.M.M.Z.Z.Z.Z.Z.Z.Z.Z.Z.Z.Z.Z.M.Z.Z.Z.Z.Z.M.M.M.M.M.M.M.M.Z.Z.Z.Z.M.M.M.M.Z.Z.M.M.M.M.Z.Z.Z.Z.M.M.M.M.M.M.Z.Z.Z.M.M.M.M.M.Z.Z.M.Z.Z.Z.M.G.Z./ g.s.g.M.Z.M.M.M.Z.Z.Z.Z.Z.Z.Z.Z.Z.Z.Z.Z.Z.Z.M.M.Z.Z.Z.Z.Z.Z.Z.Z.M.Z.Z.Z.Z.Z.M.M.Z.M.M.g.M.M.M.Z.M.M.Z.Z.Z.Z.M.M.Z.M.M.M.M.M.M.Z.Z.Z.Z.Z.Z.Z.Z.M.Z.M.M.Z.Z.G.g.' G.M.M.G.Z.Z.Z.M.Z.Z.Z.Z.Z.Z.Z.Z.Z.Z.M.M.M.Z.Z.Z.M.M.M.M.M.M.Z.Z.Z.Z.Z.M.M.M.M.Z.M.M.Z.Z.Z.Z.Z.Z.Z.Z.Z.Z.Z.Z.Z.Z.M.M.M.M.M.M.M.g.M.M.Z.Z.Z.Z.M.M.M.G.Z.M.g.G.M.Y ",
"G.Z.M.M.M.M.g.M.M.M.M.M.M.M.M.M.M.M.M.M.M.M.M.M.M.M.M.M.M.M.M.M.M.M.M.M.M.M.M.M.M.M.M.M.M.M.M.M.M.M.M.M.M.M.M.M.M.M.M.M.M.M.M.M.g.g.g.g.M.M.M.M.M.M.Z.g.M.g.M.^ <.Z.s.M.g.M.g.g.g.g.g.g.g.g.g.g.g.g.g.s.s.s.s.s.g.g.g.g.g.g.g.g.g.g.g.g.g.g.g.g.g.g.g.g.g.g.g.g.g.g.g.g.g.g.g.g.g.g.g.g.g.g.g.g.g.g.g.f.f.f.f.f.g.f.g.r.f.s.r.S e.Z.M.M.Z.M.M.M.M.M.M.M.g.g.g.g.M.M.M.M.M.M.M.M.g.g.M.M.M.M.g.g.M.M.M.M.g.g.M.M.M.M.M.M.M.M.M.M.M.M.M.M.M.M.M.M.g.g.g.g.M.M.M.M.M.M.M.g.g.M.M.M.Z.s.M.g.M.g.M.P <.Z.M.M.M.s.g.M.M.M.g.g.g.g.g.g.g.g.g.g.g.g.M.M.M.M.M.M.M.M.M.M.g.M.M.M.M.M.M.M.g.g.M.M.M.M.M.M.M.M.M.M.M.M.M.g.M.M.M.M.M.M.M.M.M.M.M.M.M.M.M.M.g.M.M.M.s.g.s.J M.M.M.M.M.M.M.M.M.M.M.M.M.M.g.M.M.M.M.M.M.M.M.M.M.M.M.M.M.M.M.M.M.M.M.M.M.M.M.M.M.M.M.M.M.M.M.M.M.M.M.M.M.M.M.M.M.M.M.M.M.M.M.M.M.M.M.M.M.M.M.M.g.M.M.M.g.M.s.S Z.Z.M.M.M.g.g.M.M.M.M.M.M.M.M.M.M.M.M.M.M.M.M.M.g.M.M.M.M.M.g.g.g.g.g.g.M.M.M.M.M.M.M.g.M.M.M.M.M.M.M.M.M.M.M.M.M.M.M.g.g.M.M.M.M.M.M.g.g.M.M.M.M.Z.M.M.M.M.s.J g.g.g.M.M.g.g.M.M.M.M.M.M.M.M.M.M.M.M.M.M.M.M.M.M.M.M.M.M.M.M.M.M.M.M.M.M.M.M.g.M.M.g.g.g.g.M.M.M.M.M.M.M.M.M.M.M.M.M.g.g.M.M.M.M.M.M.M.M.M.g.g.Z.M.M.M.M.M.<.Y G.M.M.Z.M.M.M.M.M.M.M.M.M.M.M.M.M.M.M.M.M.M.M.M.M.M.M.M.M.M.M.M.M.M.M.M.M.M.M.M.g.M.M.M.M.M.M.M.M.M.M.M.g.g.g.M.M.M.M.g.g.g.g.g.M.M.M.M.M.M.M.M.M.G.Z.M.M.M.:.e ",
"J.Z.g.g.g.g.g.g.g.g.g.g.g.g.g.g.g.g.g.g.g.g.g.g.g.g.g.g.g.g.g.g.g.g.g.g.g.g.g.g.g.g.g.g.g.g.g.g.g.g.g.g.g.g.g.g.g.g.g.g.g.s.g.g.s.s.s.g.g.g.g.g.M.g.g.s.M.g.g.S <.Z.s.g.s.g.s.s.s.s.s.s.s.s.s.s.s.s.s.s.s.e.e.e.s.s.s.s.s.s.s.s.s.s.s.s.s.s.s.g.s.s.s.s.s.s.s.s.s.s.s.s.s.s.s.s.s.s.s.s.s.s.s.s.s.s.s.s.s.s.s.r.r.r.f.6.r.6.:.i e.M.f.g.g.s.s.s.g.g.g.g.g.g.g.g.g.g.g.g.g.g.g.g.s.g.g.g.g.g.g.s.g.g.M.g.g.g.g.g.g.g.g.g.g.g.g.g.g.g.g.g.g.g.s.s.s.s.s.g.g.g.g.g.g.g.g.g.g.g.g.g.g.s.M.g.g.e.e.v <.M.s.g.g.s.g.g.s.g.g.g.g.g.g.g.s.s.s.s.s.s.s.s.g.g.g.g.g.g.s.g.s.s.g.g.g.g.g.g.g.g.g.g.g.g.g.g.g.g.g.g.g.g.g.g.g.g.g.g.g.g.g.g.g.g.g.g.g.g.g.g.s.g.s.g.s.s.<.V Z.M.M.g.g.g.g.g.g.g.g.g.g.g.g.g.g.g.g.g.g.g.g.g.g.g.g.g.g.g.g.g.g.g.g.g.g.g.g.g.g.g.g.g.g.g.g.g.g.g.g.g.g.g.g.g.g.g.g.g.g.g.g.g.g.g.g.g.g.g.g.g.s.g.g.M.g.g.:.p G.Z.M.g.s.s.g.g.g.g.g.g.g.g.g.g.g.g.g.g.g.g.g.g.g.g.g.g.g.g.s.s.s.s.g.g.g.g.g.g.g.g.g.g.g.g.g.g.g.g.g.g.g.g.g.g.M.g.g.g.g.g.g.g.g.g.g.g.g.g.g.g.g.M.g.M.g.g.<.p M.g.g.g.g.s.s.g.g.g.g.g.g.g.g.g.g.g.g.g.g.g.g.g.g.g.g.g.g.g.g.g.g.g.g.M.g.g.g.g.g.g.g.g.g.g.g.M.g.g.g.g.g.g.g.g.g.g.g.s.s.g.s.g.g.g.g.g.g.g.g.s.M.g.g.g.g.g.%.S G.M.g.M.g.s.g.s.g.g.g.g.g.g.g.g.g.g.g.g.g.g.g.g.g.g.g.g.g.g.g.g.g.g.g.g.g.g.g.g.s.g.g.g.g.g.g.g.g.g.g.g.s.s.s.g.g.g.g.g.g.g.g.g.g.g.g.g.g.g.g.g.g.g.g.g.M.M.%.- ",
"J.Z.g.g.g.g.g.g.g.s.s.s.g.g.g.s.g.g.g.g.g.g.s.g.g.s.g.g.g.g.g.g.s.s.g.g.g.g.g.g.g.g.g.g.g.g.s.g.s.s.g.g.g.g.g.g.g.g.g.g.s.s.s.s.s.s.s.s.g.g.g.g.g.s.g.s.M.M.g.S <.Z.e.g.e.s.s.s.s.s.s.e.s.s.s.s.s.s.s.s.e.e.s.s.s.s.s.s.s.s.s.s.s.s.s.s.s.s.s.s.s.s.s.s.s.s.s.s.s.s.s.s.s.s.s.s.s.s.s.s.s.s.s.s.r.r.r.r.r.r.r.r.e.e.s.6.r.<.:.i e.M.s.s.s.e.s.s.s.s.g.g.g.g.g.g.g.g.g.g.s.s.g.s.g.g.g.g.g.g.g.g.s.s.g.s.s.s.s.s.g.g.g.g.g.g.g.g.g.g.g.g.g.s.s.s.s.s.g.g.g.g.g.g.g.g.s.s.s.s.g.g.s.e.g.g.g.s.e.v <.g.e.s.g.s.g.g.s.g.g.g.g.g.g.g.s.s.s.s.s.s.s.s.g.g.g.g.g.g.s.s.s.s.s.g.g.g.g.g.s.s.g.g.g.g.g.g.s.g.g.g.g.g.g.g.g.g.g.g.g.g.g.g.g.g.g.g.s.s.g.g.s.s.e.s.s.g.e.V Z.M.g.s.g.s.s.g.s.s.s.g.g.g.g.g.g.g.g.g.g.g.g.g.g.g.s.s.s.s.s.g.g.g.g.g.g.g.g.g.g.g.g.g.g.g.g.g.g.g.s.s.g.s.g.g.g.g.g.g.g.g.s.s.g.g.g.g.g.g.g.g.s.g.g.M.g.g.<.p Z.M.g.s.s.g.g.M.g.g.g.g.g.g.g.g.g.g.g.g.g.g.g.g.g.g.g.g.g.g.g.s.s.s.s.s.s.g.g.g.g.s.s.s.s.s.s.s.g.g.g.g.g.g.g.g.g.g.g.s.s.s.s.s.g.g.g.g.s.s.s.s.g.g.s.g.g.M.<.p M.g.s.s.s.s.s.g.g.g.g.g.g.g.g.s.s.s.g.g.g.g.g.s.g.g.g.g.s.s.s.g.g.g.g.g.g.g.g.g.g.g.g.g.g.g.g.g.g.g.g.g.g.s.g.g.s.s.s.s.s.s.s.s.g.g.g.s.s.s.s.s.s.s.g.g.g.g.%.J J.g.g.g.s.s.g.s.s.s.s.s.g.g.g.s.g.g.g.s.s.s.g.g.s.s.s.s.g.g.g.g.s.g.g.g.g.g.s.s.s.s.g.g.g.g.g.s.g.g.g.g.g.s.g.g.g.g.g.g.g.g.g.g.g.g.g.g.g.g.g.g.s.g.e.s.g.M.:.: ",
"J.Z.g.s.g.g.g.g.g.g.s.s.g.g.s.s.g.g.g.g.g.g.g.g.g.g.g.g.g.g.g.g.g.g.g.g.g.g.g.g.g.g.g.g.g.g.g.g.s.s.g.g.g.g.g.g.g.g.g.g.s.s.s.s.s.s.s.g.g.g.g.g.g.s.M.s.M.g.s.S :.M.e.s.e.s.s.s.e.e.e.e.s.s.s.s.s.s.s.s.s.s.s.s.s.s.s.s.s.s.s.s.s.s.s.s.s.s.s.s.s.s.s.s.s.s.s.s.s.s.s.s.s.s.s.s.s.s.s.s.s.s.s.s.r.r.r.r.r.r.r.r.e.e.r.<.r.6.>.h s.Z.g.g.g.s.g.g.g.g.g.g.g.g.g.g.g.g.g.g.g.g.g.g.g.g.g.g.g.g.g.g.g.s.s.e.s.s.s.g.s.s.s.s.s.s.s.s.g.g.g.g.g.s.s.s.s.s.g.g.M.M.g.g.g.g.s.s.s.s.g.g.g.e.g.s.g.g.s.v <.g.e.e.g.s.g.s.g.g.g.g.g.s.s.s.g.g.s.s.s.s.s.g.g.g.g.g.g.g.g.g.g.g.g.g.g.g.g.g.g.g.g.g.g.g.g.g.g.g.g.g.g.g.g.g.g.g.g.g.g.g.g.g.g.g.g.g.s.g.g.g.s.s.e.g.g.M.e.V Z.M.g.s.s.g.g.g.s.s.s.g.g.g.g.g.g.g.g.g.g.g.g.g.g.g.g.g.s.g.g.g.g.g.g.g.g.g.g.g.g.g.g.g.g.g.g.g.g.g.g.g.g.g.g.g.s.s.s.s.g.g.g.s.g.g.s.s.g.g.g.g.g.g.g.g.g.g.<.v Z.M.g.g.g.M.M.g.g.g.g.g.g.g.g.g.g.g.g.g.g.g.g.g.g.g.g.g.g.g.g.g.s.s.g.g.g.g.g.g.g.s.s.s.s.s.s.s.g.g.g.g.g.g.g.g.s.s.s.g.g.g.g.g.g.g.g.g.g.s.s.s.g.g.s.g.g.M.e.v g.s.s.s.s.s.s.g.g.g.g.g.g.g.s.s.s.s.s.g.g.g.g.g.g.g.g.g.s.g.g.g.g.g.g.g.g.g.g.g.g.g.g.g.g.g.g.g.g.g.g.g.g.g.g.g.s.s.s.s.s.s.s.s.g.g.g.g.g.g.g.g.s.s.g.g.g.M.:.J J.g.s.g.s.g.g.s.s.s.s.s.s.s.s.s.g.g.g.s.s.s.s.s.s.s.s.s.g.g.g.g.g.g.g.g.g.s.s.s.g.g.g.g.g.g.g.g.g.g.g.g.g.g.g.M.g.g.g.g.g.g.g.g.g.g.g.g.g.g.g.g.g.M.g.s.s.g.%.: ",
"J.M.s.s.g.g.g.g.g.g.s.s.g.g.s.s.g.g.g.g.g.g.g.g.g.g.g.g.g.g.g.g.g.g.g.g.g.g.g.g.g.g.g.g.g.g.g.g.g.g.g.g.g.g.g.g.g.g.g.s.s.s.s.s.g.g.g.g.g.g.g.g.s.g.M.s.g.s.e.V :.M.e.s.e.s.s.s.s.e.e.e.s.s.s.s.s.s.s.s.e.s.s.s.s.s.s.s.s.s.s.s.s.s.s.s.s.s.s.s.s.s.s.s.s.s.s.s.s.s.s.s.s.s.s.s.s.s.s.s.s.s.s.s.s.s.s.r.r.r.r.r.s.r.r.>.6.>.>.h e.Z.g.g.M.s.M.M.g.g.g.g.g.g.g.g.g.g.g.g.g.g.g.g.g.g.g.g.g.g.g.g.g.s.s.e.s.s.g.g.g.g.g.g.g.g.g.g.s.s.s.s.s.s.s.s.s.s.s.g.g.g.g.s.g.g.g.s.s.g.g.g.M.s.g.e.s.s.s.v <.g.e.s.g.s.s.e.g.g.g.g.g.s.s.s.g.g.s.s.s.s.s.s.s.s.s.g.g.s.s.s.g.g.g.g.g.g.g.g.g.g.g.g.g.g.g.g.g.g.g.g.g.g.g.g.g.g.g.g.g.g.g.g.g.g.g.g.g.g.g.g.s.g.s.g.s.M.e.V M.M.g.s.s.g.g.g.s.s.s.g.g.g.g.g.g.g.g.g.g.g.g.g.g.g.g.g.g.g.g.g.g.g.g.g.g.g.g.g.g.g.g.g.g.g.g.g.g.g.g.g.g.g.g.g.g.g.g.g.g.g.g.g.g.g.g.g.g.g.g.g.g.g.s.g.s.g.<.v Z.M.g.g.M.M.g.g.g.g.g.g.g.g.g.g.g.g.g.g.g.g.g.g.g.g.s.s.s.s.s.s.g.g.g.g.g.g.g.g.g.g.g.s.s.s.g.g.g.g.g.g.g.g.g.g.s.s.g.g.g.g.g.g.g.g.g.g.g.g.s.s.g.g.s.g.s.g.<.v g.s.s.s.s.s.s.g.g.g.g.g.g.g.s.s.s.s.s.g.g.g.g.g.g.g.g.g.g.g.g.g.g.g.g.g.g.g.g.g.g.g.g.M.g.g.g.g.g.g.g.g.g.g.g.g.g.s.s.s.s.s.s.g.g.g.g.g.g.g.g.g.g.s.g.g.g.g.%.J J.g.s.g.s.g.M.g.g.g.g.g.g.g.g.g.g.g.g.s.s.s.s.s.g.g.s.g.g.g.g.g.g.g.g.s.s.g.g.g.g.g.g.g.g.g.g.g.g.g.g.g.g.g.g.M.g.g.g.g.g.g.g.g.g.g.g.g.g.g.g.g.s.M.g.g.g.g...: ",
"J.M.s.s.g.g.g.g.s.s.s.s.g.g.g.g.g.g.g.g.g.g.g.g.g.g.g.g.g.g.g.g.g.g.g.g.g.g.g.g.g.g.g.g.g.g.g.g.g.g.g.g.g.g.g.g.g.g.s.s.s.s.s.s.g.g.g.g.g.g.g.g.g.g.M.s.g.s.e.V :.M.e.g.e.g.s.e.e.e.s.s.s.s.s.g.s.s.s.s.s.s.s.s.s.s.s.s.s.s.s.s.s.s.s.s.s.s.s.s.s.s.s.s.s.s.s.s.s.s.s.s.s.s.s.s.s.s.s.s.s.s.s.s.s.s.s.r.r.r.r.r.s.r.s.<.e.<.:.p e.M.s.s.g.s.g.g.g.g.g.g.g.s.s.s.g.g.g.g.g.g.g.g.g.g.g.g.s.g.g.g.g.g.s.s.g.g.g.g.g.g.g.g.g.g.g.g.s.s.g.g.g.s.s.s.s.s.g.g.g.s.s.s.g.g.g.s.s.g.g.g.g.s.g.e.s.s.s.p <.M.s.s.g.s.s.s.g.g.g.g.g.g.g.g.g.g.g.s.s.s.s.s.s.s.s.s.s.s.s.s.g.g.g.g.g.g.g.g.g.g.g.g.g.g.g.g.g.g.g.g.g.g.g.g.g.g.g.g.g.g.g.g.g.g.g.g.g.g.g.g.g.g.s.g.s.g.e.V Z.M.g.g.g.g.g.g.g.s.g.g.g.g.g.g.g.g.g.g.g.g.g.g.g.g.g.g.g.g.g.g.g.g.g.g.g.g.g.g.g.g.g.g.g.g.g.g.g.g.g.g.g.g.g.g.g.g.g.g.g.g.g.g.g.g.g.g.g.g.g.g.g.g.s.g.g.g.<.p Z.M.g.g.g.g.g.s.g.g.g.g.g.g.g.g.g.g.g.g.g.g.g.g.g.g.s.s.s.s.s.g.g.g.g.g.g.g.g.g.g.g.g.g.g.g.g.g.g.g.g.g.g.g.g.g.s.g.g.g.g.g.g.g.s.g.g.g.g.g.g.s.s.g.g.g.s.g.<.v g.g.s.g.g.s.s.g.s.g.g.g.g.g.s.s.s.s.s.g.g.g.g.g.g.g.g.g.g.g.g.g.g.g.g.g.g.g.g.g.g.g.g.g.g.g.g.g.g.g.g.g.g.g.g.g.g.g.g.s.s.g.g.g.g.g.g.s.g.g.g.g.g.g.g.g.g.g.%.S J.g.s.g.g.g.g.s.g.g.g.g.g.g.g.g.g.g.g.s.s.s.s.s.g.g.g.g.g.g.g.g.g.g.s.s.s.s.g.g.g.g.g.g.g.g.g.g.s.g.g.g.g.g.g.g.g.g.g.g.g.g.g.s.g.g.g.g.g.g.g.g.e.g.g.g.g.M.%.: ",
"J.M.s.s.g.g.s.s.s.e.s.s.g.g.g.g.g.g.g.g.g.g.g.g.g.g.g.g.g.g.s.s.g.g.g.g.g.g.g.g.g.g.g.g.g.g.g.g.g.g.g.g.g.g.g.g.g.g.g.g.g.s.s.s.g.g.g.g.g.g.g.g.s.s.g.s.M.M.g.S :.Z.s.g.s.g.s.e.e.e.s.s.s.s.s.s.s.s.s.s.s.s.s.s.s.s.s.s.s.s.s.s.s.s.s.s.s.s.s.s.s.s.s.s.s.s.s.s.s.s.e.s.s.s.s.s.s.s.s.s.s.s.s.s.s.s.r.r.r.r.r.r.e.e.s.6.s.e.<.h e.Z.g.g.g.s.g.g.g.g.s.s.s.s.s.s.s.s.s.g.g.g.g.g.g.g.g.s.s.g.g.g.g.g.s.g.M.M.g.g.s.s.s.s.s.s.s.s.g.g.g.g.g.g.g.g.g.g.g.g.g.g.g.g.g.g.s.s.s.s.g.g.g.s.g.e.s.g.g.v <.g.s.s.g.s.g.g.s.s.s.s.g.g.g.g.g.g.g.g.s.s.s.g.s.g.g.g.g.g.g.s.s.s.g.g.g.g.g.g.g.g.g.s.s.g.g.g.g.g.M.g.g.g.g.g.s.s.g.g.g.g.g.g.g.g.g.g.g.g.g.g.g.M.g.g.s.g.e.S Z.M.g.g.g.g.s.s.g.g.g.g.s.g.g.g.g.g.g.g.g.g.g.g.g.g.g.g.g.g.g.g.g.g.g.g.g.g.g.g.g.g.g.g.g.g.g.g.g.g.g.g.g.g.g.g.s.s.s.s.s.s.s.s.g.g.g.g.g.g.g.g.g.g.s.M.g.M.<.p Z.M.s.s.g.g.g.g.g.g.g.g.g.g.g.g.g.g.g.g.g.g.g.g.g.g.g.g.s.g.g.g.g.g.g.g.g.g.g.g.g.g.g.g.g.g.g.g.g.g.g.g.g.g.g.g.g.g.g.g.g.g.s.s.s.s.g.g.g.g.g.s.e.g.g.M.g.g.e.V M.g.g.g.g.s.s.g.s.g.g.g.g.g.s.s.s.s.s.s.g.g.g.g.g.g.g.g.g.g.g.g.g.g.g.g.g.g.g.g.g.g.g.g.g.g.g.g.g.g.g.g.g.g.g.g.g.g.g.g.g.g.g.g.g.g.s.s.s.s.g.g.g.s.g.g.g.g.:.J J.g.s.g.g.g.g.e.g.g.g.g.g.g.g.g.g.g.g.s.s.s.s.s.s.s.g.g.g.g.g.g.g.g.s.s.s.s.g.g.g.g.g.g.g.s.s.s.s.g.g.g.g.g.g.g.g.g.g.g.g.s.s.s.g.g.g.g.g.g.g.g.M.M.g.s.g.M.%.1 ",
"G.M.s.g.g.g.g.g.s.g.g.g.g.g.g.g.g.g.g.g.g.g.g.g.g.g.g.g.g.g.g.g.s.s.g.g.g.g.s.s.g.g.g.g.g.g.g.g.g.g.g.g.g.g.g.g.g.g.g.g.g.g.g.g.g.g.g.s.g.g.g.g.g.g.g.g.g.s.M.S <.Z.e.g.e.s.s.s.s.s.s.s.s.s.s.s.s.s.s.s.s.s.s.s.s.s.s.s.s.s.s.s.s.s.s.s.s.s.s.s.s.s.s.s.s.s.s.s.e.e.s.s.s.s.s.s.e.e.s.s.s.s.s.s.r.r.s.s.s.s.r.r.r.<.r.e.r.e.6.i s.Z.g.s.g.s.g.g.g.g.s.s.s.s.s.s.g.g.g.g.g.g.g.g.g.g.s.s.g.g.g.g.g.g.g.g.g.g.g.g.g.g.g.g.g.g.g.g.g.g.g.g.g.g.g.g.g.g.g.g.g.g.g.g.g.g.s.s.s.s.g.g.g.s.g.e.s.g.g.V :.g.e.s.g.s.g.g.s.s.s.s.s.s.g.g.g.g.g.g.g.g.g.g.g.g.g.g.g.g.g.g.s.s.s.s.s.s.s.s.s.s.s.s.s.s.g.g.g.g.g.g.g.g.g.g.g.g.g.g.g.g.g.g.g.g.g.g.g.g.g.g.s.g.s.g.g.M.e.V M.M.g.s.s.s.s.s.g.g.g.g.g.g.g.g.g.g.g.g.g.g.g.g.g.g.g.g.g.g.g.g.g.g.g.g.g.s.s.s.g.g.g.g.g.g.g.g.g.g.g.g.g.g.g.g.s.g.g.g.g.g.g.g.g.g.g.g.g.g.g.g.g.g.g.M.g.g.<.v Z.M.g.g.g.g.g.g.s.s.s.g.g.g.g.s.g.g.g.g.g.g.g.g.g.g.g.g.g.g.g.g.g.g.g.g.g.g.g.g.g.g.g.g.g.g.g.g.g.g.g.s.s.s.g.g.g.g.g.g.g.g.s.s.g.g.g.g.g.g.s.s.g.g.g.g.s.g.<.v g.s.s.g.g.g.s.g.M.g.g.g.g.g.g.g.g.g.g.g.g.g.g.g.s.g.g.g.g.g.g.s.g.g.g.g.g.g.g.g.g.g.g.g.g.g.g.g.g.g.g.g.g.g.g.g.g.g.g.g.g.g.g.g.g.g.s.s.s.s.g.g.g.s.g.g.g.g.%.J J.g.s.M.g.g.g.g.g.g.g.g.g.g.g.g.M.g.g.s.s.s.s.s.g.g.g.g.g.g.g.g.s.s.s.s.s.s.s.s.g.g.s.s.s.s.s.s.s.s.g.g.g.g.g.g.g.g.g.g.g.s.s.e.g.g.g.g.g.g.g.g.g.M.s.s.s.g.%.: ",
"G.M.s.g.g.g.g.g.g.g.g.g.g.g.g.g.g.g.g.g.g.g.g.g.g.g.g.g.g.g.g.g.s.g.g.g.g.g.g.s.g.g.g.g.g.g.g.g.g.g.g.g.g.g.g.g.g.g.s.s.s.s.g.g.g.g.g.s.s.g.g.g.g.g.g.g.g.s.M.S <.Z.e.g.e.s.s.s.s.s.s.s.s.s.s.s.s.s.s.s.s.s.s.s.s.s.s.s.s.s.s.s.s.s.s.s.s.s.s.s.s.s.s.s.s.s.s.s.e.e.s.s.s.s.s.s.e.s.s.s.s.s.s.s.s.s.s.s.r.r.r.e.r.<.r.e.r.e.6.i s.Z.s.s.g.s.g.g.g.g.g.s.s.s.s.s.g.g.g.g.g.g.g.g.g.g.s.g.g.g.g.g.g.g.g.g.g.g.g.g.g.g.g.g.g.g.g.g.g.g.g.g.g.g.g.g.g.g.g.g.g.g.g.g.g.g.g.s.s.g.g.g.g.s.g.e.s.g.g.v :.g.e.e.g.s.M.g.s.s.s.s.s.s.g.g.g.g.g.g.g.g.g.g.g.g.g.g.g.g.g.g.g.g.g.s.s.s.s.s.s.s.s.s.s.s.g.g.g.g.g.g.g.g.g.g.g.g.g.g.g.g.g.g.g.g.g.g.g.g.g.g.s.g.s.g.s.g.e.V M.g.g.s.g.g.s.s.g.g.g.g.g.g.g.s.g.g.g.g.g.g.g.g.g.g.g.g.g.g.g.g.g.g.g.g.g.g.s.s.g.g.g.g.g.g.g.g.g.g.g.g.g.g.g.g.g.g.g.g.g.g.g.g.g.g.g.g.g.g.g.g.g.g.g.M.g.g.<.v Z.M.s.g.g.g.g.g.s.s.s.g.s.s.g.g.g.g.g.g.g.g.g.g.g.g.g.g.g.g.g.g.g.g.g.g.g.g.g.g.g.g.g.g.g.g.g.g.g.g.g.s.s.s.g.g.g.g.g.g.g.g.s.s.g.g.g.g.g.g.s.s.g.g.g.g.s.g.<.v M.g.s.g.g.g.g.g.g.g.g.g.g.g.g.s.g.g.g.g.g.g.g.g.g.g.g.g.g.g.g.g.g.g.g.g.g.g.g.g.g.g.g.g.g.g.g.g.g.g.g.g.g.g.g.g.g.g.g.g.g.g.g.g.g.g.s.s.s.s.g.g.g.s.g.g.g.g.%.J J.g.s.M.g.s.g.g.g.g.g.g.g.g.g.g.M.g.g.s.s.s.s.g.g.g.g.g.g.g.g.g.s.s.s.s.s.s.s.s.s.s.s.s.s.g.g.g.g.g.g.g.g.g.g.g.g.g.g.g.s.s.s.s.g.g.g.g.g.g.g.g.g.M.s.s.s.g.%.: ",
"J.M.s.s.g.g.g.g.g.g.g.s.s.g.g.g.g.g.g.g.g.g.g.g.g.g.g.g.g.g.g.g.g.g.g.g.g.g.s.g.g.g.g.g.g.g.g.g.g.g.g.g.g.g.g.s.s.s.s.s.s.s.s.s.g.s.s.s.s.s.g.g.g.g.s.g.g.s.M.S <.Z.e.g.e.s.s.s.e.s.s.s.s.s.s.s.e.s.e.s.s.s.s.s.s.s.s.s.s.s.s.s.s.s.s.s.s.s.s.s.s.s.s.s.s.s.s.s.e.e.e.e.s.s.e.e.e.s.s.s.s.s.s.s.s.s.r.r.e.e.6.6.r.<.s.e.r.e.6.i e.Z.s.s.g.s.g.g.g.g.g.g.s.g.g.g.g.g.g.g.g.g.g.g.g.g.g.g.g.g.g.g.g.g.g.g.g.g.g.g.g.g.g.g.g.g.g.g.g.g.g.g.g.g.g.g.s.g.g.g.g.g.g.g.g.g.g.s.s.g.g.g.g.s.g.s.s.g.g.v :.g.e.s.g.s.g.g.s.s.s.s.s.s.g.g.g.g.g.g.g.g.g.g.g.g.g.g.g.g.g.g.g.g.g.s.s.s.s.s.s.s.s.s.s.s.g.g.g.g.g.g.g.g.g.g.g.g.g.g.g.g.g.g.g.g.g.g.g.g.g.g.s.s.s.g.s.g.e.V M.g.g.s.g.g.g.g.g.g.g.g.g.g.g.s.g.g.g.g.g.g.g.g.g.g.g.g.g.g.g.g.g.g.g.g.g.g.s.s.g.g.g.g.g.g.g.g.g.g.g.g.g.g.g.g.M.g.g.g.g.g.g.g.g.g.g.g.g.g.g.g.g.g.g.g.s.g.<.p Z.M.s.g.g.g.g.g.s.s.s.g.s.g.g.g.g.g.g.g.g.g.g.g.g.g.g.g.g.g.g.g.g.g.g.g.g.g.g.g.g.g.g.g.g.g.g.g.g.g.s.s.s.s.s.g.s.s.g.g.g.g.g.g.g.g.g.g.g.g.s.s.g.g.s.g.s.g.<.v M.g.s.g.g.g.g.g.g.g.s.g.g.g.g.s.g.g.g.g.g.g.g.g.g.s.s.s.g.g.s.g.g.g.g.g.g.g.g.g.g.g.s.g.g.g.g.g.g.g.g.g.g.g.g.g.g.g.g.g.g.g.g.g.g.g.s.s.s.s.g.g.g.s.g.g.g.g.%.J J.g.s.g.g.s.g.g.g.g.g.g.g.g.g.g.g.g.g.g.s.g.g.g.g.g.g.g.g.g.g.g.g.g.s.s.s.s.g.g.s.s.s.s.s.g.g.g.g.g.g.g.g.g.g.g.g.g.g.s.s.s.s.s.g.g.g.g.g.g.g.g.g.g.s.s.s.g.%.: ",
"J.M.s.s.s.s.s.g.g.g.s.s.s.s.s.s.g.g.g.g.g.g.g.s.g.g.g.g.g.g.g.g.g.g.g.g.g.g.s.g.s.s.s.s.s.s.s.s.g.g.g.g.g.s.s.s.s.s.s.s.s.s.s.s.s.s.s.s.s.s.g.g.g.s.s.g.g.s.M.S <.Z.s.g.e.s.s.s.e.e.s.s.s.s.e.e.e.e.e.e.s.s.s.s.s.s.s.s.s.s.s.s.s.s.s.s.s.s.s.s.s.s.s.s.s.s.s.s.e.e.e.s.s.s.e.e.s.s.s.s.s.s.e.e.r.r.e.6.6.6.6.e.r.<.s.e.r.e.6.i e.M.s.s.g.s.g.g.g.g.g.s.s.s.g.g.g.g.g.g.g.g.g.g.g.g.s.g.g.g.g.g.g.g.g.g.g.g.g.g.g.g.g.g.g.g.g.g.g.g.g.g.g.g.g.g.s.s.s.s.s.g.g.g.g.g.g.g.g.g.g.g.g.e.g.s.g.g.s.v <.M.s.s.g.s.s.s.s.s.s.s.s.s.g.g.g.g.g.g.g.g.g.g.g.g.g.g.g.g.g.g.g.g.g.g.s.s.s.s.s.s.s.s.s.g.g.g.g.g.g.g.g.g.s.s.g.g.g.g.g.g.g.g.g.g.g.g.g.g.g.g.s.s.s.g.s.g.<.v M.g.g.s.g.g.g.g.g.g.g.g.g.g.s.s.g.g.g.g.g.g.g.g.g.g.g.g.g.g.g.g.g.g.g.s.s.s.s.s.g.g.g.g.g.g.g.g.s.s.s.s.s.s.s.s.M.g.g.s.s.g.g.g.g.g.g.g.g.g.s.s.s.g.g.g.s.g.<.p Z.g.s.g.g.g.g.g.s.s.s.s.s.g.g.g.g.g.g.g.g.g.g.g.g.g.g.g.g.g.g.g.g.g.g.g.g.g.g.g.g.g.g.g.g.g.g.g.s.s.s.s.s.s.s.s.s.s.g.g.g.g.g.g.g.g.g.g.g.g.s.s.g.g.g.g.s.g.<.v M.g.s.g.g.g.g.g.g.s.s.s.g.g.s.s.g.g.g.g.g.g.g.g.s.s.s.e.s.s.s.s.g.g.g.g.g.g.g.g.g.s.s.s.g.g.g.g.g.g.g.g.g.g.g.g.g.g.g.g.g.g.g.g.g.g.s.s.s.s.g.g.g.s.g.g.g.g.%.J J.g.s.g.g.s.g.s.s.s.s.s.s.s.s.s.g.g.g.s.s.s.g.g.s.s.s.s.g.g.g.g.g.g.g.g.g.g.g.g.s.s.s.s.s.g.g.g.g.g.g.g.g.g.s.s.g.g.s.s.s.s.s.s.g.g.g.g.g.g.g.g.s.g.s.s.g.M.%.1 ",
"J.M.s.s.s.s.s.g.g.s.s.s.s.s.s.s.s.s.s.s.s.s.s.s.g.g.g.g.g.g.g.g.g.g.g.g.g.g.g.g.g.s.s.s.s.s.s.s.g.g.g.g.s.s.s.s.s.s.s.s.s.s.s.s.s.s.s.s.s.s.g.g.g.s.s.s.g.s.M.S <.Z.s.g.e.s.s.s.s.s.s.s.s.e.e.e.e.e.e.e.e.s.s.s.s.s.s.s.s.s.s.s.s.s.s.s.s.s.s.s.s.s.s.s.s.s.s.s.e.e.e.s.s.s.s.e.e.e.e.s.s.e.e.e.6.6.6.<.6.6.6.e.r.<.s.e.r.e.6.i e.M.s.s.g.s.g.g.s.s.s.s.s.s.s.g.g.g.g.g.g.g.g.g.g.s.s.s.g.g.g.g.g.g.g.g.g.g.g.g.g.g.g.g.g.g.g.g.g.g.g.g.g.g.g.g.s.s.s.s.s.s.s.g.g.g.g.g.g.g.g.g.g.e.g.s.g.g.s.v e.M.s.s.g.s.s.s.s.s.g.g.s.s.s.s.g.g.g.g.g.g.g.g.g.g.g.g.g.g.g.g.g.g.g.s.s.s.s.s.s.s.s.s.g.g.g.g.g.g.g.g.g.s.s.s.g.g.g.g.g.g.g.g.g.g.g.g.g.g.g.g.s.s.s.g.s.g.<.v M.g.g.s.g.g.g.g.g.g.g.g.g.g.s.s.g.g.g.g.g.g.g.g.g.g.g.g.g.g.g.g.s.s.s.s.s.s.s.s.s.s.s.g.g.g.g.s.s.s.s.s.s.s.s.s.g.g.s.s.s.s.s.g.g.g.g.g.g.g.s.s.s.g.s.g.s.g.<.p Z.g.s.s.g.s.s.g.s.s.s.g.g.g.g.g.g.g.g.g.g.g.g.g.g.g.g.g.g.g.g.g.g.g.g.g.g.s.s.s.g.g.g.g.g.g.g.g.s.s.s.s.s.s.s.s.s.s.g.g.g.g.g.g.g.g.g.g.g.g.s.s.g.g.g.g.s.g.<.v g.s.s.s.g.s.s.g.s.s.s.s.s.g.s.s.g.g.g.g.g.g.g.g.g.s.s.s.s.s.s.g.g.g.g.g.g.g.g.g.g.s.s.s.g.g.g.g.g.g.g.g.g.g.g.g.g.g.s.s.s.g.g.g.g.g.s.s.s.s.g.g.g.s.g.g.g.g.%.J J.g.s.g.g.s.g.s.s.s.g.g.s.s.s.s.s.s.s.s.s.s.s.s.s.s.s.s.s.s.s.s.g.g.g.g.g.g.g.g.g.g.s.s.s.s.s.g.g.g.g.g.g.g.g.s.g.g.s.s.s.s.g.g.g.g.g.g.g.g.g.g.s.g.s.g.g.M.%.: ",
"G.M.s.s.s.s.s.g.s.s.s.s.s.e.e.e.s.s.s.s.s.s.s.s.g.g.g.g.g.g.g.g.s.s.s.s.s.s.s.s.s.s.s.s.s.s.s.s.g.g.g.g.s.s.s.s.s.s.s.s.s.s.s.s.s.s.s.s.s.s.s.s.s.s.s.s.g.s.M.S :.M.e.s.e.s.s.s.s.s.s.s.s.e.e.e.e.e.e.s.e.s.s.s.s.s.s.s.s.s.s.s.s.s.e.s.s.s.s.s.s.s.s.s.s.s.s.s.e.e.s.s.s.s.s.e.e.e.e.s.e.e.e.e.<.<.6.6.6.6.e.r.r.<.s.r.r.e.6.i e.M.s.s.g.s.g.g.s.s.s.s.s.s.s.g.g.g.g.g.s.s.s.s.g.s.s.s.g.g.g.g.g.g.g.g.g.g.g.g.g.g.s.s.s.s.g.g.g.g.g.g.g.g.g.g.s.s.s.s.s.s.g.g.s.g.g.g.g.g.g.s.g.s.g.s.s.g.g.v <.g.e.s.g.s.g.s.s.g.g.g.g.s.s.s.g.g.g.g.g.g.g.g.g.g.g.g.g.g.g.g.s.s.s.s.s.s.s.s.s.s.g.g.g.g.g.s.g.g.g.g.s.s.s.s.g.g.g.g.g.g.g.g.g.g.g.g.g.g.g.g.s.s.s.g.s.g.e.V M.g.g.s.g.g.g.g.g.g.g.g.g.s.s.s.g.g.g.g.s.s.s.s.g.g.g.g.g.g.g.g.s.s.s.s.s.s.s.s.s.s.s.s.s.s.s.s.g.g.g.g.g.g.g.g.g.s.s.s.s.s.s.s.g.g.g.g.g.g.s.s.s.g.s.g.s.g.:.p Z.g.s.s.g.s.s.g.s.s.s.g.g.g.s.s.g.g.g.g.g.g.g.g.g.g.g.g.g.g.g.g.g.g.g.g.s.s.s.s.g.g.g.g.g.g.g.g.s.s.s.s.s.s.s.s.s.s.g.g.g.g.g.g.g.g.g.g.g.g.s.s.s.g.s.g.s.g.<.v g.s.s.s.g.s.s.s.s.s.s.s.g.g.g.s.g.g.g.g.g.g.g.g.g.g.s.s.s.s.g.g.g.g.g.g.g.g.g.g.g.s.s.s.g.g.g.s.g.g.g.g.g.g.g.g.s.s.s.s.s.g.g.g.g.g.s.s.s.s.g.g.g.s.g.g.g.g.%.J G.g.s.g.g.s.g.g.s.s.s.s.s.s.s.s.s.s.s.s.s.s.s.s.s.s.s.s.s.s.g.g.g.g.s.s.s.s.g.g.g.g.g.s.s.s.s.s.g.g.g.g.g.g.s.s.s.s.s.s.s.s.g.g.g.g.g.g.g.g.g.g.s.g.s.g.g.M.%.: ",
"G.M.s.s.g.g.s.g.s.s.s.s.s.e.e.e.s.s.e.e.e.s.s.g.s.s.s.s.s.s.s.s.s.s.s.s.s.s.s.s.g.g.g.g.g.g.g.g.g.g.s.s.s.s.s.s.g.g.s.s.s.s.s.s.s.g.g.s.s.s.s.s.s.s.s.s.g.s.M.S :.M.e.s.e.s.s.s.g.s.s.e.e.e.e.s.s.e.s.s.s.s.s.s.s.s.e.e.e.e.e.e.s.s.e.e.s.s.s.s.e.e.e.e.s.s.s.e.e.e.s.s.s.s.s.s.e.e.s.s.s.e.e.e.e.e.e.r.r.r.r.r.r.<.s.e.r.e.6.i e.M.s.s.g.s.g.g.s.s.s.s.s.s.g.g.g.g.g.s.s.s.s.s.g.s.s.s.s.g.g.g.s.s.s.s.s.s.s.s.g.g.s.s.s.s.g.g.s.s.s.s.s.s.s.s.s.s.s.g.g.g.g.g.s.g.g.g.g.g.g.s.g.s.g.e.s.g.g.v <.g.e.s.g.s.g.g.s.g.g.g.g.s.s.s.g.g.g.g.g.g.g.g.g.g.g.g.g.g.g.g.s.s.s.s.g.g.g.g.g.g.g.g.g.g.s.s.s.s.s.s.s.g.g.g.s.s.s.s.s.s.s.s.s.s.s.s.s.s.s.s.s.g.s.g.s.g.e.V M.g.g.s.g.g.s.s.g.g.g.g.g.s.s.s.g.g.g.s.s.s.s.s.s.s.s.s.s.s.s.s.s.s.s.s.s.s.s.s.s.s.s.g.g.g.s.s.g.g.g.g.g.g.g.g.s.s.s.s.s.s.s.s.s.s.s.s.s.g.g.g.s.g.s.g.s.g.:.p Z.g.s.s.g.s.s.g.s.g.g.g.g.s.s.s.g.g.g.g.g.g.g.g.g.g.g.g.g.g.g.g.g.g.g.g.s.s.s.s.s.s.s.s.s.s.s.s.s.s.s.g.g.g.g.g.g.g.g.g.g.g.s.s.g.g.g.g.g.g.s.s.s.g.s.g.s.g.<.v g.s.s.s.g.s.s.g.s.s.s.s.g.g.g.g.s.s.s.s.s.s.s.s.g.g.s.s.s.s.g.g.s.s.s.s.s.s.s.s.s.s.s.s.g.g.g.s.s.s.s.s.s.s.s.s.s.s.s.s.s.s.g.g.g.g.s.s.s.s.g.g.g.s.g.g.g.g.%.J G.s.s.g.g.s.g.g.g.g.g.g.g.g.g.g.g.g.s.s.s.s.s.s.s.s.s.s.g.g.g.g.s.s.s.s.s.s.s.s.g.s.s.s.s.s.g.g.g.g.g.s.s.s.s.s.s.s.s.g.g.g.g.g.g.g.g.g.g.g.g.g.s.g.g.g.g.M.%.: ",
"Z.g.s.s.g.g.s.g.s.s.s.s.s.e.e.<.s.s.e.e.e.s.g.g.s.s.s.s.s.s.s.s.s.s.s.e.e.s.s.s.g.g.g.g.g.g.g.g.s.g.g.s.s.s.s.g.g.g.s.s.s.s.g.g.g.g.g.g.g.s.s.e.s.s.s.s.g.s.M.S %.g.<.s.e.s.s.s.g.g.s.e.e.e.s.s.s.s.s.s.s.s.s.s.s.s.e.e.e.e.e.e.s.e.e.e.e.s.e.s.e.e.e.e.s.s.s.e.e.e.s.s.s.s.s.s.e.e.s.s.s.e.e.e.r.r.s.s.s.s.r.r.r.<.s.e.r.e.6.i e.M.s.s.g.s.g.g.g.s.s.s.g.g.g.g.g.g.g.s.s.s.s.s.g.s.s.s.s.g.g.g.s.s.s.s.s.s.s.s.g.g.s.s.s.s.g.g.s.s.s.s.s.s.s.s.s.g.g.g.g.g.g.g.s.s.g.g.g.g.s.s.g.s.g.e.s.g.g.V <.M.s.s.g.s.g.s.s.g.g.g.g.s.s.s.g.g.g.g.g.g.g.g.g.g.g.g.g.g.g.g.s.s.s.s.g.g.g.g.g.g.g.g.g.g.s.s.s.s.s.s.s.g.g.g.s.s.s.s.s.s.s.s.s.s.s.s.s.s.s.s.s.g.s.g.g.M.e.V M.M.g.s.s.s.s.s.s.s.g.g.g.s.s.s.g.g.g.s.s.s.s.s.s.s.s.s.s.s.s.s.s.s.g.g.g.g.g.g.s.s.g.g.g.g.g.g.g.g.g.g.g.g.g.g.s.s.s.g.g.g.g.g.s.s.s.s.s.g.g.g.s.g.s.g.s.g.:.p Z.g.s.s.g.s.s.g.g.g.g.g.g.s.s.s.g.g.g.g.g.g.g.g.g.g.g.g.g.g.g.g.g.g.g.g.s.s.s.s.s.s.s.s.s.s.s.s.s.s.g.g.g.g.g.g.g.g.g.g.g.g.s.s.g.g.g.g.g.g.s.s.s.g.s.g.s.g.<.v g.s.s.g.g.g.s.g.g.s.s.s.g.g.g.g.s.s.s.s.s.s.s.s.s.s.s.s.s.s.s.s.s.s.s.s.s.s.s.s.s.s.s.s.g.g.g.s.s.s.s.s.s.s.s.s.s.s.s.s.s.s.g.g.g.g.s.s.s.s.g.g.g.s.g.g.g.g.%.J G.s.s.g.g.s.g.g.g.g.g.g.g.g.g.g.g.g.g.s.s.s.s.s.s.s.s.g.g.g.g.g.s.s.s.s.s.s.s.s.s.s.s.s.s.g.g.g.s.s.s.s.s.s.s.s.s.s.s.g.g.g.g.g.g.g.g.g.g.g.g.g.g.M.g.g.g.g.%.: ",
"G.g.s.s.g.g.g.g.s.s.s.s.s.s.e.s.s.s.s.s.s.s.s.g.g.g.g.g.s.s.s.s.s.s.s.s.s.s.s.s.s.g.g.s.s.g.g.s.g.s.s.s.g.g.s.s.s.s.g.g.g.g.g.g.g.g.g.g.g.g.g.g.g.s.g.s.s.s.g.S <.Z.e.s.<.e.e.e.e.e.e.s.s.s.s.s.s.s.e.e.e.e.e.e.s.s.s.s.s.s.s.s.e.e.e.e.e.e.e.s.s.s.s.s.s.s.s.e.s.s.s.s.e.e.s.s.e.e.e.e.e.s.s.s.s.s.s.s.s.s.s.s.s.e.g.e.e.e.e.u s.Z.s.s.g.s.g.g.g.g.g.g.g.g.g.g.s.s.s.s.s.s.s.s.s.s.s.g.g.g.g.s.s.s.s.g.g.g.g.g.g.s.s.s.s.s.s.g.g.g.g.g.g.g.g.g.g.g.g.g.g.g.g.g.g.g.s.g.g.g.g.s.g.s.g.e.s.s.g.V <.g.s.s.g.s.g.g.g.s.s.s.s.s.s.g.s.g.g.g.g.g.g.g.s.s.s.s.g.g.g.g.g.g.g.g.g.g.g.g.s.g.g.g.g.s.s.s.g.g.g.g.g.g.s.s.s.g.g.g.g.g.g.s.s.s.s.s.s.s.s.s.g.g.s.g.g.M.e.V M.g.g.g.g.g.s.s.g.g.g.g.g.g.g.g.g.g.g.s.s.g.g.g.g.g.s.s.s.s.s.s.g.g.g.g.g.g.g.g.g.g.g.g.g.g.g.g.g.g.g.g.g.g.g.g.g.g.g.g.s.s.s.g.g.g.g.g.g.g.g.g.s.g.g.g.s.g.:.p M.g.s.s.g.g.s.g.s.s.s.s.s.s.s.s.g.g.s.s.s.g.g.g.g.g.g.s.s.g.g.g.g.g.g.g.s.s.s.s.g.g.g.g.s.s.g.g.s.s.s.s.s.s.s.s.s.s.s.e.s.s.s.g.g.g.g.g.g.g.g.g.s.g.s.g.s.g.e.V M.g.s.g.g.s.s.g.s.s.s.s.s.s.s.s.g.s.s.g.g.g.s.s.s.s.s.s.s.s.s.s.s.g.g.g.g.g.g.s.s.s.g.g.g.g.g.g.s.s.s.s.s.s.s.s.s.s.s.g.g.g.g.g.s.s.s.s.g.g.g.g.g.s.g.g.g.g.%.J G.g.s.g.s.s.g.s.s.s.s.s.s.g.g.g.g.g.s.s.s.s.g.g.s.s.s.s.s.s.s.s.s.s.s.s.s.g.g.g.g.g.g.g.g.g.g.g.s.s.s.s.s.s.g.g.s.s.s.s.s.s.s.s.g.g.g.g.g.g.g.g.s.M.g.g.s.g...: ",
"G.M.s.s.g.s.g.g.g.s.s.s.s.s.s.s.g.g.s.s.s.g.g.g.g.g.g.g.s.s.s.s.s.s.s.s.s.s.g.g.s.g.g.s.s.g.g.s.g.g.s.g.g.g.s.s.s.s.s.g.g.g.g.g.g.g.g.g.g.g.g.g.g.s.g.s.g.s.g.S <.Z.e.s.<.e.e.e.e.e.e.s.s.s.s.s.s.s.s.s.s.s.s.s.s.s.s.s.s.s.s.s.e.e.e.e.e.s.s.s.s.s.s.s.s.s.e.e.s.s.s.s.e.e.e.s.e.e.e.e.s.s.s.s.s.s.s.s.s.s.s.s.s.e.g.e.e.e.e.u s.Z.s.s.g.s.g.s.g.g.g.g.g.g.g.g.g.s.s.s.s.s.s.s.s.s.s.g.g.g.g.s.s.s.s.g.g.g.g.g.g.g.s.s.s.s.g.g.g.g.g.g.g.g.g.g.g.g.g.g.g.g.g.g.g.g.s.s.g.g.g.s.g.s.g.e.s.g.g.V <.g.s.s.g.s.g.g.s.s.s.s.s.s.s.s.s.s.g.g.g.g.g.g.s.s.s.s.g.g.g.s.g.g.g.g.g.g.g.g.s.g.g.g.g.s.s.s.g.g.g.g.g.g.s.s.s.g.g.g.g.g.g.s.s.s.s.s.s.s.s.s.g.g.s.g.g.M.e.V M.g.g.g.g.g.g.s.g.g.g.g.g.g.g.g.g.g.g.s.s.g.g.g.g.g.s.s.s.s.s.s.g.g.g.g.g.g.g.g.g.g.g.g.g.g.g.g.g.g.g.g.g.g.g.g.g.g.g.g.s.s.s.g.g.g.g.g.g.g.g.g.s.g.g.g.s.g.:.p M.g.s.s.g.g.s.g.g.g.g.g.g.g.g.g.g.g.g.g.s.g.s.s.g.g.g.s.s.g.g.g.g.g.g.g.s.s.s.s.g.g.g.s.s.s.g.g.s.s.s.s.s.s.s.s.s.s.s.s.s.s.s.g.g.g.g.s.s.g.g.g.s.g.s.g.s.g.e.V g.s.s.g.g.s.s.g.g.g.g.g.g.g.g.g.g.g.s.g.g.g.s.s.s.s.s.s.s.s.s.s.s.g.g.g.g.g.g.s.s.s.g.g.g.g.g.g.s.s.s.s.s.s.s.s.g.g.g.g.g.g.g.g.s.s.s.s.g.g.g.g.g.s.g.g.g.g.%.J G.g.s.g.s.g.g.s.s.s.s.s.g.g.g.g.g.s.s.s.s.s.s.g.s.s.s.s.s.s.s.s.s.s.s.s.s.s.g.g.g.g.g.g.g.g.g.g.s.s.s.s.s.s.s.g.s.s.s.s.s.s.s.s.g.g.g.g.g.g.g.g.s.g.s.s.s.g...: ",
"G.M.s.s.g.g.g.g.g.g.g.s.s.s.g.s.g.g.g.g.g.g.g.g.g.g.g.g.s.s.s.s.s.s.s.g.g.g.g.g.s.g.g.s.s.g.g.s.g.g.g.g.g.g.g.s.s.s.s.g.g.g.g.g.g.g.g.g.g.g.g.g.g.s.g.s.g.g.g.S <.Z.e.s.<.s.s.s.s.s.e.s.s.s.s.s.s.s.s.s.s.s.s.s.s.s.s.s.s.s.s.s.s.e.e.e.s.s.s.s.s.s.s.s.s.e.e.e.s.s.s.s.e.e.e.s.e.e.s.s.s.s.s.s.s.s.s.s.s.s.s.s.s.e.g.e.e.e.e.p e.M.s.s.g.s.g.s.g.g.g.g.g.g.g.g.g.g.s.s.s.s.s.s.s.s.s.g.g.g.g.s.s.s.s.g.g.g.g.g.g.g.g.g.g.g.g.g.g.g.g.g.g.g.s.s.g.g.g.g.g.g.g.g.g.g.s.s.g.g.g.s.g.s.g.e.s.g.g.V <.g.s.s.g.e.g.s.s.s.s.s.s.s.s.s.s.s.s.g.g.g.g.g.s.s.s.s.g.g.s.s.g.g.g.g.g.g.g.g.s.s.g.g.g.s.s.s.g.g.g.g.g.g.s.s.s.s.g.g.g.g.s.s.s.s.s.s.s.s.s.s.g.g.s.g.s.g.e.V g.g.g.s.g.g.g.s.g.g.g.g.g.g.g.g.g.g.s.s.s.s.g.g.g.g.s.s.s.s.s.s.g.g.g.g.g.g.g.g.g.g.g.g.g.g.g.g.g.g.g.g.g.g.g.g.g.g.g.g.s.s.s.g.g.g.g.g.g.g.g.g.s.g.s.g.s.g.:.p Z.g.s.s.g.g.s.g.g.g.g.g.g.g.g.g.g.g.g.g.g.s.s.s.g.g.s.s.s.s.g.g.g.g.g.g.s.s.s.s.g.g.g.s.s.s.s.g.s.s.s.s.s.s.s.s.g.s.s.s.s.s.s.g.g.g.s.s.s.s.g.g.s.g.s.g.s.g.<.V g.s.s.g.g.s.s.g.g.g.g.g.g.g.g.g.g.g.g.g.g.g.s.s.s.s.s.s.s.s.s.s.g.g.g.s.s.g.g.g.g.g.g.g.g.g.s.s.g.g.s.s.s.s.s.s.g.g.g.g.g.s.s.s.s.s.s.s.g.g.g.g.g.s.g.g.s.g.%.S G.g.s.g.s.g.g.s.s.g.g.g.g.g.g.g.g.s.s.e.e.s.s.g.s.s.s.s.s.s.s.s.s.s.s.s.s.s.s.s.g.g.g.g.g.g.g.g.s.s.s.s.s.s.s.s.s.s.s.s.s.s.s.s.g.g.g.g.g.g.g.g.s.g.s.s.s.g...: ",
"G.M.g.g.g.g.g.g.g.g.g.g.s.s.g.s.g.g.g.g.g.g.g.g.g.g.g.s.s.s.s.s.g.g.g.g.g.g.g.g.s.g.g.s.s.g.g.s.g.g.g.g.g.g.g.s.s.s.s.s.g.g.g.g.g.g.g.g.g.g.g.g.g.s.g.s.g.g.g.S <.Z.e.s.e.s.s.s.s.s.e.e.e.s.s.s.s.s.s.s.s.s.s.s.e.e.e.e.e.e.e.e.s.s.s.s.s.s.s.s.s.s.s.s.e.e.e.e.s.s.s.s.e.e.e.s.e.e.s.s.s.s.e.e.e.e.e.e.e.e.e.e.s.e.g.e.e.e.e.p e.M.s.s.g.s.s.s.s.s.s.s.s.s.s.s.g.g.s.s.s.s.s.g.s.s.s.s.g.g.g.s.s.s.s.s.s.g.g.g.g.g.g.g.g.s.g.g.g.g.g.g.s.s.s.s.s.s.s.s.s.s.s.s.g.s.s.s.g.g.g.s.s.e.g.s.s.g.g.V <.g.s.s.g.e.g.s.g.g.g.g.g.g.g.g.s.s.s.s.g.g.g.g.s.s.s.s.s.g.s.s.g.g.g.g.g.g.g.g.s.s.s.s.s.s.s.s.s.s.g.g.g.g.s.s.s.s.g.g.g.g.s.s.s.s.s.s.s.s.s.s.s.g.s.g.s.g.e.V g.g.s.s.g.g.g.g.s.s.s.s.s.s.s.s.g.g.s.s.s.s.g.g.g.g.s.s.s.s.s.s.s.s.s.s.s.s.s.s.s.s.s.s.s.s.s.s.g.g.g.g.g.g.g.g.s.g.g.g.s.s.s.g.s.s.s.s.s.s.s.s.s.g.s.g.s.s.:.p Z.g.s.s.g.s.s.g.g.g.g.g.s.s.g.g.g.g.g.g.g.s.s.s.g.g.s.s.s.s.g.g.g.g.g.s.s.s.s.s.g.g.g.s.s.s.s.s.s.s.s.s.s.s.s.s.s.s.s.s.s.s.s.g.s.s.s.s.s.s.s.s.s.g.s.g.s.g.<.V g.s.s.g.g.s.s.g.g.g.g.g.g.g.g.g.g.g.g.g.g.g.s.s.s.s.s.g.s.s.s.s.g.g.s.s.s.s.g.g.g.g.g.g.g.s.s.s.g.g.s.s.s.s.s.s.g.g.g.g.s.s.s.s.s.s.s.s.g.g.g.g.g.s.g.g.s.s.%.S G.g.s.g.s.g.g.s.g.g.g.g.g.g.g.g.s.s.s.s.s.s.s.s.s.s.s.s.s.s.s.s.s.s.s.s.s.s.s.s.s.s.s.s.s.s.s.s.s.s.s.s.s.s.s.s.s.s.s.s.s.s.s.s.s.s.s.s.s.s.s.s.s.g.s.s.s.g...: ",
"J.M.g.g.g.g.g.g.s.s.s.s.s.s.s.s.s.s.s.g.g.g.g.g.g.g.s.s.s.s.s.s.g.g.g.g.g.g.g.g.s.g.s.e.e.s.g.s.g.g.g.g.g.g.s.s.s.s.s.s.s.s.s.s.g.g.g.g.g.g.g.g.g.s.g.s.g.g.g.S <.Z.e.s.e.s.s.s.s.s.s.s.e.e.e.s.s.s.s.s.s.s.s.e.s.s.s.e.e.e.e.e.s.s.s.s.s.s.s.s.s.s.e.e.s.s.e.e.s.s.s.e.e.e.s.s.e.e.s.s.s.e.e.e.s.e.s.s.e.e.e.e.s.e.g.e.e.e.e.p e.M.s.s.g.e.s.s.s.s.s.s.s.s.s.s.g.s.s.s.s.s.g.g.g.s.s.s.g.g.g.s.s.s.s.s.s.s.s.s.g.g.g.s.s.g.g.g.g.g.g.s.s.s.s.s.s.s.s.s.s.s.s.s.g.s.s.s.g.g.s.s.s.e.g.s.s.g.g.v <.g.s.s.g.s.g.g.g.g.g.g.g.g.g.g.s.s.s.s.s.s.g.g.s.s.s.s.s.s.s.s.g.g.g.g.g.g.g.g.s.s.s.s.s.s.s.s.s.s.s.g.g.s.s.s.s.s.s.s.s.s.s.s.s.s.s.s.s.s.s.s.s.g.s.g.s.g.e.V g.g.s.s.g.g.g.s.s.s.s.s.s.s.s.s.g.s.s.s.s.s.s.g.s.s.s.s.s.s.s.s.s.s.s.s.s.s.s.s.s.s.s.s.s.s.s.s.g.g.g.g.g.g.g.g.s.g.g.g.s.s.s.s.s.s.s.s.s.s.s.s.s.g.s.g.s.s.:.p Z.g.s.s.g.s.s.s.g.g.g.g.g.g.g.g.g.g.g.g.g.s.s.s.g.s.s.s.s.s.s.g.g.g.s.s.s.s.s.s.g.g.s.s.s.s.s.s.s.s.s.s.s.s.s.s.s.s.s.s.s.g.g.g.s.s.s.s.s.s.s.s.s.g.s.s.s.g.<.v g.s.s.s.g.s.s.s.s.s.s.s.s.s.s.s.g.g.s.s.g.s.s.s.s.s.s.g.g.g.s.s.g.g.s.s.s.s.g.g.g.g.g.g.s.s.s.s.g.g.s.s.s.s.s.s.g.g.g.s.s.s.s.s.s.s.s.s.g.g.g.g.g.s.g.s.s.s.%.S G.g.s.g.s.g.g.s.g.g.g.g.g.g.g.g.g.g.s.s.s.s.g.g.s.s.s.s.s.s.s.s.s.s.s.s.s.s.s.s.s.s.s.s.s.s.s.s.s.s.s.s.s.s.g.g.s.s.s.s.s.s.s.s.s.s.s.s.s.s.s.s.s.g.s.s.s.g.%.: ",
"J.Z.g.s.g.s.s.s.s.s.s.s.s.s.s.s.s.s.s.s.s.s.s.s.s.s.s.s.s.s.s.s.g.g.g.g.g.s.s.s.s.g.s.e.e.s.g.s.g.s.s.s.g.g.s.s.e.s.s.s.s.s.s.s.g.g.g.g.g.g.g.g.g.e.g.s.g.g.g.S :.M.e.s.e.s.s.s.s.s.s.s.e.e.e.e.e.e.e.e.e.e.e.e.s.s.s.s.e.e.e.e.e.s.s.s.s.s.s.s.e.e.e.e.s.e.e.e.s.s.s.e.e.e.e.s.e.e.s.s.s.e.e.e.s.e.e.s.e.e.e.e.s.e.g.e.e.e.e.u e.M.e.e.s.e.s.s.s.s.s.s.s.s.s.s.s.s.s.s.s.s.g.s.g.s.s.s.s.g.g.s.s.s.s.s.s.s.s.s.g.s.s.s.s.s.s.g.g.g.g.s.s.s.s.s.s.s.s.s.s.s.s.s.g.s.s.s.s.g.s.s.s.e.g.s.s.g.g.v <.g.s.s.g.s.g.g.s.s.s.s.s.s.s.s.s.s.s.s.s.s.s.s.g.s.s.s.s.s.s.e.s.s.s.s.s.s.s.s.s.s.s.s.s.s.s.s.s.s.s.s.g.s.s.s.g.s.s.s.s.s.s.g.s.s.s.s.s.s.g.g.s.g.s.g.s.g.e.V g.g.s.s.s.g.s.s.s.s.s.s.s.s.s.s.s.s.s.s.s.s.s.s.s.s.s.s.s.s.s.s.s.s.s.s.s.s.s.s.s.s.s.s.s.s.s.s.g.g.g.g.g.g.g.g.s.g.g.s.s.s.s.s.s.s.s.s.s.s.s.s.g.g.s.g.s.s.:.p Z.g.s.g.g.s.s.s.s.s.s.s.s.s.s.s.s.g.g.g.s.s.s.s.s.s.s.s.s.s.s.s.s.s.s.s.s.s.s.s.g.g.s.s.s.s.s.s.s.s.s.s.s.s.s.s.s.s.s.s.s.s.s.s.s.s.s.s.s.s.s.s.s.s.s.s.s.g.<.v g.s.s.s.g.s.s.s.s.s.s.s.s.s.s.s.g.s.s.s.g.s.s.s.s.s.s.g.s.g.s.s.s.s.s.s.s.s.s.s.s.s.s.s.s.s.s.s.s.s.s.s.s.s.s.s.s.s.s.s.s.s.s.s.s.s.s.s.g.g.g.g.g.s.s.s.s.s.%.S G.g.s.g.s.s.g.s.g.g.s.s.s.s.s.s.s.g.s.s.s.s.g.g.s.s.s.s.s.s.s.s.s.s.s.s.s.s.s.s.s.s.s.s.s.s.s.s.s.s.s.s.s.g.g.g.s.s.s.s.s.s.s.s.s.s.s.s.s.s.s.s.s.g.s.s.s.g.%.: ",
"J.M.g.s.g.s.s.s.s.s.s.s.s.s.s.s.s.s.s.s.s.s.s.s.s.s.s.s.s.s.g.g.g.g.s.s.s.s.s.s.s.g.s.e.e.s.g.s.s.s.s.s.s.s.s.s.e.e.s.s.s.s.s.s.s.s.s.s.s.s.s.s.s.e.g.s.s.s.g.S :.M.e.s.e.s.e.e.s.e.s.e.e.e.e.e.e.e.e.e.e.e.e.e.s.s.s.s.e.e.e.e.e.e.e.s.s.s.e.e.s.e.s.s.e.e.e.e.s.s.s.e.e.e.e.s.s.s.e.e.e.e.e.e.e.e.s.s.s.s.s.s.s.e.g.e.e.e.e.u e.M.e.e.s.e.s.s.s.s.s.s.s.s.s.s.s.s.s.s.s.s.s.s.g.s.s.s.s.s.g.s.g.s.s.s.s.s.s.s.s.s.s.s.s.s.s.s.g.g.s.s.s.s.s.s.s.s.s.s.s.s.s.s.s.s.s.s.s.g.s.s.s.e.g.s.g.g.g.v <.g.s.s.g.s.g.g.s.s.s.s.s.s.s.s.s.s.s.s.s.s.s.s.g.s.s.s.s.s.s.s.s.s.s.s.s.s.s.s.s.s.s.s.s.s.s.s.s.s.s.s.s.s.s.s.g.s.s.s.s.s.s.g.s.s.s.s.s.s.g.g.s.g.s.g.s.g.e.V g.g.s.s.s.s.s.s.s.s.s.s.s.s.s.s.s.s.s.s.s.s.s.s.s.s.s.s.s.s.s.s.s.s.s.s.s.s.s.s.s.s.s.s.s.s.s.s.s.s.s.s.s.s.s.s.s.s.g.s.s.s.s.s.s.s.s.s.s.s.s.s.g.g.s.g.s.s.:.p Z.g.s.g.s.s.s.s.s.s.s.s.s.s.s.s.s.s.s.s.s.s.s.s.s.s.s.s.s.s.s.s.s.s.s.s.s.s.g.g.g.s.s.s.s.s.s.s.s.s.s.s.s.s.s.s.s.s.s.s.s.s.s.s.s.s.s.s.s.s.s.s.s.s.s.s.s.g.<.v g.s.s.s.g.s.s.s.s.s.s.s.s.s.s.s.s.s.s.s.g.g.s.s.s.s.s.s.g.g.g.g.s.s.s.s.s.s.s.s.s.s.s.s.s.s.s.s.s.s.s.s.s.s.s.s.s.s.s.s.s.s.s.s.s.s.s.s.g.g.g.g.s.s.s.s.s.s.%.S G.g.s.g.s.s.g.s.s.s.s.s.s.s.s.s.s.s.s.s.s.s.s.s.s.s.s.s.s.s.s.s.s.s.s.s.s.s.s.s.s.s.s.s.s.s.s.s.s.s.s.s.s.s.s.g.s.s.s.s.s.s.s.s.s.s.s.s.s.s.s.s.s.g.s.s.s.g.%.: ",
"J.M.s.s.s.s.s.s.g.s.s.s.s.s.s.s.s.s.s.s.g.s.s.s.s.s.s.s.s.g.g.g.s.s.s.s.s.s.s.s.s.g.s.e.e.s.g.s.s.s.s.s.s.s.s.e.e.e.s.s.s.s.s.s.s.s.s.s.s.s.s.s.s.e.s.s.s.s.g.S :.M.e.s.e.s.e.e.s.e.e.e.e.e.e.e.s.s.s.e.e.e.e.e.e.e.e.e.e.e.e.e.e.e.e.e.s.e.e.e.s.s.s.s.e.e.e.e.e.e.s.e.e.e.e.s.e.e.e.e.e.e.e.e.e.e.e.e.e.e.e.e.s.e.g.e.e.e.e.u s.M.e.<.e.e.s.s.s.s.s.s.s.s.s.s.s.s.s.s.s.s.s.s.s.s.s.s.s.s.g.g.g.s.s.s.s.s.s.s.s.s.s.s.s.s.s.s.g.g.s.s.s.s.s.s.s.s.s.s.s.s.s.s.s.s.s.s.s.s.s.s.s.e.g.s.g.g.s.v <.g.s.s.g.s.g.g.g.s.s.s.s.s.s.g.s.s.s.s.s.s.s.s.g.s.s.s.s.s.s.s.s.s.s.s.s.s.s.s.s.s.s.s.s.s.s.s.s.s.s.s.s.s.s.s.g.s.s.s.s.s.s.g.s.s.s.s.s.g.g.g.s.g.s.g.s.g.e.V g.g.s.s.s.s.s.s.s.s.s.s.s.s.s.s.s.s.s.s.s.s.s.s.s.s.s.s.s.s.s.s.s.s.s.s.s.s.s.s.s.s.s.s.s.s.s.s.s.s.s.s.s.s.s.s.s.s.g.s.s.s.s.s.s.s.s.s.s.s.s.s.g.g.s.g.s.s.:.p Z.g.s.g.g.s.s.s.s.s.s.s.s.s.s.s.s.s.s.s.s.s.s.g.s.s.s.s.s.s.s.s.s.s.s.s.s.g.g.g.g.s.s.s.s.s.s.s.s.s.s.s.s.s.s.s.s.s.s.s.s.s.s.s.s.s.s.s.s.s.s.s.s.s.s.s.s.g.<.v g.s.s.s.s.s.s.s.s.s.s.s.s.s.s.s.s.s.s.s.g.g.s.s.s.s.s.s.s.g.g.g.s.s.s.g.g.s.s.s.s.s.s.s.s.s.s.s.s.s.s.s.s.s.s.s.s.s.s.s.s.s.s.g.s.s.s.s.g.g.g.g.s.s.s.s.s.g.%.S G.s.s.s.s.s.g.s.s.s.s.s.s.s.s.s.s.s.s.s.s.s.s.s.s.s.s.s.s.s.s.s.s.s.s.s.s.s.s.s.s.s.s.s.s.s.s.s.s.s.s.s.s.s.s.s.s.s.s.s.s.s.s.s.s.s.s.s.s.s.s.s.e.g.s.s.s.g...: ",
"J.M.s.e.s.e.e.s.s.s.s.s.s.s.s.s.s.s.g.g.g.s.s.s.e.s.s.s.s.s.s.g.s.s.s.g.g.s.s.s.s.s.s.e.e.s.s.g.g.s.s.e.s.s.s.s.e.s.s.s.s.g.s.s.g.s.s.s.s.s.s.e.s.s.s.s.g.s.M.S %.Z.<.e.e.s.e.s.s.e.e.e.e.e.s.s.e.e.e.e.e.e.e.e.s.s.s.s.s.s.s.s.s.e.e.e.e.e.s.s.s.s.s.e.e.e.e.e.s.s.e.e.e.e.e.e.e.s.e.s.s.e.e.e.<.e.e.e.s.s.s.s.s.e.s.e.e.e.e.p e.M.e.e.s.e.s.e.g.s.s.s.s.s.s.s.g.g.g.g.s.g.s.s.e.e.s.s.s.s.s.s.s.s.s.s.s.s.s.g.s.s.s.s.s.s.s.s.s.s.s.s.s.g.s.s.s.s.s.s.s.s.s.s.s.s.s.s.s.s.s.s.s.e.g.e.s.g.s.v <.g.e.s.g.s.g.s.s.s.s.s.s.s.g.g.s.s.g.g.g.g.g.s.s.s.s.s.s.s.s.g.s.s.s.s.s.s.s.s.s.s.s.s.s.s.s.s.s.s.s.s.s.s.s.s.g.s.s.s.g.g.g.s.s.s.s.s.s.s.s.s.s.s.s.s.s.g.<.V Z.M.g.s.s.s.s.s.s.s.s.s.s.s.s.s.s.s.s.s.s.s.s.g.s.s.s.s.s.s.s.s.s.s.s.s.s.s.s.s.s.s.s.s.s.s.s.s.s.s.s.s.s.s.s.s.s.s.s.s.s.s.s.s.s.s.s.s.s.s.s.s.s.s.s.s.e.s.:.p Z.M.s.s.g.s.s.s.s.s.s.s.s.s.s.s.s.s.s.s.s.s.s.s.s.s.s.s.s.s.s.s.s.s.s.s.s.s.s.s.s.s.s.s.s.s.s.s.s.s.s.s.s.s.s.s.s.s.s.s.s.s.s.s.s.s.s.s.s.s.s.s.s.s.s.s.s.g.<.v g.s.s.s.g.s.s.s.s.s.s.s.s.s.s.s.s.s.s.s.s.s.s.s.s.s.s.s.s.s.s.s.g.g.s.s.s.s.s.s.s.s.s.e.s.s.s.s.s.s.s.s.s.s.s.s.s.s.s.s.s.s.s.s.s.s.s.s.g.g.s.s.s.s.s.s.s.s.%.S G.g.s.g.s.s.g.s.s.s.s.s.s.s.g.g.g.g.s.s.s.s.s.s.g.g.g.g.s.s.s.s.s.s.s.s.s.s.s.g.s.s.s.s.s.s.s.s.s.s.s.g.g.g.g.g.g.g.g.g.s.s.s.s.s.s.s.s.s.s.s.s.s.s.s.g.s.M.:.: ",
"G.M.s.e.s.s.s.g.s.s.s.s.s.s.s.s.s.s.s.g.s.s.s.e.s.s.s.s.s.s.e.e.s.s.s.g.g.s.s.s.s.s.s.s.s.s.s.s.g.s.s.e.s.s.s.s.e.s.s.s.s.g.s.s.s.s.s.s.s.s.s.s.s.s.s.s.g.e.M.V :.Z.<.e.e.s.e.s.s.e.e.e.e.e.s.s.e.s.e.e.e.e.e.e.s.s.s.s.s.s.s.s.e.e.e.e.e.e.s.s.s.s.e.e.e.e.e.e.e.s.e.e.e.e.e.e.e.s.e.s.s.s.e.e.e.e.e.s.e.e.s.s.s.e.s.e.e.e.e.p <.g.e.e.s.s.g.s.g.s.s.s.s.s.s.s.g.g.g.g.s.s.s.s.s.e.s.s.s.s.s.s.s.s.s.s.s.s.s.g.s.s.s.s.s.s.s.s.s.s.s.s.s.g.s.s.s.s.s.s.s.s.s.s.s.s.s.s.s.s.s.s.s.e.g.e.s.s.s.v <.g.e.s.g.s.g.s.s.s.s.s.s.s.s.g.s.s.g.g.g.g.s.s.s.s.s.s.s.s.s.s.s.s.s.s.s.s.s.s.s.s.s.s.s.s.s.s.s.s.s.s.s.s.s.s.g.s.s.s.g.g.s.s.s.s.s.s.s.s.s.s.s.s.s.s.s.g.<.V M.M.g.s.s.s.s.s.s.s.s.s.s.s.s.s.s.s.s.s.s.s.s.s.s.s.s.s.s.s.s.s.s.s.s.s.s.s.s.s.s.s.s.s.s.s.s.s.s.s.s.s.s.s.s.s.s.s.s.s.s.s.s.s.s.s.s.s.s.s.s.s.s.s.s.s.e.s.:.p Z.M.s.s.g.s.s.s.s.s.s.s.s.s.s.s.s.s.s.s.s.s.s.s.s.s.s.s.s.s.s.s.s.s.s.s.s.s.s.s.s.s.s.s.s.s.s.s.s.s.s.s.s.s.s.s.s.s.s.s.s.s.s.s.s.s.s.s.s.s.s.s.s.g.s.g.s.g.<.v g.s.s.s.g.s.s.s.s.s.s.s.s.s.s.s.s.s.s.s.s.s.s.s.s.s.s.s.s.s.s.s.g.g.s.s.s.s.s.s.s.s.s.e.s.s.s.s.s.s.s.s.s.s.s.s.s.s.s.s.s.s.s.s.s.s.s.s.g.g.s.s.s.s.s.s.s.g.%.S G.g.s.g.s.s.g.s.s.s.s.s.s.s.g.g.g.g.s.s.s.s.s.s.g.g.g.s.s.s.s.s.s.s.s.s.s.s.s.s.s.s.s.s.s.s.s.s.s.s.s.s.g.g.s.s.g.s.s.s.s.s.s.s.s.s.s.s.s.s.e.s.s.s.s.g.s.g.:.: ",
"G.g.e.e.s.s.s.g.s.s.s.s.s.s.s.s.s.s.s.s.s.s.e.e.s.s.g.g.s.e.<.<.s.s.s.s.s.s.s.s.s.s.s.s.s.s.g.s.g.s.s.s.s.s.s.s.e.s.s.s.s.g.s.s.s.s.s.s.s.s.g.g.s.s.s.s.g.e.M.V :.Z.e.s.e.s.e.s.s.e.e.e.e.s.s.s.s.s.e.e.e.e.e.s.e.e.s.s.s.s.e.e.s.s.e.e.s.s.e.e.e.e.e.e.e.e.e.e.s.s.e.e.e.e.s.s.s.s.e.s.s.e.e.e.s.s.e.e.e.e.e.e.s.<.s.e.e.e.<.p <.g.e.e.s.e.g.s.s.s.s.s.s.s.s.s.s.s.s.s.s.s.s.s.s.s.s.s.s.s.s.s.s.s.s.s.s.s.s.g.s.s.s.s.s.s.s.s.s.s.s.s.s.g.s.s.s.s.s.s.s.s.s.s.s.s.s.s.s.s.s.s.s.e.g.e.s.s.s.v <.g.e.s.g.s.g.s.s.s.s.s.s.s.s.s.s.s.g.g.s.s.s.s.s.s.s.s.s.s.s.s.s.s.s.s.s.s.s.s.s.s.s.s.s.s.s.g.s.s.s.s.s.s.s.s.g.s.s.s.g.g.s.s.g.s.s.s.s.s.s.s.s.s.s.s.s.g.<.V M.M.g.s.s.s.s.s.s.s.s.s.s.s.s.s.s.s.s.s.s.s.s.s.s.s.s.s.s.s.s.s.s.s.s.s.s.s.s.s.s.s.s.s.s.s.s.s.s.s.s.s.s.s.s.s.s.s.s.s.s.s.s.s.s.s.s.s.s.s.s.s.s.s.s.s.e.s.:.p Z.g.s.s.s.s.s.s.s.s.s.s.s.s.s.s.s.s.s.s.s.s.s.s.s.s.s.s.s.s.s.s.s.s.s.s.s.s.s.s.s.s.s.s.s.s.s.s.s.s.s.s.s.s.s.s.s.s.s.s.s.s.s.s.s.s.s.s.s.s.s.g.s.g.s.g.s.g.<.v g.s.s.s.g.s.s.s.s.s.s.s.s.s.s.s.s.s.s.s.s.s.s.s.s.s.s.s.s.s.s.s.s.s.s.s.s.s.s.s.s.s.s.s.s.s.s.s.s.s.s.s.s.s.s.s.s.s.s.s.s.s.s.s.s.s.s.s.g.g.s.s.s.s.g.g.g.g.%.S G.g.s.g.s.s.g.s.s.s.s.s.s.s.s.g.g.s.s.s.s.s.s.s.s.s.g.s.s.s.s.s.s.s.s.s.s.s.s.s.s.s.s.s.s.s.s.s.s.s.s.s.s.s.s.s.s.s.s.s.s.s.s.s.s.s.s.s.s.s.e.e.s.s.s.g.s.g.%.: ",
"G.M.s.s.s.s.s.g.s.s.s.s.s.s.s.s.s.s.s.s.s.e.e.e.s.s.s.s.s.e.<.<.s.s.s.s.s.s.s.s.s.s.s.s.g.g.g.s.s.s.s.s.s.s.s.s.e.s.s.s.s.g.s.s.s.s.s.s.g.g.g.g.s.s.s.s.g.e.M.S :.Z.e.s.e.s.e.s.e.e.e.e.e.e.e.s.s.s.e.e.e.e.e.s.e.e.s.s.s.s.s.e.e.e.e.e.e.e.e.e.e.e.e.e.e.e.e.e.s.e.e.e.e.s.s.s.s.s.e.s.s.e.e.e.s.s.e.e.e.e.e.e.s.<.s.e.e.e.e.p e.M.s.e.s.e.s.s.s.s.s.s.s.s.s.s.s.s.s.s.s.s.s.s.s.s.s.s.s.s.s.s.s.s.s.s.s.s.s.g.s.s.s.s.s.s.s.s.s.s.s.s.s.g.s.s.e.e.e.e.s.s.s.s.s.s.s.s.s.s.s.s.g.s.g.s.s.g.g.v <.g.e.s.g.s.g.s.s.s.s.s.s.s.s.s.s.s.s.s.s.s.s.s.s.s.s.s.s.s.s.s.s.s.s.s.s.s.s.s.s.s.s.s.g.s.g.g.s.s.s.s.s.s.s.s.g.s.s.s.s.g.s.s.g.s.s.s.s.s.s.s.s.s.s.s.s.g.<.V M.M.g.s.s.s.s.s.s.s.s.s.s.s.s.s.s.s.s.e.e.s.s.s.s.s.s.s.s.s.s.s.s.s.s.s.s.s.s.s.s.s.s.s.s.s.s.s.s.s.s.s.s.s.s.s.s.s.s.s.s.s.s.s.s.s.s.s.s.s.s.s.s.s.s.s.e.s.:.p Z.g.s.s.s.s.s.s.s.s.s.s.s.s.s.s.s.s.s.s.s.s.s.s.s.s.s.s.s.s.s.s.s.s.s.s.s.s.s.s.s.s.s.s.s.s.s.s.s.s.s.s.s.s.s.s.s.s.s.s.s.s.s.s.s.s.s.s.s.s.s.g.s.g.s.g.s.g.<.v g.s.s.s.g.s.s.s.s.s.s.s.s.s.s.s.s.s.s.s.s.s.s.s.s.s.s.s.s.s.s.s.s.s.s.s.s.s.s.s.s.s.s.s.s.s.s.s.s.s.s.s.s.s.s.s.s.s.s.s.s.s.s.s.s.s.s.s.s.g.s.s.s.s.s.g.g.g.%.J G.g.s.g.s.s.g.s.s.s.s.s.s.s.s.s.s.s.s.s.s.s.s.s.s.s.s.s.s.s.s.s.s.s.s.s.s.s.s.s.s.s.s.s.s.s.s.e.s.s.s.s.s.s.s.s.s.s.s.s.s.s.s.s.s.s.s.s.s.s.e.e.s.s.s.s.e.g.%.- ",
"G.M.s.s.s.s.s.s.s.s.s.s.s.s.s.s.s.s.s.s.s.e.e.e.s.s.s.s.e.e.e.s.s.s.s.s.s.s.s.s.s.s.g.g.g.g.s.s.s.s.s.s.s.s.s.s.s.s.s.s.s.g.s.s.g.g.s.g.s.s.s.s.s.s.s.s.g.s.M.S :.Z.e.s.e.s.e.e.e.e.e.e.s.s.s.s.s.s.e.e.e.e.s.s.e.e.s.s.s.s.e.e.e.e.e.e.e.e.e.e.e.e.e.e.e.e.e.e.s.s.e.e.e.e.s.s.e.e.e.s.s.s.e.e.s.e.e.e.e.e.s.e.s.<.s.e.e.e.e.p <.M.s.s.s.e.s.s.s.s.s.s.s.s.s.s.s.s.s.s.s.s.s.s.s.s.s.s.s.s.s.s.s.s.s.s.s.s.s.g.s.s.s.s.s.s.s.s.s.s.s.s.s.g.s.s.e.e.s.s.s.s.s.s.s.s.s.s.s.s.s.s.g.s.M.s.g.g.g.V <.g.e.s.g.s.g.s.s.s.s.s.s.s.s.s.s.s.s.s.s.s.s.s.s.s.s.s.s.s.s.s.s.s.s.s.s.s.s.s.s.s.s.g.s.s.s.s.s.s.s.s.s.s.s.s.s.s.s.s.s.s.s.s.g.g.s.s.s.s.s.s.s.s.s.s.s.g.<.v M.g.g.s.s.s.s.s.s.s.s.s.s.s.s.s.e.s.s.s.s.s.s.s.s.s.s.s.s.s.s.s.g.g.s.s.s.s.s.s.s.s.s.s.s.s.s.s.s.s.s.s.s.s.s.s.s.s.s.s.s.s.s.s.s.s.s.s.s.s.s.s.s.s.s.s.e.s.:.p Z.g.s.s.s.s.s.s.s.s.s.s.s.s.s.s.s.s.s.s.s.s.s.s.s.s.s.s.s.s.s.s.s.s.s.s.s.s.s.s.s.s.s.s.s.s.s.s.s.s.s.s.s.s.s.s.s.s.s.s.s.s.s.s.g.s.s.s.s.s.s.s.s.g.s.g.s.g.<.v g.s.s.s.g.s.s.s.s.s.s.s.s.s.s.s.s.s.s.s.s.s.s.s.s.s.s.s.s.s.s.s.s.s.s.s.s.s.s.s.s.s.s.s.s.s.s.s.s.s.g.g.s.s.s.s.s.s.s.s.s.s.s.s.g.s.s.s.s.s.s.s.g.s.g.g.g.g.%.J G.g.s.s.s.s.g.s.s.s.s.s.s.s.s.s.s.s.s.s.s.s.s.s.s.s.s.s.s.s.s.s.s.s.s.s.s.s.s.s.s.s.s.s.s.s.e.e.s.s.s.s.s.s.s.s.s.s.s.s.s.s.s.s.g.g.s.s.s.s.s.s.s.s.s.s.e.g.%.- ",
"G.M.s.s.s.s.s.s.s.s.s.s.s.s.s.s.s.s.s.s.s.s.s.s.s.s.s.e.e.e.s.s.s.s.s.s.s.s.s.s.s.s.s.s.g.g.s.s.s.s.s.s.s.s.s.s.s.s.s.s.s.g.s.s.g.g.s.s.s.s.s.s.s.s.s.s.g.s.M.S :.Z.e.s.e.s.<.e.e.e.e.s.s.s.s.e.s.s.e.e.e.e.s.s.e.e.s.s.s.s.e.e.e.e.e.e.e.e.e.e.e.e.e.e.e.e.e.e.s.s.e.e.e.e.s.s.e.e.e.e.s.s.e.e.s.s.e.e.e.e.s.s.s.<.s.e.e.e.e.p :.g.s.s.g.e.g.g.s.s.s.s.s.s.s.s.s.s.s.s.s.s.s.s.s.s.s.s.s.s.s.s.s.s.s.s.s.s.s.g.s.s.s.s.s.s.s.s.s.s.s.s.s.g.s.s.e.s.s.s.s.s.s.s.g.g.s.s.s.s.s.s.g.s.g.s.g.g.g.V <.g.e.s.g.s.g.s.s.s.s.s.s.s.s.s.s.s.s.s.s.s.s.s.s.s.s.s.s.s.s.s.s.s.s.s.s.s.s.s.g.s.s.s.s.s.s.s.s.s.s.s.s.s.s.s.s.s.s.s.s.s.s.s.g.s.s.s.s.s.s.s.s.s.s.s.s.g.<.V M.g.g.s.s.s.s.s.s.s.s.s.s.s.s.s.s.s.s.s.s.s.s.s.s.s.s.s.s.s.s.s.s.s.s.s.s.s.s.s.s.s.s.s.s.s.s.s.s.s.s.s.s.s.s.s.s.s.s.s.s.s.s.s.s.s.s.s.s.s.s.s.s.s.s.s.e.s.:.p Z.g.s.s.s.s.s.s.s.s.s.s.s.s.s.s.s.s.s.s.s.s.s.s.s.s.s.s.s.s.s.s.s.s.s.s.s.s.s.s.s.s.s.s.s.s.s.s.s.s.s.s.s.s.s.s.s.s.s.s.s.s.s.s.g.s.s.s.s.s.s.s.s.g.s.g.s.s.<.v g.s.s.s.g.s.s.s.s.s.s.s.s.s.s.s.s.s.s.s.s.s.s.s.s.s.s.s.s.s.s.s.s.s.s.s.s.s.s.s.s.s.s.s.s.s.s.s.s.s.g.g.s.s.s.s.s.s.s.s.s.s.s.s.g.s.s.s.s.s.s.s.s.s.g.g.g.g.%.S G.g.s.g.s.s.g.s.s.s.s.s.s.s.s.s.s.s.s.s.s.s.s.s.s.s.s.s.s.s.s.s.s.s.s.s.s.s.s.s.s.s.s.s.s.s.e.e.s.s.s.s.s.s.s.s.s.s.s.s.s.s.s.s.s.s.s.s.s.s.s.s.s.s.s.g.e.g.%.- ",
"G.M.s.s.g.s.s.s.s.s.s.s.s.s.s.s.s.s.s.s.s.s.s.s.s.s.s.s.e.e.s.s.s.s.s.s.s.s.s.g.s.s.s.s.s.s.s.s.g.g.s.g.g.s.s.s.s.s.s.s.s.g.s.s.s.s.s.s.s.s.s.s.s.s.s.s.g.s.M.V :.Z.e.s.e.s.<.e.e.e.e.s.s.e.s.e.s.e.e.e.e.e.s.s.e.e.e.s.s.e.e.e.s.s.s.e.e.e.e.s.e.e.e.e.e.s.s.s.s.s.s.e.e.e.s.s.e.s.e.e.s.s.e.e.e.e.e.e.e.s.s.s.s.e.s.e.e.e.e.p :.g.s.s.g.e.g.g.s.s.s.s.s.s.s.s.s.s.s.s.s.s.s.s.g.g.s.s.s.s.s.s.s.s.s.s.s.s.s.g.s.s.s.s.s.s.s.s.s.s.s.s.s.g.s.s.s.s.s.s.s.s.s.s.g.g.g.s.s.s.s.s.s.s.g.s.s.s.s.v <.g.e.s.g.s.g.s.g.s.s.s.s.s.s.s.s.s.s.s.s.s.s.s.g.g.s.s.s.s.s.s.s.s.s.s.s.s.s.s.s.s.s.s.s.s.s.s.s.s.s.s.s.s.s.s.s.s.s.s.s.s.s.s.s.s.s.s.s.s.s.s.s.s.s.s.s.g.<.V M.g.g.s.s.s.s.s.s.s.s.s.s.s.s.s.s.s.s.s.s.s.s.s.s.s.s.s.s.s.s.s.s.s.s.s.s.g.g.g.s.s.s.s.s.s.s.s.s.s.s.s.s.s.s.s.s.s.s.s.s.s.s.s.s.s.s.s.s.s.s.s.s.s.s.s.e.s.:.p M.g.s.s.s.s.s.s.s.s.s.s.s.s.s.s.s.s.s.s.s.s.s.s.s.s.s.s.s.s.s.s.s.s.s.s.s.s.s.s.s.s.s.s.s.s.s.s.s.s.s.s.s.s.s.s.s.s.s.s.s.s.s.s.s.s.s.s.s.s.s.s.s.g.s.s.s.s.:.p g.s.s.s.g.s.s.g.s.s.s.s.s.s.s.s.s.s.s.s.s.s.s.s.s.s.s.s.s.s.s.s.s.s.s.s.g.g.s.s.s.s.s.s.s.s.s.s.s.s.s.g.g.g.s.s.s.s.s.s.s.s.s.s.g.s.s.s.s.s.s.s.s.s.s.s.s.g.%.S G.g.s.g.s.s.g.s.s.s.s.g.g.s.s.s.s.s.s.s.s.s.s.s.s.s.s.s.s.s.s.s.g.g.s.s.s.s.s.s.s.s.s.s.s.s.e.e.s.s.s.s.g.g.s.s.g.s.s.s.s.s.s.s.s.s.s.s.s.s.s.s.g.g.s.g.s.g.%.- ",
"G.g.s.s.g.g.s.g.s.s.s.s.s.s.s.s.s.s.s.s.s.s.s.g.s.s.g.s.s.s.e.s.s.s.s.s.s.s.s.g.s.s.s.s.s.s.s.s.g.g.g.g.g.g.s.e.s.s.s.s.s.g.s.s.s.s.s.s.s.s.s.s.s.s.s.s.g.s.M.V :.Z.e.s.e.s.<.e.e.e.e.s.s.e.s.e.e.e.e.e.s.s.e.e.e.e.s.s.s.e.e.e.s.s.s.s.s.s.s.s.e.e.e.e.s.s.s.s.s.s.s.e.e.e.s.s.e.e.e.e.s.s.e.e.e.e.e.e.s.s.s.s.s.e.s.e.e.e.e.p <.M.g.s.s.e.s.s.s.s.s.s.s.s.s.s.s.s.s.s.s.s.g.g.g.g.g.s.s.s.s.s.s.s.s.s.s.s.s.g.s.s.s.s.s.s.s.s.s.s.s.s.s.g.s.s.s.s.s.s.s.s.s.s.g.g.g.g.s.s.s.s.s.e.g.e.s.s.s.v <.g.e.s.g.s.g.s.g.g.s.s.s.s.s.s.s.s.s.s.s.s.s.s.g.g.g.s.s.s.s.s.s.s.s.s.s.s.s.s.s.s.s.s.s.s.s.s.s.s.s.s.s.s.s.s.s.s.s.s.s.s.s.s.s.s.s.s.s.s.s.s.s.s.s.s.s.g.<.V M.g.s.s.s.s.s.s.s.s.s.s.s.s.s.s.s.s.s.g.g.s.s.s.s.s.s.s.s.s.s.s.s.s.s.s.g.g.g.g.s.s.s.s.s.s.s.s.s.s.s.s.s.s.s.s.s.s.s.s.s.s.s.s.s.s.s.s.s.s.s.s.s.s.s.s.e.s.:.p M.g.s.s.s.s.s.s.s.s.s.s.s.s.s.s.s.s.s.s.s.s.s.s.s.s.s.s.s.s.s.s.s.s.s.s.s.s.s.s.s.s.s.s.s.s.s.s.s.s.s.s.s.s.s.s.s.s.s.s.s.s.s.s.s.s.s.s.s.s.s.s.s.s.s.s.e.s.:.p s.s.s.s.g.s.s.g.s.s.s.s.s.s.s.s.s.s.s.s.s.s.s.s.s.s.s.s.s.s.s.s.s.s.s.g.g.g.s.s.s.s.s.s.s.s.s.s.s.s.s.g.g.g.g.s.s.s.s.s.s.s.s.s.g.s.s.s.s.s.s.s.s.s.s.s.s.s.%.S G.g.s.g.s.s.g.s.e.s.s.g.g.s.s.s.s.s.s.s.s.s.s.s.s.s.s.s.s.s.s.s.g.g.g.s.s.s.s.s.s.s.s.s.s.s.e.e.s.s.s.s.g.g.g.g.g.g.s.s.s.s.s.s.e.e.s.s.s.s.s.s.g.g.s.g.s.g.%.- ",
"G.M.s.s.s.s.s.s.s.s.s.s.s.s.s.s.s.s.s.s.s.s.s.s.s.s.s.s.s.s.s.s.s.s.s.s.s.s.s.s.s.s.s.s.s.s.s.s.s.s.s.s.s.s.s.s.s.s.s.s.s.s.s.s.s.s.s.s.s.s.s.s.s.e.g.s.s.s.s.V %.M.<.e.<.e.<.e.e.e.e.e.s.s.e.e.e.e.e.e.e.e.e.e.e.e.e.e.e.e.e.e.e.e.e.e.e.e.e.e.e.e.e.e.s.s.s.s.e.e.e.e.e.e.e.e.e.e.e.e.e.e.e.e.<.<.e.e.e.e.e.e.s.<.s.e.s.e.<.u e.M.e.e.s.e.s.e.g.s.s.s.s.s.s.e.s.s.s.s.s.s.s.s.s.s.s.s.s.s.s.s.s.s.s.s.s.s.s.s.s.s.s.s.s.s.s.s.s.s.s.s.s.s.s.s.s.s.s.s.s.s.s.s.s.s.s.s.s.s.s.s.g.e.g.s.s.e.e.p <.s.s.s.g.g.s.s.s.s.s.s.s.e.e.e.s.s.s.s.s.s.s.s.s.s.s.s.s.s.s.s.s.s.s.s.s.s.s.s.s.s.s.e.e.s.s.s.s.s.s.s.s.s.s.e.e.e.s.s.s.s.s.s.g.g.s.s.s.s.e.e.s.s.s.s.e.g.e.V M.g.s.s.s.s.s.s.s.s.s.s.s.s.s.s.s.s.s.s.s.s.s.s.s.s.s.s.s.s.s.s.s.s.s.s.s.s.s.s.s.s.s.s.s.s.s.s.s.s.s.s.s.s.s.s.s.s.s.s.s.s.e.e.s.s.s.s.s.s.s.s.s.s.s.s.e.s.:.p Z.g.s.s.s.s.s.s.s.s.s.s.s.s.s.s.s.s.s.s.s.s.s.s.s.s.s.s.s.s.s.s.s.s.s.s.s.s.s.s.s.s.s.s.s.s.s.s.s.s.e.e.e.s.s.s.s.s.s.s.s.s.s.s.s.s.s.s.s.s.s.s.s.s.e.s.e.s.:.p s.e.e.s.s.s.s.s.s.s.s.s.s.s.s.s.s.s.s.s.s.s.s.s.s.s.s.s.s.s.s.s.s.s.s.s.s.s.s.s.s.s.s.s.s.s.s.s.s.s.s.s.s.s.s.s.s.s.s.s.s.s.s.s.e.e.e.s.s.s.s.s.s.s.s.s.s.s.%.S Z.s.s.s.s.s.g.e.s.s.s.s.s.e.e.s.s.s.e.e.e.e.s.s.s.s.s.s.s.s.s.s.s.s.s.s.s.s.s.s.e.e.s.s.s.s.s.s.s.s.s.s.e.e.e.e.s.e.s.s.s.s.s.e.s.s.s.s.s.s.s.s.s.g.s.s.s.g.%.: ",
"G.g.e.e.s.s.s.s.s.e.e.e.s.s.s.s.s.s.s.s.s.s.s.s.s.s.s.s.s.s.s.s.s.s.s.s.s.s.s.s.s.s.s.s.s.s.s.s.s.s.s.s.s.s.s.s.s.s.s.s.s.s.s.s.s.s.s.s.s.s.s.s.s.e.s.s.s.s.g.S %.Z.<.e.e.s.<.e.e.e.s.e.e.e.e.<.e.e.e.e.e.e.e.e.e.e.e.e.e.e.e.e.e.e.e.e.e.e.e.e.e.e.e.e.s.s.s.s.e.e.e.e.e.e.e.e.e.e.e.e.e.e.e.e.<.e.e.e.e.e.e.e.s.<.s.e.s.e.<.u e.M.s.e.s.e.s.e.s.s.s.s.s.s.s.s.s.s.s.s.s.s.s.s.s.s.s.s.s.s.s.s.s.s.s.s.s.s.s.s.s.s.s.s.s.s.s.s.s.s.s.s.s.s.s.s.s.s.s.s.s.s.s.s.s.s.s.s.s.s.s.s.g.e.g.s.s.e.e.p <.s.s.s.g.s.e.s.s.s.s.s.s.e.e.e.s.s.s.s.s.s.s.s.s.s.s.s.s.s.s.s.s.s.s.s.s.s.s.s.s.s.e.e.e.s.s.s.s.s.s.s.s.s.s.e.e.e.s.s.s.s.s.s.g.s.s.s.s.s.e.e.s.s.s.s.s.g.e.V M.g.s.s.s.s.s.s.s.s.s.s.s.s.s.s.s.s.s.s.s.s.s.s.s.s.s.s.s.s.s.s.s.s.s.s.s.s.s.s.s.s.s.s.s.s.s.s.s.s.s.s.s.s.s.s.s.s.s.s.s.s.e.e.s.s.s.s.s.s.s.s.s.s.s.s.e.s.:.p Z.g.s.s.s.s.s.s.s.s.s.s.s.s.s.s.s.s.s.s.s.s.s.s.s.s.s.s.s.s.s.s.s.s.s.s.s.s.s.s.s.s.s.s.s.s.s.s.s.s.e.s.e.s.s.s.s.s.s.s.s.s.s.s.s.s.s.s.s.s.s.s.s.s.e.s.e.s.:.p g.e.e.s.s.s.e.s.s.s.s.s.s.s.s.s.s.s.s.s.s.s.s.s.s.s.s.s.s.s.s.s.s.s.s.s.s.s.s.s.s.s.s.s.s.s.s.s.s.s.s.s.s.s.s.s.s.s.s.s.s.s.s.s.e.e.s.s.s.s.s.s.s.s.s.s.s.s.%.S Z.s.e.s.s.s.g.e.s.s.s.s.s.s.e.s.s.s.e.e.e.e.s.s.s.s.s.s.s.s.s.s.s.s.s.s.s.s.s.s.e.e.s.s.s.s.s.s.s.s.s.s.s.e.e.e.e.s.s.s.s.s.s.e.s.s.s.s.s.s.s.s.s.g.s.s.s.g.%.: ",
"G.g.s.e.s.e.e.e.e.e.e.e.s.s.s.s.s.s.s.s.s.s.s.s.s.s.s.s.s.s.s.s.s.s.s.s.s.s.s.s.s.s.s.s.s.s.s.s.s.s.s.s.s.s.s.s.s.s.s.s.s.s.s.s.s.s.s.s.s.s.s.s.s.e.s.e.s.s.g.S :.Z.e.s.e.s.<.e.e.e.e.e.e.e.<.<.e.e.e.e.e.e.e.e.e.e.e.e.e.e.e.e.e.e.e.e.e.e.e.e.e.e.e.e.s.e.s.e.e.e.e.e.e.e.e.e.e.e.e.e.e.e.e.e.e.e.e.e.s.s.e.e.s.<.s.e.s.e.<.p e.M.s.s.s.e.s.e.s.s.s.e.s.s.s.s.s.s.s.s.s.s.s.s.s.s.s.s.s.s.s.s.s.s.s.s.s.s.s.s.s.s.s.s.s.s.s.s.s.s.s.s.s.s.s.s.s.s.s.s.s.s.s.s.s.s.s.s.s.s.s.s.g.e.g.s.s.e.e.p :.s.s.e.s.s.s.s.s.s.s.s.s.e.s.s.s.s.s.s.s.s.s.s.s.s.s.s.s.s.s.s.s.s.s.s.s.s.s.s.s.s.e.e.e.s.s.s.s.s.s.s.s.s.s.s.e.s.s.s.s.s.s.s.s.s.s.e.e.e.s.s.s.g.e.s.s.g.e.V M.g.g.s.s.s.s.s.s.s.s.s.s.s.s.s.s.s.s.s.s.s.s.s.s.s.s.s.s.s.e.e.e.s.s.s.s.s.s.s.s.s.s.s.s.s.s.s.s.s.s.s.s.s.s.s.s.s.s.s.s.s.s.s.s.s.s.s.s.s.s.s.s.s.s.s.e.s.:.p Z.g.s.s.s.s.s.s.s.s.s.s.s.s.s.s.s.s.s.s.s.s.s.s.s.s.s.s.s.s.s.s.s.s.s.s.s.s.s.s.s.s.s.s.s.s.s.s.s.s.s.s.e.s.s.s.s.s.s.s.s.s.s.s.s.s.s.s.s.s.s.s.s.s.e.s.e.s.<.v g.s.e.s.s.e.e.s.s.s.s.s.s.s.s.s.s.s.s.s.s.s.s.s.s.s.s.s.s.s.e.e.e.e.s.s.s.s.s.s.s.s.s.s.s.s.s.s.s.s.s.s.s.s.s.s.s.s.s.s.s.s.s.s.s.s.s.s.s.s.s.s.s.s.s.s.s.s.%.S Z.s.s.s.s.s.g.e.e.s.s.s.s.s.s.s.s.s.e.e.e.s.s.s.s.s.s.s.s.s.s.s.s.s.s.s.s.s.s.s.e.s.s.s.s.s.s.s.s.s.s.s.s.e.e.e.s.s.s.s.s.s.s.s.s.s.s.s.s.s.s.s.s.s.s.s.s.g.%.: ",
"G.M.s.s.s.s.e.e.e.e.e.e.s.s.s.s.s.s.s.s.s.s.s.s.s.s.s.s.s.s.s.s.s.s.s.s.s.s.s.s.s.s.s.s.s.s.s.s.s.s.s.s.s.s.s.s.s.s.s.s.s.s.s.s.s.s.s.s.s.s.s.s.s.e.s.e.s.s.g.S :.Z.e.s.e.s.e.e.e.e.e.e.e.e.<.<.e.e.e.e.e.e.e.e.e.e.e.e.e.e.e.e.e.e.e.e.e.e.e.e.e.e.e.e.e.e.e.e.e.e.e.e.e.e.e.e.e.e.e.e.e.e.e.e.e.e.e.e.s.s.e.e.s.<.s.e.s.e.<.p e.M.s.s.s.e.s.s.e.e.e.e.e.s.s.s.s.s.s.s.s.s.s.s.s.s.s.s.s.s.s.s.s.s.s.s.s.s.s.s.s.s.s.s.s.s.s.s.s.s.s.s.s.s.s.s.s.s.s.s.s.s.s.s.s.s.s.s.s.s.s.s.g.e.g.s.s.e.e.p :.e.e.<.s.s.s.s.s.s.s.s.s.e.s.s.s.s.s.s.s.s.s.s.s.s.s.s.s.s.s.s.s.s.s.s.s.s.s.s.e.e.e.e.e.s.s.s.s.s.s.s.s.s.s.s.s.s.s.s.s.s.s.s.s.s.e.e.e.e.s.s.s.s.s.s.s.g.<.V M.M.g.s.s.s.s.s.s.s.s.s.s.s.s.s.s.s.s.s.s.s.s.s.s.s.s.s.s.s.e.e.e.s.s.s.s.s.s.s.s.s.s.s.s.s.s.s.s.s.s.s.s.s.s.s.s.s.s.s.s.s.s.s.s.s.s.s.s.s.s.s.s.s.s.s.e.s.:.p Z.g.s.s.s.s.s.s.s.s.s.s.s.s.s.s.s.s.s.s.s.s.s.s.s.s.s.s.s.s.s.s.s.s.s.s.s.s.s.s.s.s.s.s.s.s.s.s.s.s.e.s.s.s.s.s.s.s.s.s.s.s.s.s.e.e.e.e.s.s.e.e.s.s.e.s.e.s.<.v g.s.e.s.s.e.e.s.s.s.s.s.s.s.s.s.s.s.s.s.s.s.s.s.s.s.s.g.s.s.e.e.s.s.s.s.s.s.s.s.s.s.s.s.s.s.s.s.s.s.s.s.s.s.s.s.s.s.s.s.s.s.s.s.s.s.s.s.s.s.s.s.s.s.s.s.s.s.%.S Z.s.s.s.s.s.g.e.e.s.s.s.s.s.s.s.s.s.e.e.e.s.s.s.g.s.s.s.s.s.e.e.s.s.s.s.s.s.s.s.e.e.s.s.s.s.s.e.s.s.s.s.s.s.e.e.s.s.s.s.s.s.s.s.s.s.s.s.s.s.s.s.s.g.s.s.s.g...: ",
"G.M.s.s.s.s.e.s.s.s.s.e.s.s.s.s.s.s.s.s.s.s.s.s.s.s.s.s.s.s.s.s.s.s.s.s.s.s.s.s.s.s.s.s.s.s.s.s.s.s.s.s.s.s.s.s.s.s.s.s.s.s.s.s.s.s.s.s.s.s.s.s.s.e.s.s.s.s.g.S :.Z.e.s.e.s.<.e.e.e.e.e.e.e.e.e.e.e.e.e.e.e.e.e.e.e.e.e.e.e.e.e.e.e.e.e.e.e.e.e.e.e.e.e.e.e.e.e.e.e.e.e.e.e.e.e.e.e.e.e.e.e.e.e.<.e.e.e.e.e.e.e.s.<.s.e.s.e.<.p e.M.s.s.s.e.s.s.e.e.e.e.s.s.s.s.s.s.s.s.s.s.s.s.s.s.s.s.s.s.s.s.s.s.s.s.s.s.s.s.s.s.s.s.s.s.s.s.s.s.s.s.s.s.s.s.s.s.s.s.s.s.s.s.s.s.s.s.s.s.s.s.s.e.s.s.s.e.e.p :.e.e.e.s.s.e.s.s.s.s.s.s.s.s.s.s.s.s.s.s.s.s.s.s.s.s.s.s.s.s.s.s.s.s.s.s.s.s.s.e.e.e.e.s.s.s.s.s.s.s.s.s.s.s.s.s.s.s.s.s.s.s.s.s.s.e.e.e.e.s.s.s.s.e.s.e.g.<.V M.g.g.s.s.s.s.s.s.s.s.s.s.s.s.s.s.s.s.s.s.s.s.s.s.s.s.s.s.s.e.e.e.s.s.s.s.s.s.s.s.s.s.s.s.s.s.s.s.s.s.e.e.e.e.s.s.s.s.s.s.s.s.s.s.s.s.s.s.s.s.s.s.s.s.s.s.s.:.p Z.g.s.s.s.s.s.s.s.s.s.s.s.s.s.s.s.s.s.s.s.s.s.s.s.s.s.s.s.s.s.s.s.s.s.s.s.s.s.s.s.s.s.s.s.s.s.s.e.e.s.s.s.s.s.s.s.s.s.s.s.s.s.s.e.e.e.e.s.e.s.e.e.s.e.s.e.s.<.v g.s.e.s.s.e.e.s.s.s.s.s.s.s.s.s.s.s.s.s.s.s.s.s.s.s.s.s.s.e.e.<.s.s.s.s.s.s.s.s.s.s.s.s.s.s.s.s.s.s.s.s.s.s.s.s.s.s.s.s.s.s.s.s.s.s.s.s.s.s.s.s.s.s.s.s.s.s.%.S Z.s.s.s.s.s.g.e.e.s.s.s.s.s.s.s.s.s.s.e.e.s.s.s.s.s.s.s.s.s.e.e.s.s.s.s.s.s.s.s.s.s.s.s.s.s.s.e.s.s.s.s.s.s.s.s.s.s.s.s.s.s.s.s.s.s.s.s.s.s.s.s.s.g.s.s.s.g.%.: ",
"G.M.s.s.s.s.s.s.s.s.s.s.s.s.s.s.s.s.s.s.s.s.s.s.s.s.s.s.s.s.s.s.s.s.s.s.s.s.s.s.s.s.s.s.s.s.s.s.s.s.s.s.s.s.s.s.s.s.s.s.s.s.s.s.s.s.s.s.s.s.s.s.s.e.g.e.s.s.g.S :.Z.e.e.e.e.<.e.e.e.e.e.e.e.e.e.e.e.e.e.e.e.e.e.e.e.e.e.e.e.e.e.e.e.e.e.e.e.e.e.e.e.e.e.e.e.e.e.e.e.e.e.e.e.e.e.e.e.e.e.e.e.e.e.<.e.e.e.e.e.e.e.s.<.s.e.s.e.<.p e.M.s.s.s.e.s.s.e.e.e.e.s.s.s.s.s.s.s.s.s.s.s.s.s.s.s.s.s.s.s.s.s.s.s.s.s.s.s.s.s.s.s.s.s.s.s.s.s.s.s.s.s.s.s.s.s.s.s.s.s.s.s.s.s.s.s.s.s.s.s.s.s.e.s.s.s.e.e.p :.e.e.<.e.s.e.s.s.s.s.s.s.e.s.s.s.s.s.s.s.s.s.s.s.s.s.s.s.s.s.s.s.s.s.s.s.s.s.s.s.e.e.s.s.s.s.s.s.s.s.s.s.s.s.e.s.s.s.s.s.s.s.s.s.s.e.e.e.e.s.s.s.s.e.s.e.g.<.V M.g.s.s.s.s.s.s.s.s.e.e.e.e.s.s.s.s.s.s.s.s.s.s.s.s.s.s.s.s.e.e.e.s.s.s.s.s.s.s.s.s.s.s.s.s.s.s.s.s.s.e.e.e.e.e.s.s.s.s.s.s.s.s.s.s.s.s.s.s.s.s.s.s.s.s.s.s.:.p Z.g.s.s.s.s.s.s.s.s.s.s.s.s.s.s.s.s.s.s.s.s.s.s.s.s.s.s.s.s.s.s.s.s.s.s.s.s.s.s.s.s.s.s.s.s.s.s.e.e.s.s.s.s.s.s.s.s.s.s.s.s.s.s.s.s.s.s.s.s.s.s.s.s.e.s.s.s.<.v g.s.e.s.s.e.s.s.s.s.s.s.s.s.s.s.s.s.s.s.s.s.s.s.s.s.s.s.s.e.e.e.s.s.s.s.s.s.s.s.s.s.s.s.s.s.s.s.s.s.s.s.s.s.s.s.s.s.s.s.s.s.s.s.s.s.s.s.s.s.s.s.s.s.s.s.s.s.%.S Z.s.s.s.s.s.g.e.s.s.s.s.s.s.s.s.s.s.s.s.s.s.s.s.s.s.s.s.s.s.s.s.s.s.s.s.s.s.s.s.s.s.s.s.s.s.s.e.s.s.s.s.s.s.s.s.s.s.s.s.s.s.s.s.s.s.s.s.s.s.s.s.s.s.s.s.s.g...: ",
"G.M.s.e.s.s.s.s.s.s.e.s.s.s.s.s.s.s.s.s.s.s.s.s.s.s.s.s.s.s.s.s.e.e.s.s.s.s.s.s.s.s.s.s.s.s.s.s.s.s.s.s.s.s.s.s.s.s.s.s.s.s.s.s.s.s.s.s.s.s.s.s.g.e.g.s.s.s.g.S :.Z.e.e.e.e.<.e.e.e.e.e.e.e.e.e.e.e.e.e.e.e.e.e.e.e.e.e.e.e.e.e.e.e.e.e.e.e.e.e.e.e.e.e.e.e.e.e.e.e.e.e.e.e.e.e.s.e.e.e.e.e.e.e.e.e.e.e.e.e.e.e.s.<.s.e.s.e.<.p e.M.s.s.g.e.s.s.e.e.s.s.s.s.s.s.s.s.s.s.s.s.s.s.s.s.s.s.s.s.s.s.s.s.s.s.s.s.s.s.s.s.s.s.s.s.s.s.s.s.s.s.s.s.e.e.s.s.s.s.s.s.s.s.s.s.s.s.s.s.e.e.s.<.s.s.s.s.e.v <.s.s.e.e.s.e.s.s.s.s.s.s.e.e.e.s.s.s.s.s.s.s.s.s.s.s.s.s.s.s.s.s.s.s.s.s.s.s.s.s.s.s.s.s.s.s.s.s.s.s.s.s.s.s.e.s.s.s.s.s.s.s.s.s.s.s.s.s.s.s.s.s.s.e.s.e.g.<.V M.g.s.e.s.s.s.s.s.s.e.e.e.e.s.s.s.s.s.s.s.s.s.s.s.s.s.s.s.s.e.e.e.s.s.s.s.s.s.s.s.s.s.s.s.s.s.s.s.s.s.s.e.e.s.e.s.s.s.s.s.s.s.e.s.s.s.s.s.s.s.s.s.s.s.s.s.s.:.p M.g.s.s.s.s.s.s.s.s.s.s.s.s.s.s.s.s.s.s.s.s.s.s.s.s.s.s.s.s.s.s.s.s.s.s.s.s.s.s.s.s.s.s.s.s.e.e.e.e.s.s.s.s.s.s.s.s.s.s.s.s.s.s.s.s.s.s.s.s.s.s.s.s.e.s.s.s.:.v g.s.e.e.s.e.s.s.s.s.s.s.s.s.s.s.s.s.s.s.s.s.s.s.s.s.s.s.s.s.e.e.s.s.s.s.s.s.e.e.s.s.s.s.s.s.s.s.s.s.s.s.s.s.s.s.s.s.s.s.s.s.s.s.s.s.s.s.s.s.s.s.s.s.s.s.s.s.%.S Z.s.s.s.s.s.g.e.s.s.s.s.s.s.s.s.s.s.s.s.s.s.s.s.s.s.s.s.s.s.s.s.s.s.s.s.s.s.s.s.s.s.s.s.s.s.s.e.s.s.s.s.s.s.s.s.s.s.s.s.s.s.s.s.s.s.s.s.s.s.s.s.e.s.e.s.s.g...: ",
"G.g.e.e.s.s.s.s.e.e.e.e.s.s.s.s.s.s.s.s.s.s.s.s.s.s.s.s.s.s.s.s.e.e.s.s.s.s.s.s.s.s.s.s.s.s.s.s.s.s.s.s.s.s.s.s.s.s.s.s.s.s.s.s.s.s.s.s.s.s.s.s.g.e.g.s.s.s.s.V :.Z.e.e.e.e.<.<.e.e.e.s.s.e.e.e.e.e.e.e.e.e.e.e.e.e.e.e.e.e.e.e.e.e.e.e.e.e.e.e.e.e.e.e.e.e.e.e.e.e.e.e.e.e.e.e.s.s.e.e.e.e.e.e.e.e.e.e.s.s.s.s.s.<.s.e.s.e.<.p e.M.s.s.s.e.s.s.s.s.s.s.s.s.s.s.s.s.s.s.s.s.s.s.s.s.s.s.s.s.s.s.s.s.s.s.s.s.s.s.s.s.s.s.s.s.s.s.s.s.s.s.s.e.e.e.s.s.s.s.s.s.s.s.s.s.s.s.s.s.e.e.s.e.s.s.s.s.s.v <.s.s.e.e.s.e.s.s.s.s.s.s.e.e.e.s.s.s.s.s.s.s.s.s.s.s.s.s.s.s.s.s.s.s.s.s.s.s.s.s.s.s.g.s.s.s.s.s.s.s.s.s.s.s.e.s.s.s.s.s.s.s.s.s.s.s.s.s.s.s.s.s.s.e.s.e.s.<.V M.g.s.e.e.s.s.s.s.s.e.e.e.e.s.s.s.s.s.s.s.s.s.s.s.s.s.s.s.s.e.e.e.s.s.s.s.s.s.s.s.s.s.s.s.s.s.s.s.s.s.e.e.e.s.s.s.s.s.s.s.s.s.e.s.s.s.s.s.s.s.s.s.s.s.s.s.s.:.p M.g.s.s.s.s.s.s.s.s.s.s.s.s.s.s.s.s.s.s.s.s.s.s.s.s.s.s.s.s.s.s.s.s.s.s.s.s.s.s.s.s.s.s.s.s.e.e.e.e.s.s.s.s.s.e.s.s.s.s.s.s.s.s.s.s.s.s.s.s.s.s.s.s.s.s.s.s.:.p g.s.e.e.s.s.s.s.s.s.s.s.s.s.s.s.s.s.s.s.s.s.s.s.s.s.s.s.e.e.e.e.s.s.s.s.s.s.e.e.s.s.s.s.s.s.s.s.s.s.s.s.s.s.s.s.s.s.s.s.s.s.s.s.s.s.s.s.s.s.s.s.s.s.s.s.s.s.%.S Z.s.s.s.s.s.g.e.s.g.s.s.s.s.s.s.s.s.s.s.s.s.s.s.s.s.s.s.s.s.s.s.s.s.s.s.s.s.s.s.s.s.s.s.s.s.s.e.s.s.s.s.s.s.s.s.s.s.s.s.s.s.s.s.s.s.s.s.s.s.s.s.e.s.e.s.s.g...: ",
"G.g.e.e.s.s.s.s.s.s.s.s.s.s.s.s.s.s.s.s.s.g.g.s.s.s.s.e.e.s.s.g.s.s.s.s.s.s.s.s.s.s.s.s.s.s.s.s.s.s.s.s.s.s.s.s.s.s.s.s.s.e.e.e.s.s.s.s.s.s.s.s.g.e.g.s.s.s.g.S :.M.<.s.<.s.e.e.e.e.e.e.e.e.e.e.e.e.e.e.e.e.e.e.e.e.s.s.e.e.e.e.e.e.e.e.e.e.e.e.e.e.e.e.s.e.s.s.e.e.e.e.e.e.e.e.e.e.e.e.e.e.e.e.e.e.e.e.e.e.e.e.s.e.s.<.e.e.e.p <.M.s.s.g.e.s.s.s.s.s.s.s.s.s.s.s.s.s.s.s.s.s.e.s.s.s.s.s.s.s.s.s.s.s.s.s.s.s.s.s.s.s.s.s.s.s.s.s.s.s.s.s.s.s.s.s.s.s.s.s.e.e.e.s.s.s.s.s.s.s.s.s.e.g.s.s.s.s.v <.g.e.e.s.e.e.e.e.e.s.s.s.s.s.s.s.s.s.s.s.s.s.s.s.s.s.s.s.s.s.s.s.s.s.s.s.s.s.s.s.s.s.e.s.s.s.s.s.s.s.s.e.e.s.s.s.s.s.s.s.s.s.s.s.s.s.s.s.s.s.s.s.s.s.s.s.g.<.V g.s.s.e.e.s.s.s.s.s.e.e.e.s.s.g.s.s.s.s.s.s.e.e.s.s.s.s.s.s.s.s.s.s.s.s.s.s.s.s.s.s.s.s.s.s.s.s.s.s.e.<.<.e.s.s.s.s.s.s.s.e.e.e.s.s.s.s.s.s.s.s.s.s.s.s.s.s.:.p M.g.s.s.g.s.s.s.s.s.s.s.s.s.s.g.s.s.s.s.s.s.s.s.s.s.s.s.s.s.s.g.s.s.s.s.s.s.s.s.s.e.e.s.s.s.s.s.s.s.s.s.s.s.s.s.s.s.s.s.s.s.s.s.s.s.s.s.s.s.s.s.e.s.e.s.s.s.:.p g.s.s.s.s.e.e.s.s.s.s.s.e.e.e.e.s.s.s.s.s.s.s.s.e.s.s.s.s.s.s.s.s.s.s.s.s.s.e.e.s.s.s.s.s.s.s.s.s.s.s.s.s.s.s.s.s.s.s.s.s.e.e.e.s.s.s.s.s.s.s.s.s.e.s.g.s.s...V G.g.s.s.e.s.s.e.s.s.s.s.e.s.s.s.s.s.s.e.s.s.s.s.s.s.s.s.s.s.s.s.s.s.s.s.s.s.s.e.s.s.s.s.s.s.s.s.s.s.s.s.s.s.s.s.s.s.s.s.s.s.s.s.s.s.s.s.s.s.s.s.e.s.s.e.s.g...: ",
"G.M.s.s.s.s.s.s.s.s.s.s.s.s.s.s.s.e.e.e.s.s.s.s.s.s.e.e.s.s.s.g.s.s.s.s.s.s.s.s.s.s.s.s.s.s.s.s.s.s.s.s.s.s.s.s.s.s.s.s.s.e.e.e.s.s.s.s.s.s.s.s.s.e.g.s.s.s.g.S :.M.<.s.<.s.e.e.e.e.e.e.e.e.e.e.e.e.e.e.e.e.e.e.e.e.e.e.e.e.e.<.e.e.e.e.e.e.e.e.e.e.e.e.e.e.s.s.e.e.e.e.e.e.e.e.e.e.e.e.e.e.e.e.e.e.e.e.e.e.e.e.s.e.s.<.e.e.e.p :.g.s.s.g.e.s.s.s.s.s.s.s.s.s.s.s.s.s.s.s.s.s.e.s.s.s.s.s.s.s.s.s.s.s.s.s.s.s.s.s.s.s.s.s.s.s.s.s.s.s.s.s.s.s.s.s.s.s.s.s.e.s.s.s.s.s.s.s.s.s.s.s.e.g.s.s.s.s.v <.g.e.s.g.e.s.e.s.s.s.s.s.s.s.s.s.s.s.s.s.s.s.s.s.s.s.s.s.s.s.s.s.s.s.s.s.s.s.s.s.s.s.e.s.s.s.s.s.s.s.s.e.e.s.s.s.s.s.s.s.s.s.s.s.s.s.s.s.s.s.s.s.s.s.s.s.g.<.V M.g.s.e.e.s.s.s.e.s.e.e.s.s.s.s.s.s.s.s.s.s.e.e.s.s.s.s.s.s.s.s.s.s.s.s.s.s.s.s.s.s.e.e.e.e.s.s.s.s.e.e.e.e.s.s.s.s.s.s.s.e.e.e.s.s.s.s.s.s.s.s.s.s.s.s.s.s.:.p M.g.s.s.s.s.s.s.s.s.s.s.s.s.s.s.s.s.s.s.s.s.s.s.s.s.e.s.s.s.s.s.s.s.s.s.s.s.s.s.e.e.s.s.s.s.s.s.s.s.s.s.s.s.s.s.s.s.s.s.s.s.s.s.s.s.s.s.s.s.s.s.e.s.e.s.s.s.:.v g.s.e.s.s.e.e.s.s.s.s.s.e.e.e.e.s.s.s.s.s.s.s.s.e.s.s.s.s.s.s.s.s.s.s.s.s.s.e.e.s.s.s.s.s.s.s.s.s.s.s.s.s.s.s.s.s.s.s.s.s.s.s.s.s.s.s.s.e.e.s.s.s.e.s.s.s.s...V G.g.s.s.e.s.s.e.s.s.s.s.e.s.s.s.s.s.s.s.s.s.s.s.s.s.s.s.s.s.s.s.s.s.s.s.s.s.s.s.s.s.s.s.s.s.s.s.s.s.s.s.s.s.s.s.s.s.s.s.s.s.s.s.s.s.s.s.s.s.s.s.e.s.s.s.s.g...: ",
"G.M.s.s.s.s.s.s.s.s.s.s.s.s.s.s.s.e.e.e.s.s.s.s.s.s.s.e.s.s.s.s.s.s.s.s.s.s.s.s.s.s.s.s.s.s.s.s.s.s.s.s.s.s.s.s.s.s.s.s.s.s.e.e.s.s.s.s.s.s.s.s.s.e.s.s.s.s.g.S :.M.<.s.<.s.e.e.e.e.e.e.e.e.e.e.e.e.e.e.e.e.e.e.e.e.e.e.e.e.e.<.e.e.e.e.<.<.<.<.e.e.e.e.e.e.e.e.e.e.e.e.e.e.e.e.e.e.e.e.e.e.e.e.e.e.e.e.e.e.e.e.s.e.s.<.e.e.e.p :.g.e.s.g.e.g.s.s.s.s.s.s.s.s.s.s.s.s.s.s.s.s.e.s.s.s.s.s.s.s.s.s.s.s.s.s.s.s.s.s.s.s.s.s.s.s.s.s.s.s.s.s.s.s.s.g.s.s.s.s.s.s.s.s.s.s.s.s.s.s.s.s.e.g.s.s.s.s.v <.g.e.s.g.s.s.e.s.s.s.s.s.s.s.s.s.s.s.s.s.s.s.s.s.s.s.s.s.s.s.s.s.s.s.s.s.s.s.s.s.s.e.e.s.s.s.s.s.s.s.s.e.e.s.s.s.s.s.s.s.s.s.s.s.s.s.s.s.s.s.s.s.s.s.s.s.g.<.V g.g.s.s.s.s.s.s.e.s.s.s.s.s.s.s.e.s.s.s.s.s.s.s.s.s.s.s.s.s.s.s.s.s.s.s.s.s.s.s.e.e.e.e.e.e.s.s.s.s.s.e.e.s.s.s.s.s.s.s.s.e.e.e.s.s.s.s.s.s.e.e.s.s.e.s.s.s.:.p Z.g.s.s.s.s.s.s.e.s.s.s.s.s.s.s.s.s.s.s.s.s.s.s.s.s.e.e.s.s.s.s.s.s.s.s.s.s.s.e.s.s.s.s.s.s.s.s.s.s.s.s.s.s.s.s.s.s.s.s.s.s.s.s.s.s.s.s.s.s.s.s.e.s.e.s.s.g.<.v g.s.e.s.s.e.e.s.s.s.s.s.e.e.e.e.s.s.s.s.s.s.s.s.s.s.s.s.s.s.s.s.s.s.s.s.s.s.s.e.s.s.s.s.s.s.s.s.s.s.s.s.s.s.s.s.s.s.s.s.s.s.s.s.e.e.e.e.e.e.e.s.s.e.s.s.s.s...S G.s.s.s.s.s.s.e.s.s.s.s.s.s.s.s.s.s.s.s.s.s.s.e.s.s.s.s.s.s.s.s.s.s.s.s.s.s.s.s.s.s.s.s.s.s.s.s.s.s.s.s.s.s.s.s.s.s.s.s.s.s.s.s.s.s.e.e.e.e.s.s.s.g.s.s.s.g.%.: ",
"J.M.s.s.s.s.s.s.s.s.s.s.s.s.s.s.e.e.e.e.s.s.s.s.s.e.e.s.e.s.s.s.s.s.s.s.s.s.s.s.s.s.s.s.s.s.s.s.s.s.s.s.s.s.s.s.s.s.s.s.s.e.e.e.s.s.s.s.s.s.s.s.s.e.s.s.s.s.g.S :.M.<.s.<.s.e.e.e.e.e.e.e.e.e.e.e.e.e.e.e.e.e.e.e.e.e.e.e.e.<.<.e.e.e.e.e.e.e.e.e.e.e.e.e.e.e.e.e.e.e.e.e.e.e.e.e.e.e.e.e.e.e.e.e.e.e.e.e.e.e.e.s.e.s.<.e.e.e.u :.g.s.s.g.s.g.s.s.s.s.s.s.s.s.s.s.s.s.s.s.s.s.s.s.s.s.s.s.s.s.s.s.s.s.s.s.s.s.s.s.s.s.s.s.s.s.s.s.s.s.s.s.s.s.s.s.s.s.s.s.s.s.s.s.s.s.s.s.s.s.s.s.e.g.s.s.s.s.v :.g.e.s.g.s.s.e.s.s.s.s.s.s.s.s.e.s.s.s.s.s.s.s.s.s.s.s.s.s.s.s.s.s.s.s.s.s.s.s.s.s.e.e.s.s.s.s.s.s.s.s.e.e.s.s.s.s.s.s.s.s.s.s.s.s.s.s.s.s.s.s.s.s.s.s.s.g.<.V M.g.s.s.s.s.s.s.s.s.s.s.s.s.s.e.e.e.s.s.s.s.s.s.s.s.s.s.s.s.s.s.s.s.s.s.s.s.s.s.e.e.e.e.e.s.s.s.s.s.s.s.s.s.s.s.s.s.s.s.s.s.e.e.s.s.s.s.s.s.e.e.s.s.e.s.s.s.:.p Z.g.s.e.s.s.s.s.e.e.e.e.s.s.s.s.s.s.s.s.s.s.s.s.s.s.e.e.e.e.e.e.s.s.s.s.s.s.s.e.s.s.s.s.s.s.s.s.s.s.s.s.s.s.s.s.s.s.s.s.s.s.s.s.s.s.s.s.s.s.s.s.e.s.e.s.s.g.<.v g.s.e.s.s.e.e.s.s.s.s.s.e.e.e.s.s.s.s.s.s.s.s.s.s.s.s.s.s.s.s.s.s.s.s.s.s.s.s.s.s.s.s.s.s.s.s.s.s.s.s.s.s.s.s.s.e.e.e.s.s.s.s.s.e.e.e.e.e.e.e.s.s.e.s.s.s.s.%.S G.s.s.s.s.s.g.s.s.s.s.s.s.e.s.s.s.s.s.s.s.s.e.e.s.s.s.s.s.s.s.s.s.s.s.s.s.s.s.s.s.s.s.s.s.s.s.s.s.s.s.s.s.s.s.s.s.s.s.s.s.s.s.s.s.s.e.e.e.e.s.s.s.g.s.s.s.g.%.: ",
"J.M.s.s.s.s.s.s.s.s.s.s.s.s.s.s.s.e.e.e.s.s.s.s.s.s.s.s.s.s.s.s.s.s.s.s.s.s.s.s.s.s.s.s.s.s.s.s.s.s.s.s.s.s.s.s.s.s.s.s.s.s.s.s.s.s.s.s.s.s.s.s.s.<.s.s.s.s.g.S :.M.<.s.<.s.e.e.e.e.e.e.e.e.e.e.e.e.e.e.e.e.e.e.e.e.e.e.e.e.<.<.e.e.e.e.e.e.e.e.e.e.e.e.e.e.e.e.e.e.e.e.e.e.e.e.e.e.e.e.e.e.e.e.e.e.e.e.e.e.e.e.e.<.s.e.e.e.e.u <.M.s.s.g.e.g.s.s.s.s.s.s.s.s.s.s.s.s.s.s.s.s.s.e.s.s.s.s.s.s.s.s.s.s.s.s.s.s.s.s.s.s.s.s.s.s.s.s.s.s.s.s.s.s.s.s.s.s.s.s.s.s.s.s.s.s.s.s.s.s.s.s.e.g.s.s.s.s.v :.s.e.e.s.e.s.e.e.e.s.s.s.s.s.s.e.s.s.s.s.s.s.s.s.s.s.s.s.s.s.s.s.s.s.s.s.s.s.s.s.e.e.e.s.s.s.s.e.s.s.s.s.s.s.s.s.s.s.s.s.s.s.s.e.s.s.s.s.s.s.s.s.s.s.s.s.g.<.V g.g.s.s.s.s.s.s.s.s.s.s.s.s.e.e.e.e.s.s.s.s.s.s.s.s.s.s.s.s.s.s.s.s.s.s.s.s.s.s.e.e.s.s.s.s.s.s.s.s.s.s.s.s.s.s.s.s.s.s.s.s.s.s.s.s.s.s.s.s.e.e.s.s.e.s.e.s.:.p Z.g.s.s.s.s.s.s.e.e.e.e.s.s.s.s.s.s.s.s.s.s.s.s.s.s.e.e.s.s.e.e.s.s.s.s.s.s.s.s.s.s.s.s.s.s.s.s.s.s.s.s.s.s.s.s.s.s.s.s.s.s.s.s.s.s.s.s.s.s.s.s.e.s.e.s.s.s.<.v g.s.e.s.s.s.e.s.s.s.s.s.e.s.s.s.s.s.s.s.s.s.s.s.s.s.s.s.s.s.s.s.e.s.s.s.s.s.s.s.s.s.s.s.s.s.s.s.e.s.s.s.s.s.s.s.e.e.e.s.s.s.s.s.s.s.s.s.e.e.e.s.s.s.s.s.s.s...S Z.s.s.s.s.s.g.s.s.s.s.s.e.e.e.s.s.s.s.s.s.s.s.e.s.s.s.s.s.s.s.s.s.s.s.s.s.s.s.s.s.s.s.s.s.s.s.s.s.s.s.s.s.s.s.s.s.s.s.s.s.s.s.s.s.s.e.e.e.e.s.s.s.g.s.s.s.g.%.: ",
"G.M.s.s.s.s.s.s.s.s.s.s.s.s.s.s.s.e.e.e.s.s.s.s.s.s.s.s.s.s.s.s.s.s.s.s.s.s.s.s.s.s.s.s.s.s.s.s.s.s.s.s.s.s.s.s.s.s.s.s.s.s.s.s.s.s.s.s.s.s.s.s.s.e.s.s.s.s.g.S :.M.<.s.<.s.e.e.e.e.e.e.e.e.e.e.e.e.e.e.e.e.e.e.e.e.e.e.e.e.e.<.s.s.s.s.e.e.s.s.e.e.e.e.e.e.e.e.e.e.e.e.e.e.e.e.e.e.e.e.e.e.e.e.e.e.e.e.e.e.e.e.e.<.s.e.e.e.e.u e.Z.g.s.g.e.s.s.s.s.s.s.s.s.s.s.s.s.s.s.s.s.s.s.e.e.s.s.s.s.s.s.s.s.s.s.s.s.s.s.s.s.s.s.s.s.s.s.s.s.s.s.s.s.s.s.s.s.s.s.s.s.s.s.s.s.s.s.e.s.s.s.s.e.g.s.s.s.s.v :.s.e.e.s.e.s.e.e.e.s.s.s.s.s.s.e.s.s.s.s.s.s.s.s.s.s.s.s.s.s.s.s.s.s.s.s.s.s.s.s.s.e.e.s.s.s.s.e.s.s.s.s.s.s.s.s.s.s.s.s.s.s.s.e.e.s.s.s.s.s.s.s.s.e.s.s.g.<.V g.g.s.s.s.s.s.s.s.s.s.s.s.s.e.e.e.e.s.s.s.s.s.s.s.s.s.s.s.s.s.s.s.s.s.s.s.s.s.s.s.s.s.s.s.s.s.s.s.s.s.s.s.s.s.s.s.s.s.s.s.s.s.s.s.s.s.s.s.s.s.s.s.s.e.s.e.s.:.p M.g.s.s.s.s.s.s.e.e.e.e.s.s.s.s.s.s.s.s.s.s.s.s.s.e.s.s.s.s.e.e.s.s.s.s.s.s.s.s.s.s.s.s.s.s.s.s.s.s.s.s.s.s.s.s.s.s.s.s.s.s.s.s.s.s.s.s.s.s.s.s.s.s.s.s.s.s.<.v s.e.e.s.s.s.e.s.s.s.s.s.s.s.s.s.s.s.s.s.s.e.s.s.s.s.s.s.s.s.s.s.e.e.s.s.s.s.s.s.s.s.s.s.s.s.s.s.e.e.s.s.s.s.s.s.s.s.s.s.s.s.s.s.s.s.s.s.s.e.s.s.s.s.s.s.s.s.%.S Z.s.s.s.s.s.s.s.s.s.s.s.e.e.e.s.s.s.s.s.s.s.s.s.s.s.s.s.s.s.s.s.s.s.s.s.s.s.s.s.s.s.s.s.e.s.s.s.s.s.s.s.s.s.s.s.s.s.s.s.s.s.s.s.s.s.e.e.e.e.s.s.s.g.s.s.s.g.%.: ",
"G.g.s.s.s.s.s.s.s.s.s.s.s.s.s.s.s.s.e.s.s.s.s.s.s.s.s.s.s.s.s.s.s.s.s.s.s.s.s.s.s.s.s.s.s.s.s.s.s.s.s.s.s.s.s.s.s.s.s.s.s.s.s.s.s.s.s.s.s.s.s.s.s.e.s.e.s.s.g.S :.M.e.s.<.s.e.e.e.e.e.e.e.e.e.e.e.e.e.e.e.e.e.e.e.e.e.e.e.e.e.e.e.e.e.e.e.e.e.e.e.e.e.e.e.e.e.e.e.e.e.e.e.e.e.e.e.e.e.e.e.e.e.e.e.e.e.e.e.e.e.e.e.<.s.<.e.e.e.u e.M.s.s.s.e.s.s.s.s.s.s.s.s.s.s.s.s.s.s.s.s.s.e.e.e.s.s.s.s.s.s.s.s.s.s.s.s.s.s.s.s.s.s.s.s.s.s.s.s.s.s.s.s.s.s.s.s.s.s.s.s.s.s.s.s.s.s.e.s.s.s.s.e.g.e.s.s.s.v :.g.e.e.s.e.s.e.e.e.s.s.s.s.s.s.s.s.s.s.s.s.s.s.s.s.s.s.s.s.s.s.s.s.s.s.s.s.s.s.s.e.e.e.s.s.s.s.e.s.s.s.s.s.s.s.s.s.s.s.s.s.s.s.s.s.s.s.s.s.s.s.s.s.s.s.s.g.<.V g.g.s.s.s.s.s.e.s.s.s.s.e.e.s.s.s.s.s.s.s.s.e.e.s.s.s.s.s.s.s.s.s.s.s.s.s.s.s.s.s.s.s.s.g.s.s.s.s.s.s.s.s.s.s.s.s.s.s.s.s.s.s.s.s.s.s.s.s.s.s.s.s.s.s.s.s.s.:.p M.s.e.s.s.s.s.s.e.e.e.s.s.s.s.s.s.s.s.s.s.s.s.s.s.e.s.s.s.s.s.e.g.s.s.s.e.e.s.s.s.s.s.s.s.s.s.s.s.s.s.s.s.s.s.s.s.s.s.s.s.s.s.s.s.s.s.s.s.s.s.s.s.s.s.s.e.s.:.p s.s.e.s.s.s.s.s.s.s.s.s.s.s.s.s.s.s.s.s.s.e.e.e.s.s.s.s.s.s.s.s.e.e.e.s.s.s.s.s.s.s.s.s.s.s.s.s.e.e.s.s.s.s.s.s.s.s.s.s.s.s.s.s.s.s.g.s.s.s.s.s.s.s.s.s.s.s.%.S Z.s.e.s.e.s.g.s.s.s.s.s.e.e.e.s.s.s.s.s.s.s.s.s.s.s.s.s.s.s.s.s.s.s.s.s.s.s.s.s.s.s.s.s.e.s.s.s.s.s.s.s.s.s.s.s.e.e.s.s.s.s.s.s.s.s.s.s.s.s.s.s.e.s.s.s.s.g...: ",
"Z.g.s.e.s.s.s.s.s.s.s.s.s.s.s.s.s.s.s.e.s.s.s.s.s.s.s.g.s.s.s.s.s.s.s.s.s.s.s.s.s.s.s.s.s.s.s.s.s.s.s.s.s.s.s.s.e.s.s.s.s.s.s.s.s.s.s.s.s.s.s.s.s.e.s.s.s.s.g.S :.M.<.s.<.s.e.e.e.e.e.e.e.e.e.e.e.e.e.e.e.e.e.e.e.e.e.e.s.s.s.s.e.e.e.e.e.e.e.e.e.e.e.s.e.e.e.e.e.e.e.e.e.e.e.e.e.e.e.e.e.e.e.e.e.e.e.e.e.e.e.e.e.<.s.<.e.e.e.u e.M.s.e.s.e.g.g.s.s.s.s.s.s.s.s.s.s.s.s.s.s.s.e.e.e.s.s.s.s.s.s.s.s.s.s.s.s.s.s.s.s.s.s.s.s.s.s.s.s.s.s.s.s.s.s.s.s.s.s.s.s.s.s.g.s.s.e.e.s.s.s.s.e.g.e.s.s.s.v <.g.e.s.g.e.s.s.e.e.s.s.s.s.s.s.s.s.s.s.s.s.s.s.s.s.s.s.s.s.s.s.s.s.s.s.s.s.s.s.s.e.e.e.s.s.s.s.e.s.s.s.s.s.s.s.s.s.s.s.s.s.s.s.s.s.s.s.s.s.g.s.s.s.e.s.s.g.<.V g.s.s.s.s.s.e.e.s.s.s.e.e.e.s.s.s.s.s.s.s.s.e.e.s.s.s.s.s.s.s.s.s.s.s.s.s.s.s.s.s.s.s.s.s.s.s.e.s.s.s.e.e.s.s.s.e.s.s.s.s.s.s.s.s.s.s.s.s.s.s.s.s.g.s.s.s.s.:.p g.s.e.s.s.s.s.s.e.s.s.s.s.s.s.s.s.s.s.s.s.s.s.s.s.e.s.s.s.s.s.s.g.g.s.e.e.s.s.s.s.s.s.s.s.s.s.s.s.s.s.s.s.s.s.s.s.s.s.s.s.s.s.s.s.s.s.s.s.s.s.s.s.s.s.s.e.s.:.p s.e.e.s.s.s.s.s.s.s.s.s.s.s.s.s.s.s.s.s.e.e.e.e.e.s.s.s.s.s.s.s.e.e.e.s.s.s.s.s.s.s.s.s.s.s.s.s.e.e.s.s.s.s.s.s.s.s.s.s.s.e.e.e.s.s.s.s.s.s.s.s.s.s.s.s.s.s.%.S Z.s.e.s.e.s.g.s.s.s.s.s.e.e.e.s.s.s.s.s.s.s.s.s.s.s.s.s.s.s.s.s.s.s.s.e.e.s.s.s.g.s.s.e.e.s.s.s.s.s.e.s.s.s.e.e.e.e.e.s.s.s.s.s.s.s.s.s.s.s.s.s.e.s.s.s.s.g...- ",
"G.M.s.e.s.s.s.s.s.s.s.s.s.e.e.e.s.s.s.s.s.s.s.s.s.s.s.s.s.s.s.s.e.e.e.e.s.s.s.s.s.s.s.s.s.s.s.s.e.e.s.s.s.s.s.s.s.s.s.s.s.s.s.s.s.s.s.s.s.s.s.s.s.s.s.s.s.e.M.S :.M.<.s.<.s.s.s.e.e.e.e.e.e.e.e.e.e.e.e.e.e.e.e.e.e.e.e.e.e.e.e.e.e.e.e.e.e.e.e.e.e.e.e.e.e.e.<.e.e.e.e.e.e.e.e.e.e.e.e.e.e.e.e.e.e.<.<.<.e.e.e.s.<.e.e.e.e.<.u e.M.s.s.g.e.s.s.s.s.s.s.s.s.s.s.s.s.s.s.s.s.s.s.s.s.s.s.s.s.s.s.e.e.e.s.s.s.s.s.s.s.s.s.s.s.s.s.e.e.s.s.s.s.s.s.s.s.s.s.s.s.s.s.s.s.e.e.s.s.s.s.s.e.g.s.s.s.s.v <.g.e.e.s.e.s.e.s.s.s.s.s.s.s.e.s.s.s.s.s.s.s.s.s.s.s.s.s.s.s.s.s.s.s.s.s.s.s.s.s.s.s.s.s.s.e.e.s.e.s.e.e.s.s.s.s.s.s.s.s.s.e.e.s.s.s.s.s.s.s.s.s.s.e.s.s.g.<.v M.g.s.s.s.s.s.s.s.s.s.s.e.e.s.s.s.s.s.s.s.s.s.s.e.s.s.s.s.s.s.e.s.s.s.s.s.s.s.s.s.s.s.s.s.s.e.e.s.s.s.s.s.s.s.s.s.s.s.s.s.s.s.s.s.s.s.s.s.s.s.s.e.s.e.s.e.s.:.p Z.g.s.s.s.s.s.s.e.s.s.s.s.s.s.s.s.s.s.s.s.s.s.s.s.s.s.s.s.s.s.s.s.e.e.e.s.s.s.e.s.s.s.s.e.s.s.s.s.s.s.s.s.s.s.s.s.s.s.s.s.s.s.s.s.s.s.s.s.s.s.s.s.s.e.e.e.s.<.v s.s.e.s.s.e.e.s.s.s.s.s.s.s.e.e.s.s.s.s.e.e.e.e.s.s.s.s.s.s.s.s.e.e.s.s.s.s.s.s.s.s.s.s.s.s.s.s.s.s.s.s.s.s.s.s.s.s.s.s.s.s.s.s.s.s.s.s.s.s.s.s.s.s.s.s.s.s...S Z.s.e.s.s.e.s.e.s.s.s.s.s.s.s.e.e.e.e.s.s.s.s.e.s.s.s.s.s.s.s.e.s.s.s.s.s.s.s.s.s.s.s.s.s.s.s.s.s.s.s.s.s.s.s.e.s.e.e.e.s.s.s.s.e.e.e.e.e.s.s.s.s.s.s.s.e.g.%.- ",
"G.M.s.e.s.s.s.s.s.s.s.s.s.e.e.e.s.s.s.s.s.s.s.s.s.s.s.s.s.s.s.s.e.e.e.e.s.s.s.s.s.s.s.s.s.s.s.s.e.e.s.s.s.s.s.s.s.s.s.s.s.s.s.s.s.s.s.s.s.s.s.s.s.s.s.s.s.e.M.S :.M.<.s.e.s.s.e.<.<.<.<.e.e.e.e.e.e.e.e.e.e.e.e.e.e.e.e.e.e.e.e.e.e.e.e.e.e.e.e.e.e.e.e.e.e.e.<.e.e.e.e.e.e.e.e.e.e.e.e.e.e.e.e.e.e.<.<.<.e.e.e.e.<.e.e.e.e.<.u <.M.e.e.s.e.s.s.s.s.s.s.s.s.s.s.s.s.s.s.s.s.s.s.s.s.s.s.s.s.s.s.e.e.e.s.s.s.s.s.s.s.s.s.s.s.s.s.e.e.s.s.s.s.s.s.s.s.s.s.s.s.s.s.s.e.e.s.s.s.s.s.s.e.g.e.s.s.s.v <.g.e.e.s.e.s.e.s.s.s.s.s.s.s.e.e.e.e.e.s.s.s.s.s.s.s.s.s.s.s.s.s.s.s.s.s.s.s.s.s.s.s.s.s.s.e.e.s.s.s.s.s.s.s.s.s.s.s.s.s.s.e.e.s.s.s.s.s.s.s.s.s.s.e.s.s.g.<.v g.g.s.s.s.s.s.s.s.s.s.s.e.e.s.s.s.s.s.s.s.s.s.s.s.s.s.s.s.s.s.e.e.e.s.s.s.s.s.s.s.s.s.s.s.s.e.e.s.s.s.s.s.s.e.e.s.s.s.s.s.s.s.s.s.s.s.s.s.s.e.e.e.s.e.s.s.s.:.p M.g.s.s.s.s.s.s.s.s.s.s.s.s.s.s.s.s.s.s.s.s.s.s.s.s.s.s.s.s.s.s.s.e.e.e.e.s.s.e.s.s.s.s.e.s.s.s.s.s.s.s.s.s.s.s.s.s.s.s.s.s.s.s.s.s.s.s.s.s.s.s.s.s.e.e.e.s.<.v g.s.e.s.s.e.e.s.s.s.s.s.s.s.e.e.s.s.s.s.e.e.e.e.s.s.s.s.s.s.s.s.e.e.s.s.s.s.s.s.s.s.s.s.s.s.s.s.s.s.s.s.s.s.s.s.s.s.s.s.s.s.s.s.s.s.s.s.s.e.e.s.s.s.s.s.s.s...S Z.s.e.s.s.e.s.e.s.s.s.s.s.s.e.e.e.e.e.s.s.s.s.e.s.s.s.s.s.s.s.e.s.s.s.s.s.s.s.s.s.s.s.s.s.s.s.s.s.s.s.s.s.s.s.s.s.e.e.e.s.s.s.s.e.e.e.e.e.s.s.s.s.s.s.s.e.g.%.- ",
"G.M.s.e.s.s.s.s.s.s.s.s.s.e.e.e.e.e.e.e.s.e.e.s.s.s.s.s.s.s.s.s.e.e.e.e.s.s.s.s.s.s.s.s.s.s.s.s.s.s.s.s.s.s.s.s.s.s.s.e.e.e.e.s.s.s.s.s.s.s.s.s.s.s.s.s.s.e.M.S %.M.e.s.e.s.e.e.<.<.<.e.e.e.<.<.e.e.e.e.e.e.e.e.e.e.e.e.e.e.e.s.e.e.e.e.e.e.e.e.e.e.e.e.e.e.e.e.e.e.e.e.e.e.e.e.e.e.e.e.e.e.e.e.e.e.<.<.<.e.e.e.e.<.e.<.e.<.<.e <.g.e.e.s.e.s.s.s.s.s.s.s.s.s.s.s.s.s.s.e.e.e.e.s.s.s.s.s.s.s.s.e.e.s.s.s.s.s.s.e.e.e.e.s.s.s.s.e.s.e.s.s.s.s.s.s.s.s.s.s.s.s.s.s.s.e.e.s.s.s.s.s.e.s.e.s.s.s.v <.g.e.e.s.e.s.e.s.e.s.s.s.s.s.e.e.e.e.e.s.s.s.s.s.s.s.s.s.s.s.s.s.s.e.e.e.e.s.s.s.s.e.e.s.e.e.e.s.s.s.s.s.e.e.e.e.e.e.e.e.e.e.e.s.s.s.s.s.s.s.s.s.s.e.s.e.s.<.v g.g.s.e.e.e.e.s.s.s.s.e.e.e.e.s.s.s.s.s.s.s.s.s.e.s.s.s.s.s.s.e.e.e.e.e.e.e.e.e.e.e.e.e.e.e.e.e.s.s.s.s.e.e.e.e.s.s.s.s.s.s.s.s.s.e.e.e.e.e.e.e.e.s.s.s.s.s.:.p M.g.e.s.s.e.e.s.s.s.s.s.s.s.s.s.s.s.s.s.s.s.s.s.s.s.s.s.s.s.s.s.e.e.e.e.e.s.e.e.s.s.e.e.e.e.s.s.s.s.s.s.s.s.s.s.s.s.s.s.s.s.s.s.s.s.s.s.s.s.s.s.s.s.e.e.e.s.:.v g.s.e.s.s.e.s.s.s.s.s.s.s.s.e.e.s.s.s.s.e.e.e.s.s.s.s.s.s.s.s.s.e.e.e.e.s.s.s.s.s.s.e.e.e.e.s.s.s.s.s.s.s.s.s.s.s.s.s.s.s.s.s.s.s.s.s.s.e.e.e.e.s.s.s.s.s.s...S Z.s.e.s.s.e.s.e.s.s.s.s.s.s.s.s.s.s.e.s.e.e.s.s.s.s.e.e.e.e.e.s.s.s.s.s.s.s.s.s.s.s.s.s.s.s.s.s.s.s.s.s.s.s.s.s.s.e.e.e.s.s.s.s.s.e.e.e.e.s.s.s.s.s.s.s.e.g.%.- ",
"G.M.s.s.s.s.s.s.s.s.s.s.e.e.e.e.e.e.e.e.e.e.e.e.s.s.s.s.s.s.s.s.s.s.e.s.s.s.s.s.s.s.s.s.s.s.s.s.s.s.s.s.s.s.s.s.s.s.e.e.e.e.e.e.s.s.s.s.s.s.s.e.s.e.e.e.s.e.g.V %.M.<.s.e.s.e.e.e.e.e.e.e.e.e.e.e.e.e.e.e.e.e.e.e.e.e.e.e.e.s.s.e.e.e.e.e.e.e.e.e.e.e.e.e.e.e.e.e.e.e.e.e.e.e.e.e.e.e.e.e.e.e.e.e.e.<.<.e.e.e.e.s.<.e.e.e.<.<.u <.M.e.e.s.e.s.s.s.s.s.s.s.s.s.s.s.s.s.e.e.e.s.s.s.e.e.e.e.e.e.e.s.s.s.s.s.s.s.s.e.e.e.e.e.e.s.s.s.s.e.e.e.s.s.s.s.s.s.s.s.s.s.s.s.s.e.e.s.s.s.s.e.<.s.e.e.s.s.v <.g.e.e.s.e.s.e.s.s.s.s.s.s.s.e.s.s.s.s.s.s.s.s.s.s.s.s.s.s.s.s.s.s.e.e.e.e.s.s.e.e.e.e.e.e.e.e.s.s.s.e.e.e.e.e.e.e.e.e.e.s.e.e.s.s.s.s.s.s.s.s.e.s.e.s.e.s.<.v g.g.s.e.e.e.e.e.s.s.s.e.e.e.e.e.s.s.s.s.s.s.s.s.s.s.s.s.s.s.s.e.e.e.e.e.e.e.e.e.e.e.e.e.s.s.e.e.s.s.s.s.e.e.e.e.s.s.s.s.s.s.s.s.e.e.e.e.e.e.e.e.e.s.s.s.s.s.:.p M.s.e.s.s.e.e.s.e.e.s.s.s.s.s.s.s.s.s.s.s.s.s.s.s.s.s.s.s.s.s.s.e.e.e.e.s.s.e.e.s.s.e.e.e.e.s.s.s.s.s.s.s.s.s.s.s.s.s.s.s.s.s.s.s.s.s.s.s.s.s.s.e.s.e.e.e.s.:.p s.s.e.s.s.e.s.s.s.s.s.s.s.s.s.e.s.s.s.s.e.e.e.s.s.s.s.s.s.s.s.s.e.e.e.e.s.s.e.s.s.e.e.e.e.e.e.s.e.s.e.e.s.e.e.e.s.s.s.s.s.s.s.s.s.s.s.s.s.s.e.e.s.s.s.s.s.s...S Z.s.e.s.s.e.s.e.s.s.s.s.s.s.s.e.s.s.e.e.e.e.s.s.s.e.e.e.e.e.e.s.s.s.s.s.s.s.s.s.s.s.s.s.s.s.s.s.s.s.s.s.s.s.s.s.s.e.e.e.s.s.s.e.s.s.e.e.e.s.s.s.s.s.s.s.e.g.%.- ",
"G.M.s.s.s.s.e.s.s.s.e.e.e.s.e.e.e.e.e.e.e.s.s.s.s.s.s.s.s.s.s.s.s.s.s.s.s.s.s.s.s.s.s.s.s.e.e.s.s.s.s.s.s.s.s.s.s.s.s.e.e.e.e.e.s.s.s.s.s.e.e.s.e.e.e.e.s.<.g.V %.M.e.s.<.e.e.<.e.e.e.e.e.e.e.e.e.e.e.e.e.e.e.e.<.<.e.e.e.e.e.s.e.e.e.e.e.e.e.e.e.e.e.e.e.e.e.e.e.e.e.e.e.e.e.e.e.e.e.e.e.e.e.e.e.e.<.<.e.e.e.e.s.<.e.e.e.e.<.u e.M.e.e.s.e.s.s.s.s.s.s.s.s.s.s.s.s.s.s.e.e.e.e.s.e.s.s.e.e.e.e.s.s.s.s.s.s.s.s.e.e.s.s.e.e.s.s.s.e.e.e.e.s.s.s.s.s.s.s.s.s.s.s.s.s.e.e.e.s.s.s.s.<.s.e.e.s.s.v <.g.e.e.s.e.s.e.s.s.e.e.s.s.s.e.s.s.s.s.s.e.e.e.e.s.s.s.s.s.s.e.s.s.e.e.e.e.s.s.e.e.e.e.e.e.e.e.s.e.e.e.e.e.e.e.e.e.e.e.s.s.e.e.s.s.s.s.s.s.s.s.e.s.e.s.s.g.<.v g.g.s.e.e.e.e.e.s.s.s.e.e.e.s.s.s.s.s.s.s.s.s.s.e.s.s.s.s.s.s.e.e.e.e.e.e.s.e.e.e.e.e.e.e.e.s.s.s.s.s.e.e.e.e.e.s.s.s.s.s.s.s.s.s.e.e.e.e.e.e.e.s.s.s.s.s.s.:.p M.s.e.s.s.s.e.s.e.e.s.s.s.s.s.s.s.s.s.s.s.s.s.s.s.s.s.s.s.s.s.s.s.s.s.s.s.s.s.e.s.e.e.e.e.s.s.s.s.s.s.s.s.s.s.s.s.s.s.s.s.s.s.s.e.s.s.s.s.s.s.s.e.s.e.s.e.s.:.p s.e.e.s.s.s.s.s.e.s.s.s.s.s.s.s.s.s.s.s.e.e.e.s.s.s.s.s.s.s.s.s.s.s.e.e.e.e.e.e.s.e.e.e.e.s.s.s.e.e.e.e.e.e.e.e.s.s.s.s.s.s.s.s.s.s.s.s.s.s.s.s.s.s.s.s.s.s...S Z.s.e.s.s.e.s.s.s.s.s.s.s.s.e.e.s.e.e.e.e.e.s.s.s.e.e.e.e.e.e.s.s.s.s.s.s.s.s.s.s.s.s.s.s.s.s.s.e.e.e.s.s.s.s.s.s.e.e.e.s.s.s.e.s.s.s.s.s.s.s.s.s.e.e.s.e.g.%.- ",
"G.g.s.s.s.s.e.s.s.s.e.e.e.s.s.s.e.e.e.e.s.s.s.s.s.s.s.s.s.s.s.s.s.s.s.s.s.s.s.s.s.s.s.s.s.e.s.e.e.e.s.s.s.s.s.s.s.s.e.e.e.e.e.e.s.s.s.s.e.e.e.e.e.e.e.e.e.<.g.V :.M.e.s.<.e.e.<.e.e.e.e.e.e.e.e.e.e.e.e.e.e.<.<.<.e.e.e.e.e.e.e.e.e.e.e.e.e.e.e.e.e.e.<.<.e.e.e.e.e.e.e.e.e.e.e.e.e.e.e.e.e.e.e.e.e.<.<.e.e.e.e.s.<.e.e.e.e.<.u e.M.s.s.g.s.g.s.s.s.s.s.s.s.s.s.e.e.e.e.e.s.e.s.s.e.e.s.e.e.e.e.s.s.s.s.s.s.e.e.s.e.s.s.s.s.s.s.s.e.e.e.e.s.s.s.s.s.s.s.s.s.s.s.s.e.e.e.e.s.s.s.s.e.s.e.s.s.s.v <.g.e.e.s.e.s.e.s.s.e.e.s.s.s.s.s.s.s.s.e.e.<.<.e.e.s.s.s.s.e.e.s.e.e.e.e.e.e.s.e.e.e.e.e.e.e.s.s.e.e.e.e.e.e.e.e.e.e.e.s.e.e.e.s.s.s.s.s.s.s.s.e.s.e.s.s.g.<.v g.g.s.s.e.e.e.e.s.s.s.e.e.e.e.e.s.s.s.s.s.s.s.s.e.s.s.s.s.s.s.e.e.e.e.s.s.s.s.e.e.e.e.e.s.e.e.s.e.e.e.e.e.e.e.e.s.s.s.s.s.s.s.s.s.s.e.s.s.s.s.s.e.s.e.s.e.s.:.p M.g.e.s.s.s.e.s.e.e.s.s.s.s.s.s.s.s.s.s.s.s.s.s.s.s.s.s.s.s.s.s.s.s.s.s.s.s.s.s.s.e.e.e.e.e.s.s.s.s.s.s.s.s.s.s.s.s.s.s.s.s.s.s.e.e.s.s.s.s.s.s.e.s.e.s.e.s.:.p g.e.e.s.s.e.s.s.e.e.s.s.s.s.s.s.s.s.s.s.e.e.e.e.s.s.s.s.s.s.s.s.s.s.s.e.e.e.e.e.s.s.e.e.e.e.s.s.s.s.s.s.s.s.s.s.s.s.s.s.s.s.s.s.s.s.s.s.s.s.s.s.s.e.s.s.s.s...S G.s.e.g.s.e.s.s.e.e.e.e.s.e.e.e.s.s.s.s.e.e.s.s.s.s.e.e.e.e.e.e.s.s.s.s.s.s.s.s.s.s.s.s.s.s.s.s.e.e.s.s.s.s.s.s.s.e.e.e.e.s.s.s.s.s.s.s.s.s.s.s.s.e.e.s.e.g.%.- ",
"G.g.s.s.s.s.e.e.s.s.e.e.e.s.s.s.e.e.e.s.s.s.s.s.s.s.s.s.s.s.s.s.s.s.s.s.s.s.s.s.s.s.s.e.s.s.e.s.e.e.s.s.s.s.s.s.s.s.e.e.e.s.s.e.s.s.s.e.e.e.s.s.s.s.e.s.s.e.g.V :.M.<.e.<.e.e.e.e.e.e.e.e.e.e.e.e.e.e.e.e.e.e.<.e.e.e.e.e.e.e.e.<.<.<.<.e.e.e.e.e.<.<.<.<.e.e.e.e.e.e.e.e.e.e.e.e.e.e.e.e.e.e.e.e.e.<.<.e.e.e.e.e.:.e.e.e.e.<.u <.M.s.s.s.e.s.s.e.e.e.e.e.s.e.e.e.e.e.e.e.s.s.s.e.e.s.s.s.s.s.s.s.s.s.s.s.e.e.e.s.s.s.s.s.s.s.s.s.e.e.e.e.e.s.s.e.e.e.e.s.s.s.s.s.e.e.e.e.s.s.e.s.e.g.e.s.s.s.v <.g.e.e.s.e.s.e.s.s.e.e.s.s.s.s.e.e.e.e.e.e.e.e.e.e.s.s.s.s.e.e.e.s.e.e.e.e.s.s.s.s.s.s.s.s.s.s.s.s.s.e.e.s.s.s.s.s.s.s.s.s.e.e.s.s.e.e.e.e.e.e.s.s.e.s.s.g.<.v M.g.s.s.s.s.e.e.s.s.s.e.e.e.e.e.s.s.s.s.s.s.s.s.e.s.s.s.s.s.s.e.e.e.e.s.s.s.e.e.s.s.s.s.s.e.s.s.e.e.e.e.s.s.s.s.s.s.s.s.s.s.s.s.s.s.e.s.s.s.s.s.s.s.s.s.e.s.%.u M.g.s.s.s.s.s.s.e.e.s.s.s.s.s.s.s.s.s.s.s.s.s.s.s.s.s.s.s.s.s.s.s.s.s.s.s.s.s.s.e.e.e.e.e.e.e.e.s.s.s.s.s.s.s.s.s.s.s.s.s.s.s.s.e.e.e.e.e.s.s.s.e.s.e.s.e.s.:.p g.s.e.s.s.e.e.s.e.e.s.s.s.s.s.s.s.s.s.s.e.e.e.e.s.s.s.s.s.s.s.s.s.s.s.s.e.e.e.e.s.s.s.s.s.s.s.s.s.s.s.s.s.s.s.s.s.s.s.s.s.s.s.s.s.s.s.s.s.s.s.s.s.e.s.s.e.s...V G.s.e.s.s.e.s.s.e.e.e.e.e.e.e.e.e.e.e.s.s.s.s.e.s.s.s.s.s.e.e.e.s.s.s.s.s.s.s.s.s.s.s.s.s.s.s.s.e.e.e.s.s.s.s.s.s.e.e.e.e.s.s.e.s.s.s.e.s.s.s.s.s.e.e.s.e.g.%.- ",
"G.g.s.s.s.s.e.e.s.s.e.e.e.s.s.s.s.s.s.s.s.s.s.s.s.s.s.s.s.s.s.s.s.s.s.s.s.s.s.s.s.s.s.e.e.e.e.e.e.e.s.s.s.s.s.s.s.s.e.e.e.s.s.s.s.s.s.e.e.e.s.e.s.s.s.s.s.e.M.S :.M.<.e.<.e.e.<.e.e.e.e.e.e.e.e.e.e.e.e.e.e.e.<.e.e.e.e.e.e.e.e.<.<.<.<.e.e.e.e.e.<.<.<.<.e.e.s.e.e.e.e.e.e.e.e.e.e.e.e.e.e.e.e.e.<.<.<.e.e.e.e.e.:.e.<.e.e.<.u <.M.e.e.s.e.s.e.e.e.e.e.e.e.e.e.e.e.e.e.e.s.s.s.e.e.e.e.e.e.e.e.s.s.s.s.s.s.e.e.s.s.s.s.s.s.s.s.s.e.e.e.e.e.s.s.e.e.e.e.s.s.s.s.s.e.e.e.e.s.e.e.g.s.g.e.s.s.s.v <.g.e.e.s.e.s.e.s.s.e.e.s.s.s.s.e.e.s.s.s.s.s.s.e.e.s.s.s.e.e.e.e.e.s.e.s.s.e.e.s.s.s.s.s.s.s.s.s.s.s.s.s.s.s.s.s.s.s.s.s.s.e.e.s.s.e.e.e.e.e.e.s.s.e.s.s.g.<.v M.g.g.s.s.s.s.e.s.s.e.e.e.e.e.e.s.s.s.s.s.s.s.s.e.s.s.s.s.s.s.e.<.e.e.s.s.s.e.e.s.s.s.s.s.s.s.s.e.e.e.e.s.s.s.s.s.s.s.s.s.s.s.s.e.e.e.e.s.s.s.s.s.s.s.s.e.s.%.u M.g.s.s.s.s.s.s.e.e.s.s.s.s.s.s.s.s.s.s.s.s.s.s.s.s.s.s.s.s.s.s.s.s.e.e.s.s.s.e.s.e.e.e.e.e.e.e.s.s.s.s.s.s.s.s.s.s.s.s.s.s.s.s.e.e.e.e.e.s.s.s.s.s.s.s.s.s.:.p g.s.e.s.s.e.e.s.e.e.s.s.s.s.s.s.s.s.s.s.e.e.e.e.s.s.s.s.s.s.s.s.s.s.s.s.s.s.e.e.s.s.s.s.s.s.s.s.s.s.s.s.s.s.s.s.s.s.s.s.s.s.s.s.s.s.s.e.e.e.e.e.s.e.e.e.e.s...S G.s.e.s.s.e.s.s.e.e.e.e.e.e.e.e.e.e.e.s.s.s.s.e.s.s.s.s.s.s.e.e.s.s.s.s.s.s.s.s.s.s.s.s.s.s.s.s.e.e.e.s.s.s.s.s.s.e.e.e.s.s.s.e.s.s.e.e.e.s.s.s.s.e.e.s.e.g.%.- ",
"Z.g.e.e.e.e.e.e.s.s.s.s.s.s.s.s.s.e.s.s.s.s.e.e.s.s.s.s.e.e.e.s.s.s.s.s.s.s.e.e.g.s.s.e.e.e.s.s.e.e.s.s.s.s.e.e.s.s.s.s.s.s.s.s.s.s.s.s.s.e.s.s.s.e.g.s.s.s.g.S %.g.<.s.<.e.e.e.e.e.e.e.e.e.e.e.e.e.e.e.e.e.<.<.e.e.e.e.<.<.<.<.<.<.e.e.e.e.<.<.<.<.e.e.e.e.e.s.e.e.e.e.e.e.e.s.e.e.e.e.e.e.s.s.e.e.e.e.e.<.<.<.e.<.s.e.e.<.<.u <.g.s.s.g.e.s.e.e.e.e.s.s.e.e.e.e.e.e.s.s.s.s.s.s.s.e.e.e.e.s.s.s.s.s.s.s.s.s.s.e.s.s.s.e.e.e.e.e.e.e.e.s.s.s.s.s.s.s.e.e.e.s.s.e.e.e.e.e.s.s.e.s.e.g.s.s.s.s.v :.s.s.e.s.s.e.s.s.s.s.e.s.s.e.s.e.e.e.e.e.e.e.s.s.s.s.s.s.s.s.s.e.e.e.e.e.e.e.e.s.s.s.s.s.s.s.s.s.s.e.e.e.s.s.s.s.e.e.e.e.e.s.s.s.s.s.s.s.s.s.s.e.s.e.s.s.s.<.v g.g.s.s.s.s.s.s.e.e.e.e.e.e.e.e.s.e.e.e.e.e.e.e.e.e.s.s.s.s.e.e.<.e.e.e.s.s.s.s.s.s.s.s.s.e.e.e.e.e.e.e.s.s.s.s.e.e.e.e.s.s.s.s.e.s.s.s.s.s.s.s.e.s.e.s.e.s.:.u M.s.s.s.s.s.e.s.s.s.s.s.s.s.s.s.s.s.s.e.e.e.e.e.e.e.s.s.s.s.s.s.s.s.s.s.e.e.e.e.s.s.e.e.e.s.s.s.s.s.s.s.s.s.s.s.s.e.e.e.e.e.e.e.s.s.s.s.s.s.s.s.e.s.e.s.s.s.<.p g.s.e.s.e.e.e.e.s.e.s.s.s.s.s.s.e.e.s.s.e.e.e.e.s.s.s.s.s.s.s.s.e.e.e.e.e.e.s.s.s.s.s.s.s.s.s.s.s.s.s.s.s.s.s.s.e.s.s.s.s.s.s.s.s.s.s.s.s.s.s.s.s.e.s.s.s.s...V G.s.e.g.s.e.s.e.e.e.s.s.s.e.e.e.s.s.s.s.s.s.s.s.e.e.e.s.s.s.s.s.e.e.s.s.s.s.e.e.s.e.e.s.e.e.e.e.s.s.s.s.s.s.s.s.e.e.e.e.s.s.s.s.s.s.s.e.e.e.s.e.s.g.e.s.e.s...- ",
"Z.g.e.e.e.e.e.e.s.s.s.s.s.s.s.s.e.e.s.s.s.s.e.e.s.s.e.e.e.e.s.s.s.s.s.s.s.s.e.e.s.s.e.e.e.e.e.s.e.s.s.s.s.s.e.e.s.s.s.s.s.s.s.s.s.s.e.e.e.e.e.s.s.e.s.s.s.s.g.S %.g.<.s.<.e.e.e.e.e.e.e.e.e.e.e.e.e.e.e.e.<.<.<.e.e.e.e.<.<.<.<.e.e.e.e.e.e.e.e.<.e.e.e.e.e.e.e.e.e.e.e.e.e.e.e.e.e.e.e.e.e.e.e.<.<.e.e.e.e.<.<.e.<.e.<.<.<.<.p <.g.e.s.s.e.s.e.e.e.s.s.s.s.e.e.e.e.e.s.s.s.s.s.s.e.s.s.e.e.e.s.s.s.s.s.s.s.s.s.e.s.s.s.e.e.e.e.e.e.e.s.s.s.s.s.s.s.s.s.e.e.s.s.e.e.e.e.s.s.s.e.s.e.g.s.s.s.e.v :.s.s.e.s.s.e.s.s.s.s.e.s.s.e.s.e.e.e.e.e.e.e.s.s.s.s.s.s.s.s.s.e.e.e.e.e.e.e.e.s.s.s.s.s.s.s.s.s.s.e.e.e.s.s.s.s.e.e.e.e.s.s.s.s.s.s.s.s.s.s.s.e.s.e.s.s.g.<.v M.g.s.s.s.s.s.s.e.e.e.e.e.e.e.e.e.e.e.e.e.e.e.e.e.e.s.s.s.s.e.e.e.e.e.s.s.s.s.s.s.s.s.s.s.e.e.e.s.s.s.s.s.s.s.e.e.e.e.s.s.s.s.s.e.s.e.s.s.s.s.s.e.s.e.s.s.s.:.u M.s.e.s.s.s.e.s.s.s.s.s.s.s.s.s.s.s.s.e.e.e.e.e.e.e.s.s.s.s.s.s.s.s.s.s.e.e.e.e.s.e.e.e.e.s.s.s.s.s.s.s.s.s.s.s.s.e.e.e.e.e.e.e.s.s.s.s.s.s.s.s.s.s.e.s.s.s.<.v g.s.e.e.s.e.e.e.s.s.s.s.s.s.s.s.e.s.s.s.e.e.e.e.s.s.s.s.s.s.s.s.e.e.e.e.e.e.s.s.s.s.s.s.s.s.s.s.s.s.s.s.s.s.s.s.s.e.s.s.s.s.s.s.s.s.s.s.s.s.s.s.s.e.s.s.s.s...S G.s.e.g.s.e.s.e.e.e.e.s.s.s.e.e.s.s.s.s.s.s.s.s.e.e.s.s.s.s.s.s.e.s.s.s.s.s.s.e.e.e.e.e.e.e.e.e.s.s.s.s.s.s.s.s.e.e.e.e.s.s.s.s.s.s.s.s.s.s.s.s.s.g.e.s.s.s...- ",
"G.M.s.s.s.e.e.e.s.s.s.s.s.e.e.e.e.e.e.e.e.e.e.e.s.e.e.e.e.e.s.s.s.s.s.s.s.e.e.e.e.e.e.e.e.e.s.s.s.s.s.s.s.s.e.e.s.s.s.s.s.s.s.s.s.e.e.e.e.e.e.e.s.e.g.s.s.s.g.S :.M.<.s.<.e.e.e.e.e.e.e.e.e.e.e.<.<.e.e.e.e.e.e.e.e.e.e.e.e.e.e.e.e.e.e.e.e.e.e.e.e.e.e.e.e.e.e.e.e.e.e.e.e.e.e.e.e.e.e.e.e.e.e.<.<.e.e.e.e.e.e.s.<.e.:.:.:.<.p <.M.e.e.s.e.s.s.e.e.s.s.s.s.s.e.e.e.e.s.s.s.s.e.e.s.s.s.s.s.e.e.s.s.e.s.s.s.s.s.s.s.s.s.s.s.s.s.e.e.s.s.s.s.s.s.s.s.s.e.e.e.e.e.s.e.e.s.s.s.s.e.s.e.g.s.s.s.s.v :.s.s.e.s.s.e.s.s.s.s.e.s.s.e.e.e.e.e.s.e.e.e.e.s.s.s.s.s.s.s.s.s.s.s.e.e.e.e.e.e.e.e.s.s.s.s.s.s.e.e.e.e.s.s.s.s.e.e.e.e.s.s.s.s.s.s.s.s.s.s.s.s.s.e.s.s.g.<.v M.g.s.s.e.s.s.e.s.s.s.s.s.s.s.s.e.e.e.e.e.e.e.e.s.s.s.s.s.s.s.s.e.e.e.s.s.s.s.s.s.s.s.s.e.e.e.e.s.s.s.s.e.e.e.e.e.e.e.s.s.s.s.s.e.e.e.s.s.s.s.s.e.s.s.s.e.s.:.u M.s.s.s.s.s.e.s.s.s.s.s.s.s.s.s.s.s.s.e.e.e.e.e.e.e.s.s.s.s.s.s.s.s.s.s.s.e.e.e.s.e.e.e.e.s.s.s.s.s.s.s.s.s.s.s.s.s.e.e.e.e.e.s.s.s.s.s.s.s.s.s.s.s.e.s.s.s.<.v g.s.e.s.s.e.e.e.s.s.s.s.s.s.s.s.e.e.s.s.s.e.e.e.s.s.s.s.s.s.s.s.s.s.s.s.s.s.s.s.s.s.s.s.s.s.s.s.s.s.s.s.s.s.s.s.s.s.s.s.s.s.e.e.s.s.s.s.s.s.s.s.s.e.s.s.s.s...V G.s.e.g.s.e.s.e.e.e.e.s.s.s.s.s.s.s.s.s.s.s.s.s.e.e.e.e.s.s.s.s.e.s.s.s.s.s.s.e.e.e.e.e.s.s.s.s.s.s.s.s.s.s.s.s.s.s.s.e.s.s.s.s.e.e.e.e.s.s.s.s.s.g.s.s.s.g...- ",
"G.M.s.s.s.s.e.s.s.s.s.s.e.e.e.e.e.e.e.e.e.e.e.e.s.s.e.e.e.e.s.s.s.s.s.s.e.e.e.e.e.e.e.e.s.s.s.g.s.s.s.s.e.e.e.e.s.s.s.s.s.s.s.s.s.s.s.e.e.e.s.s.s.e.g.s.s.s.g.S :.M.<.s.<.e.e.e.e.e.e.e.e.e.e.e.<.<.e.e.e.e.e.e.e.e.e.e.e.e.e.e.e.e.e.e.e.e.e.e.e.e.e.e.e.e.<.<.e.e.e.e.e.e.e.e.<.<.e.e.e.e.e.e.<.e.e.e.e.e.e.e.g.e.s.<.<.<.<.p e.g.e.e.s.e.s.s.e.s.s.s.s.s.s.s.e.e.e.s.s.s.s.s.e.s.s.s.s.s.e.e.e.e.e.s.s.s.s.s.s.s.s.s.s.s.s.s.s.s.s.s.s.s.s.s.s.s.s.e.e.e.e.e.s.s.s.s.s.s.s.s.s.e.g.s.s.s.e.v <.s.s.e.s.s.e.s.s.s.s.s.s.s.e.e.e.e.s.s.e.e.s.s.s.s.s.s.s.s.s.s.s.s.s.s.s.s.s.s.e.e.e.e.s.s.s.s.s.e.e.e.e.s.s.s.s.e.e.e.s.s.s.s.s.s.s.s.s.s.s.s.s.s.e.s.s.g.<.v M.g.s.s.s.s.s.e.s.s.s.s.s.s.s.s.e.e.e.e.e.s.s.s.s.s.s.s.s.s.s.s.e.e.s.s.s.s.s.s.s.s.s.e.e.e.e.e.s.s.s.s.s.s.e.e.s.s.s.s.s.s.e.e.e.e.e.e.e.s.s.s.e.s.s.s.e.s.:.u M.s.s.s.s.s.e.s.s.s.s.s.e.e.e.e.s.s.e.e.e.e.e.e.e.e.s.s.s.s.s.s.s.s.s.e.s.e.e.e.s.e.e.e.e.s.s.s.s.s.s.s.s.s.s.s.s.s.e.e.e.e.s.s.s.s.s.s.s.s.s.s.s.s.e.s.s.s.<.p g.s.e.s.s.s.e.s.s.s.s.s.s.s.s.s.s.s.s.s.s.s.e.e.s.s.s.s.s.s.s.s.s.s.s.s.s.s.s.s.e.s.e.e.e.e.s.s.s.s.s.s.s.s.s.e.s.s.s.e.e.e.e.e.s.s.s.s.s.s.s.s.s.e.s.s.s.s...V G.s.e.g.s.e.s.e.e.e.e.s.s.s.s.s.s.s.s.s.s.s.s.s.e.e.e.s.s.s.s.s.s.s.s.s.s.s.s.s.e.e.e.e.s.s.s.s.s.s.s.s.s.s.s.s.s.s.s.e.e.e.e.e.e.e.e.e.e.e.s.e.s.g.s.s.s.g...: ",
"G.M.s.s.s.s.s.s.s.s.s.s.e.e.e.e.e.s.s.s.s.s.s.s.s.s.s.e.e.s.s.s.s.s.s.s.e.e.e.e.e.s.s.e.s.s.s.g.s.s.s.e.e.e.e.e.s.s.s.s.s.s.s.s.s.s.e.s.e.s.s.s.s.e.s.s.s.s.g.S :.M.<.s.<.e.e.e.e.e.e.e.e.e.e.e.<.<.e.e.e.e.e.e.e.e.e.e.e.e.e.e.e.e.e.e.e.e.e.e.e.e.e.e.e.<.e.<.e.e.e.e.e.e.e.<.e.e.e.e.e.e.e.e.e.e.e.e.e.e.e.e.s.e.s.e.e.<.<.u e.M.e.e.s.e.s.s.s.s.s.s.s.s.s.s.s.e.s.s.s.s.s.e.e.e.s.s.s.s.e.e.e.e.e.s.s.s.s.s.s.s.s.s.s.s.s.s.s.s.s.s.s.s.s.s.e.e.e.e.s.s.e.e.s.s.s.s.s.s.s.s.s.e.s.s.s.s.e.v :.s.s.e.s.s.e.s.s.s.s.e.e.e.e.e.s.s.e.e.s.s.s.s.s.s.s.s.s.s.s.s.s.s.s.s.s.s.s.s.e.e.s.s.s.s.s.s.s.e.e.e.s.s.s.s.s.e.e.e.s.s.s.s.s.s.s.s.s.s.s.s.s.s.e.s.e.s.<.v M.g.s.s.e.s.e.e.s.s.s.s.s.s.s.s.e.e.s.s.s.s.s.s.s.s.s.e.e.e.s.s.e.e.e.s.s.s.s.e.s.s.s.s.s.s.e.e.e.e.s.s.s.s.s.s.s.s.s.s.s.e.e.e.<.e.e.e.e.s.s.s.e.s.e.s.e.s.%.u M.s.s.s.s.s.e.s.s.s.s.s.e.e.e.e.s.s.e.e.e.e.e.e.e.e.s.s.s.s.s.s.s.s.e.e.s.s.s.s.s.s.e.e.e.e.e.e.s.s.s.s.s.s.s.s.s.s.s.e.s.s.s.s.s.s.s.s.s.s.s.s.s.s.e.s.s.s.:.p g.e.e.s.s.s.s.s.e.e.s.s.s.s.s.s.s.s.s.s.e.e.e.e.s.s.s.s.s.s.s.s.s.s.s.s.s.s.s.s.e.e.e.e.e.e.e.s.s.s.s.s.s.e.e.e.s.s.e.e.e.e.e.e.s.s.s.s.s.s.s.s.s.e.s.s.s.s...S Z.s.e.g.s.e.s.e.e.e.e.s.s.s.s.s.s.s.s.s.s.s.s.s.e.s.s.s.s.s.s.s.s.s.s.s.s.s.s.s.e.e.e.e.s.s.s.s.s.s.s.s.s.s.s.s.s.s.s.s.e.e.e.e.e.e.e.e.e.e.e.s.s.s.s.e.s.g...: ",
"G.M.s.s.s.s.s.s.s.s.s.s.e.e.e.e.s.s.s.s.s.s.s.s.s.s.s.e.e.e.s.s.e.e.e.e.e.e.e.e.e.e.e.e.e.e.s.s.s.s.s.e.e.e.e.e.s.s.s.s.s.s.s.s.s.s.s.s.s.s.s.s.g.e.g.s.s.s.g.S :.M.<.s.<.e.e.e.e.e.e.e.e.e.e.e.e.e.e.e.e.e.e.e.e.e.e.e.e.e.e.e.e.e.e.e.e.e.e.e.e.e.e.e.e.e.<.<.e.e.e.e.e.e.<.<.e.e.e.e.e.e.e.e.e.e.e.e.e.e.e.e.e.<.s.e.e.<.:.e <.M.e.e.s.e.s.e.s.s.s.s.s.s.s.s.s.s.s.s.s.s.e.e.e.e.s.s.s.s.s.e.e.e.e.s.s.s.s.s.s.s.s.s.s.s.s.s.s.s.s.s.s.s.s.s.e.e.e.e.s.s.s.e.s.s.s.s.s.s.e.e.s.e.g.s.s.s.e.v :.s.s.e.s.s.e.s.s.s.s.e.s.s.e.e.s.s.e.s.s.s.s.s.s.s.s.s.s.s.s.s.s.s.s.s.s.s.s.s.e.e.e.s.s.s.e.e.s.e.e.e.e.s.s.s.s.e.e.s.s.s.s.e.s.s.s.s.s.s.s.s.s.s.e.e.e.s.<.v g.g.s.e.e.s.e.e.s.s.s.s.s.s.s.s.s.s.s.s.s.s.s.s.s.s.s.s.e.e.e.e.e.e.s.s.e.e.e.e.e.e.e.e.s.s.e.e.e.e.s.s.s.s.s.s.s.s.s.s.s.e.e.e.e.e.e.e.s.s.s.s.s.s.e.s.e.e.:.p M.s.s.s.s.s.e.s.s.s.s.s.e.e.e.e.e.e.e.e.e.e.e.s.e.e.s.s.s.s.s.s.s.e.e.e.s.s.s.s.s.s.s.s.e.e.e.e.s.s.s.s.s.s.s.s.s.s.s.e.s.s.e.s.s.s.s.s.s.s.s.s.s.s.e.s.s.s.:.p s.e.e.s.s.s.s.s.e.e.s.s.s.s.s.s.s.s.s.s.s.e.e.e.s.s.s.s.s.s.s.s.s.s.s.s.e.s.s.s.e.e.e.e.e.e.e.s.s.s.s.s.e.e.e.e.s.s.e.e.e.e.e.s.s.s.s.s.s.s.s.s.s.e.s.s.s.s...S G.s.e.g.s.e.s.e.e.e.s.s.s.s.s.s.s.s.s.s.s.s.s.s.s.s.s.s.s.s.s.s.s.s.s.e.s.s.s.s.e.e.e.s.s.s.s.s.s.s.s.s.s.s.s.s.s.s.s.s.e.e.e.e.s.e.e.e.s.s.s.s.e.s.e.s.s.g...: ",
"G.g.s.s.s.s.e.s.e.s.s.s.e.e.e.e.s.s.s.s.s.s.s.s.s.s.e.e.e.e.e.e.e.e.e.e.e.e.e.e.e.e.e.e.e.e.s.s.s.s.s.e.e.e.e.e.s.s.s.s.s.s.s.s.e.e.e.e.s.s.s.s.g.e.g.s.s.s.g.S :.M.<.s.<.e.e.e.e.e.e.e.e.e.e.e.e.e.e.e.e.e.e.e.e.e.e.e.e.e.e.e.e.e.e.e.e.e.e.e.e.e.e.e.e.e.e.e.e.e.e.<.<.<.<.<.e.e.e.e.e.e.e.e.e.e.e.e.e.e.e.<.e.<.s.e.e.<.:.e <.g.e.e.s.e.s.e.s.s.s.s.s.s.s.s.s.s.s.s.s.s.e.e.e.e.s.s.s.s.s.e.s.s.s.s.s.s.s.s.s.s.s.s.s.s.s.s.s.s.s.s.s.s.s.s.e.e.s.s.s.s.e.e.s.s.e.e.s.e.e.e.s.e.s.s.s.s.e.v :.s.s.e.s.s.e.s.s.s.s.e.s.s.s.e.s.e.s.s.s.s.s.s.s.s.s.s.s.s.s.s.s.s.s.s.s.s.s.s.e.e.e.e.s.s.s.e.s.s.e.e.e.s.s.s.s.e.s.s.s.s.s.e.s.s.s.s.s.s.s.s.s.s.e.e.<.s.<.v g.g.s.e.e.e.e.s.s.e.e.e.s.s.s.e.s.s.s.s.s.s.s.s.s.s.s.s.s.e.e.e.e.s.s.s.s.s.s.e.e.e.e.e.s.s.s.s.e.e.e.s.s.s.e.e.s.e.s.s.s.e.e.e.e.e.e.s.s.s.s.s.s.s.e.s.e.s.:.p M.g.s.s.s.s.e.s.s.s.s.s.e.e.e.e.e.e.e.e.e.e.s.s.s.s.s.s.s.s.s.s.s.s.e.e.e.e.s.s.s.s.s.s.s.e.e.e.s.s.s.s.s.s.s.s.s.s.s.e.e.e.s.s.s.s.s.s.s.s.s.s.e.s.e.s.s.s.:.v s.e.e.e.s.e.e.s.e.e.s.s.s.s.s.s.s.s.s.s.s.s.e.e.s.s.s.s.s.s.s.s.e.e.e.e.e.e.s.s.s.s.e.e.e.e.e.e.s.s.s.s.s.s.e.e.s.s.e.e.e.e.s.s.s.s.s.s.s.s.s.s.s.e.s.s.s.s...S Z.s.e.s.s.e.s.e.e.s.s.s.s.s.e.e.s.s.s.s.s.s.s.s.s.s.s.s.s.s.s.s.s.s.s.s.s.s.s.s.s.s.s.s.s.s.s.s.s.s.s.s.s.s.s.s.e.e.s.e.e.s.s.s.s.s.s.s.s.s.s.s.e.s.e.s.s.g.%.: ",
"Z.g.e.e.s.e.e.e.e.e.e.e.e.s.s.s.e.e.s.s.s.s.e.e.e.e.e.e.<.<.<.<.<.e.e.e.e.e.e.e.s.s.s.s.s.s.s.s.s.s.s.e.e.e.s.s.s.s.s.s.s.s.s.s.e.e.e.e.e.s.s.s.g.e.g.s.s.s.g.S :.M.<.s.<.e.e.e.e.e.e.e.e.e.e.e.e.s.e.e.e.e.e.e.e.e.e.e.e.e.e.e.<.<.<.e.e.e.<.<.e.e.e.e.e.e.e.e.e.e.e.<.<.<.<.<.e.e.e.e.e.e.e.e.e.e.e.e.e.e.<.<.e.<.s.e.e.<.<.u <.g.e.s.s.e.s.e.s.s.s.s.s.s.s.s.s.s.s.s.s.e.e.e.e.e.s.s.s.s.e.e.s.s.s.s.s.s.s.s.s.s.s.s.s.s.s.s.s.s.s.s.s.s.s.s.e.e.s.s.s.s.e.e.s.e.e.e.s.e.e.e.s.e.s.s.s.s.s.v :.s.s.e.s.s.e.s.s.s.s.e.e.e.s.s.s.s.s.s.s.s.s.s.s.s.s.s.s.s.s.s.e.e.e.e.s.e.e.e.e.e.e.e.s.s.e.e.s.s.e.e.e.s.s.s.s.e.s.s.s.s.s.e.s.s.s.s.s.s.s.s.s.s.<.e.<.s.<.v g.s.s.e.e.s.s.s.e.e.e.e.e.e.e.e.s.s.s.s.s.e.e.e.e.s.s.s.s.e.e.<.s.s.s.s.s.s.s.s.e.e.e.e.s.s.s.s.s.e.e.s.e.e.e.e.s.e.s.s.s.e.e.e.e.s.s.s.s.s.s.s.s.s.e.s.e.s.:.p M.g.s.s.s.s.e.s.s.s.s.s.e.e.e.e.e.e.e.e.e.e.s.s.s.s.s.s.s.s.s.s.s.s.e.e.e.s.s.s.s.s.s.s.s.e.e.e.s.s.s.s.s.s.s.s.s.s.s.s.e.e.s.s.s.s.s.s.s.s.s.s.e.s.e.s.s.s.<.v s.e.<.e.s.e.e.s.e.e.s.s.s.s.s.s.s.s.s.s.s.s.s.e.s.s.s.s.s.s.s.s.e.e.e.e.e.e.s.s.e.e.e.e.e.e.e.e.s.s.s.s.s.e.e.e.s.e.e.e.e.e.s.s.s.s.s.s.s.s.s.s.s.e.s.s.s.s...S Z.s.e.s.s.e.s.e.e.e.s.s.s.e.e.e.s.s.s.s.s.s.s.s.s.s.s.s.s.s.s.s.s.s.e.s.s.s.s.s.s.s.s.s.s.e.e.e.s.s.s.s.s.s.s.s.e.e.e.e.e.s.s.s.s.s.s.s.s.e.e.s.e.s.e.s.s.g.%.: ",
"G.M.s.s.s.s.e.e.s.s.s.s.s.e.e.e.e.e.s.s.s.s.s.e.e.e.e.s.s.s.s.e.e.s.s.s.s.s.s.s.s.s.s.s.s.s.s.s.e.s.s.s.s.s.s.s.s.s.s.s.s.s.s.s.s.e.e.e.e.s.s.s.s.e.e.s.s.e.g.V :.M.<.s.<.s.e.e.e.e.e.e.e.e.e.e.<.e.e.e.e.<.<.<.<.<.e.e.e.e.e.e.<.e.e.e.e.e.e.e.e.e.e.e.e.e.e.e.<.<.<.e.e.e.e.e.e.e.e.e.e.e.e.e.e.e.e.e.e.e.e.<.e.<.s.<.e.e.<.u <.M.s.s.s.e.s.s.s.s.s.s.s.s.s.g.s.e.e.e.e.e.e.e.s.s.s.s.s.s.s.s.s.s.s.s.s.s.s.s.s.s.s.s.s.s.s.s.s.s.s.s.e.s.s.s.e.e.e.e.e.e.e.e.s.s.s.s.s.e.e.e.s.e.s.e.s.e.e.p :.g.s.s.s.e.s.e.<.e.e.e.e.s.s.s.s.s.e.e.e.s.s.s.s.s.s.s.s.s.s.s.s.s.s.s.e.e.e.e.e.e.e.s.s.s.s.s.s.s.e.e.e.e.e.e.e.e.s.s.s.s.s.s.e.e.e.e.e.e.e.e.s.s.e.s.e.g.<.v g.s.s.s.s.s.s.s.s.s.s.s.e.e.s.s.s.s.s.s.e.s.s.s.e.e.s.s.s.s.e.e.s.s.e.e.e.s.s.s.s.s.s.s.s.s.s.s.e.s.s.s.s.s.s.s.s.s.s.s.s.s.s.s.s.s.s.s.s.s.e.e.s.s.e.g.s.s.%.p g.s.e.s.s.s.e.s.s.s.e.e.e.s.s.s.e.s.e.e.e.e.s.s.s.s.s.s.s.s.e.e.s.s.e.s.s.s.s.s.e.e.e.e.e.s.s.s.e.e.s.s.e.s.s.s.s.s.s.s.s.s.s.s.s.s.s.s.s.s.s.s.e.s.e.s.e.s.<.v s.e.<.e.s.s.e.s.e.e.e.e.e.s.s.s.e.e.e.e.e.e.e.s.s.s.s.s.s.s.s.s.e.e.e.e.s.s.e.e.e.e.e.e.e.s.s.s.s.s.s.s.s.s.e.e.s.e.e.e.s.s.s.s.s.s.s.s.s.s.s.s.e.e.e.e.s.s...V Z.s.e.s.e.s.s.s.s.s.s.s.s.s.e.e.s.s.s.s.s.s.e.s.s.s.s.s.s.e.e.e.s.s.s.s.s.s.s.s.s.s.s.s.s.e.e.e.s.s.s.s.s.s.s.e.s.s.s.s.s.s.e.e.s.s.s.s.s.s.s.s.s.s.e.e.e.g...- ",
"Z.g.s.s.s.s.e.e.s.s.s.s.s.e.e.e.s.s.e.e.s.e.e.e.e.e.e.s.s.s.s.s.s.s.s.s.s.s.s.s.s.s.s.s.s.s.s.s.e.e.e.e.s.s.s.s.s.s.s.s.s.s.s.s.s.e.e.e.e.s.s.s.e.e.e.e.s.e.g.V :.g.<.s.<.s.e.e.e.e.e.e.e.e.e.e.e.e.e.e.e.<.<.<.<.e.e.e.e.e.e.e.e.e.e.e.e.e.e.e.e.e.e.e.e.e.e.e.<.<.e.e.e.e.e.e.e.e.e.e.e.e.e.e.e.e.e.e.e.e.e.e.e.<.s.<.e.e.<.u <.M.s.s.s.<.s.s.s.s.e.s.s.s.s.s.s.s.e.e.e.e.e.e.s.s.s.s.s.s.s.s.s.s.s.s.s.s.s.s.s.s.s.s.s.s.s.s.s.s.s.e.e.e.s.s.s.s.e.e.e.e.e.e.s.s.s.s.s.e.e.e.g.e.s.e.s.s.e.p :.g.e.s.s.e.s.e.<.e.e.e.e.e.e.e.s.s.e.e.e.s.s.s.s.s.s.s.s.s.s.s.s.s.s.s.e.e.e.s.e.e.e.s.s.s.s.s.s.e.e.e.e.s.e.e.e.e.s.s.s.s.s.s.e.e.e.s.e.e.e.s.s.s.e.s.s.g.<.v g.s.s.s.s.s.s.s.s.s.s.s.e.e.s.s.s.s.s.e.e.e.s.s.e.e.s.s.s.s.e.e.s.s.s.e.e.s.s.s.s.s.s.s.s.s.s.s.s.s.s.s.s.s.s.s.s.s.s.s.s.s.s.s.s.s.s.s.s.s.e.e.s.s.e.g.s.s.:.p g.s.e.s.s.s.e.s.s.s.e.e.e.e.s.s.e.e.e.e.e.e.s.s.s.s.s.s.s.e.e.e.s.s.e.s.s.s.s.s.e.e.e.e.s.s.s.s.e.e.s.s.e.s.s.s.s.s.s.s.s.s.s.s.s.s.s.s.s.s.s.s.e.s.e.s.e.s.<.v s.e.e.s.s.s.s.s.e.e.e.e.s.s.s.s.e.e.e.e.e.e.e.e.s.s.s.s.s.s.s.s.e.e.e.e.s.s.e.e.e.e.e.e.e.s.s.s.s.s.s.s.s.s.e.e.s.e.e.e.s.s.s.s.s.s.s.s.s.s.s.s.e.e.e.s.s.s...V Z.s.e.s.e.s.s.s.s.s.s.s.s.e.e.e.s.s.e.s.s.e.s.s.s.s.s.s.s.e.e.e.s.s.s.s.s.s.s.s.s.s.s.s.s.e.e.e.s.s.s.s.s.s.e.e.s.s.s.s.s.s.e.e.s.s.s.s.s.s.s.s.s.s.e.s.s.g...- ",
"G.g.e.e.s.e.e.s.s.s.s.s.e.s.s.e.s.s.e.e.e.e.e.e.e.e.e.e.s.e.s.e.s.s.s.s.s.s.s.s.s.s.s.s.s.s.s.s.e.e.e.e.e.e.s.s.s.s.s.s.s.s.s.s.s.e.e.e.e.s.s.e.e.e.e.e.e.<.g.V %.g.<.s.<.s.e.e.e.e.e.e.e.e.e.e.e.e.e.e.e.e.<.<.<.<.e.e.e.e.e.e.e.e.e.e.e.e.e.e.e.e.e.e.e.e.e.e.<.<.e.e.e.e.e.e.e.e.e.e.e.e.e.e.e.e.e.e.e.e.e.e.e.<.s.<.e.e.<.u e.M.e.e.e.<.e.e.s.s.e.e.e.s.s.s.s.s.s.s.e.e.e.e.s.s.s.s.s.s.s.s.s.s.s.s.s.s.s.s.s.s.s.s.s.s.s.s.s.s.s.e.s.s.e.s.s.s.s.s.s.s.s.s.s.s.s.s.s.s.s.s.g.e.s.s.s.s.s.v :.g.e.s.s.e.e.e.e.e.e.e.e.e.e.e.s.s.e.e.e.s.s.s.s.s.s.s.s.s.s.s.s.e.s.s.e.s.s.s.e.e.e.s.s.s.s.s.e.e.e.e.s.s.s.e.e.e.s.s.s.s.s.s.e.e.s.s.s.s.s.s.s.s.e.s.s.g.<.V g.g.s.e.s.s.s.s.s.s.e.e.e.e.s.s.s.s.s.e.e.e.e.e.s.e.s.s.e.e.e.e.s.s.e.e.e.e.s.s.s.s.s.s.s.s.s.s.s.s.s.s.s.s.s.s.s.s.s.s.s.s.s.s.s.s.s.s.s.s.e.e.s.s.e.g.s.s.%.p M.s.e.s.s.s.s.s.s.s.e.e.e.s.s.s.e.e.e.e.e.e.s.s.s.s.s.e.e.e.e.<.e.e.s.s.s.s.s.s.s.s.s.s.s.s.s.s.s.e.s.s.e.s.s.s.s.s.s.s.s.s.s.s.s.s.s.s.s.s.s.s.e.s.e.s.s.s.:.p g.s.e.s.s.s.s.s.e.e.s.s.s.s.s.s.s.s.e.e.e.e.e.s.s.s.s.s.s.s.s.s.e.e.e.e.s.s.s.s.s.s.e.s.s.s.s.s.s.s.s.s.s.s.e.e.e.e.e.e.s.s.s.s.s.s.s.s.s.s.s.s.e.e.s.s.s.s...V Z.s.e.s.e.s.g.s.e.s.s.s.s.e.e.e.s.s.e.e.e.e.s.s.s.s.s.s.s.e.e.e.s.s.s.s.e.e.e.e.s.s.s.s.s.s.e.e.s.s.s.s.s.e.e.e.s.s.s.s.s.e.e.e.s.s.s.s.s.s.s.s.e.s.e.s.s.g...- ",
"G.g.e.e.s.e.e.s.s.s.s.s.e.s.s.e.s.s.s.e.e.e.e.e.e.e.e.s.s.s.e.e.s.s.s.s.s.s.s.s.s.s.s.s.s.s.s.s.e.e.e.e.e.e.e.s.s.s.s.s.s.s.s.s.s.e.e.e.e.s.s.e.s.e.e.e.s.<.g.V %.g.<.s.<.s.e.e.e.e.e.e.e.e.e.e.e.e.e.e.e.e.e.e.<.<.e.e.e.e.e.e.<.e.e.e.e.e.e.e.e.e.e.e.e.e.e.e.e.e.e.e.e.s.e.e.e.e.e.e.e.e.e.e.e.e.e.<.<.e.e.e.e.<.s.<.e.e.<.u e.M.e.<.e.<.e.e.e.e.e.e.e.e.s.s.s.s.s.s.e.e.s.s.s.s.s.s.s.s.s.s.s.s.s.s.s.s.s.s.s.s.s.s.e.e.e.e.s.s.s.e.s.e.e.e.s.s.s.s.s.s.s.s.s.s.s.s.s.s.s.s.g.e.g.s.s.s.e.v :.g.e.s.s.e.e.e.e.s.s.s.s.s.e.e.s.s.e.e.e.s.s.s.s.s.s.s.s.s.s.s.e.e.e.e.e.s.s.s.e.e.e.s.s.s.s.s.e.e.e.e.s.s.s.s.e.s.s.s.s.e.s.e.s.s.s.s.s.s.s.s.s.s.e.s.s.g.e.V g.g.s.s.s.s.e.e.s.s.e.e.e.e.s.s.s.e.e.e.e.e.e.s.s.s.s.e.e.s.s.s.s.s.e.e.e.e.s.s.s.s.s.s.s.s.s.s.s.s.s.s.s.s.s.s.s.s.s.s.s.s.s.s.s.s.s.s.s.s.e.e.s.s.e.g.s.s.%.p M.g.s.s.s.s.s.s.s.s.e.e.e.s.s.s.s.e.e.e.e.s.s.s.s.s.e.e.e.e.<.<.s.s.s.s.s.s.s.s.s.s.s.s.s.s.s.s.s.e.e.e.e.s.s.s.s.s.s.s.s.s.s.s.s.s.s.s.s.s.s.s.e.s.e.s.e.s.:.v g.s.e.s.s.s.e.s.e.e.s.s.s.s.s.s.s.s.s.e.e.e.e.s.s.s.s.s.s.s.s.s.e.e.s.e.s.s.s.s.s.s.s.s.s.s.s.s.s.s.s.s.s.s.e.e.s.e.e.e.s.s.s.s.s.s.s.s.s.s.s.s.e.e.s.s.s.s...V Z.s.e.s.s.s.s.s.e.e.s.s.s.e.e.e.s.e.e.e.e.e.e.s.s.s.s.s.s.e.e.e.e.e.e.e.e.e.e.e.s.s.s.s.s.s.s.s.s.s.s.s.e.e.e.e.s.s.s.s.s.e.e.e.s.s.s.s.s.s.s.s.e.s.e.s.s.g...- ",
"G.g.e.e.s.s.s.s.s.s.s.s.s.s.e.e.s.s.e.e.e.s.s.s.e.e.e.s.s.s.s.e.s.s.s.s.s.s.s.s.s.s.s.s.s.s.s.s.e.e.e.s.s.s.s.s.s.s.s.s.s.s.s.s.s.s.e.e.e.s.s.e.s.s.s.s.s.e.g.V :.M.<.s.<.e.e.e.e.e.e.e.e.e.e.e.e.e.e.e.e.e.e.e.<.e.e.e.e.e.e.e.e.e.e.e.e.e.e.e.e.e.e.e.e.e.e.e.e.e.e.e.e.e.e.e.e.e.e.e.e.e.e.e.e.e.e.<.<.e.e.e.e.e.s.e.e.e.e.u e.M.<.<.e.<.e.e.e.e.e.e.e.e.s.s.s.e.e.s.e.s.s.s.s.s.s.s.s.s.s.s.s.s.s.s.s.s.s.s.s.s.s.e.e.e.e.e.e.s.s.s.s.s.e.e.e.e.s.s.s.s.s.s.s.s.s.s.s.s.s.s.g.e.g.s.s.s.e.v :.g.e.e.s.e.s.e.s.s.s.s.s.s.s.e.s.s.s.e.e.s.s.s.s.s.s.s.s.s.s.s.e.e.e.e.e.s.s.s.e.e.e.s.s.s.e.s.e.e.e.e.s.s.s.s.e.s.s.s.s.e.e.e.s.s.s.s.s.s.s.s.s.s.e.s.s.g.e.V g.g.s.s.e.e.e.e.s.s.e.e.s.s.s.s.e.e.e.e.e.s.s.s.s.s.s.e.e.s.s.s.s.s.e.e.e.e.e.s.s.s.s.s.s.s.s.s.s.s.s.e.e.s.s.s.s.s.s.s.s.s.s.s.s.s.s.s.s.s.s.s.s.s.e.g.s.s.:.p M.g.s.s.s.s.e.s.s.s.e.e.e.e.s.s.s.s.s.s.s.s.s.s.s.s.e.e.e.e.e.e.s.s.s.s.s.s.s.s.s.s.s.s.s.s.s.s.s.s.e.e.s.s.s.s.s.s.s.s.s.s.s.s.s.s.s.s.s.s.s.s.s.s.e.s.e.s.<.v s.e.e.s.s.e.e.e.s.s.s.s.e.s.s.s.s.s.e.e.e.e.s.s.s.s.s.s.s.s.s.s.e.e.e.e.s.s.s.s.s.s.s.s.s.s.s.s.s.s.s.s.s.s.s.s.s.s.s.e.s.s.s.s.s.s.s.s.s.s.s.s.s.e.s.s.s.s.%.S Z.s.e.s.s.s.s.e.e.e.s.s.s.s.e.e.s.s.e.e.e.e.s.s.s.s.s.s.s.s.s.s.e.e.e.e.e.e.e.e.s.s.s.s.s.s.s.s.s.s.e.e.e.e.e.e.e.e.e.e.s.e.e.e.s.s.s.s.s.s.s.s.e.s.e.e.s.g...: ",
"G.M.s.s.s.s.s.s.e.e.s.s.s.s.e.s.s.s.s.s.s.s.s.s.e.e.s.s.s.s.s.s.s.s.s.s.s.s.s.s.s.s.s.s.s.s.s.s.s.s.s.s.s.s.s.s.s.s.s.s.s.s.s.s.s.s.e.e.s.s.s.s.s.s.s.s.s.e.M.S :.M.<.s.<.s.e.e.e.e.e.e.e.e.e.e.e.e.e.e.e.e.e.e.e.e.e.e.e.e.e.e.e.e.e.e.e.e.e.e.e.e.e.e.e.e.e.e.e.e.e.e.e.e.e.e.e.e.e.e.e.e.e.e.e.e.e.e.e.e.e.e.e.e.s.e.e.e.e.u e.M.e.<.s.<.e.e.e.e.e.e.s.s.s.s.e.e.s.s.s.s.s.s.s.s.s.s.s.s.s.s.s.s.s.s.s.s.s.s.s.s.s.e.e.e.e.e.e.e.s.s.s.s.e.e.e.e.e.e.e.e.e.e.s.s.s.s.s.s.s.s.s.e.s.e.s.e.e.v :.g.e.e.s.<.e.e.s.s.s.s.s.s.s.s.s.s.e.e.e.s.s.s.s.s.s.s.s.s.s.s.e.e.e.e.e.s.s.s.s.e.s.s.s.s.e.e.s.s.e.s.s.s.s.s.e.s.s.s.e.e.e.e.e.e.s.s.s.s.s.s.s.s.e.s.s.g.<.V g.g.s.e.e.s.e.e.s.s.e.e.e.e.s.s.e.e.e.e.e.s.s.s.s.s.s.e.e.s.s.s.s.s.e.e.e.e.s.s.s.s.s.s.s.s.s.s.s.s.e.e.e.e.s.s.s.s.s.s.s.s.s.s.s.s.s.s.s.s.s.s.s.s.e.s.s.s.:.p M.g.s.s.s.s.e.s.s.s.e.e.e.e.s.s.s.s.e.e.s.s.s.s.s.s.e.e.e.e.e.e.s.s.s.s.s.s.e.e.s.s.s.s.s.s.s.s.e.e.e.s.s.s.s.s.s.s.s.s.s.s.s.s.s.s.s.s.s.s.s.s.e.s.e.s.s.s.<.v s.e.e.s.s.e.e.e.s.s.s.s.e.s.s.s.s.s.e.e.e.e.s.s.s.s.s.s.s.s.s.s.e.e.e.s.s.s.s.s.s.s.s.s.s.s.s.s.s.s.s.s.s.s.s.s.s.s.e.e.e.s.s.e.s.s.s.s.s.s.s.s.s.e.s.s.s.s.%.S Z.s.e.s.s.s.s.e.e.e.s.s.s.s.s.e.s.s.e.e.e.e.s.s.s.s.s.s.s.s.s.s.e.e.e.e.e.e.e.e.e.e.s.s.s.s.s.s.s.s.e.e.e.e.e.e.s.s.s.s.e.e.e.e.s.s.s.s.s.s.s.s.e.s.e.e.s.g...: ",
"G.g.s.s.s.s.e.e.e.e.e.e.e.e.e.s.s.s.s.s.s.s.s.e.e.e.s.s.s.s.s.s.s.s.s.s.s.e.s.e.s.s.s.s.s.s.s.s.e.s.e.e.s.s.s.s.s.s.s.s.s.s.s.s.s.s.e.e.e.s.s.s.s.s.s.s.s.e.g.V :.M.<.s.<.s.e.e.e.e.e.e.e.e.e.e.e.e.e.e.e.e.e.e.e.e.e.e.e.e.e.<.e.e.e.e.e.e.e.e.e.e.e.e.e.e.e.e.e.e.e.e.e.e.e.e.e.e.e.e.e.e.e.e.e.e.e.e.e.e.e.e.e.<.s.<.e.e.e.u e.M.e.e.s.e.s.e.e.e.e.s.s.s.e.e.e.e.e.s.s.s.s.s.s.s.s.s.s.s.s.s.s.s.s.s.s.s.s.s.s.s.s.s.e.e.e.e.e.e.s.s.s.e.e.e.s.s.e.e.e.e.e.e.s.s.s.s.s.s.s.s.s.<.s.e.s.e.e.v :.s.e.e.s.e.e.e.e.e.e.e.s.s.s.s.e.e.e.e.e.s.s.s.s.s.s.s.s.s.s.s.s.s.s.e.e.e.s.e.s.s.s.s.s.s.s.e.s.s.e.e.s.s.s.e.s.s.s.s.e.e.e.e.e.e.e.s.s.s.e.s.s.s.e.e.s.g.<.v g.s.s.e.e.s.s.s.s.s.e.e.e.e.s.s.s.e.e.e.s.s.s.s.s.s.s.e.s.s.s.s.e.e.e.e.e.e.e.e.s.s.s.s.s.s.s.s.s.s.e.e.e.e.s.s.s.s.s.s.s.s.s.s.s.s.s.s.s.s.s.s.s.s.e.s.s.s.:.p M.g.s.s.s.s.e.s.s.s.s.e.e.s.s.s.s.s.s.e.e.s.s.s.s.s.e.e.e.e.s.s.s.s.s.s.s.e.e.e.s.s.s.s.e.s.e.e.e.e.e.s.s.s.s.s.s.s.s.s.s.s.s.s.s.s.s.s.s.s.s.s.s.s.e.s.s.s.<.v s.e.e.s.s.e.e.s.e.s.e.e.e.s.s.s.s.s.e.e.e.s.s.s.s.s.s.s.s.s.s.s.e.e.s.s.s.s.s.s.s.s.s.s.s.s.s.s.s.s.s.s.s.s.s.e.s.s.s.s.e.e.e.e.s.s.s.s.s.s.s.s.s.s.s.s.s.s.%.S M.s.s.s.s.s.s.e.e.e.e.s.s.s.s.s.s.s.s.e.e.s.s.s.s.s.s.s.s.s.s.s.e.e.e.e.e.e.e.e.e.e.e.s.s.s.s.s.s.s.s.s.e.e.e.e.s.s.s.s.s.e.e.e.s.s.s.s.s.s.s.s.e.s.e.e.s.g...: ",
"Z.g.s.s.s.e.e.e.e.e.e.e.e.e.s.e.s.s.s.s.s.e.e.e.e.e.s.s.s.s.s.s.s.s.s.s.s.e.e.e.s.s.s.s.s.s.s.s.e.e.e.e.e.s.s.s.s.s.s.s.s.s.s.s.s.s.e.e.e.s.s.s.s.e.e.s.s.e.g.V :.M.<.s.<.s.e.e.e.e.e.e.e.e.e.e.e.e.e.e.e.e.e.e.e.e.e.e.e.e.e.<.e.e.e.e.e.e.e.e.e.e.e.e.e.e.e.e.e.e.e.<.<.<.e.e.e.e.e.e.e.e.e.e.<.<.e.e.e.e.e.e.e.<.s.<.e.e.e.u e.M.e.s.g.s.s.e.e.e.s.s.s.s.e.e.e.e.e.s.s.s.s.s.s.s.s.s.s.s.s.s.s.s.s.s.s.s.s.s.s.s.s.s.e.e.e.e.e.e.s.s.s.e.e.e.s.s.s.s.s.s.s.s.s.s.s.s.s.s.e.e.s.<.s.e.s.e.e.p :.g.e.e.s.<.e.e.<.e.e.e.s.s.e.e.e.e.e.e.e.s.s.s.s.s.s.s.s.s.s.s.s.s.s.s.e.e.e.e.s.s.s.s.s.e.s.e.s.s.e.s.s.s.s.e.s.s.s.s.e.e.e.e.e.e.e.e.e.s.e.e.e.e.<.e.e.g.<.v g.s.s.e.e.s.s.s.s.s.e.e.s.s.s.s.s.e.e.e.s.s.s.s.e.e.e.e.e.s.e.e.e.e.e.e.e.e.e.e.s.s.s.s.s.s.s.s.s.s.e.e.e.e.s.s.s.s.s.s.s.s.s.s.s.s.s.s.s.s.e.e.s.s.e.g.s.s.:.p M.g.s.s.s.s.e.s.s.s.s.e.e.e.s.s.s.s.s.e.e.s.s.s.s.e.e.e.e.s.s.s.s.s.s.s.s.e.e.e.s.s.s.s.s.e.e.e.e.e.s.s.s.s.s.s.s.s.s.s.s.s.s.s.s.s.s.s.s.s.s.s.e.s.e.s.s.s.<.v s.e.e.s.s.s.s.s.e.e.e.e.e.s.s.s.s.s.e.e.s.s.s.s.s.s.s.s.s.s.s.s.e.s.s.s.s.s.s.s.s.s.s.s.s.s.s.s.s.s.s.s.s.s.e.e.s.s.s.s.e.e.e.e.s.s.s.s.s.s.s.s.s.e.s.s.s.s.%.S Z.s.s.g.s.s.s.e.e.e.e.s.s.s.s.s.s.s.e.e.e.e.s.s.e.s.s.s.s.s.s.s.e.e.s.s.e.e.e.e.e.e.e.s.s.s.s.s.s.s.s.s.e.e.e.e.s.s.s.s.s.s.e.e.s.s.s.s.s.s.s.s.e.s.e.e.s.g...: ",
"Z.g.e.s.s.s.e.<.e.e.e.e.e.e.e.e.s.s.s.s.s.e.e.e.s.s.s.s.s.s.s.s.s.s.s.s.s.s.s.s.s.s.s.s.e.e.s.e.e.e.e.e.e.e.e.s.e.e.e.e.s.s.s.s.s.s.s.e.s.s.s.s.s.e.e.<.s.s.s.S :.g.e.e.s.e.e.<.e.e.e.e.e.e.<.<.e.e.e.e.e.e.e.e.e.e.e.e.e.e.e.e.e.e.e.e.e.e.e.e.e.e.e.e.e.e.e.e.e.e.e.e.e.e.e.e.e.e.e.e.e.e.e.e.<.e.e.e.e.e.e.e.e.e.s.:.e.<.<.p <.M.e.e.s.e.s.:.s.s.s.s.s.s.s.s.s.s.s.e.e.e.e.e.e.e.e.e.e.e.e.e.e.e.e.s.s.s.s.s.s.e.e.e.e.s.e.e.s.s.e.e.e.e.e.e.s.s.s.s.s.s.e.e.s.e.s.s.s.s.e.e.s.s.e.<.<.g.e.V <.e.e.s.s.e.<.:.e.e.e.e.e.e.e.e.s.s.s.s.s.s.s.s.s.e.e.e.e.e.e.e.s.s.e.e.e.e.e.e.e.e.s.s.s.s.s.e.e.e.e.e.e.e.e.s.e.e.e.e.e.e.e.e.e.e.e.e.e.e.e.e.e.e.:.e.e.s.<.V g.g.s.s.s.g.s.e.e.e.e.e.e.e.e.e.s.s.s.s.s.s.s.s.s.s.s.e.e.s.s.s.e.e.e.e.e.e.s.s.e.e.s.e.e.e.s.s.s.s.e.e.e.e.s.s.s.s.s.s.s.s.e.e.e.e.e.e.s.s.s.e.g.s.<.s.e.e.:.p g.s.s.e.s.s.s.s.e.e.e.e.e.e.e.s.s.e.e.e.e.s.e.s.s.s.s.s.s.s.s.s.e.e.e.e.e.e.e.s.e.e.e.s.s.s.s.e.s.s.s.s.s.s.s.s.e.e.e.e.e.e.e.e.s.s.s.s.s.e.e.e.g.s.e.e.s.g...v s.e.<.e.s.s.e.s.e.e.e.e.s.s.s.s.e.s.s.e.e.e.s.s.s.e.e.e.e.e.s.s.e.e.s.s.s.s.e.e.s.e.e.e.e.s.s.s.s.e.e.e.s.e.e.e.e.e.e.e.e.e.e.e.s.s.s.s.s.s.s.s.s.s.s.e.e.s.%.V G.s.e.s.e.e.e.e.e.e.e.e.e.e.e.e.s.s.e.e.e.e.s.s.e.e.e.s.s.s.s.e.s.s.e.e.s.s.e.e.e.e.e.s.e.s.s.s.e.e.s.e.e.e.s.s.e.e.e.e.e.e.e.e.e.e.s.s.s.s.e.e.s.e.<.e.s.s...: ",
"G.M.s.s.s.s.s.e.e.e.s.s.s.s.s.s.s.s.s.s.s.s.s.s.s.s.s.s.s.s.s.s.s.s.s.s.s.s.s.s.s.s.s.s.s.s.s.s.s.s.e.s.s.s.s.s.s.s.s.s.s.s.s.s.g.s.s.s.s.s.s.s.s.s.g.e.g.s.s.S :.g.e.e.e.e.s.e.e.e.s.s.s.s.e.e.e.e.e.e.s.s.e.e.s.s.e.e.s.s.s.s.s.s.s.e.e.e.e.e.e.e.e.e.s.s.s.s.e.e.s.s.e.s.e.e.e.e.s.s.e.e.e.e.e.e.e.e.s.s.e.e.e.s.g.e.g.s.<.p <.M.e.e.s.s.g.e.e.e.e.e.e.e.e.e.s.s.s.s.s.s.e.e.s.s.s.s.s.s.s.s.e.e.e.s.s.s.s.s.s.s.s.s.s.s.s.s.s.s.s.e.s.s.s.s.s.s.s.s.s.s.s.s.s.s.s.s.s.s.s.s.e.g.s.s.e.g.<.v <.e.s.s.s.s.e.e.s.s.s.s.s.s.s.s.s.s.s.s.s.s.s.s.s.s.s.s.e.e.s.s.s.s.s.s.s.s.e.e.s.s.s.s.s.s.s.s.s.s.s.s.s.s.s.s.s.s.g.s.s.s.s.s.s.s.s.s.s.s.s.s.e.s.s.g.s.g.<.v M.g.s.s.s.s.s.s.s.s.s.s.s.s.s.s.s.s.s.s.s.s.s.s.s.s.s.s.s.s.s.s.s.s.s.s.s.s.s.s.s.s.s.e.e.e.s.s.s.s.s.e.e.s.s.s.s.s.s.s.s.s.s.s.s.s.s.s.s.s.s.s.s.s.s.g.s.s.%.p M.g.s.e.s.s.s.s.s.s.s.s.s.s.s.s.s.s.s.s.s.s.s.s.s.s.s.s.s.s.s.s.s.s.s.s.e.s.s.s.s.s.s.s.s.s.s.s.s.s.s.s.s.s.s.s.s.s.s.s.s.s.s.s.s.s.s.s.s.s.e.e.e.e.s.s.g.M.%.v g.s.e.s.s.s.s.s.s.s.s.s.s.s.s.s.s.s.s.s.s.s.s.s.s.s.s.s.s.s.g.s.s.s.s.s.s.s.s.s.s.s.s.s.s.s.s.s.s.s.s.s.s.s.s.s.s.s.s.s.s.s.s.s.s.s.s.s.s.s.s.s.s.s.g.s.s.s.%.V G.s.s.g.s.s.s.s.s.s.s.s.s.s.s.s.s.s.e.e.e.s.s.s.s.s.s.s.s.s.s.s.s.s.s.s.s.s.s.s.s.s.s.s.s.s.s.s.s.s.s.e.e.e.s.s.s.s.s.s.s.s.s.s.s.s.s.s.s.s.s.s.e.s.s.g.g.g.%.: ",
"G.M.s.e.e.e.e.s.e.e.e.s.s.s.s.e.e.e.e.e.e.e.e.e.e.e.e.e.e.e.e.e.e.e.e.e.e.e.e.e.e.e.e.e.e.e.e.e.e.e.e.e.e.e.e.s.s.s.s.s.s.s.s.s.s.e.e.e.s.s.s.e.<.e.g.<.e.s.s.V %.g.e.<.<.<.e.e.<.e.e.e.e.e.e.<.<.<.<.<.e.e.<.<.e.e.e.e.e.e.e.e.e.e.e.e.e.<.<.<.e.e.e.e.e.e.e.e.e.<.<.<.<.e.e.e.<.<.e.e.e.e.e.e.e.e.e.e.e.e.<.e.<.<.e.:.s.e.:.u <.g.e.<.e.<.s.e.e.e.e.e.e.e.e.e.e.e.e.e.e.e.e.e.e.e.e.e.e.e.e.e.e.e.e.e.s.s.e.e.s.e.e.e.e.e.e.e.e.e.e.e.e.e.e.e.e.s.s.e.e.e.e.e.e.e.e.e.e.e.e.e.<.s.s.s.e.s.<.v <.e.e.e.e.e.e.s.e.e.e.e.s.s.s.s.e.e.e.e.e.e.e.e.s.e.e.e.e.e.e.e.e.e.e.e.e.e.e.e.e.e.e.e.e.e.e.e.e.e.e.e.e.e.e.s.s.s.s.s.e.e.e.s.e.s.s.s.s.s.s.s.<.s.s.s.e.s.<.p g.s.s.e.e.e.s.s.e.e.e.e.e.e.e.e.s.s.s.s.e.e.e.e.s.s.e.e.e.e.e.e.e.e.e.s.s.s.s.s.e.e.e.e.e.e.e.e.e.e.e.e.e.e.e.e.e.e.e.e.e.e.e.e.s.s.e.e.s.s.s.s.<.s.s.s.e.e.%.u M.g.e.<.e.e.e.e.e.e.e.e.e.e.e.e.e.e.e.e.e.e.e.e.e.e.e.e.e.e.e.e.e.e.e.e.e.e.e.s.s.e.e.e.e.e.e.s.e.e.e.e.e.e.e.e.e.e.e.e.e.e.e.e.e.e.s.s.s.e.e.e.<.s.s.e.s.g...p s.e.e.s.s.e.e.e.s.s.s.s.s.s.s.s.e.s.s.e.e.e.e.e.e.e.e.e.s.s.s.s.<.e.e.e.e.e.e.e.e.e.e.e.e.e.e.e.s.e.e.e.e.e.e.e.e.e.e.e.e.e.e.e.e.e.e.e.s.s.s.s.<.s.g.s.e.s...V Z.e.e.s.s.e.e.e.s.e.s.s.e.s.s.e.e.e.e.e.e.e.e.e.e.e.e.s.s.s.e.e.e.e.e.e.e.e.e.e.e.e.e.e.e.e.e.e.e.e.e.e.e.e.e.e.e.e.e.e.e.e.e.e.e.e.e.e.e.e.e.e.e.s.s.e.e.s.' $ ",
"G.M.s.s.s.s.s.g.s.s.s.s.s.s.s.s.s.s.s.e.e.e.s.s.s.s.s.s.s.s.s.s.s.s.s.s.g.g.s.s.s.s.s.s.s.s.s.s.s.s.s.s.s.s.s.s.s.s.s.s.s.s.s.s.s.s.s.s.s.s.s.s.s.s.s.:.e.g.M.J <.M.s.e.e.<.e.s.e.e.s.s.s.e.e.e.e.e.e.e.e.e.e.e.e.e.e.e.e.e.e.e.e.e.e.e.e.e.e.e.e.e.e.e.e.e.e.e.s.s.s.e.e.s.s.e.e.e.e.e.e.e.e.e.e.e.e.e.e.e.e.e.e.<.<.:.e.e.<.p <.M.s.e.e.e.s.s.g.g.s.s.s.s.s.s.s.s.s.s.s.s.s.s.s.s.s.s.s.s.s.s.s.s.s.s.g.s.s.s.s.s.s.s.s.s.s.s.s.s.s.e.e.s.s.s.s.s.s.s.s.s.s.s.s.s.s.s.s.s.s.s.s.s.e.e.e.s.e.V e.s.g.g.s.e.s.s.s.s.s.s.s.s.s.s.s.s.s.s.s.s.s.s.s.s.s.s.s.s.s.s.s.s.e.e.e.e.e.e.s.s.s.s.s.s.s.s.s.s.s.s.s.s.s.s.s.s.g.s.s.s.s.s.s.s.s.s.s.s.s.s.s.M.g.s.e.M.s.V M.g.g.g.s.s.s.g.e.e.e.e.e.s.s.s.s.s.s.s.s.s.s.s.s.s.s.s.s.s.s.s.s.s.s.s.s.s.s.s.s.s.s.s.s.s.s.s.s.s.s.e.e.s.s.s.s.s.s.s.s.s.s.e.s.s.s.s.s.s.s.s.s.g.s.e.e.s.<.v M.g.e.e.s.s.s.s.s.s.s.s.s.s.s.s.s.s.s.s.s.s.s.s.s.s.s.s.s.s.s.s.s.s.s.s.s.s.s.s.s.s.s.s.s.s.s.s.s.s.s.s.s.s.s.s.s.s.s.s.s.s.s.s.s.s.s.g.g.s.s.s.g.M.g.e.e.M.:.v s.s.s.s.s.s.s.s.s.s.s.s.s.s.s.s.s.s.s.s.s.e.s.s.s.s.s.s.s.s.s.e.e.e.e.s.s.s.s.s.e.e.e.s.s.s.s.s.s.s.s.s.s.s.s.s.s.s.s.s.s.s.s.s.s.s.s.s.s.s.s.s.s.s.s.s.s.g.%.J G.s.s.g.s.e.e.e.s.s.s.s.s.s.s.s.s.s.s.s.s.s.s.s.s.s.s.s.s.s.s.s.s.s.s.s.e.e.s.s.s.s.s.s.s.s.s.s.s.s.s.s.s.s.s.s.s.s.s.s.s.s.s.s.s.s.s.s.s.s.s.s.s.M.s.e.e.g.%.: ",
"Z.g.s.s.s.s.e.s.e.e.e.s.s.s.e.e.e.e.e.e.e.e.e.e.s.s.s.s.s.s.s.s.s.s.s.s.s.s.s.s.e.e.e.e.s.s.s.s.s.s.s.e.e.s.s.s.s.s.s.s.s.s.e.e.s.e.e.e.s.s.e.e.e.e.e.:.e.s.s.V :.g.e.e.s.<.e.e.e.e.e.e.<.<.<.<.e.e.<.<.e.e.e.e.<.<.e.e.e.e.<.<.e.e.e.e.e.<.<.e.e.e.e.e.e.e.e.e.e.e.e.e.e.e.e.e.<.<.<.e.e.e.e.<.e.e.<.e.e.<.e.<.s.e.e.<.e.<.:.u <.g.e.s.s.e.s.e.s.s.s.s.e.e.e.e.e.e.e.e.e.e.e.e.s.s.s.s.s.s.s.s.e.e.e.e.e.e.e.e.s.s.e.s.s.e.e.e.s.s.s.s.s.s.s.s.s.s.s.s.e.e.e.e.e.s.s.e.s.e.s.s.s.e.<.e.e.g.<.v <.e.s.s.s.e.e.e.e.e.e.e.s.s.s.s.s.s.s.s.s.s.s.s.s.s.s.e.e.s.s.s.e.e.e.e.e.e.e.e.e.e.e.e.e.e.e.e.e.e.e.s.s.s.s.s.e.s.s.s.e.e.e.e.s.s.s.s.s.s.s.e.s.g.e.e.e.M.e.p g.s.s.s.s.e.e.s.e.e.e.e.e.e.e.e.e.e.e.e.e.e.e.e.s.e.e.e.e.e.e.s.e.e.e.e.e.e.e.e.s.s.s.s.s.s.s.s.e.e.e.e.e.e.e.e.s.s.s.s.s.e.e.e.e.e.e.e.e.e.e.e.s.s.e.e.<.s.:.u M.s.e.e.s.s.e.e.e.e.e.s.s.s.s.s.s.s.s.e.e.s.s.s.s.s.s.s.s.s.s.s.e.s.s.e.e.e.e.s.s.s.e.e.e.e.s.s.s.s.e.e.s.s.s.e.s.s.s.s.s.s.s.s.e.e.e.e.e.e.e.e.s.s.s.<.s.M.:.v s.e.e.s.s.e.e.s.s.s.s.s.s.s.e.e.s.s.s.s.e.e.e.e.s.s.s.s.e.e.<.<.e.e.e.e.s.s.s.s.e.e.e.e.e.s.s.s.s.s.s.s.s.s.s.s.s.e.s.s.s.s.e.e.s.s.s.s.s.s.s.s.g.e.e.e.s.s...V Z.e.e.s.s.e.e.e.s.s.s.s.s.s.s.s.e.e.s.s.s.s.e.e.e.e.e.s.s.e.e.e.e.s.e.e.e.e.e.e.s.s.s.s.s.e.e.e.s.s.s.s.s.s.s.s.e.e.e.s.e.e.e.s.s.s.s.e.e.e.s.s.e.s.e.e.s.M.%.- ",
"J.M.s.s.g.g.s.s.s.s.s.s.s.s.s.s.s.s.s.s.s.s.g.g.s.s.s.s.s.s.s.s.s.s.s.s.g.g.g.s.s.s.s.s.s.s.s.s.g.s.g.s.s.s.s.s.s.s.s.s.s.s.s.s.s.s.s.s.s.s.s.s.s.e.s.e.g.s.e.v <.g.e.s.g.e.s.s.s.s.e.e.e.e.e.e.s.s.s.s.s.s.s.s.e.e.s.s.s.s.e.e.s.s.s.s.s.e.e.s.s.e.e.e.e.e.s.e.s.e.e.e.e.e.e.s.e.e.s.s.s.e.e.e.e.e.e.e.s.s.e.e.s.e.s.s.s.<.%.u e.M.e.s.M.s.g.g.g.g.g.g.s.s.s.s.s.s.s.s.s.s.s.s.s.s.s.s.s.s.s.s.s.s.g.s.s.s.s.s.g.g.s.s.s.s.s.s.s.g.s.s.s.g.g.g.s.s.s.s.s.s.s.s.s.s.s.s.s.s.s.s.s.s.e.g.g.M.<.v <.e.e.s.s.s.s.s.s.s.s.s.s.s.s.s.s.s.s.s.s.s.s.s.s.s.s.s.s.g.g.g.s.s.s.s.s.s.s.s.s.s.s.s.s.s.s.s.s.s.s.s.s.s.s.g.s.s.s.s.s.e.s.s.s.s.s.s.s.s.s.s.s.s.s.g.g.M.<.p Z.g.s.s.g.s.e.s.s.s.s.s.s.s.s.s.s.s.s.s.s.s.s.s.s.s.s.s.s.s.s.s.s.s.s.s.s.s.s.s.s.s.s.s.s.s.s.s.s.s.s.s.s.s.s.s.g.g.g.g.g.s.s.s.s.s.s.s.s.s.s.s.s.s.s.g.s.s.%.u Z.g.e.s.g.g.s.s.s.s.s.s.s.s.g.g.s.s.s.s.s.s.s.g.g.g.g.g.g.g.g.g.s.s.s.s.s.s.s.g.g.s.s.s.s.s.s.g.s.s.s.s.s.s.s.s.s.g.g.g.s.s.s.s.s.s.s.s.s.s.s.s.g.s.g.g.g.M.%.v g.s.e.s.g.g.g.g.s.s.s.s.s.s.s.s.s.g.g.s.s.s.s.s.g.g.g.s.s.s.e.e.s.s.s.g.g.g.s.s.s.s.s.s.s.s.g.g.g.g.g.g.g.g.g.s.s.s.s.s.s.s.s.s.g.g.g.g.g.g.g.g.g.s.s.g.g.g...V Z.s.e.g.s.s.g.g.s.s.s.s.s.s.s.s.s.s.g.g.g.g.s.s.s.s.s.s.s.s.s.s.s.g.s.s.s.s.s.s.s.s.s.s.s.s.s.s.s.s.s.s.s.s.s.s.s.s.s.s.s.s.s.s.g.s.s.s.s.s.s.g.s.s.s.g.g.s.' $ ",
"J.g.:.:.<.<.<.:.:.:.:.<.<.<.<.<.<.<.:.<.<.<.<.<.<.<.<.<.<.<.<.<.:.:.:.:.<.<.<.<.<.<.:.:.<.<.<.<.<.<.<.:.<.<.<.<.<.<.<.<.<.<.<.<.<.<.<.:.<.<.<.<.<.:.<.<.e.:.<.S e.s.%.:.<.:.:.:.:.:.:.:.:.:.:.:.:.:.:.:.:.:.<.<.:.:.:.:.:.:.:.:.:.:.:.:.:.:.:.:.:.:.:.:.:.:.:.:.:.:.:.%.%.%.:.:.:.:.:.:.:.:.:.:.:.:.:.:.:.:.:.:.:.%.<.:.:...%.p e.s.%.:.e.<.<.<.<.<.<.<.<.<.<.<.:.:.:.:.:.<.:.:.:.:.:.:.:.:.:.:.<.<.<.<.<.<.<.<.<.<.<.:.<.:.:.:.:.:.:.:.:.<.<.<.:.:.<.:.:.:.:.:.<.<.<.<.<.<.<.<.:.:.:.e.<.<.:.V e.<.:.:.:.<.<.:.:.<.<.<.<.<.<.<.<.<.<.<.<.<.<.<.<.<.<.<.<.<.<.<.<.<.<.<.:.:.<.<.<.<.:.:.:.<.<.<.:.:.:.:.<.<.:.<.:.<.<.<.:.:.:.<.<.<.<.<.<.<.<.<.<.:.:.e.<.<.:.V M.e.:.:.<.:.:.:.:.:.<.<.<.<.<.<.<.<.<.<.<.<.<.<.<.<.<.<.<.<.<.<.:.:.:.<.<.:.:.<.<.<.<.<.<.<.<.<.<.<.<.<.<.<.<.<.<.<.<.<.<.<.<.<.<.<.<.<.<.<.<.<.<.:.<.s.<.:...V M.e.:.:.<.<.:.<.:.:.:.:.<.<.<.<.:.<.<.:.:.<.<.<.<.<.<.<.<.<.<.<.:.:.:.:.:.:.:.<.:.:.:.:.<.<.<.<.:.:.:.:.:.:.:.:.<.<.<.<.<.<.<.<.<.<.<.<.<.<.<.<.e.<.<.<.<.:.' V g.<.:.:.<.<.<.<.<.<.:.<.<.<.<.<.:.<.<.:.:.:.:.<.<.<.<.<.:.:.:.:.<.<.<.<.<.<.<.<.<.<.<.<.<.<.<.<.<.<.<.<.<.<.<.<.<.<.<.<.<.<.<.<.<.<.<.<.<.<.<.<.<.:.<.<.<.<...P M.<.:.<.:.<.<.<.<.<.<.<.<.<.<.<.<.<.<.<.<.<.<.<.<.<.<.<.<.<.<.<.<.<.<.<.<.<.<.<.:.:.:.<.<.<.<.<.<.<.<.<.<.<.<.<.<.<.<.<.<.<.<.<.<.<.:.:.:.:.<.<.<.<.<.e.:.%.^ : ",
"..Y v p v V v v v v v v V V v v v v v v v V V V v v v v v v v v v v v v V V V V v v v v v v v v v v v v v v v v v v v v v v v v V V v v V V V v V v V v V p J e Y Y v p V p v v v v v v v v v v v v v p v v v v v v v v v v v v v v v v v p p v v v p p p v v v v v v p p v v V v v v v v v v v v v v v v v v v V v v p v v J : P P p p V p v p v v v v v p v v p p v v v v v v v v v v v v v v v v v v v v v p v v v v v v v v v v v v v v v v v v v v v v v p v v v v v v v v p v v v u v S 1 Y J V v v V v v v v v v v v v V v v v v v v v v v v v v v v v V v v v v v v v v v v v v v v v V p v v v v v v v v v v v v v v v V V V v V v v V V v v V p v S 5 / J p v V v v V v v v V V V v v v V V V V V V V V V V V V V V V v v v v v v v v v v v v v v v v v v v V V v v v V V V V V v v v V V V V V V V V V v v S v p V e ^ S p p v p v V p v v v v v v v v v v v v v v v v v v v v v v v p v v p p p v v v v v v v v v v p v v v p v v v v v v v v v v v p p v v v v v v v p p v p v v u Y S p v V V v v v v v v v v v v v v v v v v v v V v v v v v v V v V V v v v v v v v v v v v v v v v v v v v v v v v v v v v v v v v v v v v v v V v v v p V S p ^ S v V v p v v v v v V V V V V v v v v v v v v V V V V V V V V V V v v v v v v p v v v v v v v v v v v v v v v v v v v v v v v v v v p p v v v V v v V v V V : ",
"G.Z.M.Z.G.Z.Z.Z.Z.Z.Z.Z.G.G.G.G.Z.Z.Z.Z.G.G.G.Z.Z.Z.Z.Z.Z.Z.Z.Z.G.G.G.G.G.G.G.G.Z.Z.Z.Z.Z.Z.Z.Z.G.Z.Z.Z.Z.Z.Z.Z.G.G.G.G.G.G.G.G.Z.Z.Z.Z.Z.Z.Z.Z.G.Z.J.Z.Z.Z.I.%.<.G.M.G.M.Z.G.G.Z.Z.Z.Z.Z.Z.Z.Z.Z.Z.Z.Z.G.G.G.G.Z.Z.Z.Z.Z.Z.Z.G.Z.Z.Z.Z.Z.Z.Z.Z.Z.Z.Z.Z.Z.Z.Z.Z.Z.Z.Z.Z.Z.Z.G.G.G.G.G.G.G.G.G.G.M.Z.Z.G.G.G.G.Z.G.M.Z.M.Z.G.I.' %.s.e.s.M.s.g.g.g.g.g.g.g.g.g.g.g.g.g.g.g.g.g.g.g.g.g.g.g.g.g.g.g.g.g.g.g.g.g.g.g.g.g.g.g.g.g.g.g.g.s.g.g.g.g.g.g.g.g.g.g.g.g.g.g.g.g.g.g.g.g.g.g.e.M.g.g.g.Z./ <.Z.M.g.Z.M.Z.M.M.M.M.M.Z.Z.Z.Z.Z.Z.Z.M.M.Z.M.Z.M.M.M.M.M.M.M.Z.Z.M.M.M.Z.Z.Z.M.M.M.M.M.M.M.M.M.M.M.M.M.M.M.Z.Z.Z.Z.Z.Z.Z.M.M.g.Z.Z.M.M.M.M.Z.Z.Z.Z.M.Z.M.G.G./ M.Z.G.G.Z.M.Z.G.Z.G.G.Z.Z.Z.Z.Z.Z.Z.Z.G.G.G.G.Z.G.G.G.G.G.G.G.G.Z.Z.Z.Z.Z.Z.Z.Z.Z.Z.Z.Z.Z.Z.Z.Z.G.G.G.G.G.G.G.G.Z.Z.Z.Z.Z.Z.Z.Z.Z.Z.Z.Z.Z.Z.Z.Z.Z.G.G.G.Z.G.Z./ g.s.s.g.g.g.g.g.M.g.g.g.g.g.g.g.M.M.g.g.g.g.M.M.g.g.g.g.g.g.g.s.g.g.g.g.g.g.g.g.s.g.g.g.g.g.g.g.g.g.g.g.g.g.g.g.g.g.g.g.g.g.g.s.s.g.g.g.g.g.g.s.g.g.s.g.s.g.g.Y Z.M.Z.G.G.G.Z.M.Z.Z.G.G.G.Z.M.M.Z.Z.Z.Z.Z.Z.Z.Z.G.G.G.G.G.G.G.G.G.G.G.Z.Z.Z.Z.Z.Z.Z.G.G.G.G.G.G.G.Z.Z.Z.Z.Z.G.Z.Z.Z.Z.Z.Z.Z.Z.Z.G.G.G.Z.Z.G.G.G.Z.Z.G.Z.G.I.M.' G.M.M.Z.Z.G.G.Z.G.G.G.G.G.G.G.Z.Z.Z.Z.Z.Z.Z.Z.Z.Z.G.G.G.G.G.G.G.G.G.G.Z.Z.Z.Z.Z.Z.Z.Z.Z.Z.Z.Z.G.Z.Z.Z.Z.G.G.G.G.G.G.G.G.Z.G.G.G.Z.Z.Z.Z.Z.Z.Z.G.M.G.G.G.Z.J.Z.Y ",
"G.Z.M.M.M.M.M.M.M.M.M.g.M.M.M.M.M.M.M.M.M.M.M.M.M.M.M.M.M.M.M.M.M.M.M.M.M.M.M.M.M.M.M.M.M.M.M.M.M.M.M.M.M.M.M.M.M.M.M.M.M.M.M.M.M.M.g.M.M.M.M.g.g.s.Z.g.g.g.Z.Y <.G.M.Z.s.g.g.M.M.M.M.M.M.M.M.M.g.g.g.g.g.g.g.g.g.g.g.g.g.g.M.M.M.M.M.M.M.M.M.M.M.M.M.M.M.M.M.M.M.M.M.M.M.M.M.M.g.g.M.M.M.M.g.g.M.M.g.g.g.g.M.M.Z.g.M.g.g.g.M.J <.g.s.s.g.s.g.s.g.g.g.g.g.g.g.g.g.g.g.g.g.g.g.g.g.g.s.s.s.s.s.s.s.s.s.s.s.s.s.s.g.g.s.s.s.s.s.s.s.s.s.s.s.s.s.g.g.g.g.g.g.g.g.g.s.s.s.s.s.s.s.s.g.e.M.g.g.s.g.J s.G.g.g.g.g.M.g.g.g.g.g.g.g.g.g.g.g.g.g.g.g.g.g.g.g.g.g.g.g.g.g.g.g.s.s.g.g.g.g.g.g.g.g.g.g.s.s.g.g.g.g.g.g.g.g.g.g.g.g.g.s.s.s.g.g.g.g.g.g.g.g.g.M.g.g.s.g.e.S M.M.M.g.g.g.M.M.M.M.M.M.M.M.g.g.g.M.M.M.M.M.M.M.M.M.M.M.M.M.M.M.g.g.M.M.M.M.M.M.M.M.M.M.M.g.g.g.M.M.M.M.M.M.M.M.M.M.M.M.M.M.M.M.M.M.M.M.M.M.M.g.g.M.g.g.s.M.s.J Z.g.s.g.g.s.s.s.g.g.g.s.s.s.s.s.g.g.g.g.g.g.g.g.s.s.g.g.g.s.s.s.s.s.s.s.g.g.g.s.s.g.g.g.g.g.g.g.s.s.s.s.s.s.s.s.s.g.g.g.s.s.s.s.s.s.g.g.g.g.s.s.g.g.s.g.e.s.<.S G.M.g.M.M.M.g.M.g.M.M.M.M.M.M.g.M.M.g.g.g.M.M.M.g.g.g.g.g.g.g.g.M.M.M.M.M.M.M.M.g.g.g.M.M.M.M.M.M.M.g.g.M.M.M.M.M.M.M.M.M.M.M.M.M.M.M.M.M.M.M.M.M.M.M.g.g.M.<.P G.g.g.M.g.M.M.M.M.M.M.M.M.M.M.M.M.M.M.M.M.M.M.M.M.M.M.M.M.M.M.M.M.M.M.M.M.M.M.M.M.M.M.M.M.M.M.M.M.M.M.M.M.M.M.M.M.M.M.M.g.M.M.M.M.M.M.M.M.M.M.M.M.Z.M.M.g.g.:.e ",
"G.Z.g.g.g.g.s.g.s.s.s.s.g.g.g.g.g.s.s.s.g.g.g.g.g.g.g.g.g.g.g.g.g.g.g.g.g.g.g.g.s.s.g.g.g.g.g.g.g.g.s.s.g.g.g.g.g.g.g.g.g.g.g.g.g.s.s.s.g.g.g.s.s.s.M.g.g.s.g.S <.G.g.M.e.s.s.s.g.g.g.s.s.s.s.s.s.s.s.s.g.g.g.g.s.s.s.s.s.s.s.s.g.g.s.s.g.g.g.g.g.g.g.g.g.g.g.g.g.g.g.s.s.s.s.s.s.s.g.g.g.g.g.g.g.g.s.e.e.e.s.s.g.s.g.s.s.s.s.v e.M.s.s.g.s.g.s.s.s.s.s.s.s.s.s.s.s.g.g.g.g.s.s.g.s.s.s.s.s.s.s.s.s.s.s.s.s.s.s.s.s.s.s.s.s.s.s.s.s.s.s.s.s.s.s.s.s.g.g.g.g.s.s.s.s.s.s.s.s.s.s.g.e.g.g.g.s.e.v s.Z.g.s.s.s.s.s.s.s.s.s.s.s.s.s.s.s.s.s.s.s.e.e.s.s.s.s.s.s.s.s.s.e.e.s.s.s.s.s.s.s.s.s.s.s.e.e.s.s.s.s.s.s.s.s.s.s.s.s.s.s.s.s.s.s.s.s.s.s.s.s.s.g.s.g.s.s.:.v g.g.s.e.e.s.g.M.g.g.g.g.g.g.g.g.s.s.g.g.g.g.g.g.g.g.g.g.g.g.g.g.s.s.g.g.g.g.g.g.g.g.g.g.g.g.s.s.g.g.g.g.g.g.s.s.s.s.g.g.g.g.g.g.g.g.g.g.g.g.g.s.s.g.s.g.s.g.e.V G.M.s.s.s.s.s.s.g.g.s.s.s.s.s.s.s.g.s.s.s.s.s.s.s.s.s.g.g.g.s.s.s.s.s.s.s.s.s.s.g.s.s.s.g.g.g.g.s.s.s.s.s.s.s.s.s.s.s.s.s.s.s.s.s.s.g.g.g.g.s.s.s.g.s.g.s.e.:.v G.M.g.g.g.s.s.g.s.s.g.g.g.g.g.g.g.g.s.s.s.s.g.g.g.g.g.g.g.g.g.g.g.g.g.g.g.g.s.s.s.g.g.g.g.g.g.g.g.s.s.s.g.g.g.g.s.s.s.s.g.g.g.g.g.g.g.g.g.g.g.g.g.g.g.s.s.g.%.S J.g.s.s.e.s.g.s.g.g.g.g.g.g.g.g.g.g.g.g.g.g.s.g.s.s.s.s.s.s.g.g.g.g.g.g.g.g.s.s.g.g.g.g.g.g.g.g.s.s.g.g.g.g.g.g.s.s.s.s.s.s.s.s.s.s.s.s.s.s.g.g.g.g.s.g.g.M...: ",
"J.Z.g.g.g.s.s.g.s.g.g.g.g.g.g.g.g.s.s.s.g.g.g.s.g.g.g.g.g.g.g.g.g.g.g.g.g.g.s.s.g.g.g.g.g.g.g.g.g.g.s.s.g.g.g.g.g.g.g.g.g.g.g.g.g.s.s.s.g.g.g.s.M.s.M.g.M.g.g.S <.Z.s.g.e.g.g.g.g.g.s.s.s.s.s.s.g.g.g.g.g.g.g.g.s.s.s.g.g.g.s.s.g.g.s.s.g.g.g.g.g.g.g.g.g.g.g.g.g.g.g.s.s.s.s.s.g.g.g.g.g.g.g.g.g.g.s.e.e.e.s.s.s.e.g.g.g.s.s.V s.Z.s.s.g.s.g.g.s.s.s.s.s.s.s.s.g.g.g.g.g.g.g.g.g.g.g.g.s.s.g.g.g.g.s.s.s.s.g.g.g.g.g.g.s.g.g.g.g.g.s.s.g.g.g.g.g.g.g.g.g.g.g.g.g.g.g.g.g.g.g.g.g.e.g.g.M.g.s.v s.Z.s.e.s.s.g.s.s.s.s.s.s.s.s.s.s.s.s.s.s.e.e.e.s.s.s.s.s.s.s.s.s.s.s.s.s.s.s.s.s.s.s.s.s.s.e.e.s.s.s.s.s.s.s.s.s.s.s.s.s.s.s.s.s.s.s.e.s.s.s.s.e.s.s.g.s.g.<.v M.g.e.e.s.g.g.g.g.g.g.g.g.g.g.g.s.s.s.g.g.g.g.g.g.s.g.g.g.g.g.g.g.g.g.g.g.g.g.g.g.g.g.g.g.g.g.g.g.g.g.g.g.g.s.s.s.s.g.g.g.g.g.g.g.g.g.g.g.g.g.s.s.g.s.g.g.M.e.V Z.g.s.s.s.s.g.g.g.g.g.s.s.s.g.g.g.g.g.g.g.g.g.g.s.g.g.g.g.g.g.g.s.s.g.g.g.g.g.g.g.g.s.s.s.g.g.g.g.g.g.g.g.g.g.g.g.g.g.s.s.g.g.g.g.g.g.g.g.g.g.g.s.s.s.g.s.s.<.V G.M.g.g.g.s.s.g.s.s.s.s.g.g.g.M.g.g.g.g.g.g.g.g.g.g.g.g.g.g.g.g.g.g.g.g.g.s.s.s.g.g.g.g.g.g.g.g.s.s.s.s.g.g.s.s.s.s.s.s.g.g.g.g.g.g.g.g.g.g.g.g.g.g.M.g.g.M.:.J J.g.s.s.e.s.g.g.g.g.g.g.g.g.s.s.g.g.g.g.g.g.s.s.s.s.s.s.s.s.g.g.s.g.g.g.g.s.s.s.g.g.g.g.g.g.g.g.s.g.g.g.g.g.g.g.g.g.s.s.s.s.g.g.s.s.s.s.s.s.g.g.s.s.s.g.M.Z.%.: ",
"J.Z.g.g.g.g.g.g.g.g.g.g.g.g.g.g.g.g.s.g.g.g.g.g.g.g.g.g.g.g.g.g.g.g.g.g.g.g.g.g.g.g.g.g.g.g.g.g.g.g.g.g.g.M.M.g.g.g.g.g.g.g.g.g.g.g.g.g.g.g.g.g.M.s.g.s.g.g.M.S <.Z.s.g.s.g.g.M.g.g.g.g.g.g.s.s.s.s.s.s.s.s.s.s.g.g.g.g.g.M.g.g.g.g.g.g.g.g.g.g.g.g.g.g.g.g.g.g.g.g.g.g.g.s.s.s.s.s.s.g.g.s.s.s.g.g.s.s.s.s.g.g.g.e.g.s.g.g.g.S s.Z.s.s.g.s.g.g.g.g.g.g.g.g.g.g.g.g.g.g.g.g.g.g.g.g.g.g.g.g.g.g.g.g.g.s.s.g.g.g.g.g.g.g.g.g.g.g.g.g.g.g.g.g.g.g.g.g.g.g.g.g.g.g.g.g.g.g.g.g.g.g.M.s.g.s.g.g.g.V s.M.s.s.g.s.g.s.s.s.s.s.s.s.s.s.s.s.s.s.s.s.s.s.s.s.s.s.s.s.s.s.s.s.s.s.s.s.s.s.s.s.s.s.s.s.s.s.s.s.s.s.g.s.s.s.e.s.e.e.s.s.s.s.s.s.s.s.s.s.s.s.e.s.e.s.s.g.<.v M.g.s.s.g.g.g.s.g.g.g.g.g.g.g.g.g.s.g.g.g.g.g.g.g.g.g.g.g.g.g.g.g.g.g.g.g.g.g.M.g.g.g.g.g.g.g.g.g.g.g.g.g.g.g.g.g.g.g.g.g.g.g.g.g.g.g.g.g.g.g.s.e.s.e.g.s.g.e.V Z.g.s.s.s.g.g.M.g.g.s.s.s.g.g.g.g.g.g.g.g.g.g.g.s.g.g.g.g.g.g.g.g.g.g.g.g.g.g.g.g.g.g.g.g.g.g.g.g.g.g.g.g.g.g.g.g.g.g.g.g.g.g.g.g.g.g.g.g.g.g.g.s.s.s.g.s.g.e.S G.M.g.g.g.g.g.g.g.g.g.s.s.g.g.g.g.g.g.g.g.g.g.g.s.s.s.s.s.s.s.s.g.g.g.g.g.g.g.g.s.s.g.g.g.s.s.s.s.s.s.g.g.g.g.s.s.s.g.g.g.g.g.g.g.g.g.g.g.g.g.g.s.s.g.g.g.M.:.J G.g.s.g.s.g.M.g.g.g.g.g.g.g.g.g.g.g.g.g.g.g.g.s.g.g.g.g.g.g.g.g.g.g.g.g.g.g.g.g.g.g.g.g.g.g.g.g.g.g.g.g.g.g.g.g.g.g.g.g.g.g.g.g.g.s.s.s.s.g.g.g.g.g.g.g.g.g...: ",
"J.Z.g.g.g.g.g.M.g.g.g.g.g.g.g.g.g.s.s.g.g.g.g.g.g.g.g.g.g.g.g.g.g.g.g.g.g.g.g.g.g.g.g.g.g.g.g.g.g.g.s.s.g.g.g.g.g.g.g.g.g.g.g.g.g.g.g.g.g.g.g.g.M.s.g.s.g.g.M.S e.G.s.g.s.g.g.g.g.g.g.g.s.s.s.s.s.s.s.s.s.g.g.g.g.g.g.g.g.g.g.g.g.g.g.g.g.g.g.g.g.g.g.g.g.g.g.g.g.g.g.g.s.s.s.s.s.g.g.g.g.g.g.s.s.s.g.g.g.g.g.g.g.s.g.s.s.s.g.S s.Z.s.s.g.s.M.g.g.g.g.g.g.g.g.g.g.g.g.g.g.g.g.g.g.g.g.g.g.g.g.g.g.s.s.s.s.s.s.g.g.g.g.g.s.s.g.g.g.g.g.g.g.g.g.g.g.g.g.g.g.g.g.g.s.s.s.g.g.g.g.g.M.s.g.s.g.g.g.v s.Z.s.s.g.e.s.e.s.s.s.s.s.s.s.s.s.s.s.s.s.s.s.s.s.s.s.s.s.s.s.s.s.s.s.s.s.s.s.s.s.s.s.s.s.s.s.e.s.s.s.s.s.s.s.s.s.s.e.s.s.s.s.s.s.s.s.s.s.s.s.s.g.g.e.s.s.g.<.v M.g.s.s.g.g.g.s.g.g.g.g.g.g.g.g.s.g.g.g.g.g.g.g.g.g.g.g.g.g.g.g.g.g.g.g.g.g.g.g.g.g.g.g.g.g.g.g.g.g.g.g.g.g.g.g.g.g.g.g.g.g.g.g.g.g.g.g.g.g.g.s.e.e.e.s.s.g.<.V G.M.s.s.s.s.g.g.s.s.s.s.s.s.g.g.g.g.g.g.g.g.g.g.s.s.s.g.g.g.s.s.s.g.g.g.g.g.g.g.g.g.g.g.g.g.g.g.g.g.g.g.g.g.g.g.g.g.g.s.g.g.g.g.g.M.g.g.g.g.g.g.g.s.e.s.s.s.<.V Z.g.s.g.g.g.s.s.g.g.g.s.s.s.s.s.g.g.g.g.g.s.s.s.g.g.g.g.g.g.g.g.g.g.g.g.g.g.g.g.g.g.g.g.g.g.s.s.s.s.s.g.g.g.g.s.g.g.g.g.g.g.g.g.g.g.g.g.g.g.g.g.s.g.g.g.s.g.:.S Z.s.s.g.g.g.g.s.g.g.g.g.g.g.g.g.g.g.g.g.g.s.s.s.g.g.g.g.g.g.g.g.g.g.g.g.g.g.g.g.g.g.g.g.g.g.g.g.g.g.g.g.g.g.g.g.s.s.s.s.s.s.s.s.s.s.s.s.s.g.g.g.g.M.g.g.s.s...: ",
"J.Z.g.g.g.s.s.g.s.s.s.g.g.g.g.g.g.s.s.s.g.g.g.g.g.g.g.g.g.g.g.g.g.g.g.g.g.g.g.g.g.g.g.g.g.g.g.g.s.s.s.s.g.g.g.g.g.g.g.g.g.g.g.g.g.g.g.g.g.g.g.g.M.s.M.g.g.g.g.S <.Z.s.g.s.g.s.s.g.g.g.s.s.s.s.s.g.g.g.g.g.g.g.g.g.s.s.s.s.g.g.g.g.g.g.g.g.g.g.g.g.g.g.g.g.g.g.g.g.g.g.g.s.s.s.s.g.g.g.g.g.g.g.g.g.g.s.s.s.s.s.s.g.s.g.s.s.s.g.S s.Z.g.g.g.s.g.g.g.g.g.g.g.g.g.g.g.g.g.g.g.g.g.g.g.g.g.g.s.s.g.g.g.g.g.g.g.g.g.g.g.g.s.g.s.s.s.s.g.g.s.s.g.g.g.g.g.g.g.g.g.g.g.g.s.s.s.g.g.g.g.g.g.s.M.s.s.g.s.v g.Z.e.s.g.e.s.e.s.s.s.s.e.e.e.e.s.s.s.s.s.s.e.e.s.s.s.s.s.s.s.s.e.s.s.s.s.s.s.s.s.s.s.s.s.s.e.e.s.s.s.e.s.s.s.s.s.s.s.s.s.s.s.e.s.s.s.s.s.s.s.s.g.g.s.s.s.g.<.v M.g.g.g.g.g.g.s.g.g.g.g.g.s.s.s.s.g.g.g.g.g.g.g.s.s.s.s.s.s.s.s.g.g.g.g.g.g.g.g.s.g.g.g.g.g.g.g.g.g.g.g.g.g.g.g.g.g.g.g.g.g.g.g.g.g.s.g.g.g.s.s.e.s.s.g.s.g.e.S G.M.g.s.g.s.s.g.s.s.s.s.s.g.g.g.g.g.g.g.g.g.g.g.s.s.g.g.g.s.s.s.s.s.g.g.g.g.g.g.g.g.g.g.g.g.g.g.s.s.s.s.s.s.s.s.s.s.s.g.g.g.g.g.g.g.g.g.g.g.g.g.g.s.e.s.s.g.<.V Z.M.g.g.g.g.s.g.g.g.g.g.g.g.g.g.s.g.g.g.g.s.s.s.g.g.g.g.g.g.g.g.g.g.g.g.g.g.s.s.g.g.g.g.g.g.g.g.s.s.s.g.g.g.g.s.g.g.g.g.g.g.g.g.g.g.g.g.g.g.g.g.g.g.g.g.s.g.:.S Z.s.s.g.s.g.g.s.s.s.s.s.s.s.s.s.s.s.s.s.s.s.s.s.g.g.s.g.g.g.g.g.g.g.g.g.g.g.s.s.g.g.g.g.s.s.s.s.g.g.g.g.g.s.s.s.s.s.s.s.s.s.s.s.s.s.s.s.s.s.g.g.g.g.s.g.g.g.%.1 ",
"G.M.g.s.s.s.e.s.s.s.s.s.s.s.g.g.g.g.s.g.g.g.g.g.g.g.g.g.g.g.g.g.g.g.g.g.g.g.g.g.g.g.g.g.g.g.g.g.s.s.s.s.g.g.g.g.g.g.g.g.g.g.g.g.g.g.g.g.g.g.g.g.g.s.M.g.g.s.s.S <.Z.s.M.s.M.g.s.g.g.g.g.g.g.g.s.s.s.s.s.s.s.g.g.g.s.s.s.s.s.g.g.g.g.g.g.g.g.g.g.g.g.g.g.g.g.g.g.g.g.g.g.g.g.s.s.s.g.g.g.g.g.g.s.M.g.g.s.s.s.s.s.g.s.M.g.M.M.M.S s.Z.g.g.g.s.g.s.s.s.s.s.s.s.s.s.g.g.g.g.g.g.g.s.g.g.g.g.g.g.g.g.g.g.g.g.g.g.g.M.g.g.g.s.s.s.g.g.g.g.g.g.g.g.g.g.g.g.g.g.g.g.g.s.s.s.s.g.g.g.g.g.s.s.M.g.g.g.g.V g.M.<.e.s.e.s.s.s.s.s.s.s.e.e.e.s.s.s.s.s.s.s.s.g.g.s.s.s.s.s.s.s.s.g.g.s.s.s.s.s.s.s.s.s.s.e.e.s.s.s.e.e.s.s.s.e.e.e.s.s.e.e.e.s.s.s.s.s.s.s.s.s.s.e.s.s.g.<.v M.M.g.g.g.g.g.g.g.g.g.g.g.s.s.s.g.g.g.g.g.g.g.g.g.g.g.g.g.g.g.g.g.g.g.g.g.g.g.g.g.g.g.g.g.g.g.g.g.g.g.g.g.g.g.g.g.g.g.g.g.g.g.g.g.g.s.g.g.g.s.s.s.g.g.g.s.g.e.S G.M.g.g.g.g.g.g.g.g.g.g.g.g.g.M.g.g.g.g.g.g.g.g.g.g.g.g.g.g.g.s.g.g.g.g.g.g.g.g.g.g.g.g.g.g.g.s.g.g.g.g.g.g.g.g.s.s.g.g.g.g.g.g.g.g.g.g.g.g.g.g.s.s.e.g.g.g.e.V G.M.g.g.g.g.g.g.g.g.g.g.g.g.g.g.g.g.g.g.g.s.s.s.g.g.g.g.g.g.g.g.g.g.g.g.g.g.g.g.g.g.g.g.g.g.s.s.s.s.s.g.g.g.g.s.g.g.g.g.g.g.g.g.g.g.g.g.g.g.g.g.s.s.g.s.s.g.:.S G.g.s.g.s.s.g.s.g.g.g.g.g.g.g.g.g.g.g.s.s.s.s.s.s.s.g.g.g.g.g.g.g.g.g.g.g.g.g.g.g.g.g.g.g.s.s.s.g.g.g.g.g.g.g.g.g.g.g.g.s.s.g.g.g.g.s.s.g.g.g.g.M.g.s.g.g.g...: ",
"J.M.s.s.s.s.s.s.g.g.g.g.g.g.g.g.g.g.g.g.g.g.g.g.g.g.g.g.g.g.g.g.g.g.g.g.g.g.s.s.g.g.g.s.g.g.g.g.g.g.g.g.s.g.g.g.g.g.g.g.g.g.g.g.g.g.g.g.g.g.g.g.g.s.g.s.g.g.g.S <.G.s.g.s.g.s.g.g.g.g.g.g.g.s.s.s.g.g.g.g.g.s.s.g.g.g.g.g.g.g.g.g.g.g.g.g.g.g.g.g.g.g.s.g.g.g.g.g.g.g.g.g.g.s.s.g.g.g.g.g.g.g.g.s.s.s.s.s.g.g.g.g.s.M.g.g.g.g.S s.Z.s.s.g.s.g.s.g.g.g.g.s.s.g.g.g.g.g.g.g.g.g.g.s.g.g.g.g.g.g.g.g.g.g.g.g.g.g.g.g.g.s.s.s.s.g.g.g.g.g.g.g.g.g.g.g.g.g.g.g.g.g.g.s.s.g.g.g.g.g.s.g.g.g.g.e.M.s.V e.g.e.<.s.s.e.s.s.s.s.s.s.s.s.s.s.s.s.e.e.s.s.s.s.s.s.s.s.s.s.s.g.s.s.s.s.s.s.g.s.s.s.s.s.s.s.s.e.e.e.e.s.s.s.s.s.s.s.s.s.s.e.e.e.s.s.s.s.e.e.e.s.s.s.g.s.g.<.v Z.M.g.g.g.g.g.g.g.g.g.s.s.s.g.g.g.g.g.g.g.g.s.s.s.g.g.g.g.g.g.s.g.g.g.g.g.g.g.g.g.g.g.g.g.g.g.g.s.s.s.s.s.g.g.g.g.g.g.g.g.g.g.g.g.g.M.g.s.s.s.s.g.g.s.g.s.g.e.V G.M.g.g.g.g.g.g.g.g.g.g.g.g.g.g.g.g.g.g.g.g.g.g.g.g.g.g.s.s.s.s.g.g.g.g.g.g.g.g.g.g.g.g.g.g.s.s.g.g.g.g.g.s.s.s.g.g.g.g.g.g.g.g.g.g.g.g.g.g.g.g.g.g.g.g.g.M.:.S G.M.g.g.g.s.s.g.g.g.g.g.g.g.g.g.e.s.s.s.g.g.g.s.g.g.g.g.g.g.g.g.g.g.g.g.g.g.g.g.g.g.g.M.g.g.s.s.e.s.s.g.g.g.g.s.g.g.g.g.g.g.g.g.g.g.g.g.g.g.g.g.g.g.g.g.M.M.:.J G.g.s.g.s.g.g.s.e.s.s.g.g.g.g.s.g.g.s.s.s.s.s.s.g.g.s.g.g.g.g.g.g.g.g.s.s.s.g.g.g.g.g.g.g.g.g.g.g.g.g.g.g.g.s.s.s.s.s.g.g.s.s.s.s.s.s.g.g.g.g.g.g.M.g.g.s.g.%.: ",
"J.Z.g.s.g.s.s.s.g.g.g.g.g.g.g.g.g.g.g.g.g.g.g.g.g.g.g.g.g.g.g.s.g.g.g.g.g.g.s.s.s.s.s.s.s.g.g.g.g.g.g.g.g.g.g.g.g.g.g.g.g.g.g.g.g.g.g.g.g.g.g.g.g.s.g.s.g.g.g.S <.G.s.g.g.g.s.g.g.g.g.g.g.g.s.s.g.g.g.g.g.g.s.s.g.g.g.g.g.g.g.g.g.g.g.g.g.g.g.g.g.g.g.s.s.g.g.g.g.g.g.g.g.s.s.g.g.g.g.g.g.g.g.g.s.s.s.s.s.g.g.g.g.s.g.g.g.g.g.S s.Z.s.s.g.s.g.s.g.g.g.g.s.s.g.g.g.g.g.g.g.g.g.g.s.g.g.g.g.g.g.g.g.g.g.g.g.g.g.g.g.g.g.g.g.g.g.g.g.g.g.g.g.g.g.g.g.g.g.g.g.g.g.g.s.s.g.g.g.g.s.s.g.g.g.g.e.M.s.V s.g.e.<.s.s.e.s.s.s.s.s.s.s.s.s.s.s.s.s.s.s.s.s.s.s.s.s.e.e.s.s.s.s.s.s.s.s.s.s.s.s.s.s.s.s.s.s.e.s.s.s.s.s.s.s.s.s.s.s.s.s.e.e.e.s.s.s.s.e.e.e.s.s.s.g.s.g.<.v Z.M.g.s.g.g.g.g.g.g.g.s.s.s.g.g.g.g.g.g.g.g.g.g.s.g.g.g.g.g.g.s.g.g.g.g.g.g.g.g.g.g.g.g.g.g.g.g.s.s.s.s.s.g.g.g.g.g.g.g.g.g.g.g.g.g.M.g.s.s.s.g.g.g.s.g.s.g.e.V G.M.g.g.g.g.g.g.g.g.g.g.g.g.g.g.g.g.g.g.g.g.g.g.g.g.g.g.s.s.s.s.g.g.g.g.g.g.g.g.g.g.g.g.g.g.s.s.g.g.g.g.g.g.g.g.g.g.g.g.g.g.g.g.g.g.g.g.g.g.g.g.g.g.g.g.g.M.:.S G.M.g.g.g.s.s.g.g.g.g.g.g.g.g.g.s.s.s.g.g.g.g.g.g.g.g.g.g.g.g.g.g.g.g.g.g.g.g.g.s.g.g.g.g.s.s.s.s.s.s.g.g.g.g.g.g.g.g.g.g.g.g.g.g.g.g.g.g.g.g.g.g.g.g.g.g.g.:.J G.g.s.g.s.g.g.s.s.s.s.g.g.g.g.s.g.g.g.s.s.s.s.s.g.g.s.g.g.g.g.g.g.g.g.s.s.s.g.g.g.g.g.g.g.g.g.g.g.g.g.g.g.g.s.s.s.s.g.g.g.g.g.s.g.g.g.g.g.g.g.g.g.M.g.g.s.g.%.: ",
"J.Z.g.g.g.g.s.s.g.g.g.g.g.g.g.g.g.g.g.g.g.g.g.g.g.g.g.g.g.g.g.g.g.g.g.g.g.g.s.s.s.s.s.s.s.s.g.g.g.g.g.g.g.g.g.g.g.g.g.g.g.g.g.g.g.g.g.g.g.s.s.s.g.s.g.s.g.g.g.S <.G.s.g.g.g.s.g.g.g.g.g.g.s.g.g.g.g.g.g.g.g.s.s.g.g.g.g.g.g.g.g.g.g.g.g.g.g.g.g.g.g.s.s.s.s.g.g.s.g.g.g.s.s.s.g.g.g.g.g.g.g.g.g.s.s.s.s.s.g.g.g.g.s.g.g.g.g.g.V e.Z.s.s.g.s.g.s.g.g.g.g.s.s.g.g.g.g.g.g.g.g.g.g.s.g.g.g.g.g.g.g.g.g.g.g.g.g.g.g.g.g.g.g.g.g.g.g.g.g.g.g.g.g.g.g.g.s.s.g.g.g.g.g.s.g.g.g.g.g.s.s.g.g.g.g.e.M.s.V s.g.s.<.s.s.e.s.s.s.s.s.s.s.s.s.s.s.s.s.s.s.s.s.s.s.s.s.e.e.e.e.s.s.s.s.s.s.s.s.s.s.e.e.s.s.s.s.s.s.s.s.s.s.s.s.s.s.s.s.s.s.e.e.e.s.s.s.s.e.e.e.s.s.s.g.s.g.<.v Z.M.g.s.s.g.s.s.g.g.g.g.g.g.g.g.g.g.g.g.g.g.g.g.s.g.g.g.g.g.g.s.g.g.g.g.g.g.g.g.g.g.g.g.g.g.g.g.s.s.s.s.s.g.g.g.g.g.g.g.g.g.g.g.s.g.g.s.s.s.s.g.g.g.s.g.s.g.e.V G.M.g.g.g.g.g.g.g.g.g.g.g.g.g.g.g.g.g.g.g.g.g.g.g.g.g.g.s.s.s.s.g.g.g.g.g.g.g.g.g.g.g.g.g.g.s.s.g.g.g.g.g.g.g.g.g.g.g.g.g.g.g.g.g.g.g.g.g.g.g.s.g.g.g.g.g.M.:.S G.M.g.g.g.s.s.g.g.g.g.g.g.g.g.g.s.g.g.g.g.g.g.g.g.g.g.g.g.g.g.g.g.g.g.g.g.g.g.g.s.s.s.g.s.s.s.e.s.s.g.g.g.g.g.g.g.g.s.s.s.s.g.g.g.g.g.g.g.g.g.g.g.g.g.g.g.g.:.J G.g.s.g.s.g.g.s.s.s.s.g.g.g.g.s.g.g.g.g.g.g.g.g.g.g.s.g.g.g.g.g.g.g.s.s.s.s.g.g.g.g.g.g.g.g.g.g.g.g.g.g.g.g.s.s.s.s.g.g.g.g.g.g.g.g.g.g.g.g.g.g.g.M.g.g.s.g.%.: ",
"J.Z.g.g.g.s.s.s.g.g.g.g.g.g.g.g.s.s.g.s.s.s.g.g.g.g.g.g.g.g.g.g.g.g.g.g.g.g.s.s.s.s.s.s.s.s.s.s.g.g.g.s.g.g.g.g.g.g.g.g.g.g.g.g.g.g.g.g.s.s.s.s.g.s.g.s.g.g.g.S <.G.s.g.g.g.s.g.g.g.g.s.s.s.g.g.g.g.g.g.g.g.s.s.g.g.g.g.g.g.g.g.g.g.g.g.g.g.g.g.g.g.s.s.s.s.s.g.s.s.s.s.s.s.s.g.g.g.g.g.g.g.g.g.s.s.s.s.s.g.g.g.g.s.g.g.g.g.g.V e.M.s.s.g.s.g.s.g.g.g.g.s.s.g.g.g.g.g.g.g.g.g.g.s.g.g.g.g.g.g.g.s.s.g.g.g.g.g.s.g.g.g.s.s.g.g.g.s.s.s.s.s.s.s.s.g.g.s.s.g.g.g.g.g.g.g.g.g.s.s.s.g.g.g.g.e.g.s.V s.g.s.<.s.s.e.s.s.s.s.s.s.s.s.s.s.s.s.s.s.s.s.s.s.s.s.s.s.s.e.e.s.s.s.s.s.s.s.s.e.e.e.e.e.e.s.s.e.e.s.s.s.s.s.s.s.s.s.s.s.s.e.e.s.s.s.s.s.e.e.e.s.s.s.s.s.g.<.v Z.M.s.s.s.s.s.s.s.s.g.g.g.g.g.g.g.g.g.g.g.g.g.g.s.g.g.g.g.g.g.s.s.s.s.s.s.s.s.s.g.g.g.g.g.g.g.g.s.s.s.s.s.g.g.g.g.g.g.g.g.g.g.g.s.s.s.s.s.s.s.g.g.g.s.g.s.g.e.V G.M.g.g.g.g.g.g.s.s.s.s.g.g.s.s.g.g.g.g.g.g.g.g.g.g.g.s.s.s.s.s.g.g.g.g.g.g.g.g.g.g.g.g.g.g.s.s.s.s.s.g.g.g.g.g.g.g.g.s.g.g.g.g.g.g.g.g.s.s.s.s.g.g.g.s.g.M.:.S G.M.s.s.g.s.s.g.s.g.g.g.g.s.s.s.g.g.g.g.g.s.s.s.g.g.g.g.g.g.g.g.g.g.g.g.g.g.g.g.s.s.s.s.s.s.s.s.s.s.g.g.g.g.g.g.s.s.s.s.s.s.s.s.g.g.g.g.g.g.g.g.g.s.s.s.g.g.%.J G.g.s.g.s.g.g.s.s.s.s.g.g.g.g.s.g.g.g.g.g.g.g.g.g.g.s.g.g.g.g.g.s.s.s.s.s.g.g.g.g.g.g.g.g.g.g.g.g.g.g.g.g.g.s.s.s.s.g.g.g.g.g.g.g.g.g.g.g.s.s.s.g.M.s.g.g.g.%.: ",
"J.M.s.s.s.s.s.s.g.g.g.g.g.g.g.g.s.s.s.s.s.s.g.g.g.g.g.g.g.g.s.s.g.g.g.g.g.g.s.s.g.g.g.g.g.s.s.s.s.s.s.s.s.s.s.g.g.g.g.g.g.g.g.g.s.s.s.s.s.g.g.g.g.s.g.s.g.g.g.S <.G.s.g.s.g.s.g.g.g.g.s.s.s.g.g.g.g.g.g.g.s.g.g.g.g.g.g.g.g.g.g.g.g.g.g.g.g.g.g.g.s.s.s.s.s.s.s.s.s.s.s.s.s.s.g.g.g.g.g.g.g.g.g.s.s.s.s.s.g.g.g.g.s.g.g.g.g.g.V e.M.s.s.g.s.g.s.g.g.g.g.s.s.g.g.g.g.g.g.g.g.g.g.s.g.g.g.g.g.s.s.s.s.s.s.g.s.s.s.s.s.s.s.s.s.s.s.s.s.g.g.s.s.s.s.s.s.s.s.s.s.g.g.g.g.g.g.s.s.s.s.g.g.g.g.e.M.s.V s.g.s.<.s.s.e.s.s.s.s.s.s.s.s.s.e.e.s.s.e.e.e.e.s.s.s.s.s.s.s.s.e.e.e.s.s.s.e.s.e.e.e.e.e.e.s.s.e.e.e.e.e.e.e.s.s.s.s.s.s.s.s.s.e.s.s.s.s.s.e.e.s.s.e.s.s.g.<.V M.g.s.s.s.s.s.s.s.s.g.g.g.g.g.g.g.g.g.s.s.s.s.s.s.g.g.g.g.g.g.s.s.s.g.g.s.s.s.s.g.g.g.g.g.g.g.g.s.s.s.s.s.g.g.g.g.g.g.g.g.g.g.g.s.s.s.s.s.s.g.g.g.g.s.g.s.g.e.V Z.M.g.g.g.g.s.g.s.s.s.s.g.s.s.s.g.g.g.g.g.g.g.g.g.g.s.s.s.s.s.s.g.g.g.g.g.g.g.g.g.g.g.g.g.g.s.s.s.s.s.g.g.g.g.g.g.s.s.s.s.g.g.g.g.g.s.s.s.s.s.s.g.g.g.s.g.M.:.S Z.M.s.s.g.s.s.g.s.s.g.g.s.s.s.s.g.g.s.s.s.s.s.s.g.g.g.g.g.g.g.g.g.g.g.g.g.g.g.g.s.s.s.s.s.s.s.s.s.s.s.s.s.s.s.s.s.s.s.s.s.s.s.s.g.g.g.g.g.g.g.g.g.s.s.s.s.g.%.J G.g.s.g.s.g.g.s.s.s.s.g.g.g.s.s.g.g.g.g.g.g.g.g.g.g.s.s.g.g.g.s.s.s.s.s.g.g.g.g.g.g.g.g.g.g.g.g.g.g.g.g.g.g.s.s.s.s.s.s.s.s.s.g.g.g.g.g.g.s.s.s.g.g.s.s.g.M.%.: ",
"J.M.s.s.s.s.s.s.g.g.g.g.g.g.g.g.s.s.s.s.s.s.g.g.g.g.g.g.g.s.s.s.g.g.g.g.g.g.s.s.g.g.g.g.g.s.s.s.s.s.s.s.s.s.s.s.g.g.g.g.g.g.g.g.s.s.s.s.g.g.g.g.g.s.g.s.g.g.g.S <.G.s.g.s.g.s.g.g.g.g.g.s.s.g.g.g.g.g.s.s.s.g.g.g.g.g.g.s.s.s.s.g.g.g.g.g.g.g.g.g.s.s.s.s.s.s.s.s.s.s.s.s.s.s.g.g.g.g.g.s.s.s.s.s.s.s.s.s.g.g.g.g.s.g.s.g.g.g.V s.Z.s.s.g.s.g.s.g.g.g.g.s.s.g.g.g.g.g.g.g.g.g.g.g.g.g.g.g.s.s.s.s.s.s.s.s.s.s.s.s.s.s.s.s.s.s.s.s.s.s.s.s.s.s.s.s.s.s.s.s.s.s.s.g.g.s.s.s.s.s.s.g.g.g.g.e.M.s.V g.M.s.e.s.s.e.s.s.s.s.s.s.s.s.s.e.e.e.e.e.e.e.e.s.s.s.s.s.s.s.e.e.e.e.s.s.s.e.s.s.s.e.e.s.s.s.s.e.e.e.e.e.e.e.e.s.s.s.s.s.s.s.s.e.s.s.s.s.s.e.e.s.s.e.s.s.g.<.V M.g.s.s.s.s.s.s.g.g.g.g.g.g.g.g.s.s.s.s.s.s.s.s.s.g.g.g.g.g.g.s.s.s.s.s.s.s.s.s.g.g.g.g.g.g.g.g.s.s.s.s.s.g.g.g.g.g.g.g.g.g.g.g.g.s.s.s.s.s.g.g.g.g.s.g.s.g.e.V Z.M.s.g.g.g.s.g.s.s.s.s.s.s.s.s.s.s.s.s.g.g.g.g.s.s.s.s.s.s.s.s.g.g.s.s.s.s.g.g.g.g.g.g.g.g.s.s.g.g.g.g.g.g.g.g.s.s.s.s.s.g.g.g.g.g.s.s.s.s.s.s.g.s.g.s.g.M.:.S Z.g.s.s.g.s.s.g.s.s.g.g.g.s.s.s.g.g.s.s.s.s.s.s.g.g.g.g.g.g.s.s.s.s.s.s.g.g.g.g.g.g.g.g.g.g.g.g.s.s.s.s.s.s.s.s.s.s.s.s.s.s.s.s.g.g.g.g.g.g.g.g.g.s.s.s.s.g.:.J G.g.s.g.s.g.g.s.s.s.s.s.s.s.s.s.g.g.g.g.g.g.g.g.g.g.s.s.s.g.s.s.s.s.s.s.g.g.g.s.g.g.g.g.g.g.g.g.g.g.g.g.g.g.s.s.s.s.s.s.s.s.s.g.g.g.g.g.g.g.g.g.s.g.s.s.g.M.%.: ",
"J.Z.s.s.g.s.s.s.s.s.s.s.s.s.s.s.g.s.s.s.s.g.g.g.s.g.g.g.g.s.s.s.g.g.g.g.g.g.s.s.s.s.g.g.g.g.s.s.e.e.s.s.s.s.s.g.s.s.s.s.s.s.s.s.s.s.s.s.g.g.g.g.g.s.g.s.g.g.g.S <.G.s.g.s.g.s.g.s.s.s.g.g.g.s.s.g.g.g.s.s.s.g.g.g.g.g.s.s.s.s.s.s.s.s.s.s.s.s.s.g.g.s.s.s.s.s.s.s.s.g.g.s.s.s.g.g.g.g.s.s.s.s.s.s.s.s.s.s.g.g.g.g.s.g.s.g.g.g.V s.Z.s.s.g.s.g.s.g.g.g.g.s.s.g.g.s.s.s.s.s.s.s.s.g.g.g.g.g.s.s.s.g.g.g.g.g.g.g.g.s.s.s.s.s.s.s.s.g.g.g.g.g.g.g.g.s.s.s.s.s.s.s.s.s.s.s.s.s.s.s.s.g.g.g.g.e.M.s.V g.M.s.<.s.s.e.s.s.s.s.s.s.s.s.s.s.s.e.e.e.e.e.e.e.e.e.s.e.e.e.e.e.e.e.s.s.s.s.s.s.s.s.s.s.s.s.s.e.e.e.e.e.e.e.e.s.s.s.s.s.s.s.s.e.s.s.s.s.s.e.e.s.s.e.s.s.g.<.V M.g.s.s.s.g.g.s.g.g.g.s.s.s.g.g.g.g.s.s.s.s.s.s.s.g.g.g.g.g.g.s.g.g.g.g.g.g.g.g.s.s.s.s.s.s.s.s.s.s.s.s.s.g.g.g.s.s.s.s.s.s.s.s.g.g.s.s.s.s.g.s.g.g.s.g.s.g.e.V Z.M.s.s.g.s.s.g.g.g.g.g.g.g.g.g.s.s.s.s.s.g.g.g.s.s.s.s.s.s.g.g.g.g.s.s.s.s.g.g.g.g.g.g.g.g.s.s.g.g.g.g.g.g.g.g.s.s.s.s.s.s.g.g.g.g.g.g.g.s.s.s.s.s.g.s.g.g.:.S Z.g.s.s.s.s.s.g.g.g.g.g.g.g.s.s.g.g.s.s.s.s.s.g.g.g.g.s.s.s.s.s.s.s.s.s.s.g.g.g.g.g.s.s.s.g.g.g.s.s.s.s.s.s.s.s.g.s.s.s.s.s.s.g.s.s.s.s.s.s.s.s.M.s.s.s.s.g.:.J G.g.s.g.s.g.g.s.g.g.s.s.s.s.s.s.s.s.s.s.s.g.g.g.g.g.s.s.s.s.s.s.s.s.s.s.g.g.s.s.g.g.g.g.g.g.g.g.g.g.g.g.g.g.s.s.s.s.s.s.s.s.g.g.g.g.g.g.g.g.g.g.s.g.s.s.g.M.%.: ",
"J.Z.g.g.g.s.s.s.s.s.s.s.s.s.s.s.g.g.s.s.g.g.g.g.s.s.g.g.g.s.s.s.g.g.g.g.g.g.s.s.e.e.s.g.g.g.s.s.s.s.s.s.s.s.g.g.s.s.s.s.s.s.s.s.g.g.g.g.g.g.g.g.g.s.g.s.g.g.g.S <.G.s.g.g.g.s.g.s.s.s.g.g.g.s.s.g.g.g.s.s.s.g.g.g.g.g.s.s.s.s.s.s.s.s.s.s.s.s.s.g.g.s.s.s.s.s.s.s.s.g.g.g.g.g.g.g.g.g.s.s.s.s.s.s.s.s.s.s.g.g.g.g.e.g.s.g.g.g.V s.Z.s.s.g.s.g.s.g.g.g.g.s.s.g.g.s.s.s.s.s.s.s.s.g.g.g.g.g.s.s.s.g.g.g.g.g.g.g.g.g.g.s.s.s.s.g.g.g.g.g.g.g.g.g.g.s.s.s.s.s.s.s.s.s.s.s.s.s.s.s.g.g.s.g.g.e.g.s.v g.M.s.<.s.s.e.s.s.s.s.s.s.s.s.s.s.s.e.e.e.e.e.s.<.e.e.e.e.e.<.<.<.e.e.s.s.s.s.s.s.s.s.s.s.s.s.s.s.s.s.s.e.s.s.s.s.s.s.s.s.s.e.s.e.s.s.s.s.s.e.e.s.s.e.s.e.g.<.V M.g.s.s.g.g.g.s.g.g.g.s.s.s.g.g.g.g.g.g.g.g.s.s.s.g.g.g.g.g.g.s.g.g.g.g.g.g.g.g.s.s.s.s.s.s.s.s.s.s.s.s.s.g.g.g.s.s.s.s.s.s.s.s.g.g.g.g.g.g.s.s.g.g.s.g.s.g.e.V Z.M.s.s.g.s.s.g.g.g.g.g.g.g.g.g.s.s.s.s.s.g.g.g.s.s.s.s.s.g.g.g.g.g.s.s.s.s.g.g.g.g.g.g.g.g.s.s.g.g.g.g.g.s.s.s.s.s.s.s.s.s.g.g.g.g.g.g.g.g.g.s.s.s.g.s.g.g.:.S Z.g.s.s.s.s.s.g.g.g.g.g.g.g.s.s.g.g.g.s.s.g.g.g.g.g.g.s.s.s.s.s.s.s.s.s.s.g.g.g.g.s.s.s.s.s.g.g.g.g.s.s.s.s.s.s.g.g.s.s.s.s.g.g.s.s.s.s.s.s.s.s.M.g.s.s.s.g.:.J G.g.g.g.s.g.g.s.g.g.s.s.s.s.s.s.s.s.s.s.s.s.g.g.g.g.s.s.s.s.s.s.e.s.s.s.g.g.s.s.g.g.g.g.g.g.g.g.g.g.g.g.g.g.s.s.g.g.s.s.s.g.g.g.s.s.s.g.g.g.g.g.s.g.s.s.g.M.%.: ",
"J.M.s.s.s.s.s.g.s.s.s.s.s.s.g.g.g.g.g.g.g.g.g.g.g.g.g.g.g.g.s.s.s.s.s.s.s.s.s.s.s.s.s.s.s.s.s.s.s.s.s.s.s.s.s.s.g.g.g.s.s.g.g.g.g.g.g.g.g.g.g.s.M.s.M.s.g.g.g.S <.G.s.g.s.g.s.g.g.g.g.g.g.g.g.g.g.g.g.g.g.g.g.g.s.s.s.g.g.g.g.g.s.g.g.g.g.g.g.g.g.s.s.s.s.s.s.s.s.s.s.s.s.s.s.s.s.g.g.s.s.s.s.s.g.g.g.g.g.g.g.g.s.e.g.s.g.g.g.V s.Z.g.s.g.s.g.s.s.s.s.g.g.g.g.g.g.g.g.g.g.g.g.g.g.g.s.s.s.s.s.s.g.g.g.g.g.g.g.s.s.s.g.g.g.g.g.g.s.g.g.g.g.g.g.s.s.s.s.s.s.s.s.s.s.s.s.s.s.s.s.s.g.s.g.s.s.g.s.v s.M.e.e.s.e.e.e.s.s.s.e.e.s.s.s.s.s.e.e.e.e.e.e.e.e.e.e.e.e.e.e.s.s.s.e.e.e.e.e.s.s.s.s.s.s.s.s.e.e.e.e.e.s.s.s.e.e.e.e.e.e.e.e.s.s.s.s.s.e.e.e.s.s.e.s.e.s.<.v M.M.g.s.s.s.s.s.s.s.s.s.s.s.g.g.g.g.g.g.g.g.g.g.g.g.g.g.g.s.s.s.g.g.g.g.g.g.g.g.s.s.s.s.s.s.s.s.s.s.s.s.s.g.g.g.s.g.g.g.g.g.g.g.g.s.s.s.s.s.s.s.s.g.g.g.s.g.e.V G.M.g.g.g.g.s.g.g.g.g.g.g.g.g.g.g.g.g.g.g.s.s.s.g.s.s.s.s.s.s.s.e.s.s.s.g.g.g.s.s.s.s.s.g.g.g.g.g.g.g.g.g.g.g.g.g.g.g.g.g.g.g.s.g.g.g.g.g.g.g.g.g.s.g.g.s.g.:.S Z.g.s.s.s.s.s.g.s.s.s.s.s.s.s.s.g.g.s.s.s.s.g.g.g.g.g.g.g.g.g.g.g.g.g.g.g.g.g.g.s.s.s.s.s.g.g.s.s.s.s.s.s.s.s.s.s.s.s.s.s.s.s.s.g.g.s.s.s.s.g.g.g.s.g.g.g.g.%.J G.g.g.g.s.g.g.s.s.s.s.s.s.g.g.g.s.s.s.s.g.g.g.g.g.g.g.g.s.s.s.s.e.s.s.s.g.g.g.s.g.g.g.g.g.g.g.g.g.g.g.s.s.s.s.s.g.g.s.s.s.s.s.g.s.s.s.s.s.s.g.g.s.g.s.g.g.M.%.: ",
"J.M.s.s.s.s.s.g.s.s.s.s.s.s.g.g.g.g.g.g.g.g.g.g.g.g.g.g.g.g.s.s.s.s.s.s.s.s.s.s.s.s.s.s.s.s.s.s.s.s.s.s.s.s.s.s.g.g.g.s.s.g.g.g.g.g.g.g.g.g.s.s.g.s.g.s.g.g.g.S <.G.s.g.s.g.s.g.g.g.g.g.g.g.g.g.g.g.g.g.g.g.g.g.g.g.g.g.g.g.g.g.s.s.g.g.g.g.g.g.g.s.s.s.s.s.s.s.s.s.s.s.s.s.s.s.g.g.g.g.s.s.s.g.g.g.g.g.g.g.g.g.s.e.g.s.g.s.g.V e.M.s.s.g.s.g.s.s.s.g.g.g.g.g.g.g.g.g.g.g.g.g.g.s.s.s.s.s.s.s.s.g.g.g.g.g.g.s.s.s.s.g.g.g.g.g.g.s.g.g.g.g.g.g.s.g.s.s.s.s.s.s.s.s.s.s.s.s.s.g.g.g.s.g.s.s.g.s.v e.M.e.e.s.e.s.e.s.s.s.s.e.s.s.s.s.e.e.e.e.e.e.e.e.e.e.e.e.e.s.s.s.s.s.e.e.e.e.e.s.s.s.s.s.s.s.s.e.e.e.e.s.s.s.s.s.s.s.s.s.s.s.s.s.s.s.s.s.s.s.s.s.s.e.s.e.s.<.v M.M.g.s.s.g.g.s.s.s.s.s.s.g.g.g.g.g.g.g.g.g.g.g.g.g.g.g.g.s.s.s.g.g.g.g.g.g.g.g.s.s.s.s.s.s.s.s.s.s.s.s.s.s.s.s.s.s.g.g.g.g.g.g.g.s.s.s.s.s.s.s.s.g.g.g.s.g.e.V Z.M.g.g.g.g.g.g.s.g.g.g.g.g.g.g.g.g.g.g.g.s.s.s.g.s.s.s.s.s.s.s.s.s.s.g.g.s.s.s.s.s.s.s.g.g.g.g.g.g.g.g.g.g.g.g.g.g.g.g.g.g.g.s.g.g.g.g.g.g.g.g.g.s.g.g.s.g.:.S Z.g.s.s.s.s.s.s.s.s.s.s.s.s.s.s.g.g.g.g.s.s.g.g.g.g.g.g.g.g.g.g.g.g.g.g.g.g.g.g.s.s.s.s.s.g.g.g.g.g.g.g.g.g.g.g.g.s.s.s.s.s.s.s.g.g.s.s.s.s.g.g.g.s.g.g.g.g.%.J G.g.s.g.s.g.g.s.s.s.s.s.s.g.g.g.s.s.s.s.g.g.g.g.g.g.g.g.s.s.s.s.s.s.s.g.g.g.g.s.g.g.g.g.g.g.g.g.g.g.g.s.s.s.s.g.g.g.s.s.s.s.s.g.s.s.s.g.g.g.g.g.s.g.s.g.g.M.%.: ",
"G.M.s.s.s.s.s.g.s.s.s.s.s.s.g.g.g.g.g.g.g.g.g.g.g.g.g.g.g.g.s.s.s.s.s.s.s.s.s.s.g.g.g.g.g.g.g.g.s.s.s.s.s.s.s.s.g.g.s.s.s.s.g.g.g.g.g.g.g.s.s.s.g.e.g.s.s.g.g.S <.G.s.g.s.g.s.g.g.g.g.g.g.g.g.g.g.g.g.g.g.g.g.g.g.g.g.g.g.s.s.s.s.s.s.g.g.g.g.g.g.s.s.s.s.s.s.s.s.s.s.s.s.s.s.s.g.g.g.g.s.s.s.g.g.g.g.g.g.g.g.g.g.e.g.s.g.s.s.V e.M.s.s.g.s.g.g.g.g.g.g.g.g.g.g.g.g.g.g.g.g.g.g.s.s.s.s.s.g.g.g.g.g.g.g.g.s.s.s.s.s.g.g.g.g.g.g.g.g.g.s.s.g.g.g.g.g.g.g.g.s.s.s.s.s.s.g.g.g.g.g.g.s.g.s.s.g.s.v e.M.e.e.s.e.s.e.s.s.s.s.e.e.s.s.s.s.e.e.e.s.s.s.s.s.s.s.s.s.s.s.s.s.s.e.e.e.s.s.s.s.s.s.s.s.s.s.e.e.s.s.s.s.s.s.s.s.s.s.s.s.s.s.e.s.s.s.s.s.s.s.s.s.e.s.e.s.<.v M.M.g.s.s.g.g.g.s.s.s.s.g.g.g.g.g.g.g.g.g.g.g.g.g.g.g.g.g.s.s.s.g.g.g.g.g.g.g.g.g.g.g.g.g.g.g.g.s.s.s.s.s.s.s.s.s.s.s.g.g.g.g.g.g.s.s.s.s.s.s.s.s.g.s.g.s.g.e.V Z.g.s.g.g.g.g.g.s.s.s.g.s.g.g.g.g.g.g.g.g.s.s.s.g.g.s.s.s.g.g.s.g.g.g.g.s.s.s.e.s.s.s.g.g.g.g.s.g.g.g.g.g.g.g.g.g.g.g.g.g.g.s.s.g.g.g.g.g.g.g.g.g.s.g.g.s.g.:.S Z.g.s.s.s.s.s.g.s.s.s.s.s.s.s.s.g.g.g.g.s.s.g.g.g.g.g.g.g.g.g.g.g.g.g.g.g.g.g.g.g.s.s.s.s.g.g.g.g.g.g.g.g.g.g.g.g.g.g.s.s.s.g.g.g.g.s.s.s.s.g.g.g.s.g.g.g.g.%.J G.g.s.g.s.g.g.s.s.s.s.s.s.g.g.g.s.e.s.s.g.g.g.g.g.g.g.s.s.s.s.s.s.s.g.g.g.g.g.s.g.g.g.g.g.g.g.g.g.g.g.g.g.g.g.g.g.s.s.s.s.s.s.g.g.g.g.g.g.g.g.g.s.g.s.g.g.M.%.: ",
"G.M.s.s.s.s.g.g.s.s.s.s.s.s.g.g.s.s.s.s.s.s.s.s.s.g.g.g.g.s.s.s.s.s.s.s.s.s.s.s.g.g.g.g.g.g.g.g.s.s.s.s.s.s.s.s.g.g.s.s.s.s.g.g.g.g.g.g.s.s.s.s.s.e.g.s.s.s.g.S <.G.s.g.s.g.s.g.s.s.s.s.s.s.s.s.s.s.s.s.s.s.s.s.g.g.g.g.s.s.s.s.s.s.s.s.g.g.g.g.g.s.s.s.s.s.s.s.s.s.s.s.s.s.s.s.g.g.g.s.s.s.s.s.s.s.s.s.s.s.s.s.g.s.g.s.s.s.s.V e.Z.s.s.g.s.g.g.g.g.g.g.g.g.g.g.s.s.s.s.g.g.g.g.s.s.s.s.g.g.g.g.g.g.g.g.s.s.s.s.s.s.s.g.g.g.g.s.g.g.s.s.s.s.g.g.g.g.g.g.g.g.g.g.g.g.g.g.g.g.g.g.g.s.g.s.s.g.s.v e.M.e.e.s.e.s.e.s.s.s.s.e.e.s.s.s.s.e.e.e.s.s.s.s.s.s.s.s.s.s.s.s.s.s.e.e.e.s.s.s.s.s.s.e.e.e.e.e.e.s.s.s.s.s.s.s.e.e.e.s.s.s.s.e.e.s.s.s.s.s.s.s.s.e.s.s.g.<.V M.M.g.s.s.g.g.g.s.s.s.s.g.g.g.g.g.g.g.g.g.g.g.g.g.g.g.s.s.s.s.s.g.g.g.g.g.g.g.g.g.g.g.g.g.g.g.g.s.s.s.s.s.s.s.s.s.s.s.s.g.g.g.g.g.s.s.s.s.s.s.s.s.g.s.g.s.g.e.V Z.g.s.s.g.g.g.g.s.s.s.s.g.g.g.g.g.g.g.s.s.s.s.s.g.s.s.s.s.g.g.s.g.g.g.s.s.s.s.e.s.s.s.g.g.g.s.s.g.g.g.g.g.g.g.g.g.g.g.g.s.s.s.s.g.g.g.g.g.g.g.g.g.s.g.g.s.g.:.S G.M.s.g.g.g.g.g.s.s.s.s.s.s.s.s.g.g.s.s.s.s.s.s.g.g.g.g.g.g.g.g.s.s.s.s.s.s.s.s.g.s.s.s.g.g.g.g.g.g.g.g.g.g.g.g.g.g.s.s.s.s.s.g.g.g.s.s.s.s.g.g.g.s.g.g.g.g.%.J G.g.s.g.s.s.g.s.s.s.s.s.s.s.s.g.s.e.s.s.g.g.g.g.g.s.s.s.s.s.s.s.g.g.g.g.g.g.s.s.s.s.s.s.s.s.s.s.s.s.s.g.g.g.g.g.s.s.s.s.s.s.s.g.g.g.g.g.g.g.g.g.s.g.s.s.g.M.%.: ",
"G.M.s.s.s.s.s.g.s.s.s.s.s.s.s.g.s.s.s.s.s.s.s.s.s.s.g.g.g.s.s.s.s.s.s.s.s.s.s.s.g.g.g.g.g.g.g.g.s.s.s.s.s.s.s.s.g.s.s.s.s.s.s.g.g.g.s.s.s.s.s.s.s.e.g.s.s.s.g.S <.G.s.s.s.g.e.s.s.s.s.s.s.s.s.s.s.s.s.s.s.s.s.s.g.g.g.s.s.s.s.s.s.s.s.s.s.s.g.g.g.s.s.s.s.s.s.s.s.s.s.s.s.s.s.s.s.s.s.s.s.s.s.s.s.s.s.s.s.s.s.s.g.e.g.s.s.s.s.V s.Z.g.s.g.s.g.g.g.g.g.g.g.g.g.g.s.s.s.s.s.g.g.g.s.s.s.s.g.g.g.g.g.g.s.s.s.s.s.s.s.s.s.g.g.g.s.s.g.g.s.s.s.s.g.g.g.g.g.g.g.g.g.g.g.g.g.g.g.g.g.g.g.s.g.s.s.g.s.v e.g.e.e.s.e.s.e.s.e.s.e.e.s.s.s.s.s.e.e.e.s.s.e.s.s.s.s.s.s.s.s.s.s.s.e.e.e.s.s.s.e.s.s.e.e.e.e.s.s.s.s.e.s.s.s.e.e.e.e.e.e.e.e.e.e.e.s.e.s.s.s.e.s.e.s.s.g.<.v M.g.s.s.s.s.s.s.s.s.s.s.s.s.s.s.g.g.g.g.g.g.g.g.s.s.s.s.s.s.s.s.g.g.g.g.g.g.g.g.g.g.g.g.g.g.g.g.s.s.s.s.s.s.s.s.s.s.s.s.s.s.g.g.g.s.s.s.s.s.s.s.s.g.s.g.s.g.<.V Z.g.s.s.g.g.g.g.s.s.s.s.s.g.g.g.s.s.s.s.s.s.s.s.s.s.s.s.s.s.s.s.s.s.s.s.s.s.s.s.s.s.g.g.g.s.s.s.g.g.g.g.g.g.g.g.g.s.s.s.s.s.s.s.g.g.g.g.g.g.g.g.g.s.g.g.s.g.:.S G.M.s.g.g.g.g.g.s.s.s.s.s.s.s.s.s.s.s.s.s.s.s.s.g.g.g.g.g.g.g.g.s.s.s.s.s.s.s.s.g.g.s.s.s.g.g.s.s.s.g.g.g.g.g.g.g.s.s.s.s.s.s.s.g.g.s.s.s.s.g.g.g.s.g.g.g.g.%.J G.g.s.g.s.s.g.s.g.s.s.s.s.s.s.s.s.s.e.s.s.g.g.s.s.s.s.s.s.s.s.s.g.g.g.g.g.s.s.s.s.s.s.s.s.s.s.s.s.s.s.s.s.s.g.g.s.s.s.s.s.s.s.g.g.g.g.g.s.s.s.s.s.g.s.s.g.M.%.: ",
"G.M.s.s.g.s.s.g.s.s.s.s.s.s.s.s.s.s.s.s.s.s.s.s.s.s.s.g.s.s.s.s.s.s.s.s.s.s.s.s.g.g.g.g.g.g.g.g.s.s.s.s.s.s.s.s.s.s.s.s.s.s.s.s.s.s.s.s.s.s.s.s.g.e.g.s.s.s.g.S <.G.s.s.s.g.e.s.s.s.s.s.s.s.s.s.s.s.s.s.s.s.s.s.s.s.s.s.s.s.s.s.s.s.s.s.s.s.s.s.g.s.s.s.s.s.s.s.s.s.s.s.s.s.s.s.s.s.s.s.s.e.e.s.s.s.s.s.s.s.s.s.g.e.g.s.s.s.s.V s.Z.s.s.g.s.s.s.s.s.s.s.s.s.s.s.s.s.s.s.s.g.g.g.s.s.s.s.s.g.g.g.s.s.s.s.s.s.s.s.s.s.s.s.g.s.s.s.s.s.s.s.s.s.s.s.g.g.g.g.g.s.s.s.g.g.g.g.g.s.s.s.g.s.g.s.s.g.s.v e.M.e.e.s.e.s.e.e.e.e.e.e.e.s.s.s.s.e.e.e.s.e.e.s.s.s.s.s.s.s.s.s.s.s.e.e.e.s.s.e.e.e.s.e.e.e.e.s.s.s.s.e.s.s.s.e.e.e.e.e.e.e.e.e.e.e.s.e.e.e.e.e.s.e.s.e.s.<.v M.g.s.s.s.s.s.s.s.s.s.s.g.s.s.s.s.s.s.s.s.s.s.s.s.s.s.s.s.s.s.s.g.g.g.g.g.g.g.g.s.s.s.s.s.s.s.s.s.s.s.s.s.s.s.s.s.s.s.s.s.s.s.s.g.s.s.s.s.s.s.s.s.g.s.g.s.g.<.V Z.g.s.s.g.s.s.g.s.s.s.s.s.s.s.s.s.s.s.s.s.s.s.s.s.s.e.s.s.s.s.s.s.s.s.s.s.s.s.g.s.g.g.g.g.s.s.s.g.g.g.g.g.g.g.g.s.s.s.s.s.s.s.s.g.g.g.g.g.g.g.g.g.s.g.g.s.g.:.S Z.g.s.s.s.s.s.g.s.s.s.s.s.s.s.s.s.s.s.s.e.e.s.s.g.g.g.g.g.g.g.g.s.s.s.s.s.s.s.s.g.s.s.s.s.s.s.s.s.s.s.s.s.s.s.s.s.s.s.s.s.s.s.s.g.g.s.s.s.s.g.g.g.s.g.g.g.g.%.J G.g.s.g.s.s.g.s.g.g.g.s.s.s.s.s.s.s.s.s.s.s.g.s.s.s.s.s.s.s.s.s.g.g.g.s.s.s.s.s.s.s.s.s.s.s.s.s.s.s.s.s.s.s.s.s.s.s.s.s.s.s.s.g.g.g.s.s.s.s.s.s.s.g.s.s.s.g.%.: ",
"G.M.s.s.g.s.s.s.s.s.s.s.s.s.s.s.s.s.s.s.s.s.s.s.s.s.s.s.s.s.s.s.s.s.s.s.s.s.s.s.s.s.s.s.s.s.s.s.s.s.s.s.s.s.s.s.s.s.s.s.s.s.s.s.s.s.s.s.s.s.s.s.g.e.g.s.s.s.g.S <.G.s.s.s.g.e.s.s.s.s.s.s.s.s.s.s.s.s.s.s.s.s.s.s.s.s.s.s.s.s.s.s.s.s.s.s.s.s.s.g.s.s.s.s.s.s.s.s.s.s.s.s.s.s.s.s.s.s.s.s.s.s.s.s.s.s.s.s.s.s.s.s.e.g.e.s.s.s.V e.M.s.s.g.s.g.s.s.s.s.s.s.s.e.e.s.s.s.s.s.s.g.g.s.s.s.s.s.s.s.s.s.s.s.s.s.s.s.s.s.s.s.s.s.s.s.s.s.s.s.s.s.s.s.s.g.s.s.s.s.s.s.s.g.g.s.s.s.s.s.s.g.s.g.s.s.g.s.v e.M.e.e.s.e.s.e.e.e.e.e.e.e.s.s.s.e.e.e.e.s.e.e.e.e.e.e.e.e.e.e.s.s.s.e.e.s.s.s.e.e.s.s.s.s.s.s.e.s.e.e.e.s.s.s.e.e.e.e.e.e.e.e.s.e.s.e.e.e.e.e.e.s.e.s.e.s.:.p g.g.s.s.s.s.s.s.e.e.s.s.s.s.e.e.s.s.s.s.s.s.s.s.s.s.s.s.s.s.s.g.s.s.s.s.s.s.s.s.s.s.s.s.s.s.s.s.s.s.s.s.s.s.s.s.s.s.s.s.s.s.s.s.g.s.s.s.s.s.s.s.s.g.s.g.s.g.<.V Z.g.s.s.g.s.s.g.g.g.s.s.s.s.s.s.s.s.s.s.s.s.s.g.s.s.s.s.s.g.g.g.g.s.s.s.s.s.s.g.g.g.g.g.g.s.s.s.s.s.s.s.s.s.s.s.s.s.s.s.s.s.s.s.s.s.s.s.s.s.s.s.g.s.g.g.s.g.:.S Z.g.s.s.s.s.s.s.s.s.s.s.s.s.s.s.s.s.s.s.e.s.s.s.s.s.s.s.s.s.s.s.s.s.s.s.s.s.s.s.s.s.s.s.s.s.s.e.s.s.s.s.s.s.s.s.e.e.s.s.s.s.s.s.g.g.s.s.s.s.g.g.g.s.g.g.g.g.%.J G.g.s.g.s.s.g.s.g.g.g.s.s.s.s.s.s.s.s.s.s.s.s.s.s.s.s.s.s.s.s.s.g.g.s.s.s.s.s.s.s.s.s.s.s.s.s.s.s.s.s.s.g.s.s.s.s.s.s.s.s.s.s.g.g.g.s.s.s.s.s.e.s.g.s.s.s.g.%.: ",
"G.M.s.s.g.s.s.s.s.s.s.s.s.s.s.s.s.s.s.s.s.s.s.s.s.s.s.s.s.s.s.s.s.s.s.s.s.s.s.s.s.s.s.s.s.s.s.s.s.s.s.s.s.s.s.s.s.s.s.s.s.s.s.s.s.s.s.s.s.s.s.s.g.s.g.s.s.s.g.S <.G.s.s.s.s.e.s.s.s.s.s.s.s.s.s.s.s.s.s.s.s.s.s.s.s.s.s.s.s.s.g.s.s.s.s.s.s.s.s.g.s.s.s.s.s.s.s.s.s.s.s.s.s.s.s.s.g.g.s.s.s.s.s.s.s.s.s.s.s.s.s.s.e.s.e.e.s.s.S e.M.s.s.g.s.M.g.s.s.s.s.e.e.e.e.s.s.s.s.s.s.g.g.g.g.s.s.s.s.s.s.s.s.s.s.s.s.s.s.s.s.s.s.s.s.s.s.s.s.s.g.g.s.s.s.s.s.s.s.s.s.s.s.s.s.s.s.s.s.s.s.g.s.g.s.s.g.s.v e.M.e.e.s.e.e.e.e.e.e.e.e.e.s.s.s.s.e.e.e.e.e.e.e.e.e.e.e.e.e.e.s.s.s.e.e.e.s.s.e.e.e.e.e.e.e.e.e.e.e.e.e.s.s.s.e.e.e.e.e.e.e.e.s.e.s.s.e.e.e.e.e.s.e.s.e.s.:.p g.g.s.e.e.s.s.s.e.e.s.s.s.s.s.e.s.s.s.s.s.s.s.s.s.s.s.s.s.s.s.g.s.s.s.s.s.s.s.s.s.s.s.s.s.s.s.s.s.s.s.s.g.g.g.g.s.s.s.s.s.s.s.s.g.s.s.s.s.s.s.s.s.g.s.g.s.g.<.V Z.g.s.s.g.s.s.s.g.g.g.s.s.s.s.s.s.s.s.s.s.s.s.g.s.s.s.s.g.g.g.g.g.g.s.s.s.s.s.s.g.g.g.g.g.s.s.s.s.s.s.s.s.s.s.s.s.s.s.s.s.s.s.s.s.s.s.s.s.s.s.s.g.s.g.g.s.g.:.S Z.g.s.s.s.s.s.g.s.s.s.s.s.s.s.s.s.s.s.s.s.s.s.s.s.s.s.s.s.s.s.s.s.s.s.s.s.s.s.s.s.s.s.s.e.s.e.e.s.s.s.s.s.s.s.s.e.e.s.s.g.g.g.g.g.g.s.s.s.s.g.g.g.s.g.g.g.g.%.S G.g.s.g.s.s.g.s.g.g.g.s.s.s.s.s.s.s.s.s.s.s.s.s.s.s.s.s.s.s.s.s.g.s.s.s.s.s.s.g.s.s.s.s.s.s.s.s.s.s.g.g.g.g.s.s.e.e.s.s.s.s.g.g.s.s.s.s.s.s.e.e.s.g.s.s.s.g.%.: ",
"G.M.s.s.s.s.s.s.s.s.s.s.s.s.s.s.s.s.s.s.s.e.s.s.s.s.s.s.s.s.s.s.s.s.s.s.s.s.s.s.s.s.s.s.s.s.s.s.s.s.s.s.s.s.s.s.s.s.s.s.s.g.s.s.s.s.s.s.s.s.s.s.s.s.s.s.g.s.M.S <.Z.s.g.s.g.s.s.s.s.g.g.g.g.s.s.g.g.s.s.s.s.g.g.g.g.s.s.s.s.s.g.s.s.s.s.s.s.s.s.g.s.s.s.s.s.s.g.s.s.s.s.s.s.s.s.s.s.s.s.s.s.s.s.s.s.s.s.s.s.s.s.s.e.s.e.s.g.g.V <.M.s.s.g.s.s.s.e.s.s.s.s.s.s.e.s.s.s.s.s.s.s.s.s.s.s.s.s.g.g.g.s.s.s.s.s.s.s.s.s.s.s.s.s.s.s.s.s.s.s.s.s.s.s.s.s.s.s.s.s.s.s.s.s.s.s.s.s.s.s.s.s.s.g.s.s.g.s.v e.s.e.e.s.e.e.s.s.s.s.s.e.e.e.e.e.s.s.e.e.e.e.s.s.s.s.s.s.s.s.e.e.e.s.s.s.e.e.e.e.e.e.e.e.e.e.s.e.e.e.e.e.e.s.s.e.e.e.e.e.e.e.e.s.s.e.e.e.s.e.e.e.s.e.s.e.s.<.v M.M.g.s.s.s.s.s.s.s.s.s.s.s.s.s.s.s.s.s.s.s.s.s.g.g.g.s.s.s.s.s.s.s.s.s.s.s.s.s.g.s.s.s.s.s.s.s.s.s.s.s.s.s.s.s.s.s.s.s.s.s.s.s.s.s.s.s.s.s.s.s.g.g.s.s.e.g.e.V Z.g.s.s.g.s.s.g.s.s.s.s.s.s.s.s.s.s.s.s.s.g.g.g.s.s.s.s.s.s.g.g.s.s.s.s.s.s.g.g.s.s.s.s.s.s.s.s.s.s.s.s.g.g.g.g.s.s.s.s.s.s.g.g.s.s.s.s.s.s.s.s.s.g.s.s.g.s.:.V G.g.s.s.s.s.s.g.s.s.s.s.s.s.s.s.s.s.s.s.s.s.s.s.s.s.s.s.s.s.s.s.s.s.s.s.s.s.s.s.e.e.e.e.s.s.s.e.s.s.s.s.s.s.g.g.s.s.s.g.g.s.s.s.s.s.s.s.s.g.s.g.s.s.s.s.s.s...S G.g.s.g.s.s.s.s.g.s.s.s.s.s.s.s.e.s.s.s.s.s.s.s.e.s.s.g.g.g.g.g.s.s.s.s.s.s.s.s.g.s.s.s.s.s.s.s.s.s.g.s.g.s.s.s.e.s.s.s.s.s.s.s.e.s.s.s.s.s.e.e.s.g.s.s.g.g.%.: ",
"G.M.s.s.s.s.s.s.s.s.s.s.s.s.s.s.s.s.g.s.s.e.s.s.s.s.s.s.s.s.s.s.s.s.s.s.s.s.s.s.s.s.s.s.s.s.s.s.s.s.s.s.s.s.s.s.s.s.s.s.s.g.s.s.s.s.s.s.s.s.s.s.g.s.s.s.g.s.M.S <.Z.s.g.e.g.s.s.s.s.g.g.g.s.s.s.g.s.s.s.s.s.s.g.g.g.s.s.s.s.s.g.s.s.s.s.s.s.s.s.g.s.s.s.s.s.s.g.s.s.s.s.s.s.s.s.s.s.s.s.s.s.s.s.s.s.s.s.s.s.s.s.s.e.s.e.s.g.g.V e.M.s.s.g.s.s.s.s.s.s.s.s.s.s.s.s.s.s.s.s.s.s.s.s.s.s.s.s.s.g.g.s.s.s.s.s.s.s.s.s.s.s.s.s.s.s.s.s.s.s.s.s.s.s.s.s.s.s.s.s.s.s.s.s.s.s.s.s.s.s.s.s.s.g.s.s.g.s.v s.g.s.e.s.s.e.s.s.s.s.s.e.e.e.e.e.e.e.e.e.e.e.s.s.s.s.s.s.s.s.s.e.e.e.s.s.e.e.e.e.e.e.e.e.e.s.s.e.e.e.e.s.e.e.e.e.e.e.e.e.e.e.e.s.e.e.e.e.s.e.e.e.s.e.e.e.s.<.v M.M.g.s.s.s.s.s.s.s.s.s.s.s.s.s.s.s.s.s.s.s.s.s.s.s.s.s.s.s.s.s.s.s.s.s.s.s.s.s.g.s.s.s.s.s.s.s.s.s.s.s.s.s.s.s.s.s.s.s.s.s.s.s.s.s.s.s.s.s.s.s.g.g.s.s.s.g.<.V Z.g.s.s.g.s.s.s.s.s.s.s.s.s.s.s.s.s.s.s.s.s.s.s.s.s.s.s.s.s.s.s.s.s.s.s.s.s.s.s.s.s.s.s.s.s.s.s.s.s.s.s.s.g.g.g.s.s.s.e.e.s.s.g.s.s.s.s.s.s.s.s.s.g.s.g.g.s.:.V Z.g.e.s.s.s.s.g.s.s.s.s.s.s.s.s.s.s.s.s.s.s.s.s.s.s.s.s.s.s.s.s.s.s.s.s.s.s.s.s.s.e.e.e.s.s.s.s.s.s.s.s.s.s.s.g.s.s.s.s.s.s.s.s.s.s.s.s.s.s.g.s.s.s.s.s.s.s...S G.g.s.g.s.s.s.s.s.s.s.s.s.s.s.s.s.s.s.s.s.s.s.s.s.s.s.s.g.g.g.g.s.s.s.s.s.s.s.s.g.s.s.s.s.s.s.s.s.s.g.s.s.s.s.s.s.s.s.s.s.s.s.s.e.s.s.s.s.s.s.s.s.g.s.s.g.g.%.: ",
"G.M.s.s.s.s.s.s.s.s.s.s.s.s.s.s.s.s.s.s.e.s.s.g.s.s.s.s.s.s.s.s.s.s.s.s.s.s.s.s.s.s.s.s.s.s.s.s.s.s.s.s.s.s.s.s.s.s.s.s.s.g.s.s.s.s.s.s.s.s.s.s.s.s.s.s.g.s.M.S <.Z.s.g.e.s.s.s.s.s.g.g.g.s.s.s.s.s.s.s.s.s.s.s.g.g.g.g.s.s.s.s.s.s.s.s.s.s.s.s.s.s.s.s.s.s.s.s.s.s.s.s.s.s.s.s.s.s.s.s.s.s.s.s.s.s.s.s.s.s.s.s.s.e.s.e.s.g.g.V e.M.s.s.g.s.s.s.s.s.s.s.s.s.s.s.s.s.s.s.s.s.s.g.s.s.s.s.s.s.s.s.s.s.s.s.s.s.s.s.s.s.s.s.s.s.s.s.s.s.s.s.s.s.s.s.s.s.s.s.s.s.s.s.s.s.s.s.s.s.s.s.s.s.g.s.s.g.s.v s.g.s.e.s.s.e.s.s.s.s.s.e.e.e.e.s.s.e.e.e.e.e.e.e.e.s.s.s.s.s.e.e.e.s.s.s.s.e.e.e.e.e.e.e.e.s.s.e.e.s.s.s.e.e.e.e.e.e.e.s.s.e.e.s.s.e.e.e.s.e.e.e.e.e.s.e.s.<.v M.g.g.s.s.s.s.s.s.s.s.s.s.s.s.s.s.s.s.s.s.s.s.s.s.s.s.s.s.s.s.s.s.s.s.s.s.s.s.g.g.g.s.s.s.s.s.s.s.s.s.s.s.s.s.s.s.s.s.s.s.s.s.s.s.s.s.s.s.s.s.s.g.g.s.s.s.g.<.V Z.g.s.s.g.s.s.s.s.s.s.s.s.s.s.s.g.g.g.s.s.s.s.s.g.g.s.s.s.s.s.s.s.s.s.s.s.s.s.s.s.s.s.s.s.s.s.s.s.s.s.s.s.s.g.g.s.s.e.e.e.s.s.s.s.s.s.s.s.s.s.s.s.g.s.s.g.s.:.V Z.g.e.s.s.s.s.g.s.s.s.s.s.s.s.s.s.s.s.s.s.s.s.s.s.s.s.s.s.s.s.s.s.s.s.s.s.s.s.s.s.s.s.s.s.s.s.s.s.s.s.s.s.s.s.s.s.s.s.s.s.s.s.s.s.s.s.s.s.s.s.s.s.s.s.s.s.s.%.S G.g.s.g.s.s.s.s.s.s.s.s.s.s.s.s.s.s.s.s.s.s.s.s.s.s.s.s.g.s.s.s.s.s.s.s.s.s.s.s.g.s.s.s.s.s.s.s.s.s.s.s.s.s.s.s.s.s.s.s.s.s.s.s.e.s.s.s.s.s.s.s.s.g.s.s.g.g.%.: ",
"G.M.s.s.s.s.s.s.s.s.s.s.s.s.s.s.g.s.s.e.e.s.s.g.s.s.s.s.s.s.s.s.s.s.s.s.s.s.s.s.s.s.s.s.s.s.s.s.s.s.s.s.s.s.s.s.s.s.s.s.s.g.s.s.s.s.s.s.s.s.s.s.s.s.s.s.g.e.M.S <.Z.s.g.e.s.s.s.s.s.s.s.s.s.s.s.s.s.s.s.s.s.s.s.s.g.g.g.s.s.s.e.s.s.s.s.g.g.g.g.s.s.s.s.s.s.s.s.s.s.s.s.s.s.s.s.s.s.s.s.s.s.s.s.s.s.s.s.s.s.s.s.s.e.g.e.s.g.g.V e.M.s.s.g.s.s.s.s.s.s.s.s.s.s.s.s.s.s.s.g.s.s.g.s.s.s.s.s.s.s.s.s.s.s.s.s.s.s.s.s.s.s.s.s.s.s.s.s.s.s.s.s.s.s.s.s.s.s.s.s.s.s.s.s.s.s.s.s.s.s.s.s.s.g.s.s.g.s.v s.g.s.e.s.s.e.s.e.e.e.e.e.e.s.s.s.s.s.s.e.e.e.s.e.e.e.s.s.s.s.e.e.e.s.s.s.s.e.e.e.e.e.e.e.e.s.s.e.e.s.s.s.e.e.e.e.e.e.s.s.s.e.e.s.e.e.e.e.s.e.e.e.s.e.s.e.s.<.v M.g.s.s.s.s.s.s.s.s.s.s.s.s.s.s.s.s.s.s.s.s.s.s.s.s.s.s.s.s.s.s.s.s.s.s.s.s.s.g.s.s.s.s.s.s.s.s.s.s.s.s.s.s.s.s.s.s.s.s.s.s.s.s.s.s.s.s.s.s.s.s.s.g.s.s.s.g.<.V Z.g.s.s.s.s.s.s.s.s.s.s.s.s.s.s.s.s.s.s.s.s.s.s.g.g.s.s.s.s.s.s.s.s.s.s.s.s.s.s.s.s.s.s.s.s.s.s.s.s.s.s.s.s.s.s.s.s.e.s.e.s.s.s.s.s.s.s.s.s.s.s.s.g.s.s.s.s.:.V Z.g.e.s.s.s.s.g.s.s.s.s.s.s.s.s.s.s.s.s.s.s.s.s.s.s.s.s.s.s.s.s.s.s.s.s.s.s.s.s.s.s.s.s.s.s.s.s.g.g.g.s.s.s.s.s.s.s.s.e.e.e.e.s.s.s.s.s.s.s.s.s.s.s.s.s.s.s.%.S G.g.s.g.s.s.s.s.s.s.s.e.s.s.s.s.s.s.s.s.s.s.s.s.s.s.s.s.s.s.s.s.s.s.s.s.s.s.s.s.s.s.s.s.s.s.s.s.s.s.s.s.s.s.s.s.s.s.s.e.e.s.s.s.e.s.s.s.s.s.s.s.s.g.s.s.g.g.%.: ",
"G.M.s.s.s.s.s.s.s.s.s.s.s.s.s.g.g.s.s.e.e.s.s.g.s.s.s.s.s.s.s.s.s.s.s.s.s.s.s.s.s.s.s.s.s.s.s.s.s.s.s.s.s.s.s.s.s.s.s.s.s.g.s.s.s.s.s.s.s.s.s.s.s.s.s.s.s.e.M.S <.Z.e.g.e.g.s.s.s.s.s.s.s.s.s.s.s.s.s.s.s.s.s.s.s.s.g.g.s.s.s.e.s.s.s.s.g.g.g.g.s.s.s.s.s.s.s.s.s.s.s.s.s.s.s.s.s.s.s.s.s.s.s.s.s.s.s.s.s.s.s.s.s.e.g.s.s.g.g.V e.M.s.s.g.s.s.s.s.s.s.s.s.s.s.s.s.s.s.s.g.g.g.g.s.s.s.s.s.s.s.s.s.s.s.s.s.s.s.s.s.s.s.s.s.s.s.s.s.s.s.s.s.s.s.s.s.s.s.s.s.s.s.s.s.s.s.s.s.s.s.s.s.s.g.s.s.g.s.v s.g.s.e.s.e.e.s.e.e.e.e.s.s.s.s.s.s.e.e.e.e.s.s.e.e.s.s.s.s.e.e.e.e.s.s.s.s.e.e.e.e.e.e.e.e.s.s.e.s.s.s.s.e.e.<.e.e.e.s.s.s.s.e.s.e.e.e.e.e.e.e.e.s.e.s.e.s.<.v M.g.s.s.s.s.s.s.s.s.s.s.s.s.s.g.s.s.s.s.s.s.s.s.s.s.s.s.s.s.s.s.g.s.s.s.s.s.g.g.s.s.s.s.s.s.s.s.s.s.s.s.s.s.s.s.s.s.s.s.s.s.s.s.s.s.s.s.s.s.s.s.s.g.s.s.s.g.<.V Z.g.s.s.s.s.s.s.s.s.s.s.s.s.s.s.s.s.s.s.s.s.g.g.s.s.s.s.s.s.s.s.s.s.s.s.s.s.s.s.s.s.s.s.s.s.s.s.s.s.s.s.s.s.s.s.s.s.s.s.s.s.s.s.s.s.s.s.s.s.s.s.s.g.e.s.s.s.:.V Z.g.s.s.g.s.s.s.s.s.s.s.s.s.s.s.s.s.s.s.s.s.s.s.s.s.s.s.s.s.s.s.s.s.s.s.s.s.s.s.s.s.s.s.s.s.s.s.g.g.s.s.s.s.s.e.e.e.e.e.e.s.s.s.s.s.s.s.s.s.s.s.g.s.s.s.s.s.%.S G.g.s.g.s.s.s.s.s.s.e.e.s.s.s.s.s.s.s.s.s.s.s.s.s.s.s.s.s.s.s.s.s.s.s.s.s.s.s.s.s.s.s.s.s.s.s.s.s.s.s.s.s.s.s.s.s.s.s.e.e.s.s.s.s.s.g.g.s.s.s.s.s.g.s.s.g.g.%.: ",
"G.M.s.s.s.s.s.s.s.g.s.s.s.s.g.g.g.s.s.e.s.s.s.s.s.s.s.s.s.s.s.s.s.s.s.s.s.s.s.s.s.s.s.s.s.s.s.s.s.s.s.s.s.s.s.s.s.s.s.s.s.s.s.s.s.s.s.s.s.s.s.s.s.s.s.s.s.e.M.S <.Z.e.g.e.g.s.s.s.s.s.s.s.s.s.s.s.s.s.s.s.s.s.s.s.s.s.s.s.s.s.s.s.s.s.s.s.s.s.s.s.s.s.s.s.s.s.s.s.s.s.s.s.s.s.s.s.s.s.s.s.s.s.s.s.s.s.s.s.s.s.s.g.s.g.s.s.g.g.V e.M.s.s.g.e.s.s.s.s.s.s.s.s.s.s.s.s.s.s.s.s.s.g.s.s.s.s.s.s.s.s.s.s.s.s.s.s.s.s.s.s.s.s.s.s.s.s.s.s.s.s.s.s.s.s.s.s.s.s.s.s.s.s.s.s.s.s.s.s.s.s.s.s.g.s.s.g.s.v s.g.s.e.s.s.e.s.e.e.e.e.e.e.e.e.e.s.e.e.s.e.s.s.e.e.s.s.s.s.e.e.e.e.s.s.s.s.e.e.e.e.e.e.e.e.s.s.e.s.s.s.s.e.e.e.e.e.s.s.s.s.s.s.e.e.e.e.e.e.e.e.e.s.e.s.e.s.<.v M.g.s.e.s.s.s.s.s.s.s.g.s.s.s.g.s.s.s.s.s.s.s.s.s.s.s.s.s.s.s.s.s.s.s.s.s.s.g.g.s.s.s.s.s.s.s.s.s.s.s.s.s.s.s.s.s.s.s.s.s.s.s.s.s.s.s.s.s.s.s.s.s.g.s.g.s.g.<.v Z.g.s.s.s.s.s.s.s.s.s.s.s.s.s.s.e.e.s.s.s.s.s.g.s.s.s.e.s.s.s.s.g.g.g.g.s.s.s.s.s.s.s.s.s.s.s.s.s.s.s.s.s.s.s.s.s.s.s.s.s.s.s.s.s.s.s.s.s.s.s.s.s.g.e.e.s.s.:.V Z.g.s.s.g.s.s.s.s.s.s.s.s.s.s.s.s.s.s.s.s.s.s.s.s.s.s.s.s.s.s.s.s.s.s.s.s.s.s.s.s.s.s.s.s.s.s.s.g.g.s.s.s.s.s.s.<.<.e.e.s.s.g.g.s.s.s.s.s.s.s.s.g.s.s.s.s.g.%.S G.g.s.g.s.s.s.s.s.s.s.s.s.s.s.s.s.s.s.s.s.s.s.s.s.s.s.s.s.s.s.s.s.s.s.s.s.s.s.s.s.s.s.s.s.s.s.s.s.s.s.s.s.s.s.g.s.s.s.s.s.s.s.s.s.s.g.g.s.s.s.s.s.g.s.s.g.g.%.: ",
"G.M.s.s.s.s.s.s.s.s.s.s.s.s.s.s.s.s.e.s.s.g.s.s.s.s.s.s.s.s.s.s.s.s.s.s.s.s.s.s.s.s.s.s.s.s.s.s.s.s.s.s.s.s.s.s.s.s.s.s.s.s.s.s.s.s.s.s.s.s.s.s.s.s.s.s.s.e.M.S <.Z.s.g.s.g.s.s.s.s.s.s.e.s.s.s.g.s.s.s.s.s.s.s.s.s.s.s.s.s.s.s.s.s.s.s.s.s.s.s.s.s.s.g.g.s.s.s.s.s.s.s.s.s.s.s.s.s.s.s.s.s.s.s.s.s.s.s.s.s.s.s.g.s.g.s.s.g.g.V e.M.s.s.g.s.s.e.e.s.s.s.s.s.s.s.s.s.s.s.s.s.s.s.s.s.s.s.s.s.s.s.s.s.s.s.s.s.s.s.s.s.s.s.s.s.s.s.s.s.s.s.s.s.s.s.s.s.s.s.s.s.s.s.s.s.s.s.s.s.s.s.s.s.g.s.s.g.s.v e.s.e.e.s.e.e.s.s.s.e.e.e.e.e.e.s.e.e.e.e.s.s.s.e.e.s.s.s.e.e.e.s.s.s.s.s.s.s.s.e.e.e.e.s.s.s.s.e.s.s.s.e.e.e.e.s.e.s.s.s.s.s.s.e.e.<.e.e.e.e.e.e.s.e.s.e.s.<.v M.g.s.e.e.s.s.s.s.s.g.g.s.s.s.g.s.s.s.s.s.s.s.s.s.s.s.s.s.s.s.s.s.s.s.s.s.s.s.s.s.s.s.s.s.s.s.s.s.s.s.s.s.s.s.s.s.s.s.s.s.s.s.s.s.s.s.s.s.s.s.s.s.g.s.g.s.g.<.v M.g.s.s.s.s.s.s.s.s.s.s.e.e.e.e.e.e.e.s.e.e.s.s.s.s.s.e.e.s.s.s.g.g.s.s.s.s.s.s.s.s.s.s.s.s.s.s.s.s.s.s.s.s.s.s.s.s.s.s.s.s.s.s.s.s.s.s.s.s.s.s.s.g.e.s.s.s.:.S Z.g.s.s.g.s.s.s.s.s.s.s.s.s.s.s.s.s.s.s.s.s.s.s.s.s.s.s.s.s.s.s.s.s.s.s.s.s.s.s.g.s.s.s.s.s.s.s.s.s.s.s.s.s.s.s.e.e.e.e.s.s.g.g.s.s.s.s.s.s.g.g.g.s.s.s.s.g.%.S G.g.s.g.s.s.s.s.s.s.s.s.s.s.s.s.s.s.s.s.s.s.s.s.s.s.s.s.s.s.s.s.s.s.s.s.s.s.s.s.g.s.s.s.s.s.s.s.s.s.s.s.s.s.s.g.s.s.s.s.s.s.s.s.s.s.g.g.s.s.s.s.s.g.s.s.g.g.%.: ",
"G.M.s.s.s.s.s.s.s.s.s.s.s.s.s.s.s.s.e.s.s.g.s.s.s.s.s.s.s.s.s.s.s.s.s.s.s.s.s.s.s.s.s.s.s.s.s.s.s.s.s.s.s.s.s.s.s.s.s.s.s.s.s.s.s.s.s.s.s.s.s.s.s.s.e.s.s.e.M.V :.Z.s.g.s.g.s.s.s.s.s.e.e.s.s.s.g.g.s.s.s.s.g.s.s.s.s.s.s.s.s.s.s.s.s.s.s.s.s.s.s.s.s.g.g.s.s.s.s.s.s.s.s.s.s.s.s.s.s.s.s.s.s.s.s.s.s.s.s.s.s.s.g.s.g.s.s.g.g.v e.M.s.s.g.e.s.e.e.e.s.s.g.g.s.s.s.s.s.s.s.s.s.s.s.s.s.s.s.s.s.s.s.s.s.s.s.s.s.s.s.s.s.s.s.s.s.s.s.s.s.s.s.s.s.s.s.s.s.s.s.s.s.s.s.s.s.s.s.s.s.s.s.s.g.s.s.g.s.v e.s.e.<.s.e.e.s.s.s.s.e.e.e.e.e.s.s.e.e.s.s.s.s.e.e.s.s.e.e.e.e.s.s.s.s.s.s.s.s.s.e.e.s.s.s.s.s.s.e.e.e.e.e.e.s.s.s.e.e.e.s.s.s.e.e.<.<.e.e.e.e.e.s.e.s.e.s.<.v M.g.s.e.e.s.s.s.s.g.g.g.s.s.s.g.s.s.s.s.s.s.s.s.g.s.s.s.s.s.e.e.s.s.s.s.s.s.s.s.s.s.s.s.s.s.s.s.s.s.s.s.s.s.s.s.s.s.s.s.s.s.s.s.s.s.s.s.s.s.s.s.s.g.s.g.s.g.<.v M.g.s.s.s.s.s.s.s.s.s.s.e.e.e.e.s.s.e.e.e.e.e.e.s.s.s.e.e.e.e.s.s.s.s.s.s.s.s.s.s.s.s.s.s.s.s.s.s.s.s.s.s.s.s.s.s.s.s.s.g.s.s.s.s.s.s.s.s.s.s.s.s.g.e.e.s.s.:.S Z.M.s.s.g.s.e.e.s.s.s.s.s.s.s.s.s.s.s.s.s.s.s.s.s.s.s.s.s.s.s.s.s.s.s.s.s.s.s.s.g.s.s.s.s.e.e.e.s.s.s.s.s.s.s.s.s.s.s.s.s.s.s.e.s.s.s.s.s.g.g.g.g.s.g.s.s.g.%.S G.g.s.g.s.s.s.s.s.s.s.s.s.s.s.g.s.s.s.s.s.s.s.s.s.s.s.s.s.s.s.s.s.s.s.s.s.s.s.s.g.s.s.s.s.s.s.s.s.s.s.s.s.s.s.g.s.s.s.s.s.s.s.s.s.s.g.g.s.s.s.s.s.g.s.s.g.g.%.: ",
"G.M.s.s.s.s.e.s.s.e.e.e.s.s.s.s.s.s.s.s.s.s.s.s.s.s.s.s.s.s.s.s.s.s.s.s.s.s.s.s.s.s.s.s.s.s.s.s.s.s.e.e.e.s.s.e.s.s.s.s.s.s.s.s.g.s.s.s.s.s.s.s.e.s.s.e.g.e.g.S <.M.s.s.s.s.s.s.s.s.s.s.s.s.s.s.s.s.s.s.s.s.s.s.s.s.s.s.s.s.s.s.s.s.s.s.s.s.s.e.s.s.s.s.s.s.s.s.s.s.s.s.s.s.s.s.e.e.s.s.s.s.s.s.s.s.s.s.s.s.s.s.g.e.g.s.s.s.e.v e.M.s.s.g.s.s.s.s.s.s.s.s.s.s.s.s.s.s.s.s.s.s.e.e.s.s.s.s.s.s.s.s.s.s.s.s.s.s.s.s.s.s.s.s.s.s.s.s.s.s.s.s.s.s.s.s.s.s.s.s.s.s.s.s.s.s.s.s.s.s.s.s.e.g.s.s.e.e.v s.e.e.e.e.e.e.s.e.e.e.e.e.e.e.e.e.e.e.e.s.s.e.e.s.e.e.e.e.e.e.e.e.e.e.e.e.e.e.e.e.e.e.e.e.e.e.e.s.e.e.e.s.s.e.e.e.e.e.e.e.e.e.e.e.e.e.e.e.e.e.e.e.s.e.e.e.s.<.v M.g.s.s.s.s.g.s.s.s.s.s.s.s.s.s.s.s.s.s.s.s.s.s.s.s.s.s.s.s.s.s.s.s.s.s.s.s.s.s.s.s.s.s.s.s.s.s.s.s.s.s.s.s.s.s.s.s.s.e.e.e.s.s.s.s.s.s.s.s.s.s.s.s.s.g.s.g.e.V Z.g.e.s.s.s.s.s.s.s.e.e.e.e.s.s.s.s.s.s.s.s.s.s.s.s.s.s.s.s.s.e.s.s.s.s.e.e.e.s.s.s.s.s.s.s.s.s.s.s.s.s.s.s.s.s.s.s.s.s.s.s.s.s.g.s.s.s.s.s.s.s.s.s.e.e.e.s.<.V G.g.e.e.e.e.s.s.s.s.s.s.s.s.s.s.s.s.s.s.s.s.s.s.s.s.s.s.e.e.e.s.s.s.s.s.s.s.s.s.s.s.s.s.s.s.s.s.s.s.s.s.s.s.s.s.s.s.s.s.s.s.s.s.s.s.s.s.s.s.s.s.s.e.s.s.s.s.%.S G.s.s.g.s.s.s.s.s.s.s.s.s.s.s.s.s.s.e.e.e.e.e.s.s.s.s.s.s.e.e.e.s.s.s.s.s.s.s.s.s.e.e.e.s.s.s.s.s.s.s.s.s.s.s.s.s.s.s.s.s.s.s.s.s.s.s.s.s.s.s.s.g.s.s.s.e.g.%.- ",
"G.M.s.s.s.s.e.s.s.e.e.e.s.s.s.s.s.s.s.s.s.s.s.s.s.s.s.s.s.s.s.s.s.s.s.s.s.s.s.s.s.s.s.s.s.s.s.s.s.s.e.e.e.s.s.e.s.s.s.s.s.s.s.s.s.s.s.s.s.s.s.s.e.s.s.e.g.e.g.S <.M.s.e.s.s.s.s.s.s.s.s.s.s.s.s.s.s.s.s.s.s.s.s.s.s.s.s.s.s.s.s.s.s.s.s.s.s.s.e.s.s.s.s.s.s.s.s.s.s.s.s.s.s.s.s.e.s.s.s.s.s.s.s.s.s.s.s.s.s.s.s.g.e.g.s.s.s.s.v e.M.s.s.g.s.s.s.s.s.s.s.s.s.s.s.s.s.s.s.s.s.s.s.e.s.s.s.s.s.s.s.s.s.s.s.s.s.s.s.s.s.s.s.s.s.s.s.s.s.s.s.s.s.s.s.s.s.s.s.s.s.s.s.s.s.s.s.s.s.s.s.s.e.g.s.s.e.s.v s.s.e.e.e.e.e.e.e.e.e.e.e.e.e.e.e.e.e.e.s.s.e.e.s.e.e.e.e.e.e.s.e.e.e.e.e.e.e.e.e.e.e.e.e.e.e.e.e.e.e.e.e.e.e.e.e.e.e.e.e.e.e.e.e.e.e.e.e.e.e.e.e.e.<.e.e.s.:.p g.g.s.s.s.s.g.s.s.s.s.s.s.s.s.s.s.s.s.s.s.s.s.s.s.s.s.s.s.s.s.s.s.s.s.s.s.s.s.s.s.s.s.s.s.s.s.s.s.s.s.s.s.s.s.s.s.s.s.e.e.e.s.s.s.s.s.s.s.s.s.s.s.s.s.s.s.g.<.V Z.g.e.s.s.s.s.s.s.s.e.e.s.s.s.s.s.s.s.s.s.s.s.s.s.s.s.s.s.s.s.s.s.s.s.s.e.e.e.s.s.s.s.s.s.s.s.s.s.s.s.s.s.s.s.s.s.s.s.s.s.s.s.s.g.s.s.s.s.s.s.s.s.s.e.s.e.s.<.V G.g.e.e.e.s.s.s.s.s.s.s.s.s.s.s.s.s.s.s.s.s.s.s.s.s.s.s.e.e.e.s.s.s.s.s.s.s.s.s.s.s.s.s.s.s.s.s.s.s.s.s.s.s.s.s.s.s.s.s.s.s.s.s.s.s.s.s.s.s.s.s.s.e.s.s.s.s.%.S G.s.s.g.s.e.s.s.s.s.s.s.s.s.s.s.s.s.s.s.e.e.s.s.s.s.s.s.s.e.e.e.s.s.s.s.s.s.s.s.s.e.e.e.s.s.s.s.s.s.s.s.s.s.s.s.s.s.s.s.s.s.s.s.s.s.s.s.s.s.s.s.s.s.s.s.e.s.%.- ",
"G.M.s.s.s.s.s.s.s.e.s.s.s.s.s.s.s.s.s.s.s.s.s.s.s.s.s.s.s.s.s.s.s.s.s.s.s.s.s.s.s.s.s.s.s.s.s.s.s.s.e.e.s.s.s.e.s.s.s.s.s.s.s.s.s.s.s.s.s.s.s.s.e.s.e.e.g.e.g.S <.M.s.s.s.s.g.s.s.s.s.s.s.s.s.s.s.s.s.s.s.s.s.s.s.s.s.s.s.s.s.s.s.s.s.s.s.s.s.s.s.s.s.s.s.s.s.s.s.s.s.s.s.s.s.s.s.s.s.s.s.s.s.s.s.s.s.s.s.s.s.s.g.e.g.s.s.e.s.V e.M.s.s.g.s.s.s.s.s.s.s.s.s.s.s.s.s.s.s.s.s.s.s.s.s.s.s.s.s.s.s.s.s.s.s.s.s.s.s.s.s.s.s.s.s.s.s.e.s.s.s.s.s.s.s.s.s.s.s.s.s.s.s.s.s.s.s.s.s.s.s.s.e.g.s.s.e.s.v s.s.e.e.e.e.e.e.e.e.e.e.e.e.e.e.e.e.s.s.s.s.e.e.s.e.e.e.e.e.e.s.e.e.e.e.e.e.e.e.e.e.e.e.e.e.e.e.<.<.<.<.e.e.e.e.e.e.e.e.e.e.e.e.e.e.e.e.e.e.e.e.e.e.e.e.e.s.:.p g.s.s.s.s.s.s.s.s.s.s.s.s.s.s.s.s.s.s.s.s.s.s.e.s.s.s.s.s.s.s.s.s.s.s.s.s.s.s.s.s.s.s.s.s.s.s.s.s.s.s.s.s.s.s.s.s.s.s.s.s.s.s.s.s.s.s.s.s.s.s.s.s.s.s.s.s.g.<.V Z.g.e.e.s.e.s.s.s.s.s.s.s.s.s.s.s.s.s.s.s.s.s.s.s.s.s.s.s.s.s.s.s.s.s.s.s.s.e.s.s.s.s.s.s.s.s.s.s.s.s.s.s.s.s.s.s.s.s.s.s.s.s.s.s.s.s.e.s.s.s.s.s.s.e.s.e.s.<.V G.g.e.e.e.e.s.s.s.s.s.s.s.s.s.s.s.s.s.s.s.s.s.s.s.s.s.s.s.s.s.s.s.s.s.s.s.s.s.s.s.s.s.s.s.s.s.s.s.s.s.s.s.s.s.s.s.s.s.s.s.s.s.s.s.s.s.s.s.s.s.s.s.e.s.s.s.s.%.S G.s.s.g.s.s.s.s.s.s.s.s.s.s.s.s.s.s.s.s.s.s.s.s.s.s.s.s.s.e.e.e.s.s.s.s.s.s.s.s.s.e.e.s.s.s.s.s.s.s.s.s.s.s.s.s.s.s.s.s.s.s.s.s.s.s.s.s.s.s.s.s.s.s.e.s.e.g.%.: ",
"G.M.s.s.s.s.s.s.s.e.s.s.s.s.s.s.s.s.s.s.s.s.s.s.s.s.s.s.s.s.s.s.s.s.s.s.s.s.s.s.s.s.s.s.s.s.s.s.s.s.e.e.s.s.s.e.s.s.s.s.s.s.s.s.s.s.s.s.s.s.s.s.e.s.e.e.g.e.g.S <.M.s.s.s.s.g.s.s.s.s.s.s.s.s.s.s.s.s.s.s.s.s.s.s.s.s.s.s.s.s.s.s.s.s.s.s.s.s.s.s.s.s.s.s.s.s.s.s.s.s.s.s.s.s.s.s.s.s.s.s.s.s.s.s.s.s.s.s.s.s.s.g.e.s.e.e.e.s.V e.M.s.s.g.s.s.s.s.s.s.s.s.s.s.s.s.s.s.s.s.s.s.s.s.s.s.s.s.s.s.s.s.s.s.s.s.s.s.s.s.s.s.s.s.s.s.s.s.s.s.s.s.s.s.s.s.s.s.s.s.s.s.s.s.s.s.s.s.s.s.s.s.e.g.s.s.e.s.v s.s.s.s.e.e.e.e.e.e.e.e.e.e.e.e.e.e.e.s.s.e.e.e.e.e.e.e.e.e.e.e.e.e.e.e.e.e.e.e.e.e.e.e.e.e.e.e.<.<.<.<.e.e.e.e.e.e.e.e.e.e.e.e.e.e.e.e.e.e.e.e.e.s.e.s.e.s.<.v s.s.s.s.s.s.s.s.s.s.s.s.s.s.s.s.s.s.s.s.s.e.e.e.s.s.s.s.s.s.s.s.s.s.s.s.s.s.s.s.s.s.s.s.s.s.s.s.s.s.s.s.s.s.s.s.e.e.s.s.s.s.s.s.s.s.s.s.s.s.s.s.s.s.e.s.s.g.<.V Z.g.e.e.s.e.s.s.s.s.s.s.s.s.s.s.s.s.s.s.s.s.s.s.s.s.s.s.s.s.s.s.s.s.s.s.s.s.s.s.s.s.s.s.s.s.s.s.s.s.s.s.s.s.s.s.s.s.s.s.s.s.s.s.s.s.s.s.s.s.s.s.s.s.e.s.e.s.<.V Z.g.e.e.s.s.s.s.s.s.s.s.s.s.s.s.s.s.s.s.s.s.s.s.e.s.s.s.s.e.s.s.s.s.s.s.s.s.s.s.s.s.s.s.s.s.s.s.s.s.s.s.s.s.s.s.s.s.s.s.s.s.s.s.s.s.s.s.s.s.s.s.s.e.s.s.s.s.%.S G.s.s.g.s.s.s.s.s.s.s.s.s.s.s.s.s.s.s.s.s.s.s.s.s.s.s.s.s.s.e.e.s.s.s.s.s.s.s.s.s.e.e.s.s.s.s.s.s.s.s.s.s.s.s.s.s.s.s.s.s.s.s.s.s.s.s.s.s.s.s.s.s.e.e.s.<.s.%.: ",
"G.M.s.s.s.s.s.s.s.s.s.s.s.s.s.s.s.s.s.s.s.s.s.s.s.s.s.s.s.s.s.s.s.s.s.s.s.s.s.s.s.s.s.s.s.s.s.s.s.s.e.e.s.s.e.e.s.s.s.s.s.s.s.s.s.s.s.s.s.s.s.s.s.s.s.e.g.e.g.S <.M.s.s.s.s.g.s.s.s.s.s.s.s.s.s.s.s.s.s.s.s.s.s.s.s.s.s.s.s.s.s.s.s.s.s.s.s.s.s.s.s.s.s.s.s.s.s.s.s.s.s.s.s.s.s.s.s.s.s.s.s.s.s.s.s.s.s.s.s.s.s.g.e.g.e.e.e.s.V e.M.s.s.g.s.s.s.s.s.s.s.s.s.s.s.s.s.s.s.s.s.s.e.s.s.s.s.s.s.s.s.g.s.s.s.s.s.s.s.s.s.s.s.s.s.s.s.s.s.s.s.s.s.e.e.s.s.s.s.s.s.s.s.s.s.s.s.s.s.s.s.s.e.g.s.s.e.e.v s.s.s.s.e.e.e.e.e.e.e.e.e.e.e.e.e.e.e.e.e.e.e.e.e.e.e.e.e.e.e.e.e.e.e.e.e.e.e.e.e.e.e.e.e.e.e.e.<.<.<.e.e.s.s.e.e.e.e.e.e.e.e.e.e.e.e.e.e.e.e.e.e.s.e.s.e.s.<.v s.s.s.s.s.s.s.s.s.s.s.s.s.s.s.s.s.s.s.e.e.s.e.e.s.s.s.s.s.s.s.s.s.s.s.s.s.s.s.s.s.s.s.s.s.s.s.s.s.g.g.g.g.s.s.s.e.e.s.s.s.s.s.s.s.s.s.s.s.s.s.s.s.s.s.s.s.g.<.v M.g.e.e.s.e.s.s.s.s.s.s.s.s.s.s.s.s.s.s.s.s.s.e.e.e.s.s.s.s.s.s.s.s.s.s.s.s.e.s.s.s.s.s.s.s.s.s.s.s.s.s.s.s.s.s.s.s.s.s.s.s.s.s.s.s.s.s.s.s.s.s.s.s.e.s.e.s.<.V Z.g.e.s.s.s.s.s.s.s.s.s.s.s.s.s.s.s.s.s.s.s.s.e.e.s.s.s.s.e.s.s.s.s.s.s.s.s.s.s.s.s.s.s.s.s.s.s.s.s.s.e.e.s.s.s.s.s.s.s.s.s.s.s.s.s.s.s.s.s.s.s.s.s.s.s.s.s.%.S G.s.s.g.s.e.s.s.s.s.s.s.s.s.s.s.s.s.s.s.s.s.s.s.s.s.s.s.s.s.e.s.s.s.s.s.s.s.s.s.s.s.s.s.s.s.s.s.s.s.s.s.s.s.s.s.s.s.s.s.s.s.s.s.e.e.s.s.s.s.s.s.e.e.e.s.e.g.%.: ",
"G.M.s.s.s.s.s.s.s.e.s.s.s.s.s.s.s.s.s.s.s.s.s.s.s.s.s.s.s.s.s.s.s.s.s.s.s.s.s.s.s.s.s.s.s.s.s.s.s.s.e.e.e.s.e.e.s.s.s.s.s.s.s.s.s.s.s.s.s.s.s.s.s.s.s.e.g.e.g.S <.M.s.s.s.s.g.s.s.s.s.s.s.s.s.s.s.s.s.s.s.s.s.s.s.s.s.s.s.s.s.s.s.s.s.s.s.s.s.s.s.s.s.s.s.s.s.s.s.s.s.s.s.s.s.s.s.s.s.s.s.s.s.e.s.s.s.s.s.s.s.s.g.e.g.s.s.s.s.V e.M.s.s.s.e.s.s.s.s.s.s.s.s.s.s.s.s.s.s.s.s.s.e.e.s.s.s.s.s.s.s.g.s.s.s.e.s.s.s.s.s.s.s.s.s.s.s.s.s.s.s.e.e.e.e.s.s.s.s.s.s.s.s.s.s.s.s.s.s.s.s.s.e.g.s.s.e.e.v s.s.s.e.e.e.e.e.e.e.e.e.e.e.e.e.e.e.e.e.e.e.e.e.e.e.e.e.s.e.e.e.e.e.e.e.e.e.e.e.e.e.e.e.e.e.e.e.e.e.e.e.s.s.s.s.e.e.e.e.e.e.e.e.e.e.e.e.e.e.e.e.e.e.e.e.e.s.:.v s.s.s.s.e.e.s.s.s.s.s.s.s.s.s.s.e.s.e.s.s.s.s.s.s.s.s.s.s.s.s.s.s.s.s.s.s.s.s.s.s.s.s.s.s.s.s.s.s.g.s.s.s.s.s.s.e.e.s.s.s.s.s.s.s.s.s.s.s.s.s.s.s.s.e.s.s.g.<.v Z.g.e.e.s.e.s.s.s.s.s.s.s.s.s.s.s.s.s.s.s.s.s.e.e.e.s.s.s.s.s.s.s.s.s.s.s.s.e.s.s.s.s.s.s.s.s.s.s.s.s.s.s.s.s.s.s.s.s.s.s.s.s.s.s.s.s.s.s.s.s.s.s.s.e.s.s.s.<.V Z.g.s.s.s.s.s.s.s.s.s.s.s.s.s.s.s.s.s.s.s.e.e.e.s.s.s.s.s.s.e.s.s.s.s.s.s.s.s.e.s.s.s.s.s.s.s.s.s.s.s.s.s.s.s.s.s.s.s.s.s.s.s.s.s.s.s.s.s.s.s.s.s.s.s.s.s.s.%.S G.s.s.g.s.e.s.s.s.s.s.s.s.s.s.s.s.s.s.s.s.s.s.s.e.s.s.s.s.s.s.s.e.s.s.s.s.s.s.s.s.s.s.s.s.s.s.s.s.s.s.s.s.s.s.s.s.s.s.s.s.s.s.s.s.s.s.s.e.e.e.e.e.e.e.s.e.g.%.: ",
"G.M.s.s.s.s.s.s.s.e.e.e.s.s.s.s.s.s.s.s.s.s.s.s.s.s.s.s.s.s.s.s.s.s.s.s.s.s.s.s.s.s.s.s.s.s.s.s.s.s.e.e.e.s.e.e.s.s.s.s.s.s.s.s.s.s.s.s.s.s.s.s.s.s.s.e.g.e.g.S <.M.s.s.s.e.s.s.s.s.s.s.s.s.s.s.s.s.s.s.s.s.s.s.s.s.s.s.s.s.s.s.s.s.s.s.s.s.s.s.s.s.s.s.s.s.s.s.s.s.s.s.s.s.s.s.s.s.s.s.s.s.s.s.s.s.s.s.s.s.s.s.s.e.g.s.s.s.s.V e.M.s.s.s.e.s.s.s.s.s.s.s.s.s.s.s.s.s.s.s.s.s.e.e.s.s.s.s.s.s.s.s.s.s.e.e.s.s.s.s.s.s.s.s.s.s.s.s.s.s.e.e.e.e.e.s.s.s.s.s.s.s.s.s.s.s.s.s.s.s.s.s.e.g.s.s.e.e.v s.e.e.e.e.e.e.e.e.e.e.e.e.e.e.e.e.e.e.e.e.e.e.e.e.e.e.e.s.e.e.e.e.e.e.e.e.e.e.e.e.e.s.e.s.s.s.s.e.e.e.e.s.s.s.e.e.e.e.e.e.e.e.e.e.e.e.e.e.e.e.e.e.e.e.e.e.s.:.p g.g.s.s.e.<.e.s.e.s.s.s.s.s.s.e.e.e.s.s.s.s.s.s.s.s.s.s.s.s.s.s.s.s.s.s.s.s.e.e.s.s.s.s.s.s.s.s.s.s.s.s.s.e.e.e.e.e.s.s.s.s.s.s.s.s.s.s.s.s.s.s.s.s.e.s.s.g.<.v Z.g.e.e.s.e.s.s.s.s.s.s.s.s.s.s.s.s.s.s.s.s.s.e.e.e.e.s.s.s.s.s.s.s.s.s.e.e.e.s.s.s.s.s.s.s.e.e.s.s.s.s.s.s.s.s.s.s.s.s.s.s.e.e.e.s.s.s.s.s.s.s.s.s.e.s.s.s.<.V Z.g.s.s.s.s.s.s.s.s.s.s.s.s.s.s.s.s.s.s.s.s.s.s.s.s.s.s.s.e.e.e.s.s.s.s.s.s.e.e.s.s.s.s.s.s.s.s.s.s.s.s.s.s.s.s.s.s.s.s.s.s.s.s.s.s.s.s.s.s.s.s.s.e.s.s.s.s.%.S G.s.s.g.s.e.s.s.s.s.s.s.s.s.s.s.s.s.e.s.e.e.s.s.e.e.s.s.s.s.s.s.e.s.s.s.s.s.s.e.s.s.e.e.s.s.s.s.s.s.s.s.s.s.s.s.s.s.s.s.s.s.s.s.s.s.s.s.s.e.e.e.e.e.s.g.s.g.%.- ",
"G.M.s.s.g.s.s.s.s.e.e.e.s.s.s.s.s.s.s.s.s.s.s.s.s.s.s.s.s.s.s.s.s.s.s.s.s.s.s.s.s.s.s.s.s.s.s.s.s.s.e.e.e.s.e.e.s.s.s.s.s.s.s.s.s.s.s.s.s.s.s.s.s.s.s.e.g.e.g.S <.M.s.e.s.e.g.s.s.s.s.s.s.s.s.s.s.s.s.s.s.s.s.s.s.s.s.s.s.s.s.s.s.s.s.s.s.s.s.s.s.s.s.s.s.s.s.s.s.s.s.s.s.s.s.s.s.s.s.s.s.s.s.s.s.s.s.s.s.s.g.g.s.e.g.s.s.s.s.V e.M.s.s.s.e.s.s.s.s.s.s.s.s.s.s.s.s.s.s.s.s.s.e.e.s.s.s.s.s.s.s.s.s.s.e.e.s.s.g.s.s.s.s.s.s.s.s.e.s.s.e.e.e.e.e.s.s.s.s.s.s.s.s.s.s.s.s.s.s.s.s.s.e.g.s.s.e.e.v e.e.e.e.e.e.e.s.e.e.e.e.e.e.e.e.e.e.e.e.e.e.e.e.e.e.e.e.s.e.e.e.e.e.e.e.e.e.e.e.e.e.s.s.s.s.s.s.e.e.e.e.e.e.e.e.e.e.e.e.e.e.e.e.e.e.e.e.e.e.e.e.e.s.e.s.e.s.<.v g.g.s.e.<.<.e.e.e.s.s.s.s.s.s.e.e.e.s.s.s.s.s.s.s.s.s.s.s.s.s.s.s.s.s.s.s.s.e.s.s.s.s.s.s.s.s.s.s.s.e.e.e.e.e.<.e.e.s.s.s.s.s.s.s.s.s.s.s.s.s.s.s.s.e.s.s.g.<.v Z.g.e.e.s.s.s.s.s.s.s.s.s.s.s.s.s.s.s.s.s.s.s.e.e.e.e.s.s.s.s.s.s.s.s.s.e.e.e.s.s.s.s.s.s.s.e.e.s.s.s.s.s.s.s.s.s.s.s.s.s.e.e.e.e.e.s.s.s.s.s.s.s.s.e.g.s.s.<.V Z.g.s.s.s.s.s.s.s.s.s.s.s.s.s.s.s.s.s.s.s.s.s.s.s.s.s.s.s.e.e.e.s.s.s.s.s.s.e.e.s.s.s.s.s.s.s.s.s.s.s.s.s.s.s.s.s.s.s.s.s.s.s.s.s.s.s.s.s.s.s.s.s.e.s.s.s.s.%.S G.s.e.g.s.e.s.s.s.s.s.s.s.s.s.s.s.s.e.e.e.e.e.s.e.e.s.s.s.s.s.s.e.s.s.s.s.s.s.e.s.e.e.e.s.s.s.s.s.s.s.s.s.s.s.s.s.s.s.s.s.s.s.s.s.s.s.s.s.e.e.e.e.s.s.g.s.g.%.- ",
"G.M.s.s.s.s.s.s.s.s.e.e.s.s.s.s.s.s.s.s.s.s.s.s.s.s.s.s.s.s.s.s.s.s.s.s.s.s.s.s.s.s.s.s.s.s.s.s.g.s.s.s.s.s.s.s.s.s.s.s.s.s.s.s.s.s.e.s.s.g.s.s.e.e.e.s.g.e.M.V <.Z.e.e.e.e.e.e.e.e.s.s.s.s.s.s.s.s.s.s.s.s.s.s.e.s.s.s.s.s.s.s.s.s.s.s.s.e.e.e.s.s.s.s.s.s.s.s.s.s.s.s.s.s.s.s.s.s.s.s.s.s.s.s.s.s.s.s.s.s.s.s.s.s.g.s.s.s.s.V e.M.s.s.g.s.g.s.s.s.s.s.s.s.s.s.s.s.s.s.s.s.s.s.s.s.s.s.s.s.s.s.s.s.s.s.s.s.s.s.s.s.s.s.s.s.s.s.e.e.e.s.e.s.s.s.s.s.s.s.s.s.s.s.s.s.s.s.s.s.s.s.s.e.g.e.s.s.s.v <.g.<.<.e.<.e.e.e.e.e.e.e.e.e.e.e.e.s.e.e.e.e.e.e.e.e.e.e.e.e.e.e.e.e.e.e.e.e.e.e.e.e.e.e.e.e.e.e.e.e.e.e.e.e.e.e.e.e.e.e.e.e.s.e.e.e.e.e.e.e.e.e.s.e.e.e.s.<.v g.s.s.s.e.e.s.s.s.s.s.s.s.s.e.e.s.s.s.g.s.s.s.s.s.s.s.s.s.s.s.s.s.s.e.e.e.e.s.s.e.e.s.s.s.s.s.s.e.e.s.s.s.s.e.e.s.s.s.s.s.s.s.s.s.s.s.s.s.e.e.e.s.s.s.s.s.s.<.v Z.g.s.s.s.s.s.s.s.s.s.s.s.s.s.s.s.s.s.s.s.s.s.s.s.s.s.s.s.s.s.s.s.s.s.e.e.e.s.s.s.s.s.e.s.s.s.s.s.s.s.s.s.s.s.s.e.e.e.e.e.s.s.e.s.s.s.s.s.s.s.s.s.e.s.s.e.g.:.V Z.s.s.s.s.s.g.s.s.s.s.s.s.s.s.s.s.s.s.s.s.s.s.s.s.s.s.s.s.s.s.s.s.e.e.e.e.s.s.s.s.s.s.s.s.e.s.s.s.s.s.s.s.s.s.s.s.s.s.s.s.s.s.s.s.s.s.s.s.s.s.s.s.s.s.s.s.g.%.S G.s.e.g.s.s.s.s.s.s.s.s.s.s.s.s.s.s.s.s.s.s.s.s.e.e.s.s.s.s.s.s.s.s.s.s.s.s.s.s.e.s.s.s.s.s.s.s.s.s.s.s.s.s.e.e.e.e.s.s.s.s.s.s.s.s.s.s.s.s.s.g.s.g.s.s.s.g...: ",
"G.M.s.s.s.s.s.s.s.e.e.e.s.s.s.s.s.s.s.s.s.s.s.s.s.s.s.s.s.s.s.s.s.s.s.s.s.s.s.s.s.s.s.s.s.s.s.s.s.s.s.s.s.s.s.s.s.s.s.s.s.s.s.s.s.s.e.s.s.s.s.s.e.e.e.s.g.e.M.V :.Z.<.e.e.s.e.s.e.e.e.s.s.s.s.s.s.s.s.s.s.s.s.s.e.s.s.s.s.s.s.s.s.s.s.s.s.e.e.e.s.s.s.s.s.s.s.s.s.s.e.s.s.s.s.s.s.s.s.s.s.s.s.s.s.s.s.s.s.s.s.s.s.s.g.s.s.s.g.V e.M.s.s.g.s.g.s.s.s.s.s.s.s.s.s.s.s.s.s.s.s.s.s.s.s.s.s.s.s.s.s.s.s.s.s.s.s.s.s.s.s.s.s.s.s.s.s.e.e.s.s.s.s.s.s.s.s.s.s.s.s.s.s.s.s.s.s.s.s.s.s.s.e.g.e.s.s.s.v e.M.e.e.e.e.s.e.e.e.e.e.e.e.e.e.e.e.s.e.e.e.e.e.e.e.e.e.e.e.e.e.e.e.e.e.e.e.e.e.e.e.e.e.e.e.e.e.e.e.e.e.e.e.e.e.e.e.e.e.e.e.e.s.e.e.e.e.e.e.e.e.e.e.e.e.e.s.:.v g.s.s.s.e.e.e.s.s.s.s.s.s.s.s.s.s.s.s.g.s.s.s.s.s.s.s.s.s.s.s.s.s.s.e.e.e.s.s.s.e.e.s.s.s.s.s.s.e.e.s.s.s.s.s.e.s.s.s.s.s.s.s.s.s.s.s.s.s.s.s.s.e.s.s.s.s.g.<.v Z.g.s.s.s.s.s.s.s.s.s.s.s.s.s.s.s.s.s.s.s.s.s.s.s.s.s.s.s.s.s.s.s.s.s.e.e.e.s.s.s.s.s.s.s.s.s.s.s.s.s.s.s.s.s.s.e.e.e.e.s.s.s.s.s.s.s.s.s.s.s.s.s.e.s.s.e.g.:.V Z.s.s.g.s.s.g.s.s.s.s.s.s.s.s.s.s.s.s.s.s.s.s.s.s.s.s.s.s.s.s.s.s.e.e.e.e.s.s.s.s.s.s.s.s.s.s.s.s.s.s.s.s.s.s.s.s.s.s.s.s.s.s.s.s.s.s.s.s.s.s.s.s.s.s.s.s.s.%.S G.s.e.g.s.s.s.s.s.s.s.s.s.s.s.s.s.s.s.s.s.s.s.s.s.s.s.s.s.s.s.s.e.s.s.s.s.s.s.s.s.s.s.s.s.s.s.s.s.s.s.s.s.s.e.e.s.e.s.s.s.s.s.s.s.s.s.s.s.s.s.s.s.s.s.s.s.g...: ",
"G.M.s.s.s.s.s.s.s.s.e.e.s.s.s.s.s.s.s.s.s.s.s.s.s.s.s.s.s.s.s.s.s.s.s.s.s.s.s.s.s.s.s.s.s.s.s.s.s.s.s.s.s.s.s.s.s.s.s.s.s.s.s.s.s.e.e.s.s.s.s.e.e.e.s.s.g.e.g.V :.Z.e.e.e.s.e.s.e.e.e.e.s.s.s.s.s.s.s.s.s.s.s.s.e.s.s.s.s.s.s.s.s.s.s.s.s.s.s.e.s.s.s.s.s.s.s.s.s.e.s.e.s.s.s.e.s.s.s.s.s.s.s.s.s.s.s.s.s.s.s.s.s.s.g.e.s.s.g.V e.M.s.e.g.s.s.s.e.s.s.g.s.s.s.e.s.s.s.s.s.s.s.s.s.s.e.e.s.s.s.s.s.s.s.s.s.s.s.s.s.s.s.s.s.s.s.s.s.s.s.s.s.s.s.s.s.s.s.s.s.s.e.e.s.s.s.s.s.s.s.e.s.e.g.e.s.s.s.v e.M.e.e.s.e.s.s.e.e.e.e.e.e.e.e.e.e.e.e.e.e.e.e.e.e.e.e.e.e.e.e.e.e.e.e.e.e.e.e.e.e.e.e.e.e.e.e.e.e.e.e.e.e.e.e.e.e.e.e.e.e.e.e.e.e.e.e.e.e.e.e.e.e.<.e.e.s.<.v g.g.s.s.s.s.e.e.s.s.s.s.s.s.s.s.s.s.s.s.s.s.s.s.s.s.s.s.s.s.s.s.s.s.s.s.s.s.s.s.e.e.s.s.s.s.s.s.e.s.s.s.s.s.s.s.s.s.s.s.s.s.s.s.s.s.s.s.s.s.s.s.e.s.s.g.s.g.<.V Z.g.s.s.s.s.s.s.s.s.s.s.s.s.s.s.s.s.s.s.s.s.s.s.s.s.s.s.s.s.s.s.s.s.s.e.s.s.s.s.s.s.s.s.s.s.s.s.s.s.s.s.s.s.s.s.e.e.s.s.s.s.s.s.s.s.s.s.s.s.s.s.s.e.s.s.e.g.:.V Z.s.s.g.s.s.g.s.s.s.s.s.s.s.s.s.s.s.s.s.s.s.s.s.s.s.s.s.s.s.s.s.s.e.e.e.s.s.s.s.s.s.s.s.s.s.s.s.s.s.s.s.s.s.s.s.s.s.s.s.s.s.s.s.s.s.s.s.s.s.s.s.s.s.s.s.s.s.%.S G.s.e.g.s.e.s.s.s.s.s.s.s.s.s.s.s.s.s.s.s.s.s.s.s.s.s.s.s.s.s.s.e.e.s.s.s.s.s.s.e.s.s.s.s.s.s.s.s.s.s.s.s.s.e.e.s.s.s.s.s.s.s.s.e.s.s.s.s.s.s.s.s.g.s.s.s.g...: ",
"G.M.s.s.s.s.s.s.s.e.e.e.e.s.s.s.s.s.s.s.s.s.s.s.s.s.s.s.s.s.s.s.s.s.s.s.s.s.s.s.s.s.s.s.s.s.s.s.s.s.s.s.s.s.s.s.s.s.s.s.s.s.s.s.s.s.s.s.s.s.e.e.s.e.e.s.g.e.M.V :.Z.e.s.e.s.e.s.e.e.e.e.s.s.s.s.s.s.s.s.s.s.s.s.e.s.s.s.s.s.s.s.s.s.s.s.s.s.s.s.s.s.s.s.s.s.s.s.s.e.e.e.s.s.s.e.s.s.s.s.s.s.s.s.s.s.s.s.s.s.s.s.s.e.g.e.s.s.g.V e.M.s.s.g.e.s.e.e.s.s.s.s.s.s.e.s.s.s.s.s.s.s.s.e.e.e.e.e.e.s.s.s.s.s.s.s.s.s.s.s.s.s.s.s.s.s.s.s.s.s.s.s.s.s.s.s.s.s.e.e.e.e.e.s.s.s.s.s.s.s.e.s.e.g.e.s.s.s.v s.M.e.e.s.e.s.s.e.e.e.e.e.e.e.e.e.e.e.e.e.e.e.e.e.e.e.e.e.e.e.e.e.e.e.e.e.e.e.e.e.e.e.e.e.e.e.e.e.e.e.e.e.e.e.e.e.e.e.e.e.e.e.e.e.e.e.e.e.e.e.e.e.e.e.e.e.s.:.v g.g.s.s.s.e.e.s.s.s.s.s.s.s.s.s.s.s.s.s.s.s.s.s.s.s.s.s.s.s.s.s.s.s.s.s.s.s.s.s.e.e.s.s.s.s.s.s.e.s.s.s.s.s.s.s.s.s.s.s.s.s.s.s.s.s.s.s.s.s.s.s.e.s.s.g.s.g.<.V Z.g.s.s.s.s.s.s.s.s.s.s.s.s.s.s.s.s.s.s.s.s.s.s.s.s.s.s.s.s.s.s.s.s.s.s.s.s.s.s.s.s.s.s.s.s.s.s.s.s.s.s.s.s.s.s.s.s.s.s.s.s.s.s.s.s.s.s.s.s.s.s.s.e.s.s.e.g.:.V Z.s.s.g.s.s.g.s.s.s.s.s.s.s.s.s.s.s.s.s.s.s.s.s.s.s.s.s.s.s.s.s.e.e.e.e.s.s.s.s.s.s.s.s.s.s.s.s.s.s.s.s.s.s.s.s.s.s.s.s.s.s.s.s.s.s.s.s.s.s.s.s.s.e.s.s.s.s.%.S G.s.e.g.s.e.s.s.s.s.s.s.s.s.s.s.s.s.s.s.s.s.s.s.g.s.s.s.s.s.s.s.<.e.s.s.s.s.s.s.e.s.s.s.s.s.s.s.s.s.s.s.s.s.s.e.s.s.s.s.s.s.s.s.e.s.s.s.s.e.e.s.s.s.s.s.s.g...: ",
"G.M.s.s.s.s.s.s.s.s.e.e.s.s.s.s.s.s.s.s.s.s.s.s.s.s.s.s.s.s.s.s.s.s.s.s.s.s.s.s.s.s.s.s.s.s.s.s.e.e.s.s.s.s.s.s.s.s.s.s.s.s.s.s.s.s.s.s.e.e.e.<.s.s.s.s.g.e.M.V %.M.e.e.s.g.e.s.e.e.e.s.s.s.s.s.s.s.s.s.s.s.s.s.s.s.s.s.s.s.s.s.s.s.s.s.s.s.s.s.s.s.s.s.s.s.s.s.s.e.e.e.s.s.s.e.s.s.s.s.s.s.s.s.s.s.s.s.s.s.s.s.s.e.g.e.e.s.s.V e.M.e.e.s.e.s.e.s.e.s.e.e.s.s.s.s.s.s.s.s.s.s.s.e.e.e.e.e.s.s.s.s.s.s.s.s.s.s.s.s.s.s.s.s.s.s.s.s.s.s.e.e.e.s.s.e.e.e.e.e.e.e.e.s.s.s.s.s.s.s.e.s.e.g.e.s.s.s.v e.M.e.e.s.e.s.e.e.e.e.e.e.e.e.e.e.e.e.e.e.e.e.e.e.e.e.e.e.e.e.e.e.e.e.e.e.e.e.e.e.e.e.e.e.e.e.e.e.e.e.e.e.e.e.e.e.e.e.e.e.e.e.e.e.e.e.e.e.e.e.e.e.s.e.e.e.s.<.v g.s.s.s.s.e.s.s.s.s.s.s.s.s.s.s.s.s.s.s.s.s.s.s.s.s.s.s.s.s.s.s.s.s.s.s.s.s.s.s.e.e.s.s.s.s.s.s.e.e.s.s.s.s.s.s.s.s.s.s.s.s.s.s.s.s.e.e.e.e.s.s.e.s.s.g.s.g.<.V Z.g.s.s.s.s.s.s.s.s.s.s.s.s.s.s.s.s.s.s.s.s.s.s.s.s.s.s.s.s.s.s.s.e.s.s.s.s.s.s.s.s.s.s.s.s.s.s.s.s.s.s.s.s.s.s.s.s.s.s.s.s.s.s.s.s.s.s.s.s.s.s.s.e.s.s.e.g.:.V Z.s.s.g.s.s.g.s.s.s.s.s.s.s.s.s.s.s.s.s.s.s.s.s.s.s.s.s.s.s.s.s.s.s.s.s.s.s.s.s.s.s.s.s.s.s.s.s.s.s.s.s.s.s.s.s.s.s.s.s.s.s.s.s.s.s.s.s.s.s.s.s.s.e.s.s.s.s.%.S G.s.e.g.s.e.s.s.s.s.s.s.s.s.s.s.s.s.s.s.s.s.s.s.s.s.s.s.s.e.e.e.e.e.s.s.s.s.s.s.e.s.s.s.s.s.s.s.s.s.s.s.s.s.s.s.s.s.s.s.s.s.s.s.s.s.s.s.s.e.e.e.s.s.s.s.s.g...: ",
"G.M.s.s.s.s.s.s.s.s.e.e.s.s.s.s.s.s.s.s.s.s.s.s.s.s.s.s.s.s.s.s.s.s.s.s.s.s.s.s.s.s.s.s.s.s.s.s.e.e.e.e.s.s.s.s.s.s.s.s.s.s.s.s.s.s.s.s.e.<.<.<.s.s.s.s.g.e.M.V %.Z.e.s.s.g.e.s.s.s.s.s.s.s.s.s.s.s.s.s.s.s.s.s.s.s.s.s.s.s.s.s.s.s.s.s.s.s.s.e.s.s.s.s.s.s.s.s.s.e.s.s.s.s.s.s.s.s.s.s.s.s.s.s.s.s.s.s.s.s.s.s.s.e.g.e.e.s.s.V e.M.e.e.s.e.s.e.s.e.e.e.e.e.s.s.s.s.s.s.s.s.s.s.s.s.e.e.s.s.s.s.s.s.s.s.s.s.s.s.s.s.s.s.s.s.s.s.s.s.e.e.e.e.e.e.e.e.e.e.e.e.e.e.s.s.s.s.s.s.s.s.s.e.g.e.s.s.s.v e.M.e.<.e.<.e.e.e.e.e.e.e.e.e.e.e.e.e.e.e.e.e.e.e.e.e.e.e.e.e.e.e.e.e.e.e.e.e.e.e.e.e.e.e.e.e.e.e.e.e.e.e.e.e.e.e.e.e.e.e.e.e.e.e.e.e.e.e.e.e.e.e.s.e.e.e.s.<.v g.g.s.s.s.s.s.s.s.s.s.s.s.s.s.s.s.s.s.s.e.s.s.s.s.s.s.s.s.s.s.s.s.s.s.s.s.s.s.s.e.e.s.s.s.s.s.s.s.s.s.s.s.s.s.s.s.s.s.s.s.s.s.s.e.e.e.e.s.s.s.s.e.s.s.g.s.g.<.V Z.g.s.s.s.s.s.s.s.s.s.s.s.s.s.s.s.s.s.s.s.s.s.s.s.s.s.s.s.s.s.s.e.e.s.s.s.s.s.s.s.s.s.s.s.s.s.s.s.s.s.s.s.s.s.s.s.s.s.s.s.s.s.s.s.s.s.s.s.s.s.s.s.e.s.s.e.g.:.V Z.s.s.g.e.s.g.s.s.s.s.s.s.s.s.s.s.s.s.s.s.s.s.s.s.s.s.s.s.s.s.s.s.s.s.s.s.s.s.s.s.s.s.s.s.s.s.s.s.s.s.s.s.s.s.s.s.s.s.s.s.s.s.s.s.s.s.s.s.s.s.s.s.e.s.s.s.s...S G.s.e.g.s.e.s.s.s.s.s.s.s.s.s.s.s.s.s.s.s.s.s.s.s.s.s.s.s.e.e.e.e.e.s.s.s.s.s.s.e.s.s.s.s.s.s.s.s.s.s.s.s.s.s.s.s.s.s.s.s.s.s.s.s.s.s.e.e.e.e.s.s.s.s.s.s.g...: ",
"G.M.s.s.s.s.s.s.g.s.e.e.s.s.s.s.s.s.s.s.s.s.s.s.s.s.s.s.s.s.s.s.s.s.s.s.s.s.s.s.s.s.s.s.s.s.s.s.e.e.e.e.s.s.s.s.s.s.s.s.s.s.s.s.e.s.s.s.e.e.e.e.s.s.s.s.g.s.M.V :.Z.e.s.s.g.e.s.s.s.s.s.s.s.s.s.e.s.s.s.s.s.s.s.s.s.s.s.s.s.s.s.s.s.s.s.s.e.e.e.s.s.s.s.s.s.s.s.s.s.e.s.s.s.s.s.s.s.s.s.s.s.e.e.s.s.s.s.s.s.s.s.s.e.g.e.e.s.s.V e.M.e.e.s.e.s.s.e.e.e.e.s.s.s.s.s.s.s.s.s.s.s.s.s.s.s.s.s.s.s.s.s.s.s.s.s.s.s.s.s.s.s.s.s.s.s.s.s.s.s.s.s.s.s.s.e.e.e.e.e.s.s.s.s.s.s.s.s.s.s.s.s.e.g.e.s.s.s.v e.M.e.e.s.<.e.e.e.e.e.e.e.e.e.e.<.e.e.e.e.e.e.e.e.e.e.e.e.e.e.e.e.e.e.e.e.e.e.e.e.e.e.e.e.e.e.e.e.e.e.e.e.e.e.e.<.e.e.e.e.e.e.e.e.e.e.e.e.e.e.e.e.e.e.s.e.s.:.v g.g.s.s.s.s.s.s.s.s.s.s.s.s.s.s.s.s.e.e.e.s.s.s.s.s.s.s.s.s.s.s.s.s.s.s.s.s.s.s.s.s.s.s.s.s.s.s.s.s.s.s.s.s.s.s.s.s.s.s.s.s.s.s.e.e.e.e.e.s.s.s.s.s.s.s.s.g.<.v M.g.s.s.s.s.s.s.s.s.s.s.s.s.s.s.s.s.s.s.s.s.s.s.s.s.s.s.s.s.s.s.e.e.e.s.s.s.s.s.s.s.s.s.s.s.s.s.s.s.s.s.s.s.s.s.s.s.s.s.s.s.s.s.s.s.s.s.s.s.s.s.s.e.s.s.e.g.:.V Z.s.s.s.e.e.s.s.s.s.s.s.s.s.s.s.s.s.s.s.s.s.s.s.s.s.s.s.s.s.s.s.s.s.s.s.s.s.s.s.s.s.s.s.s.s.s.s.s.s.s.s.s.s.s.s.s.s.s.s.s.s.s.s.s.s.s.s.s.s.s.s.s.e.s.s.s.s.%.S G.s.e.s.s.e.s.s.s.s.s.s.s.s.s.s.s.s.s.s.s.s.s.s.s.s.s.s.s.s.s.s.s.s.s.s.s.s.e.e.e.s.s.s.s.s.s.s.s.s.s.s.s.s.s.s.s.s.s.s.s.s.s.s.s.s.s.e.e.e.e.s.s.s.s.s.s.g...: ",
"G.M.s.s.s.s.s.s.g.s.s.s.s.g.s.g.s.s.s.s.s.s.s.s.s.s.s.s.s.s.s.s.s.s.s.s.s.s.s.s.s.s.s.s.s.s.s.s.e.e.e.e.s.s.s.s.s.s.s.s.s.s.s.s.e.e.s.s.e.e.s.s.s.s.s.s.g.s.M.V :.Z.e.s.s.g.e.s.s.s.s.g.s.s.s.s.e.s.s.s.s.s.s.s.s.s.s.s.s.s.s.s.s.s.s.s.s.e.e.e.s.s.s.s.s.s.s.s.s.s.s.s.s.s.s.s.s.s.s.s.s.s.e.e.s.s.s.s.s.s.e.e.s.e.g.e.e.s.s.V e.M.e.e.s.s.s.e.e.e.s.s.s.s.s.s.s.s.s.s.s.s.s.s.s.s.s.s.s.s.s.s.s.s.s.s.s.s.s.s.s.s.s.s.s.s.s.s.s.s.s.s.s.s.s.s.s.e.e.e.s.s.g.g.s.s.s.s.s.s.s.s.s.e.g.e.s.s.s.v e.g.e.e.s.e.s.e.e.e.e.e.e.e.e.e.e.e.e.e.e.e.e.e.e.e.e.e.e.e.e.e.e.e.e.e.e.e.e.e.e.e.e.e.e.e.e.e.e.e.e.e.e.e.e.e.<.e.e.e.e.e.e.e.e.e.e.e.e.e.e.e.e.e.e.e.e.s.:.v g.g.s.s.s.s.s.s.s.s.s.s.s.s.s.s.s.s.s.e.e.s.s.s.s.s.s.s.s.s.s.s.s.s.s.s.s.s.s.s.s.s.s.s.s.s.s.s.s.s.s.s.s.s.s.s.s.s.s.s.s.s.s.s.s.s.s.s.s.s.s.s.s.s.s.g.s.s.<.v M.g.s.s.s.s.s.s.s.s.s.s.s.s.s.s.s.s.s.s.s.s.s.s.s.s.s.s.s.s.s.s.e.e.e.s.s.s.s.s.s.s.s.e.s.s.s.s.s.s.s.s.s.s.s.s.e.e.e.s.s.s.s.s.s.s.s.s.s.s.s.s.s.e.s.s.e.g.:.V M.s.e.s.e.e.s.e.s.s.s.s.s.s.s.s.s.s.s.s.s.s.s.s.s.s.s.s.s.s.s.s.e.s.s.s.s.s.s.s.s.s.s.s.s.s.s.s.s.s.s.s.s.s.s.s.s.s.s.s.s.s.s.s.s.s.s.s.s.s.s.s.s.e.s.s.s.s...S G.s.e.s.s.e.s.s.s.s.s.s.s.s.s.s.s.s.s.s.s.s.s.s.s.s.s.s.s.s.s.s.s.s.s.s.s.e.s.e.e.s.s.s.s.s.s.s.s.s.s.s.s.s.s.s.s.s.s.s.s.g.s.s.g.s.s.e.e.e.s.s.s.s.s.s.s.g...: ",
"G.M.s.s.s.s.e.e.e.s.s.s.s.s.s.s.e.e.e.e.s.s.s.s.s.e.e.e.e.s.s.s.e.e.e.s.s.s.s.s.s.s.s.s.s.s.s.s.s.s.s.s.e.e.e.e.s.s.s.s.s.s.s.s.e.e.e.e.e.e.s.s.g.e.g.s.s.s.s.V <.Z.e.g.e.s.s.e.s.s.s.s.e.s.s.s.s.s.s.s.s.e.s.s.s.s.s.s.s.s.s.s.s.e.e.e.e.e.e.e.s.s.s.s.s.s.s.s.s.s.s.s.s.s.s.s.s.s.s.s.e.s.s.s.e.s.s.s.e.e.e.e.g.e.g.e.s.e.s.V e.M.e.e.s.e.s.e.e.e.s.s.s.s.s.e.s.s.s.s.s.s.s.s.s.s.s.s.s.s.s.e.s.s.s.s.s.s.s.s.s.s.s.s.s.s.s.s.s.s.s.s.s.s.s.s.s.s.s.s.s.s.s.s.s.s.s.s.e.e.e.e.g.e.s.e.e.e.e.p s.s.e.<.s.s.e.s.e.e.e.e.e.e.e.e.e.e.e.e.e.e.e.e.e.e.e.e.e.e.e.e.e.e.e.e.e.e.e.e.e.e.e.e.e.e.e.e.e.e.e.e.e.e.e.e.e.e.e.e.e.e.e.e.e.e.e.e.e.e.e.e.e.e.e.e.e.s.<.v M.g.s.s.s.s.s.s.s.s.s.s.s.s.s.s.s.e.s.s.s.s.s.s.s.s.s.e.e.s.s.s.s.s.s.s.s.s.s.s.s.e.s.s.s.s.s.s.s.s.s.s.s.s.s.s.s.s.s.e.e.e.e.e.s.s.s.s.s.s.s.s.s.s.s.s.s.s.<.v Z.g.s.s.s.e.e.s.s.s.s.s.s.s.s.s.s.s.s.s.s.s.s.s.s.s.s.e.e.e.e.e.e.e.e.s.s.s.s.s.s.s.s.s.s.s.s.s.s.s.s.e.e.s.s.s.s.s.s.s.s.s.s.s.s.s.s.s.s.s.s.s.s.e.s.s.e.s.:.V Z.g.e.s.s.s.s.s.s.s.s.s.s.s.e.e.s.s.s.s.s.s.s.s.s.s.s.s.s.s.s.s.s.s.s.s.s.s.s.s.s.s.s.s.s.s.s.s.s.s.s.s.s.s.s.s.s.s.s.s.s.s.s.e.s.s.s.e.e.e.e.e.s.e.s.s.s.s...S G.s.e.s.e.e.s.s.e.e.s.s.s.s.s.s.e.e.s.s.s.s.s.s.e.e.s.s.s.s.s.s.g.s.e.e.s.s.s.s.s.s.s.s.s.s.s.s.s.s.s.s.s.s.s.e.e.s.s.s.s.s.s.s.s.s.s.e.e.e.s.s.e.s.s.s.s.g...: ",
"Z.g.e.s.s.s.s.s.s.s.s.s.s.s.s.e.e.e.e.e.s.s.s.s.s.e.e.e.e.s.s.s.e.e.e.s.s.s.s.s.s.s.s.s.s.s.s.s.e.s.s.s.e.e.e.e.s.s.s.s.s.s.s.s.e.e.e.e.e.e.s.s.g.e.g.e.s.s.s.V <.Z.e.g.e.s.s.s.s.s.s.e.e.e.s.s.s.s.s.e.s.e.s.s.s.s.s.s.s.s.s.s.s.e.e.e.e.e.e.e.s.s.s.s.s.s.s.s.s.s.s.s.s.s.s.s.s.s.s.e.e.s.s.s.e.s.s.s.e.e.e.e.g.e.g.e.s.e.s.V e.M.e.e.s.e.s.e.e.s.s.s.s.s.s.s.s.s.s.s.s.s.s.s.s.s.s.s.s.s.e.e.s.s.s.s.s.s.s.e.s.s.s.s.s.s.s.s.s.s.s.s.s.s.s.s.s.s.s.s.s.s.s.s.s.s.s.s.s.e.e.e.s.e.s.e.e.e.e.p s.s.e.<.e.e.<.e.e.e.e.e.e.e.e.e.e.e.e.e.e.e.e.e.e.e.e.e.e.e.e.e.e.e.e.e.e.e.e.e.e.e.e.e.e.e.e.e.e.e.e.e.e.e.e.e.e.e.e.e.e.e.e.e.e.e.e.e.e.e.e.e.e.e.e.e.e.s.<.v M.g.s.s.s.s.s.s.s.s.s.s.s.s.s.s.s.e.e.s.s.s.s.s.s.s.s.s.e.s.s.s.s.s.s.s.s.s.s.s.e.s.s.s.s.s.s.s.s.s.s.s.s.s.s.s.s.s.s.e.e.e.e.e.s.s.s.s.s.s.s.s.s.s.s.s.e.s.<.v Z.g.s.s.s.e.e.s.s.s.s.s.s.s.s.s.s.s.s.s.s.s.s.s.s.s.s.e.e.e.e.e.e.e.e.s.s.s.s.s.s.s.s.s.s.s.s.s.s.s.s.e.e.s.s.s.s.s.s.s.s.s.s.s.s.s.s.s.s.s.s.s.s.e.s.s.e.s.:.V Z.g.e.s.s.s.s.s.s.s.s.s.s.s.e.e.s.s.s.s.s.s.s.s.s.s.s.s.s.s.s.s.s.s.s.s.e.s.s.s.s.s.s.s.s.s.s.s.s.s.s.s.s.s.s.e.s.s.s.s.s.s.s.e.s.s.s.e.e.e.e.e.s.e.s.s.s.s...S G.s.e.s.e.e.s.s.e.e.e.s.s.s.s.s.s.s.s.s.s.s.s.s.e.e.s.s.s.s.s.s.s.s.e.e.e.s.s.s.s.s.s.s.s.s.s.e.s.s.s.s.s.s.s.s.s.s.s.s.s.s.s.s.s.s.s.e.e.e.e.s.e.s.s.s.s.g...: ",
"Z.g.e.s.s.s.s.g.s.s.s.e.e.e.s.s.e.e.e.s.s.s.e.e.e.s.e.e.s.s.s.s.e.e.e.s.s.s.e.e.e.e.e.s.s.s.s.s.e.e.s.s.e.s.s.s.s.s.s.s.s.e.s.s.e.e.e.e.e.e.s.s.g.e.g.e.e.e.s.V <.Z.e.g.e.s.s.s.s.s.e.e.e.e.e.e.s.s.s.e.e.e.e.s.s.s.s.s.s.s.s.s.e.e.e.e.e.e.e.e.s.s.s.s.s.s.s.s.s.s.s.s.s.s.s.s.s.s.s.e.e.s.s.s.s.s.s.s.s.e.e.e.g.e.g.e.s.e.s.V e.M.e.e.s.e.s.e.s.s.s.s.s.s.s.s.s.s.s.s.s.s.s.s.s.s.s.s.s.s.s.s.s.s.s.s.s.s.e.e.s.s.s.s.s.s.s.s.s.s.s.s.s.s.s.s.s.s.s.s.s.s.s.s.s.s.s.s.e.e.e.e.s.e.s.e.s.e.e.v e.s.e.<.s.e.<.e.e.e.e.e.e.e.e.e.e.e.e.e.e.e.e.e.e.e.e.e.e.e.e.e.e.e.e.e.e.e.e.e.e.e.e.e.e.e.e.e.e.e.e.e.e.e.e.e.e.e.e.e.e.e.e.e.e.e.e.e.e.e.e.e.e.e.e.e.e.s.<.v M.g.s.s.s.s.s.s.s.s.s.s.s.s.s.s.e.e.e.e.e.e.s.s.s.s.s.e.e.s.s.s.s.s.s.s.e.e.s.s.e.e.e.e.s.s.s.s.s.s.s.s.s.s.s.s.s.s.s.e.e.e.s.s.s.s.s.s.s.s.s.s.e.s.e.s.e.s.:.v Z.g.e.s.s.e.s.s.s.s.s.s.s.s.s.s.s.s.s.s.s.s.s.s.s.s.s.e.e.e.e.e.s.s.s.s.s.s.s.s.s.s.s.s.s.s.s.s.s.s.s.e.e.s.s.s.s.s.s.s.s.s.s.s.s.s.s.e.e.s.s.s.s.e.s.s.e.s.:.V Z.g.e.s.s.s.s.s.s.s.s.s.s.s.e.e.s.s.s.s.s.s.s.s.s.s.s.s.s.s.s.s.s.s.e.e.e.e.s.s.s.s.s.s.s.s.s.s.s.s.s.s.s.s.s.e.e.e.e.e.s.s.s.e.s.s.s.s.e.e.e.e.s.e.s.s.s.s...S G.s.e.s.e.e.s.s.e.e.s.s.s.s.s.s.s.s.s.s.s.s.s.e.e.e.s.s.s.s.s.s.s.s.e.e.e.e.s.s.s.s.e.e.s.e.e.e.s.s.s.s.s.s.s.s.s.s.s.s.s.s.s.s.s.s.e.e.e.e.s.s.e.g.s.s.s.g...: ",
"G.g.s.e.s.s.s.s.s.s.e.e.e.e.s.s.e.e.s.s.s.s.e.e.s.s.e.e.e.s.s.s.e.e.s.s.s.s.e.e.e.e.e.e.s.s.s.s.e.e.e.e.s.s.s.s.s.s.s.e.e.e.s.s.e.s.e.e.e.e.s.s.s.e.s.e.e.e.s.V <.Z.e.g.e.s.s.s.s.e.e.e.e.e.e.e.s.s.s.e.e.e.e.s.s.s.s.s.s.s.s.s.s.e.e.e.e.e.e.e.s.s.s.s.s.s.s.s.e.e.e.e.e.e.e.e.s.s.s.e.e.s.s.s.s.s.s.s.e.e.e.s.g.e.g.e.s.e.s.V e.M.e.e.s.e.s.s.s.s.s.s.e.s.s.s.e.e.e.e.e.e.e.e.s.s.s.s.s.s.s.s.e.e.s.s.s.s.e.e.s.s.s.s.s.s.s.s.s.s.s.s.s.s.s.s.s.s.s.s.s.s.s.s.s.s.s.s.s.s.s.s.s.<.s.e.s.s.s.v s.g.s.e.s.e.<.e.e.e.e.e.e.e.e.e.e.e.e.e.e.e.e.e.e.e.e.e.e.e.e.e.e.e.e.e.e.e.e.e.e.e.e.e.e.e.e.e.e.e.e.e.e.e.e.e.e.e.e.e.e.e.e.e.e.e.e.e.e.e.e.e.e.e.e.e.e.s.<.v M.g.s.s.s.s.s.s.e.e.e.e.e.e.e.e.s.e.e.e.e.e.e.s.s.s.s.e.e.s.s.s.s.s.e.e.e.e.e.e.e.e.e.e.e.e.e.e.s.s.s.s.s.s.s.s.s.s.s.e.e.e.s.s.s.s.s.s.s.s.s.s.e.s.s.s.e.s.<.v M.g.e.s.s.e.s.s.s.s.s.s.s.s.s.s.s.s.s.s.s.s.s.s.s.s.s.s.e.e.e.e.s.s.s.s.s.s.s.s.s.s.s.s.s.s.s.s.s.s.s.e.e.s.s.s.s.s.s.s.s.s.s.s.s.s.e.e.e.e.s.s.s.e.s.s.e.s.:.V Z.g.e.s.s.s.s.s.s.s.s.s.s.s.e.e.s.s.s.s.s.s.s.s.s.s.s.s.s.s.s.s.s.s.e.e.e.e.s.s.s.s.s.s.s.s.s.s.s.s.s.s.s.s.e.e.e.e.e.e.e.s.s.e.s.e.s.s.e.e.e.e.s.e.s.s.s.s...S G.s.e.s.e.e.s.s.s.s.s.s.s.s.s.e.s.s.s.e.e.e.e.e.e.s.s.s.s.s.s.s.s.e.<.<.e.e.s.s.s.s.s.e.e.e.e.e.s.s.s.s.s.s.s.s.s.s.s.s.s.s.s.s.s.s.e.e.e.e.s.s.e.s.s.s.s.g...: ",
"Z.g.s.s.s.s.e.e.s.s.e.e.e.e.s.s.e.e.s.s.s.s.e.e.s.s.s.s.e.e.e.e.e.e.s.s.s.e.e.e.e.e.e.e.e.s.s.s.e.e.e.e.s.s.s.s.e.e.e.e.e.e.e.s.s.s.e.e.e.e.s.s.s.e.s.e.e.s.s.V <.Z.e.g.e.s.e.e.s.e.e.e.e.e.e.e.s.s.s.s.e.e.e.e.s.s.s.s.s.s.s.s.s.s.e.e.e.s.s.s.s.s.s.s.s.s.s.s.s.s.s.s.e.e.e.e.s.s.s.e.e.s.s.s.s.s.s.e.e.e.s.s.s.e.g.e.s.e.s.V e.M.e.e.s.e.s.s.s.s.s.s.e.s.s.s.s.s.s.e.e.e.e.e.s.s.e.s.s.s.e.e.e.e.e.s.e.e.e.e.s.s.s.s.s.s.s.s.s.s.s.s.s.s.s.s.s.s.s.s.s.s.s.s.e.s.s.s.s.s.s.s.s.e.s.e.s.s.s.v s.g.e.e.s.e.<.e.e.e.e.e.e.e.e.e.e.e.e.e.e.e.e.e.e.e.e.e.e.e.e.e.e.e.e.e.e.e.e.e.e.e.e.e.e.e.e.e.e.e.e.e.e.e.e.e.e.e.e.e.e.e.e.e.e.e.e.e.e.e.e.e.e.e.e.e.e.s.<.v g.g.s.s.s.s.s.s.e.e.e.s.e.e.s.e.s.s.e.e.e.e.s.s.s.s.s.s.e.s.s.s.s.s.e.e.e.e.e.e.e.e.e.s.e.e.e.e.e.s.s.s.s.s.s.s.s.s.s.e.e.e.s.s.s.s.s.s.s.s.s.s.s.s.s.s.e.s.<.v M.g.e.s.s.s.s.s.s.s.s.s.s.s.s.s.s.s.s.s.s.s.s.s.s.s.e.e.e.e.e.s.s.s.s.s.s.s.s.s.s.s.s.s.s.s.s.s.s.s.s.e.e.s.s.s.s.s.s.s.s.s.s.s.s.e.e.e.e.s.s.s.s.e.s.s.e.s.:.V Z.g.e.e.s.s.s.s.s.s.s.s.s.s.e.e.s.s.s.s.s.s.s.s.s.s.s.s.s.s.s.s.s.s.s.e.e.e.e.s.s.s.s.s.s.s.s.s.s.s.s.s.s.s.e.e.e.e.e.e.e.s.s.s.e.e.s.s.s.s.e.s.s.e.s.s.s.s.%.S G.s.e.s.s.e.s.e.s.s.s.s.s.s.e.e.s.s.s.e.e.e.e.e.s.s.s.s.s.s.s.e.s.e.e.e.e.e.s.s.e.e.e.e.e.e.e.e.e.e.e.s.s.s.s.s.s.s.s.s.s.e.e.s.s.s.e.e.e.s.s.s.e.s.s.s.s.g...: ",
"M.g.e.s.s.s.s.s.s.e.e.e.e.e.s.s.e.e.s.s.s.s.e.s.s.s.s.s.s.e.e.e.e.s.s.s.s.s.e.e.e.e.e.e.e.e.e.e.e.e.e.e.s.s.s.s.e.e.e.e.e.e.e.e.s.s.s.e.e.e.s.s.s.e.s.e.e.e.s.V <.Z.e.g.e.s.e.e.s.s.e.e.e.e.s.s.s.s.s.e.e.e.e.s.s.s.s.s.s.s.s.s.s.s.e.s.s.s.s.s.s.s.s.s.s.s.s.s.s.s.e.s.e.e.e.e.s.s.s.e.e.s.s.s.s.s.s.e.e.e.s.s.s.e.g.e.s.e.s.V e.M.e.e.s.e.s.s.s.s.s.s.s.s.e.e.s.s.s.s.e.e.e.e.e.e.e.e.s.e.e.e.e.e.s.s.s.s.s.s.s.s.s.s.s.s.s.s.s.s.s.s.s.s.s.s.s.s.s.s.s.s.s.s.s.s.s.s.s.s.s.s.s.e.s.s.s.s.s.v e.s.e.<.e.e.:.<.e.e.e.e.s.s.e.e.e.e.e.e.e.e.e.e.e.e.e.e.e.e.e.e.e.e.e.e.e.e.e.e.e.e.e.e.e.e.e.e.e.e.e.e.e.e.e.e.e.e.e.e.e.e.e.e.e.e.e.e.e.e.e.e.e.e.e.e.e.s.<.v g.g.s.s.s.s.s.s.s.s.s.s.s.s.s.s.s.s.e.e.e.e.s.s.s.s.s.e.e.s.s.s.s.s.s.s.e.e.s.s.e.e.e.s.s.s.e.e.e.e.s.s.s.s.s.s.s.s.s.e.e.e.s.s.s.s.s.s.s.s.s.s.s.s.s.s.e.s.<.v Z.g.s.s.s.s.s.s.s.s.s.s.s.s.s.s.s.s.s.s.s.s.s.s.s.s.e.e.e.e.s.s.s.s.s.s.s.s.s.s.s.s.s.s.s.s.s.s.s.s.s.e.e.s.s.s.s.s.s.s.s.s.s.s.e.e.e.e.e.s.s.s.s.e.s.s.e.s.:.V Z.g.e.e.s.s.s.s.s.s.s.s.s.s.e.e.s.s.s.s.s.s.s.s.s.s.s.s.s.s.s.s.s.s.e.e.e.e.e.s.s.s.s.s.s.s.s.s.s.s.s.s.s.e.s.e.e.e.e.e.s.s.s.s.e.e.s.s.s.s.s.s.s.e.s.s.s.s.%.S G.s.e.s.s.e.s.e.s.s.s.s.s.s.e.e.s.s.e.e.e.e.e.e.s.s.s.s.s.s.e.e.s.e.e.e.e.s.s.s.s.e.e.e.s.e.e.e.e.e.e.s.s.s.s.s.s.s.s.s.s.e.e.e.s.s.e.e.e.s.s.s.e.s.s.s.s.g...: ",
"Z.g.e.s.s.s.s.e.e.e.e.e.e.e.s.s.e.s.s.s.s.s.s.s.e.s.s.s.s.e.e.e.e.e.s.s.s.s.s.s.s.s.s.s.e.e.e.e.s.s.e.s.s.s.s.s.e.e.e.e.e.e.e.s.s.s.s.e.s.s.s.s.s.<.s.e.e.s.s.V <.Z.e.g.e.s.e.e.s.s.s.e.s.e.s.s.s.s.s.e.e.e.e.e.s.s.s.s.s.s.s.s.s.s.s.s.s.s.s.s.s.s.s.s.s.s.s.s.s.s.s.s.e.s.e.e.s.s.s.e.e.s.s.s.s.s.s.e.e.e.s.s.s.e.s.e.s.e.s.V e.M.s.e.s.e.s.s.s.s.s.s.s.s.e.e.s.s.s.s.e.e.e.e.e.e.e.e.e.e.e.e.s.s.s.s.s.s.s.s.s.s.s.s.s.s.s.s.s.s.s.s.s.s.s.s.s.s.s.s.s.s.s.s.s.s.s.s.s.s.s.s.g.e.g.s.s.s.e.v e.s.<.<.e.e.<.e.e.e.e.e.e.e.e.e.e.e.e.e.e.e.e.e.e.e.e.e.e.e.e.e.e.e.e.e.e.e.e.e.e.e.e.e.e.e.e.e.e.e.e.e.e.e.e.e.e.e.e.e.e.e.e.e.e.e.e.e.e.e.e.e.e.e.e.e.e.s.<.v g.g.s.s.s.s.s.s.s.s.s.s.s.s.s.s.s.s.s.e.e.s.s.s.s.s.s.e.e.s.s.s.s.s.s.s.s.s.s.s.e.e.s.s.s.s.s.s.e.e.e.e.e.s.s.s.s.s.s.e.e.s.s.s.e.e.e.e.s.s.s.e.e.s.e.s.e.s.<.v Z.g.s.s.s.s.e.s.e.e.e.e.e.e.e.e.s.s.s.s.s.s.s.s.s.s.s.e.e.s.s.s.e.e.e.s.s.s.s.s.s.s.s.s.s.s.s.s.s.s.s.e.e.s.s.s.s.s.s.s.s.s.s.s.e.e.e.e.s.s.e.e.s.e.s.s.e.s.:.V Z.g.e.e.s.s.s.s.s.s.s.s.s.s.e.e.s.s.s.s.s.s.s.s.s.s.s.s.s.s.s.s.s.s.e.e.e.e.s.s.s.s.s.s.s.s.s.s.e.s.s.s.s.e.e.e.e.e.s.s.s.s.s.e.e.e.e.s.s.s.s.s.s.e.s.s.s.s.%.S G.s.e.s.s.e.s.e.e.s.s.s.s.s.s.e.s.s.e.e.e.e.e.s.s.s.s.s.s.s.s.e.s.e.e.s.s.s.s.s.s.s.s.s.s.s.e.s.e.e.e.s.s.s.s.s.s.s.s.s.s.e.s.e.s.e.e.e.e.e.s.s.e.g.s.s.s.g...: ",
"G.M.s.s.s.e.<.<.e.e.e.e.e.s.s.s.e.s.s.e.e.e.s.s.e.s.s.s.s.e.e.e.e.e.e.s.s.s.s.s.s.s.s.s.e.e.e.e.s.s.s.s.s.s.s.s.e.e.e.e.e.e.e.s.s.s.s.s.s.s.s.s.s.<.s.e.e.s.s.V <.Z.e.g.e.s.s.s.s.s.s.s.s.s.s.s.s.s.e.e.e.e.e.e.s.s.s.s.s.s.s.s.s.s.s.s.s.s.s.s.s.s.s.s.s.s.s.s.e.e.e.e.e.e.e.e.s.s.s.e.e.s.s.s.s.s.s.e.e.e.s.s.s.e.s.e.e.e.s.V e.M.e.e.s.e.s.s.e.s.s.s.s.s.e.e.e.e.e.e.e.e.e.e.e.e.e.e.e.e.e.e.s.s.s.s.s.s.s.s.s.s.s.s.s.s.s.s.s.s.s.s.s.s.s.s.s.s.s.s.s.s.s.s.s.s.s.s.s.s.s.s.g.e.g.s.s.e.e.v s.s.e.<.e.e.<.e.e.e.e.e.e.e.e.e.e.e.e.e.e.e.e.e.e.e.e.e.e.e.e.e.e.e.e.e.e.e.e.e.e.e.e.e.e.e.e.e.e.e.e.e.e.e.e.e.e.e.e.e.e.e.e.e.e.e.e.e.e.e.e.e.e.e.e.e.e.s.<.v g.g.s.s.s.s.s.s.s.s.s.s.s.s.s.s.s.s.e.e.e.e.s.s.s.s.s.e.e.s.s.s.s.s.s.s.s.s.s.s.e.e.s.s.s.s.s.s.e.e.e.e.e.s.s.s.s.s.s.e.e.e.s.s.e.e.e.e.s.e.e.e.e.s.e.e.e.s.:.v Z.g.s.s.s.e.e.s.e.e.e.e.e.e.e.e.s.s.s.s.s.s.s.s.s.s.s.e.s.s.s.s.e.e.e.s.s.s.s.s.s.s.s.s.s.s.s.s.s.s.s.e.e.s.s.s.s.s.s.s.s.s.s.s.e.e.e.s.s.s.e.e.s.e.s.s.e.s.:.V Z.g.e.e.s.s.s.s.s.s.s.s.s.s.e.e.s.s.s.s.s.s.s.s.s.s.s.s.s.s.s.s.s.s.e.e.e.e.s.s.s.s.s.s.s.s.s.s.e.e.s.s.s.e.e.e.s.s.s.s.s.s.s.e.e.e.e.e.s.s.s.s.s.e.s.s.s.s...S G.s.e.s.s.e.s.e.e.e.s.s.s.s.s.s.s.s.e.e.e.e.s.s.s.s.s.s.s.s.s.e.s.s.s.s.s.s.s.e.s.s.s.s.s.s.s.s.e.e.e.s.s.s.s.s.s.s.s.s.s.e.e.e.e.e.e.e.e.e.s.s.e.g.s.s.s.g...: ",
"G.g.e.e.e.e.e.e.s.s.s.s.s.s.s.s.s.s.s.s.s.s.s.s.s.s.s.s.s.s.s.s.s.s.s.s.s.s.s.e.s.s.s.s.s.s.s.s.s.s.e.e.e.e.s.s.s.s.s.s.s.s.s.s.s.s.s.s.s.s.s.s.e.<.s.e.s.s.g.S <.Z.e.g.e.s.s.s.s.s.s.s.s.e.e.e.e.e.e.e.e.s.s.s.s.s.s.s.s.s.s.s.s.s.s.s.s.s.s.s.s.s.s.e.e.e.e.e.s.e.s.s.s.s.s.s.e.s.g.s.s.s.e.e.e.e.e.e.s.s.s.s.g.e.s.e.e.e.e.v e.M.s.s.s.e.s.s.s.s.s.s.e.e.e.s.s.s.s.s.s.s.s.s.e.e.e.e.s.s.s.e.s.s.s.e.e.s.s.s.s.s.s.s.s.s.s.s.e.e.e.e.e.s.s.s.s.s.s.s.s.s.s.s.s.s.s.s.s.s.s.s.s.e.g.e.s.e.e.v s.s.e.e.e.e.e.e.e.e.e.e.e.e.e.e.e.e.e.e.e.e.e.e.e.e.<.e.e.e.e.e.e.e.e.e.e.e.e.e.s.e.e.e.e.e.e.e.e.e.e.e.e.e.e.e.e.e.e.e.e.e.e.e.e.e.e.e.e.e.e.e.e.e.e.e.e.s.:.p M.g.s.e.s.s.s.s.s.s.s.s.s.s.e.e.s.s.s.s.s.s.s.s.s.s.s.s.s.s.s.s.s.s.s.s.s.s.s.s.s.s.s.s.s.s.e.e.e.e.e.s.s.s.s.s.s.s.s.s.s.s.s.s.e.e.s.s.s.s.s.s.e.s.e.e.<.s.<.v Z.g.s.s.s.s.e.s.s.s.s.s.s.s.s.s.s.s.s.s.s.s.s.s.s.s.s.s.s.s.s.s.s.s.s.s.s.s.s.s.s.s.s.s.s.s.s.s.e.s.s.s.e.e.s.s.e.e.s.s.s.s.s.e.e.e.s.s.s.s.s.e.e.s.e.e.s.s.:.V G.g.s.s.e.s.s.s.s.s.s.s.s.s.s.s.s.s.s.s.s.s.s.e.s.s.s.s.s.s.s.s.s.s.e.e.e.e.s.s.s.s.s.s.s.s.e.e.e.e.e.s.s.s.s.s.s.s.s.s.e.e.s.s.e.e.e.e.e.e.e.e.s.e.s.e.s.e...V G.s.s.s.s.s.s.e.s.s.s.s.s.s.s.s.s.s.e.e.e.e.s.s.s.s.e.e.e.e.s.s.s.s.s.s.s.s.s.s.s.s.s.s.s.e.e.e.e.e.s.s.s.s.s.e.s.s.e.e.e.e.s.s.s.s.s.e.e.s.s.s.s.g.s.s.s.g...: ",
"G.M.s.e.s.e.e.s.s.s.s.s.s.s.s.s.s.s.s.s.s.s.s.s.s.s.s.s.s.s.s.s.e.s.s.s.s.s.s.e.s.s.s.s.s.s.s.s.s.s.e.e.e.e.s.s.s.s.s.s.s.s.s.s.s.s.s.s.s.s.s.s.e.<.s.e.s.s.s.S <.Z.e.g.e.s.s.s.s.s.s.s.s.e.e.e.e.e.e.e.e.s.s.s.s.s.s.s.s.s.s.s.s.s.s.s.s.s.s.s.e.e.e.e.e.e.e.e.s.s.s.s.s.s.s.s.e.s.s.s.s.e.e.e.e.e.e.e.s.s.s.s.s.e.e.<.e.e.s.v e.M.s.s.s.e.s.s.e.e.s.e.e.e.e.e.s.s.s.s.s.s.s.s.e.e.e.e.s.s.s.e.s.s.s.e.e.s.s.s.s.s.s.s.s.e.e.e.e.e.e.e.e.s.s.s.s.s.s.s.s.s.s.s.s.s.s.s.s.s.s.s.s.e.g.e.s.e.e.v s.s.e.e.<.<.e.e.e.e.e.e.e.e.<.<.e.e.e.e.e.e.e.e.e.e.e.e.e.e.e.e.e.e.e.e.e.e.e.e.e.e.e.e.e.e.e.e.e.e.e.e.e.e.e.e.e.e.e.e.e.e.e.e.e.e.e.e.e.e.e.e.e.e.e.s.e.s.:.p M.g.s.e.s.s.s.s.s.s.s.s.s.s.e.e.s.e.s.s.s.s.s.s.s.s.s.s.s.s.s.s.s.s.s.s.s.s.s.s.s.s.s.s.s.s.e.e.s.s.s.s.s.s.s.s.s.s.s.s.s.s.s.s.e.e.s.s.s.s.s.s.s.s.<.e.<.s.<.v Z.g.s.s.s.s.s.s.s.s.s.s.s.s.s.s.s.s.s.e.s.e.s.s.s.s.s.s.s.s.s.s.s.s.s.s.s.s.s.s.e.e.e.s.s.s.s.s.e.s.s.s.s.s.s.s.e.e.s.s.s.s.e.e.e.e.e.s.s.s.s.e.e.s.e.e.s.s.:.V G.s.s.s.e.s.s.e.s.s.s.s.s.s.s.s.s.s.s.s.s.s.s.e.s.s.s.s.s.s.s.s.s.s.e.e.e.e.s.s.s.s.s.s.s.s.e.e.e.e.e.s.s.s.s.s.s.s.s.e.e.e.s.s.e.e.e.s.e.e.s.s.s.e.s.s.s.s...V Z.s.s.s.s.s.s.e.s.s.s.s.s.s.s.s.s.e.e.e.e.s.s.s.s.s.e.e.e.e.s.s.s.s.s.s.s.s.s.s.s.s.s.s.s.e.e.e.e.e.s.s.s.s.e.e.s.e.e.e.e.e.s.s.s.s.s.s.e.s.s.s.s.g.s.s.s.g...- ",
"G.M.s.e.s.s.s.s.s.s.s.s.s.s.s.s.s.s.s.s.s.s.s.s.s.s.s.s.s.s.s.s.e.s.s.s.s.s.s.e.s.s.s.s.s.s.s.s.s.s.e.e.s.s.s.s.s.s.s.s.s.s.s.s.s.s.s.s.s.s.s.s.s.<.s.e.e.s.s.S <.Z.e.g.e.s.s.s.e.e.s.s.s.e.s.e.s.s.e.e.e.s.s.s.s.s.s.s.s.s.s.s.s.s.s.s.s.s.s.s.e.e.e.e.e.e.e.e.s.s.s.s.s.s.s.s.e.s.s.s.s.e.e.e.e.e.e.e.e.e.e.s.s.<.e.<.e.e.s.V e.M.s.s.s.e.s.s.e.e.e.e.e.e.e.e.s.s.s.s.s.s.s.s.e.e.s.e.s.s.e.e.s.s.s.e.s.s.s.s.s.s.e.e.e.e.e.e.e.e.e.e.s.s.s.s.s.s.s.s.s.s.s.s.s.s.s.s.s.s.s.s.s.e.g.e.s.e.e.v e.e.e.<.<.<.<.<.e.e.e.e.e.e.<.<.e.e.e.e.e.e.e.e.e.e.e.e.e.e.e.e.e.e.e.e.e.e.e.e.e.e.e.e.<.e.e.e.e.e.e.e.e.e.e.e.e.e.e.e.e.e.e.e.e.e.e.e.e.e.e.e.e.s.e.s.e.s.:.p M.g.s.e.s.s.s.s.s.s.s.s.s.s.s.e.e.e.e.e.e.s.s.s.s.s.s.s.s.s.s.s.s.s.s.s.s.s.s.s.s.s.s.s.s.s.e.s.s.s.s.s.s.s.s.s.s.s.s.s.s.s.s.s.s.s.s.s.s.s.s.s.s.s.e.s.e.s.<.v M.g.e.s.s.e.e.s.s.s.s.s.s.s.s.s.s.e.e.e.e.e.e.e.e.e.e.e.e.s.s.s.s.s.s.s.s.s.e.e.e.e.e.e.e.s.s.e.e.s.s.s.s.s.s.s.e.e.s.s.s.s.e.e.e.e.e.s.s.s.s.e.e.g.e.e.s.s.:.V Z.s.e.s.e.s.s.e.s.s.s.s.s.s.s.s.s.s.s.s.s.e.e.e.s.s.s.s.s.s.s.s.s.s.e.s.e.e.s.s.s.s.s.s.s.s.e.e.s.s.s.s.s.s.e.s.e.e.e.e.e.e.s.s.e.e.e.s.s.s.s.s.s.e.s.s.s.s...S Z.s.e.s.s.s.s.e.s.s.s.s.s.s.s.s.s.e.e.e.s.s.s.s.s.s.e.e.e.e.s.s.e.s.s.s.s.s.s.s.s.s.s.s.s.s.e.e.s.s.s.s.s.e.e.e.e.e.s.s.s.s.s.s.s.s.s.s.s.s.s.s.s.g.e.e.s.g...- ",
"G.M.s.e.s.s.s.s.s.s.s.s.s.s.s.s.s.s.s.s.s.s.s.s.s.s.s.s.s.s.s.s.e.s.s.s.s.s.s.e.s.s.s.s.s.s.s.s.s.s.e.e.s.s.s.s.s.s.s.s.s.s.s.s.e.s.e.e.e.e.s.s.s.<.s.e.s.s.s.S <.Z.e.g.e.s.s.s.e.e.e.s.s.s.s.e.s.s.e.e.e.s.s.s.s.s.s.s.s.s.s.s.s.s.s.s.s.s.s.s.e.e.e.e.e.e.s.s.s.s.s.s.s.s.s.s.e.s.s.s.e.e.e.e.s.s.s.e.e.e.e.e.s.<.e.e.e.s.s.V e.M.s.s.s.e.s.s.e.e.s.e.e.e.e.s.s.s.s.s.s.s.s.s.e.e.s.s.s.s.e.e.s.s.s.e.s.s.s.s.s.s.s.s.e.e.e.s.e.e.e.e.s.s.s.s.s.s.s.s.s.s.s.s.s.s.s.s.s.s.s.s.s.e.g.e.s.e.e.v s.e.e.<.<.<.<.<.e.e.e.e.e.e.<.<.e.e.e.e.e.e.e.e.e.e.e.e.e.e.e.e.e.e.e.e.e.e.e.e.e.e.<.<.<.e.e.e.e.e.e.e.e.e.e.e.e.e.e.e.e.e.e.e.e.e.e.e.e.e.e.e.e.e.e.s.e.s.:.v M.g.s.e.s.s.s.s.s.s.s.s.s.s.e.e.e.e.e.e.e.e.s.s.s.s.s.s.s.s.s.s.s.s.s.s.s.s.s.s.s.s.s.s.s.s.s.e.s.s.s.s.s.e.e.s.s.s.s.s.s.s.s.s.s.s.s.s.s.s.s.s.s.s.e.s.e.s.<.V M.s.e.s.s.s.e.s.s.s.s.s.s.s.s.s.e.e.e.e.e.e.e.e.e.e.e.e.e.e.s.s.s.s.s.s.e.e.e.e.e.e.e.e.s.s.s.s.e.s.s.s.s.e.s.s.e.e.s.s.s.s.e.e.e.e.s.s.s.s.s.e.s.g.e.e.s.s.:.V Z.s.e.s.e.e.s.e.s.s.s.s.s.s.s.s.e.e.e.e.e.e.e.e.s.s.s.s.s.s.s.s.s.s.e.s.e.e.s.s.s.s.s.s.s.s.s.s.s.s.s.s.s.e.e.e.e.e.e.e.s.s.s.s.s.s.s.s.s.s.s.s.s.e.s.s.s.s...S Z.s.e.s.s.s.s.e.s.s.s.s.s.s.s.s.s.e.e.e.s.s.s.s.s.s.s.e.e.e.s.s.e.e.e.s.s.s.s.s.s.s.s.s.s.s.s.s.s.s.s.s.e.e.e.e.e.e.s.s.s.s.s.s.s.s.s.s.s.s.s.s.e.g.e.e.s.g...- ",
"G.g.s.e.s.e.e.e.s.s.s.s.s.s.s.s.s.s.s.s.s.s.s.s.s.s.s.s.s.s.s.s.e.s.s.s.s.s.s.s.s.s.s.s.s.s.s.s.s.s.e.e.s.e.s.s.s.s.s.s.s.s.s.s.e.e.e.e.e.s.s.s.s.e.s.e.s.s.s.V <.Z.e.g.e.s.s.e.e.e.e.s.s.s.s.s.s.s.e.e.e.s.s.s.s.s.s.s.s.s.s.s.s.s.s.s.s.s.s.s.e.e.e.e.s.s.s.s.e.e.s.s.s.s.s.s.e.s.s.s.e.e.e.e.s.s.s.s.e.e.e.e.s.<.s.e.s.s.s.V e.M.s.e.s.e.s.s.e.s.s.s.s.s.s.s.s.s.s.s.s.s.s.s.s.s.s.s.e.e.e.e.s.s.s.e.e.s.s.s.s.s.s.s.s.s.s.s.e.e.e.e.s.s.s.s.s.s.s.s.s.s.s.s.s.s.s.s.s.s.s.s.s.e.s.e.s.e.e.v s.e.e.e.e.e.e.e.e.e.e.e.e.e.e.e.e.e.e.e.e.e.e.e.e.e.e.<.e.e.e.e.e.e.e.e.e.e.e.e.e.<.<.<.<.e.e.e.e.e.e.e.e.e.e.e.e.e.e.e.e.e.e.e.e.e.e.e.e.e.e.e.e.e.e.s.e.s.<.v M.g.s.e.s.s.s.s.s.s.s.s.s.s.e.e.e.e.e.e.e.s.s.s.s.s.s.s.s.s.s.s.s.s.s.s.s.s.s.s.s.s.s.s.s.s.s.s.s.s.s.s.s.e.e.e.s.s.s.s.s.s.s.s.e.e.s.s.s.s.s.s.s.s.e.s.s.g.<.V M.g.e.e.s.s.s.s.s.s.s.s.s.s.s.s.e.e.e.e.e.e.e.e.e.e.e.e.e.e.s.s.s.e.e.e.e.e.e.e.e.e.e.s.s.s.s.s.e.e.s.s.s.e.e.s.e.e.s.s.s.s.s.s.e.e.e.s.s.s.s.e.s.g.e.s.s.s.:.V Z.s.e.s.e.e.s.e.s.s.s.e.e.e.e.e.e.e.e.e.e.e.e.e.s.s.s.s.s.s.s.s.s.s.s.s.e.e.s.s.s.s.s.s.s.s.s.s.s.s.s.s.s.e.e.e.<.e.e.s.s.s.s.s.s.s.s.s.s.s.s.s.s.e.s.s.s.s.%.S G.s.s.s.e.s.s.e.s.s.s.s.s.s.s.s.e.e.e.s.s.s.s.s.s.s.s.s.e.e.e.e.s.s.e.s.s.s.s.s.s.s.s.s.s.s.s.s.s.s.s.e.e.e.e.e.e.e.s.s.s.s.s.s.s.s.s.e.e.s.s.s.e.g.s.e.s.g...- ",
"G.g.e.e.s.e.e.e.s.s.s.s.s.s.s.s.s.s.s.s.s.s.s.s.s.s.s.s.s.s.s.s.e.s.s.s.s.s.s.e.s.s.s.s.s.s.s.s.s.s.e.e.s.e.s.s.s.s.s.s.s.s.s.s.e.e.e.e.e.e.s.s.s.e.s.s.s.s.s.V <.Z.e.g.e.s.s.e.e.e.s.s.s.e.s.e.s.s.e.e.e.s.s.s.s.s.s.s.s.s.s.s.s.s.s.s.s.s.s.s.s.s.s.s.s.s.s.s.e.e.s.s.s.s.s.s.s.s.s.s.e.e.e.s.s.s.s.s.s.e.e.e.s.e.s.e.s.s.s.V e.M.s.e.s.e.s.s.e.s.s.s.s.s.s.s.s.s.s.s.s.s.s.s.s.s.s.s.e.s.e.e.s.s.s.e.e.s.s.s.s.s.s.s.s.s.s.s.e.e.e.s.s.s.s.s.e.e.s.s.s.s.s.s.s.s.s.s.s.s.s.s.s.e.g.e.s.e.e.v s.s.s.e.e.e.e.e.e.e.e.e.e.e.e.e.e.e.e.e.e.e.e.e.e.e.e.<.<.<.e.e.e.e.e.e.e.e.e.e.e.e.<.e.<.e.e.e.e.e.e.e.e.e.e.e.e.e.e.e.e.e.e.e.e.e.e.e.e.e.e.<.e.e.e.e.e.s.:.v M.g.s.e.s.s.s.s.s.s.s.s.s.s.e.e.e.e.e.e.s.s.s.s.s.s.s.s.s.s.s.s.s.s.s.s.s.s.s.s.s.s.s.s.s.s.s.s.s.s.s.s.s.s.s.s.s.s.s.s.s.s.s.s.e.e.s.s.s.s.s.s.e.s.e.s.s.g.<.v M.s.e.e.s.s.s.s.s.s.s.s.s.s.s.s.e.e.e.e.e.e.e.e.e.e.e.e.e.s.s.s.e.e.e.e.e.e.e.e.e.s.s.s.s.s.s.s.e.e.e.e.e.e.e.e.e.e.s.s.s.s.s.s.e.e.e.s.s.s.s.e.s.g.e.s.s.s.:.V Z.s.e.s.e.e.s.e.s.s.s.e.e.e.e.e.e.e.e.e.e.e.e.s.s.s.s.s.s.s.s.s.s.s.s.s.e.e.s.s.s.s.s.s.s.s.s.s.s.s.s.s.s.e.e.e.<.e.e.s.s.s.s.s.s.s.s.s.s.s.s.s.s.e.s.s.s.s.%.S G.s.e.s.e.s.s.e.s.s.s.s.s.s.s.s.e.e.e.e.s.s.s.e.e.s.s.s.s.e.e.e.s.s.s.s.e.e.s.s.e.e.s.s.s.s.s.s.s.s.e.s.e.s.s.s.e.e.s.s.s.s.s.s.s.s.s.e.e.s.s.s.s.g.s.e.s.g...: ",
"G.M.s.e.e.e.e.s.s.s.s.s.s.s.s.s.s.s.s.s.s.s.s.s.s.s.s.s.s.s.s.s.e.s.s.s.s.s.s.s.s.s.s.s.s.s.s.s.s.s.e.e.e.e.s.s.s.s.s.s.s.s.s.s.s.s.e.e.e.e.e.s.s.e.g.s.s.s.s.V :.Z.e.g.e.s.s.e.s.s.s.s.s.e.e.e.s.s.s.e.e.s.s.s.s.s.s.s.s.s.s.s.s.s.s.s.s.s.s.s.s.s.e.e.s.s.s.s.e.e.s.s.s.s.s.s.s.s.s.s.e.e.s.s.s.s.s.s.s.s.s.e.s.e.s.s.s.s.s.v e.M.s.e.s.e.s.s.e.s.s.s.s.s.s.s.s.s.s.s.s.s.s.s.e.e.s.s.s.s.s.s.s.s.s.e.e.s.s.s.s.s.s.s.s.s.s.s.s.s.s.s.s.s.s.s.e.e.e.e.e.s.s.s.s.s.s.s.s.s.s.s.s.e.g.e.s.e.e.v s.s.e.e.e.e.e.s.e.e.e.e.e.e.e.e.e.e.e.e.e.e.e.e.e.e.<.<.<.<.e.e.e.e.e.e.e.e.e.e.e.e.e.e.e.e.e.e.e.e.e.e.e.e.e.e.e.e.e.e.e.e.e.e.e.e.e.e.e.e.<.<.<.e.<.e.<.s.:.v M.g.s.e.s.s.s.s.s.s.s.s.s.s.e.s.e.s.s.s.s.s.s.s.s.s.s.s.s.s.s.s.s.s.s.s.s.s.s.s.s.s.s.s.s.s.e.e.s.s.s.s.s.s.s.s.s.s.s.s.s.s.s.s.e.e.s.s.s.s.s.s.e.s.e.s.s.g.<.v M.s.e.e.s.s.s.s.s.s.s.s.s.s.s.s.e.e.e.e.e.e.s.s.e.e.s.s.s.s.s.s.s.s.e.e.e.e.s.s.s.s.s.s.s.s.e.e.e.e.s.s.e.e.e.e.e.e.s.s.s.s.s.s.e.e.s.s.s.s.s.e.e.s.e.s.s.s.:.V G.s.s.s.e.s.s.e.s.s.e.e.e.e.e.e.s.s.e.s.s.s.s.s.s.s.s.s.s.s.s.s.s.s.e.e.e.e.s.s.s.s.s.s.s.s.e.e.s.s.s.s.s.e.e.e.e.e.s.s.s.s.s.s.s.s.s.e.e.e.e.e.e.e.e.e.e.s...V G.s.s.s.e.s.s.e.s.s.s.s.s.s.s.s.s.e.e.s.s.s.e.e.s.s.s.s.s.s.e.e.s.s.s.s.e.e.e.e.e.e.e.s.s.s.s.s.s.s.e.e.e.s.s.s.s.e.e.e.e.e.s.s.s.s.s.e.e.s.s.s.s.g.s.s.s.g...: ",
"G.M.s.e.s.s.s.s.s.s.s.s.s.s.s.s.s.s.s.s.s.s.s.s.s.s.s.s.s.s.s.s.e.s.s.s.s.s.s.e.s.s.s.s.s.s.s.s.s.s.e.e.e.e.s.s.s.s.s.s.s.s.s.s.e.e.e.e.e.e.e.e.s.e.s.e.s.s.s.V <.Z.e.s.e.s.s.s.s.s.s.s.s.e.e.e.s.s.e.e.e.s.s.s.s.s.s.s.s.s.s.s.s.s.s.s.s.s.s.s.e.e.e.e.e.e.e.e.e.e.s.s.s.s.s.s.s.s.s.s.e.e.s.s.s.s.s.s.s.s.s.s.s.e.s.s.s.s.s.v e.M.s.e.s.e.s.s.e.e.s.s.e.e.s.s.s.s.s.s.s.s.s.s.e.s.s.s.s.s.s.e.s.s.s.e.e.s.s.s.s.s.s.e.e.e.e.e.s.s.s.s.s.s.s.s.e.e.e.e.e.s.s.s.s.s.s.s.s.s.s.s.s.e.g.e.s.e.e.v s.s.e.e.e.e.e.e.e.e.e.e.e.e.<.<.e.e.e.e.e.e.e.e.e.e.e.e.e.e.e.e.e.e.e.e.e.e.e.e.s.e.e.e.e.e.e.e.e.e.e.e.e.e.e.e.e.e.e.e.e.e.e.e.e.e.e.e.<.<.<.<.<.e.<.e.<.e.:.p M.g.s.e.s.s.s.s.s.s.s.s.s.s.e.s.s.s.s.s.s.s.s.s.s.s.s.s.s.s.s.s.s.s.s.s.s.s.s.s.s.s.s.s.s.s.e.e.e.e.e.s.s.s.s.s.s.s.s.s.s.s.s.s.e.e.s.s.s.s.s.s.e.s.e.s.s.g.<.v M.s.e.e.s.s.s.s.s.s.s.s.s.s.s.s.e.e.e.e.e.s.s.s.s.s.s.s.s.s.s.s.s.s.s.s.s.s.s.s.e.s.s.e.s.e.e.e.e.s.s.s.s.e.e.e.e.e.s.s.s.s.e.e.e.e.s.s.s.s.s.e.e.g.e.s.s.s.:.V G.g.s.s.e.s.s.s.s.s.e.e.e.e.e.e.s.s.s.s.s.s.s.s.s.s.s.s.s.s.s.s.s.s.e.e.e.e.s.s.s.s.s.s.s.s.e.e.s.s.s.s.s.e.e.e.e.e.s.s.s.s.s.s.e.e.s.e.e.e.e.e.e.<.e.e.e.e...V G.s.s.s.e.s.s.e.s.s.s.s.s.s.s.s.s.s.e.s.s.s.e.e.s.s.s.s.s.s.e.e.s.s.s.s.e.e.e.e.e.e.e.s.s.s.s.s.s.s.e.e.e.s.s.s.s.s.e.e.e.e.e.s.s.s.s.e.e.s.s.s.s.g.s.s.s.g...: ",
"M.g.s.s.s.s.e.s.e.e.s.s.s.s.s.s.e.s.s.s.e.e.e.s.s.s.e.s.e.e.s.s.s.s.s.e.e.e.e.e.e.e.e.e.e.s.s.s.s.s.s.e.s.s.s.s.e.e.e.s.s.s.e.e.e.e.e.s.s.e.e.e.s.e.s.s.s.s.s.V :.M.e.g.e.s.s.s.e.s.s.s.s.s.e.e.s.s.e.e.s.s.s.s.s.s.e.e.s.s.s.s.s.s.s.e.e.e.e.e.s.s.s.s.e.e.e.s.s.s.s.e.e.s.s.s.s.s.e.e.e.e.e.e.s.s.s.s.s.s.s.s.g.e.g.s.s.s.s.V e.M.e.e.s.e.s.s.s.s.e.e.e.e.s.s.s.s.s.s.s.s.s.e.s.s.s.s.s.s.s.s.s.s.s.s.s.s.s.s.s.s.s.s.s.s.s.s.e.e.s.s.s.s.e.e.e.e.e.e.e.s.s.s.s.s.s.s.s.s.s.s.g.e.s.s.s.s.s.v e.s.<.e.e.<.s.e.e.e.e.e.e.e.<.<.e.e.e.e.e.e.e.s.e.e.e.e.e.e.e.e.e.e.e.e.e.e.e.s.e.e.e.e.e.e.e.e.e.e.e.e.e.e.e.e.e.e.e.e.e.e.e.e.e.e.e.e.e.e.e.e.<.e.<.e.e.s.:.v M.g.s.s.s.s.e.e.s.s.s.s.s.s.s.s.e.e.e.e.s.e.s.s.s.s.e.e.e.s.s.s.s.s.s.s.s.s.s.s.s.s.s.s.s.s.s.e.s.s.e.s.s.s.s.s.s.s.s.s.s.s.e.e.s.s.s.s.e.e.e.s.s.s.e.s.e.s.<.v g.s.e.s.s.s.s.e.s.e.e.e.e.e.e.e.e.e.s.s.e.s.s.s.s.s.s.e.s.s.s.s.s.s.s.s.s.s.e.e.s.s.e.e.s.e.e.e.s.s.s.s.s.s.s.s.s.s.s.s.s.s.s.s.e.e.s.s.s.s.s.s.g.s.s.e.s.s.%.S Z.g.e.e.s.s.s.s.s.s.s.e.e.e.s.s.e.s.s.s.s.s.e.e.e.s.s.s.s.e.s.s.g.g.s.s.s.s.s.s.s.e.e.e.e.e.e.e.s.s.s.s.s.s.s.s.s.s.s.s.s.s.s.s.e.e.e.e.e.e.e.e.s.e.s.s.s.s.%.S Z.s.s.s.e.s.s.e.s.s.s.e.e.e.s.s.s.e.s.e.e.e.e.e.s.s.s.e.e.e.e.e.e.s.s.s.s.s.s.e.e.e.e.e.e.s.s.s.s.e.e.e.s.s.s.e.s.s.s.e.e.e.s.s.s.s.s.s.e.e.s.s.e.s.e.s.s.g...- ",
"M.g.s.s.s.s.s.s.e.e.s.s.s.s.s.s.e.s.s.s.e.e.e.e.s.s.s.s.s.s.s.s.s.s.s.e.e.e.e.e.e.e.e.e.e.s.s.s.e.e.s.e.s.s.s.s.e.e.s.s.s.s.e.e.s.s.s.s.s.s.e.e.s.e.s.e.s.s.s.V :.M.e.s.e.s.s.s.e.e.s.e.s.e.e.e.s.s.s.e.s.s.s.s.s.s.e.e.e.s.s.s.s.s.s.e.e.s.e.e.s.s.s.s.e.e.e.s.s.s.s.e.e.s.s.s.s.e.e.e.e.e.e.e.s.s.s.s.s.s.s.s.s.e.g.s.s.s.e.v e.M.e.e.s.e.s.s.e.s.e.e.e.e.s.s.e.s.e.e.e.e.e.e.s.s.s.s.s.s.s.s.s.s.s.s.s.s.s.s.s.s.s.s.s.s.s.s.e.e.s.s.s.s.e.e.e.e.e.e.e.s.s.s.s.s.s.s.s.s.s.s.s.e.s.e.s.s.e.v e.s.<.e.e.<.s.e.e.e.e.e.e.e.<.<.e.e.e.e.e.e.e.s.e.e.e.e.e.e.e.e.e.e.e.e.e.e.e.e.e.e.e.e.e.e.e.e.e.e.e.e.e.e.e.e.e.e.e.e.e.e.e.e.e.e.e.e.e.e.e.e.<.e.<.e.e.s.<.v M.g.s.s.s.s.e.e.s.s.s.s.s.s.s.s.e.e.s.e.s.e.e.e.s.s.e.e.e.s.s.s.e.s.s.s.s.s.s.s.s.s.s.s.s.e.e.e.s.s.e.s.s.s.s.s.s.s.s.s.s.s.e.e.s.s.s.s.e.e.e.s.s.s.e.s.e.s.<.v g.s.e.e.s.s.e.e.e.e.s.s.e.e.e.e.e.e.s.s.e.s.s.s.s.s.s.e.s.s.s.s.e.s.s.s.s.s.s.s.e.e.e.e.s.s.e.e.s.s.s.s.s.s.s.s.s.s.s.s.s.s.s.s.e.e.s.e.s.s.s.s.s.s.s.e.e.s.%.S Z.g.e.e.s.s.e.s.s.s.s.e.s.e.s.s.e.s.s.s.s.s.e.e.s.s.s.s.s.e.s.s.s.s.s.s.s.e.e.e.e.s.e.e.e.e.e.e.s.s.s.s.s.s.s.s.s.s.s.s.s.s.s.s.e.e.e.e.e.e.e.s.s.e.s.s.s.s.%.S Z.s.s.s.e.s.s.e.s.s.s.e.e.e.s.s.s.s.s.s.s.s.s.s.s.s.s.e.e.e.e.e.e.s.s.s.s.s.s.e.e.e.s.e.e.s.s.s.s.e.e.e.s.s.s.e.s.s.s.e.e.s.s.s.s.s.s.e.e.e.s.s.e.s.e.s.s.g...- ",
"Z.g.s.s.s.s.s.s.e.s.s.s.e.s.s.s.e.s.s.s.s.e.e.e.s.s.s.s.s.s.s.s.s.s.s.s.e.e.e.e.e.e.e.e.e.e.s.s.e.e.e.e.s.s.s.s.s.s.s.s.s.s.e.e.e.s.s.s.s.s.s.s.s.e.s.e.e.e.s.V :.M.e.s.e.s.s.s.s.s.s.e.e.s.s.s.s.s.s.e.s.s.s.s.s.s.e.e.e.s.s.s.e.e.e.e.s.s.s.s.s.s.s.s.s.s.e.s.s.s.s.e.e.s.s.s.s.e.e.e.e.e.e.e.s.s.s.s.s.s.s.s.s.e.s.e.s.e.e.v e.M.e.e.s.e.s.s.e.s.s.s.s.s.s.e.e.e.e.e.e.e.e.e.s.s.e.e.e.e.e.e.s.s.s.s.s.s.s.s.s.s.s.s.s.s.s.s.s.s.s.s.s.e.e.e.s.e.e.e.e.s.s.s.s.s.s.s.s.s.s.s.s.e.s.e.e.e.e.v e.s.<.s.e.<.s.e.e.e.e.e.e.e.e.e.e.<.<.e.e.e.e.e.e.e.e.e.e.e.e.e.e.e.e.e.e.e.e.e.e.e.e.e.e.e.e.e.e.e.e.e.e.e.e.e.e.e.e.e.e.e.e.e.e.e.e.e.e.e.e.e.e.e.e.e.e.s.:.v g.g.s.s.s.s.s.s.s.s.s.s.s.e.e.e.s.s.s.s.s.s.e.e.s.s.e.e.e.s.s.s.e.s.s.s.s.s.s.s.e.e.s.s.s.e.e.e.s.s.s.s.s.s.s.s.s.s.s.s.s.s.e.e.e.e.s.s.e.e.e.e.s.s.e.s.e.s.<.v g.s.e.s.s.e.e.e.e.e.e.s.e.e.e.e.s.s.s.s.s.s.s.s.s.s.s.s.s.s.s.s.e.e.s.s.s.s.s.s.e.e.e.e.s.s.s.s.s.s.s.s.s.s.s.s.s.s.s.s.s.s.s.s.e.e.e.s.s.s.e.e.s.s.s.e.s.g.%.S Z.g.e.e.s.s.s.s.s.s.e.e.e.s.s.s.e.e.s.s.s.s.s.e.e.s.s.s.e.e.e.s.e.e.e.e.e.e.e.e.s.e.e.e.e.s.e.s.s.s.s.s.s.s.s.s.s.s.s.s.s.s.s.s.e.s.s.e.e.e.s.s.s.e.s.s.s.s.%.S Z.s.s.s.e.e.s.e.s.s.s.e.e.e.e.s.s.s.s.s.s.s.s.s.s.s.s.e.s.s.e.e.e.s.s.s.s.s.s.e.s.s.s.s.e.s.s.s.e.e.e.e.e.s.e.e.s.e.e.e.e.e.s.s.s.s.s.s.e.e.e.s.e.s.e.e.s.g...- ",
"Z.g.e.e.s.s.e.s.s.s.s.s.e.s.s.s.e.s.s.s.s.e.e.s.s.s.s.e.s.s.s.s.s.e.s.s.e.e.e.e.s.s.e.e.e.s.s.s.e.e.e.e.s.s.s.s.s.s.s.s.s.e.e.e.e.e.s.s.s.s.s.s.s.e.s.e.e.e.s.V :.M.<.s.e.s.s.s.s.s.e.e.e.e.s.s.s.s.e.e.e.s.e.e.s.s.e.e.e.s.s.s.e.e.e.e.s.s.s.s.s.s.s.s.s.s.e.s.s.s.s.s.e.s.s.s.s.e.e.e.e.e.e.e.s.s.s.s.s.s.s.s.s.e.s.e.s.e.e.p e.M.e.e.s.e.s.s.e.e.s.s.s.s.e.e.e.e.e.e.e.e.e.e.e.e.e.e.e.e.e.e.s.s.s.s.s.s.s.s.s.s.s.s.s.s.s.s.s.s.s.s.e.e.e.e.s.s.e.e.e.s.s.s.s.s.s.s.s.s.s.s.s.<.s.e.e.e.e.v e.s.e.s.e.<.s.e.e.e.e.e.e.e.e.e.<.<.e.e.e.e.e.e.e.e.e.e.e.e.e.e.<.e.e.e.e.e.e.e.e.e.e.e.e.e.e.e.e.e.e.e.e.e.e.e.e.e.e.e.e.e.e.e.e.e.e.e.e.e.e.e.e.s.e.e.e.s.:.v g.g.s.s.s.s.s.s.s.s.s.s.e.s.e.e.s.s.s.s.s.e.e.e.s.s.e.e.e.s.s.s.e.e.s.s.s.s.s.s.e.e.e.s.e.e.e.e.s.s.s.s.s.s.s.s.s.s.s.s.s.s.e.e.e.s.s.s.e.e.s.s.s.s.e.s.e.s.<.v M.s.e.s.s.s.e.s.e.e.e.s.e.s.s.s.e.s.s.s.s.s.s.s.s.s.s.s.s.e.e.e.e.e.s.s.s.s.s.s.e.e.e.e.s.s.s.s.s.s.s.s.s.s.s.s.s.s.s.s.e.e.e.e.e.e.s.s.s.s.e.e.s.e.s.e.e.g.%.S Z.g.e.e.s.s.s.s.s.s.e.e.e.e.e.s.e.e.e.s.s.e.e.s.e.s.s.s.e.e.e.s.e.e.e.e.e.e.e.e.s.s.s.s.s.s.s.s.s.s.s.s.s.s.s.s.s.s.s.s.s.s.s.s.s.s.s.s.e.s.s.s.s.e.s.s.s.s.%.S Z.s.s.s.e.e.s.e.s.s.s.s.e.e.e.e.s.s.s.s.s.s.s.s.s.e.s.s.s.s.s.s.s.s.s.s.s.s.s.e.s.s.s.s.e.s.s.s.e.e.e.e.e.s.s.e.e.e.e.e.s.s.s.s.s.s.s.s.e.e.s.s.e.s.e.s.s.g...- ",
"Z.g.s.s.s.e.e.s.e.e.e.e.e.s.s.s.s.s.s.s.e.e.e.s.e.e.e.e.e.e.s.s.e.e.s.s.s.s.e.s.s.e.e.e.e.e.s.s.s.s.e.e.e.e.s.s.s.s.s.e.e.e.e.e.e.e.e.s.s.s.s.s.s.e.s.e.e.e.s.V :.M.e.s.<.s.e.e.s.s.e.e.e.e.s.s.e.e.e.e.e.e.e.e.s.s.e.e.s.e.s.s.e.e.s.e.e.s.s.s.s.e.e.e.e.s.s.s.s.s.s.s.e.s.s.s.s.s.e.e.e.e.e.e.s.s.s.s.s.s.s.s.s.e.g.s.s.e.e.v e.M.s.e.s.e.s.e.e.e.s.s.s.s.e.e.e.e.e.e.s.e.s.e.e.e.e.e.e.e.e.e.s.s.s.s.s.s.s.s.s.s.s.s.s.s.s.s.s.s.s.s.s.e.e.e.s.s.e.e.e.e.s.s.s.s.s.s.s.s.s.s.s.<.s.e.e.e.e.v e.s.e.s.e.<.s.e.e.e.e.e.e.e.e.e.<.<.e.e.e.e.e.e.e.e.e.e.e.e.e.e.<.e.e.e.e.e.e.e.e.e.e.e.e.e.e.e.e.e.e.e.e.e.e.e.e.e.e.e.e.e.e.e.e.e.e.e.e.e.e.e.e.s.e.e.<.s.:.p g.s.s.s.s.s.s.s.s.s.s.e.e.s.e.e.s.s.s.s.s.e.e.e.s.s.s.e.e.s.s.s.e.s.s.s.s.s.s.s.e.e.e.e.e.s.s.s.s.s.s.s.s.s.s.s.s.s.s.s.s.s.s.s.e.e.s.s.s.s.s.s.s.s.e.s.e.s.<.v M.g.s.s.s.s.s.s.e.e.s.e.s.s.s.s.s.e.e.e.e.e.s.s.s.e.s.s.s.e.e.e.e.e.e.s.s.s.s.s.e.e.e.s.s.s.s.s.s.s.s.s.s.s.s.s.s.s.s.e.e.e.e.e.e.e.s.s.s.s.e.e.e.e.s.e.s.g.%.S Z.g.e.s.s.s.s.s.s.e.e.e.s.e.s.e.s.e.s.e.e.e.s.s.e.s.s.e.e.e.e.s.e.e.e.s.e.e.e.e.s.s.s.s.s.s.s.s.s.s.s.s.s.s.s.s.s.s.s.s.s.s.s.s.s.s.s.s.e.e.s.s.s.s.s.s.s.s.%.S Z.s.s.s.e.s.s.e.s.s.s.s.e.e.e.e.s.s.s.s.s.s.s.s.e.e.e.e.s.s.s.s.e.s.s.s.s.s.s.s.s.s.e.e.e.s.s.s.e.e.e.e.s.s.e.e.s.s.s.s.s.e.e.e.s.s.s.e.e.e.s.s.e.s.e.s.s.g...- ",
"G.M.s.s.s.s.s.s.e.e.e.e.e.s.s.s.s.s.s.s.e.e.e.s.e.e.e.e.e.e.e.e.e.e.s.s.s.s.s.s.s.s.e.e.e.e.s.s.s.s.e.e.e.e.s.s.e.e.e.e.e.e.e.e.e.e.e.s.e.s.e.s.s.e.s.e.s.e.s.V :.M.e.s.<.s.e.e.s.s.e.e.e.e.s.s.e.e.e.e.e.e.e.e.s.e.e.e.e.s.s.s.s.e.s.s.e.s.s.s.s.e.e.e.e.s.s.s.s.s.s.e.e.s.s.s.s.s.e.e.e.e.e.e.s.s.s.s.s.s.s.s.s.e.g.s.s.s.s.v e.M.s.e.s.e.s.e.e.e.s.s.s.s.s.e.e.e.e.s.s.s.s.s.e.s.e.e.e.e.e.e.s.s.s.s.s.s.s.s.s.s.s.s.s.s.s.s.s.s.s.s.e.e.s.s.s.s.e.e.e.e.s.s.s.s.s.s.s.s.s.s.s.e.s.e.e.e.e.v e.s.e.s.e.<.s.e.e.e.e.e.e.e.e.e.<.<.e.e.e.e.e.e.e.e.e.e.e.e.e.e.e.e.e.e.e.e.e.e.e.e.e.e.e.e.e.e.e.e.e.e.e.e.e.e.e.e.e.e.e.e.e.e.e.e.e.e.e.e.e.e.e.e.<.e.<.e.:.v g.s.s.s.s.s.s.e.e.e.e.e.s.s.s.s.s.s.s.s.s.s.e.e.s.s.e.e.e.s.s.s.e.s.e.s.s.s.s.s.e.e.e.e.s.s.s.s.s.s.s.s.s.s.e.e.s.s.s.s.s.s.s.e.e.e.e.s.s.s.s.s.s.s.e.s.e.s.<.v Z.g.s.s.s.s.s.s.s.s.s.s.s.s.s.s.s.s.s.e.e.e.s.s.e.e.s.s.s.e.e.e.e.e.e.s.s.s.s.s.e.e.s.s.e.s.s.s.s.s.s.s.s.s.s.s.s.s.s.e.e.e.e.e.e.e.e.s.e.e.e.e.e.e.s.e.s.g.%.V M.s.e.s.s.s.s.s.s.s.e.e.s.e.e.e.s.s.s.e.e.e.s.s.e.s.e.e.e.e.s.s.s.s.s.s.s.s.s.s.s.s.s.s.s.s.s.e.s.s.s.s.s.s.s.s.s.s.s.s.s.s.s.s.s.s.s.s.e.e.s.s.s.s.s.s.s.s.%.S Z.s.s.s.e.e.s.e.s.s.s.s.e.e.e.s.e.e.e.e.s.s.e.s.s.e.e.e.s.s.s.s.e.s.s.s.s.s.s.s.s.s.e.e.s.s.s.s.s.e.e.e.e.s.e.e.e.s.s.s.s.e.e.e.s.s.s.e.e.e.e.s.e.s.e.s.s.g...- ",
"G.M.s.s.s.e.s.s.s.s.e.e.s.s.s.s.s.s.s.s.e.e.e.s.e.e.e.e.e.e.e.s.e.e.e.s.s.s.s.s.s.s.s.e.s.s.s.s.s.s.s.e.e.e.s.s.e.e.e.e.e.e.e.e.e.s.e.s.s.e.e.e.s.e.s.e.s.s.s.V :.M.e.s.e.s.s.s.e.e.s.s.s.s.e.e.s.s.e.e.s.s.s.s.e.e.e.e.e.s.s.s.s.s.s.s.e.e.e.e.e.e.e.e.e.e.s.s.s.s.s.e.e.s.s.s.s.s.s.e.e.e.e.e.s.s.s.s.s.s.s.s.s.e.g.s.s.s.s.V e.M.s.e.s.e.s.e.e.e.s.s.e.e.e.e.e.e.e.e.s.s.s.s.s.s.s.s.s.s.s.s.s.s.s.s.s.s.s.s.s.s.s.s.s.s.s.s.s.s.e.e.e.e.s.s.s.s.s.e.e.s.s.s.s.s.s.s.s.s.s.s.s.e.s.e.s.s.s.v e.s.e.e.e.<.s.e.e.e.e.e.e.e.<.<.<.e.e.e.e.e.e.e.e.e.e.e.e.e.e.e.e.e.e.e.e.e.e.e.e.e.e.e.e.e.e.e.e.e.e.e.e.e.e.e.e.e.e.e.e.e.e.e.e.e.e.e.e.e.e.e.<.e.<.e.<.s.:.p g.s.s.e.s.s.e.e.e.e.e.e.e.s.s.s.e.e.s.s.s.s.e.e.e.e.e.e.s.s.s.s.e.e.e.s.s.s.s.e.e.e.e.s.s.s.s.s.s.s.s.s.s.e.e.e.s.s.s.s.s.s.e.e.e.e.e.s.s.s.s.s.s.s.e.s.e.s.<.v Z.g.e.e.s.e.e.s.s.s.s.s.s.s.s.s.s.s.s.e.e.e.e.e.e.e.s.s.s.e.e.e.e.e.e.e.s.e.e.e.s.s.s.s.e.e.e.e.s.s.s.s.s.s.s.s.s.s.s.s.e.e.e.e.e.e.e.e.e.e.e.e.e.e.s.e.s.g.%.V M.s.e.s.s.s.s.s.e.e.e.e.e.e.s.s.s.s.e.e.e.s.s.s.e.e.s.e.e.e.s.s.s.s.s.s.s.s.s.s.e.s.s.s.s.s.e.e.s.s.s.s.s.s.s.s.s.s.s.s.s.s.s.s.s.s.s.s.e.e.s.s.s.s.s.s.s.s.%.S Z.s.s.s.e.s.s.e.s.s.s.e.e.e.s.s.e.e.e.e.e.e.e.e.e.e.e.e.e.s.s.s.e.s.s.s.s.s.s.s.e.e.e.e.s.s.s.s.s.e.e.e.e.s.s.e.s.s.s.s.s.e.e.e.s.s.e.e.e.e.e.s.e.s.e.s.s.g...- ",
"Z.g.s.e.e.e.e.s.s.s.e.e.e.s.s.s.s.s.s.s.e.e.e.s.s.s.s.s.e.s.s.s.e.e.e.e.s.s.s.s.s.s.s.s.s.s.s.s.s.s.s.e.s.s.s.s.e.e.e.e.e.e.e.e.s.s.s.s.s.s.e.e.s.e.s.e.s.s.s.S <.Z.e.g.e.s.s.s.e.e.s.s.s.s.e.e.s.s.s.s.s.s.s.s.e.e.e.e.e.e.s.s.s.s.s.s.e.e.e.e.e.e.e.e.e.e.s.s.s.s.s.e.e.s.s.s.s.s.s.e.e.e.e.e.s.s.s.s.s.s.s.s.s.<.s.s.s.s.s.V e.M.s.e.s.e.s.s.s.s.s.s.s.e.s.s.e.e.e.e.s.s.s.s.s.s.s.s.s.s.s.s.s.s.s.s.s.s.s.s.s.s.s.s.s.s.s.s.s.s.e.e.e.e.s.s.s.s.e.e.e.s.s.s.s.s.s.s.s.s.s.s.g.e.g.s.s.s.s.v e.s.e.e.e.<.s.e.e.e.e.e.e.<.<.<.<.e.e.e.e.e.e.e.e.e.e.e.e.e.e.e.e.e.e.e.e.e.e.s.e.e.e.e.e.e.e.e.e.e.e.e.e.e.e.e.e.e.e.e.e.e.e.e.e.e.e.e.e.e.e.e.<.<.<.<.<.e.:.v g.g.s.e.e.e.e.e.e.e.e.e.e.s.s.s.e.e.e.e.s.s.s.s.e.e.e.e.s.s.s.s.e.e.e.s.s.s.e.e.e.e.s.s.s.s.s.s.s.s.s.s.s.e.e.e.s.s.s.s.s.s.e.e.e.e.e.e.s.s.s.s.s.s.e.s.e.s.<.v M.g.e.e.e.e.e.s.s.s.s.s.s.e.e.e.s.s.s.e.e.e.e.e.e.e.s.s.s.e.e.<.e.e.e.e.e.e.e.e.s.s.s.s.e.e.e.e.s.s.s.s.s.s.s.s.s.s.s.s.e.e.e.e.e.e.e.e.e.e.e.e.e.e.s.e.s.g.%.V M.s.e.s.s.s.s.s.e.e.e.e.e.e.s.e.s.s.e.e.e.s.s.s.e.e.s.e.e.e.s.s.s.e.e.e.e.s.s.s.e.s.s.s.s.s.e.e.s.s.s.s.s.s.s.s.s.s.s.s.s.s.s.s.e.s.s.s.e.e.s.s.s.s.s.s.s.s.%.S Z.s.s.s.e.s.s.e.s.s.s.e.e.e.s.s.e.e.e.e.e.e.e.e.e.e.e.e.e.s.s.s.e.s.s.s.s.s.s.s.e.e.e.e.s.s.s.s.s.e.e.e.s.s.s.e.s.s.s.s.s.e.e.<.e.s.e.e.e.e.e.s.e.s.e.s.s.g...- ",
"G.M.s.e.e.s.s.s.s.e.e.e.e.s.s.s.s.s.e.e.e.e.e.e.s.s.s.s.s.s.s.s.s.s.s.s.s.s.s.s.s.s.s.s.s.s.s.s.s.s.s.s.s.s.s.s.e.e.e.e.e.e.e.e.s.s.s.s.s.s.s.s.e.e.s.<.s.g.g.S <.Z.e.s.e.g.s.s.s.s.s.s.s.s.s.s.s.s.e.e.e.e.s.s.s.s.s.s.s.s.e.e.e.e.e.e.e.s.s.s.s.s.s.s.s.s.s.s.s.s.s.e.e.e.s.s.e.e.e.e.e.s.s.s.s.s.s.s.s.s.s.s.s.e.s.e.g.s.e.V <.M.s.e.g.g.g.e.s.s.s.s.e.e.e.e.e.e.s.s.s.s.s.s.e.e.e.s.s.s.s.s.s.s.s.s.s.s.s.s.s.s.s.s.s.s.s.s.s.s.s.s.s.s.s.s.s.s.e.e.e.s.s.s.s.s.s.s.s.s.s.s.g.s.e.s.e.s.:.v e.e.e.<.<.e.e.<.e.e.e.e.e.e.e.e.e.e.e.e.e.e.e.e.e.e.e.e.e.e.e.e.e.e.e.e.e.e.e.e.e.e.e.e.e.e.e.<.e.e.e.e.e.e.e.e.e.e.e.e.e.e.e.e.e.e.e.e.e.e.e.e.e.<.:.e.e.s.:.v M.s.e.e.s.e.<.e.s.s.s.s.s.s.s.s.s.s.s.s.s.s.s.s.e.s.s.s.s.s.s.e.s.s.s.s.s.s.s.s.s.s.s.s.s.s.s.s.e.e.e.e.s.s.s.e.s.s.s.s.s.s.e.e.e.e.e.s.s.s.s.s.M.g.e.s.s.s.:.v M.s.e.e.s.s.s.s.e.s.s.s.s.s.s.e.s.s.s.s.s.s.s.s.s.s.e.e.e.e.e.e.s.s.s.s.s.s.s.s.s.s.s.s.s.s.s.s.e.e.e.e.s.s.s.s.e.s.s.s.s.s.s.e.e.e.e.e.e.e.e.e.s.e.e.e.s.g...V Z.s.e.s.s.s.g.s.s.s.s.s.s.s.s.s.s.s.s.s.s.s.s.s.s.s.s.s.s.s.s.s.s.s.s.s.s.s.s.s.e.e.s.s.e.e.e.e.e.e.s.s.s.s.s.s.e.e.e.e.s.s.e.e.e.e.e.e.s.s.s.s.s.<.e.s.g.s...S Z.s.e.g.s.s.s.s.e.e.s.s.s.s.s.s.e.e.e.s.s.s.s.s.s.s.s.s.e.e.e.e.e.e.e.e.e.e.s.s.e.e.e.e.s.s.s.s.s.s.e.e.s.s.s.s.s.s.s.s.e.e.e.e.s.s.e.e.e.e.e.e.g.s.<.e.s.s.' - ",
"Z.g.s.e.s.s.s.s.s.e.e.e.s.s.s.s.s.s.s.e.e.e.e.e.s.s.s.s.s.s.s.s.s.e.e.e.e.s.s.e.s.s.e.e.e.e.s.e.s.s.s.s.s.s.s.s.e.e.e.e.e.e.e.e.s.s.s.s.s.s.s.s.<.e.g.e.s.s.e.v <.Z.e.s.<.s.s.e.s.s.s.s.s.s.s.s.s.s.e.e.e.e.s.s.s.s.s.s.e.e.e.e.e.e.e.e.s.s.s.s.s.s.e.e.s.s.s.s.s.s.s.s.e.e.s.e.e.e.e.e.s.s.s.s.s.s.s.e.e.e.e.e.s.s.g.e.s.e.e.V <.M.e.e.s.e.s.e.e.e.e.s.e.e.e.e.e.e.e.e.e.e.e.e.e.e.s.s.s.s.s.s.s.s.s.s.s.s.s.s.e.e.e.e.s.s.s.s.s.s.s.s.s.s.e.e.s.e.e.e.e.e.s.s.s.e.e.e.e.s.s.s.s.s.e.e.<.e.:.v e.e.e.<.<.<.e.<.<.<.<.<.<.<.<.<.<.<.e.e.e.e.<.<.<.<.<.<.<.<.<.<.e.e.e.e.e.e.e.e.e.e.e.e.e.e.<.<.e.e.e.e.e.e.e.e.e.e.e.e.e.e.<.<.e.e.e.e.<.<.<.<.<.<.<.e.<.e.%.p M.g.s.s.g.s.s.g.e.e.e.e.s.s.s.e.s.s.s.s.s.s.s.s.e.e.e.e.e.e.s.e.s.e.s.e.s.s.s.e.e.e.e.s.s.s.s.e.e.e.e.e.e.e.e.e.e.s.s.s.s.e.e.e.e.e.e.e.e.s.s.s.e.e.e.s.s.g.<.v M.g.e.s.s.s.e.e.e.e.e.e.e.e.e.e.s.s.e.e.e.s.s.s.s.e.e.e.e.s.e.e.s.s.s.s.s.s.e.e.e.e.e.e.s.s.s.e.e.e.e.e.e.e.e.e.e.e.e.s.s.e.e.e.<.<.e.<.e.e.e.e.:.<.e.s.s.g.%.V Z.s.e.s.e.s.s.e.s.s.s.s.e.e.e.e.e.s.e.s.s.s.s.s.s.s.s.e.e.e.e.e.e.e.e.e.e.e.e.e.e.e.e.e.e.e.e.e.e.e.e.e.s.e.e.e.e.e.s.s.s.s.e.e.e.e.e.e.s.s.s.s.s.<.<.e.s.s...V Z.e.e.s.s.e.s.s.e.e.e.s.s.s.s.s.e.e.e.e.s.s.s.s.s.s.s.e.e.e.e.e.e.e.e.e.e.e.s.s.e.e.e.e.s.s.s.s.s.e.e.e.s.s.s.s.e.e.e.e.e.e.e.e.e.e.e.e.e.e.e.e.<.e.e.s.s.g.%.: ",
"G.M.s.s.g.s.s.s.s.s.s.e.s.s.s.s.s.s.s.s.s.s.e.s.s.s.s.s.s.s.s.s.s.s.s.s.s.s.s.s.s.s.s.s.s.s.s.s.s.s.s.s.s.s.s.s.s.s.s.s.s.s.s.s.s.s.s.s.s.s.s.s.e.s.g.e.g.s.s.V <.Z.s.s.<.s.s.g.s.s.s.s.s.s.s.s.s.s.s.s.s.s.s.s.s.s.s.s.s.s.s.s.s.s.s.s.s.s.s.s.s.s.s.s.s.s.s.s.s.s.s.s.s.s.s.s.s.s.s.s.s.s.s.s.s.s.s.s.s.s.s.s.s.g.M.e.s.s.s.V e.Z.s.e.s.e.g.s.e.s.s.s.s.s.s.s.s.s.s.s.s.s.s.s.s.s.s.s.s.s.s.s.s.s.s.s.s.s.s.s.s.s.s.s.s.s.s.s.s.s.s.s.s.s.s.s.s.s.s.e.e.s.s.s.s.s.s.s.s.s.s.s.e.g.s.e.<.s.e.V s.s.s.e.<.e.e.e.e.e.e.e.e.e.e.e.e.e.e.e.e.e.e.e.e.e.e.e.e.e.e.e.e.e.e.e.e.e.e.e.e.e.e.e.e.e.e.e.e.e.e.e.e.e.e.e.e.e.e.e.e.e.e.e.e.e.e.e.e.e.e.e.<.e.e.e.<.s.:.v s.s.s.s.e.e.s.s.s.s.s.s.s.s.s.s.s.s.s.s.s.s.s.s.s.s.s.s.s.s.s.s.s.s.s.s.s.s.s.s.s.s.s.s.s.s.s.s.s.s.s.s.s.s.s.s.s.s.s.s.s.s.s.s.s.s.s.s.s.s.s.s.e.g.g.g.s.g.<.v Z.g.s.g.s.s.s.s.s.s.s.s.e.s.s.s.s.s.s.s.s.s.s.s.s.s.s.s.s.s.s.s.s.s.s.s.s.s.s.s.s.s.s.s.s.s.s.s.s.s.s.s.s.s.s.s.s.s.s.s.s.s.s.s.e.e.e.e.e.e.s.s.<.s.g.s.s.g.%.V Z.s.s.g.s.s.g.e.s.s.s.s.s.s.s.s.s.s.s.s.s.s.s.s.g.s.s.e.e.s.s.s.s.s.s.s.s.s.s.s.s.s.s.s.s.s.s.s.e.s.s.s.s.s.s.s.s.s.s.s.s.s.s.s.s.s.s.s.s.s.s.s.s.e.e.e.s.g.%.S G.s.e.g.s.s.s.s.s.s.s.s.s.s.s.s.e.e.s.s.s.s.s.s.s.s.s.s.s.s.s.s.s.s.s.s.s.s.s.s.s.s.s.s.s.s.s.s.s.s.e.e.s.s.s.s.s.s.s.s.s.s.s.s.s.s.s.s.s.e.s.e.e.g.s.s.e.g.%.: ",
"G.g.e.e.s.s.s.s.e.e.e.e.e.s.s.e.s.s.s.s.e.e.e.e.s.s.e.e.e.e.s.s.s.s.s.e.e.e.e.s.s.s.e.e.e.s.s.s.e.e.s.s.e.e.s.s.s.s.e.e.e.e.s.s.s.s.s.s.s.s.s.s.s.e.s.<.s.s.s.S <.M.e.g.e.e.s.g.e.e.s.s.s.s.s.s.s.s.e.e.s.s.s.s.e.e.e.e.s.e.e.e.s.s.s.s.s.s.s.s.s.s.s.s.s.s.s.s.s.s.s.s.s.s.s.s.s.s.s.s.s.s.s.s.e.e.e.e.e.e.e.e.e.s.g.e.s.g.s.v <.M.s.s.s.e.g.s.e.e.s.s.s.s.s.s.s.s.s.s.s.s.s.s.e.e.e.e.s.s.s.s.s.s.e.e.e.e.s.s.e.e.e.e.e.e.e.e.e.e.e.s.e.e.e.e.e.e.e.e.e.e.s.s.e.s.e.e.e.e.s.s.<.s.e.e.e.g.e.v s.s.s.e.e.e.e.s.e.e.e.e.e.e.e.e.e.e.e.e.e.e.e.e.e.e.e.e.e.e.e.e.<.<.<.e.<.e.e.e.<.<.<.<.<.<.<.<.e.e.e.e.e.e.e.e.e.e.e.e.e.e.e.e.e.e.e.e.e.e.e.e.:.e.e.e.<.s.<.p s.g.g.s.e.s.s.s.e.e.e.s.s.s.e.e.e.e.s.s.e.e.e.e.e.e.e.s.e.e.e.e.s.s.s.s.s.s.s.s.e.e.e.e.s.s.e.e.s.s.s.s.e.e.s.s.s.s.s.s.s.s.s.e.e.e.e.s.s.s.s.s.s.g.s.e.<.s.<.v M.g.s.s.s.e.e.s.s.e.e.e.e.e.e.s.s.s.e.e.e.e.e.e.e.e.e.e.e.s.s.e.e.e.e.e.e.e.e.e.e.e.e.s.s.s.e.e.e.e.e.e.e.e.e.e.e.s.s.s.s.s.s.s.e.e.e.e.e.e.s.s.s.g.g.e.e.g.:.V M.s.e.s.e.s.s.e.e.e.e.e.e.e.e.e.e.e.e.e.e.e.s.e.s.s.e.e.e.e.s.s.s.s.s.s.s.s.s.s.s.s.s.s.s.s.s.s.e.e.s.s.s.s.s.s.s.s.s.s.s.s.s.s.s.s.s.s.s.s.s.s.s.e.s.e.s.g.:.S Z.s.e.s.e.e.s.e.s.s.s.s.e.e.e.e.e.e.e.s.s.e.e.e.e.e.e.e.e.s.e.s.s.s.s.s.e.e.e.e.s.s.e.e.e.e.e.e.e.e.<.e.e.s.s.s.e.e.e.e.e.s.s.s.e.e.s.s.s.e.e.e.e.g.s.<.<.s...- ",
"G.g.e.e.s.s.e.e.e.e.e.e.e.e.e.e.s.s.s.s.s.s.s.s.s.e.e.e.s.s.e.s.e.s.s.e.s.s.s.s.e.e.s.s.e.e.e.e.e.e.s.s.s.s.s.s.s.s.s.s.s.s.s.s.e.e.e.e.e.e.e.e.s.e.e.<.g.s.e.V :.M.e.g.e.s.e.s.e.e.s.s.s.s.e.s.e.e.e.e.e.e.e.e.e.s.e.e.s.s.s.s.s.s.s.s.s.s.s.s.s.s.s.s.s.s.s.s.s.s.s.s.s.s.s.s.s.s.s.s.s.s.s.s.e.e.e.e.e.e.e.e.e.s.s.<.s.g.e.p <.g.s.s.g.e.s.s.e.e.s.s.s.s.s.s.s.s.s.s.s.s.e.e.e.e.e.e.e.e.e.e.s.e.e.e.s.s.s.s.e.e.e.s.e.e.e.e.s.s.s.s.e.s.s.s.e.e.e.e.e.s.s.s.e.e.e.e.e.e.s.s.e.s.e.e.e.M.e.p e.e.e.e.e.e.e.e.e.e.e.e.e.e.e.<.<.<.e.e.e.e.e.e.e.e.<.<.<.e.e.e.<.<.<.<.<.<.<.<.<.<.<.<.<.<.<.<.<.<.<.<.<.e.e.e.e.e.e.e.e.e.e.e.e.e.e.e.e.e.e.e.<.e.<.e.e.s.:.u s.g.g.s.e.s.s.s.e.s.s.e.s.s.s.e.s.s.s.s.e.s.s.s.e.e.e.s.s.s.s.e.s.s.s.s.s.s.s.s.e.e.s.s.s.s.e.e.s.s.e.e.e.s.s.s.e.e.s.s.s.e.e.e.e.e.s.s.s.s.s.e.e.e.e.e.e.g.<.v g.s.e.s.s.e.s.s.s.s.e.e.e.e.s.s.s.s.e.e.e.e.e.e.<.<.<.<.e.e.e.e.s.s.s.e.e.e.e.s.e.s.s.e.s.s.s.e.e.e.e.e.e.e.e.e.s.s.s.s.s.s.s.s.e.e.e.e.e.e.s.s.e.s.s.<.e.g.:.V Z.s.e.s.e.e.e.<.e.e.e.e.e.e.e.e.e.e.e.e.e.e.e.e.s.s.e.e.e.e.e.s.s.s.s.s.s.s.s.s.e.e.e.e.s.s.s.s.e.e.e.s.s.s.e.e.s.s.s.s.s.s.s.s.s.s.s.s.s.s.e.e.e.e.s.e.s.s...V G.s.e.s.e.e.s.e.e.e.e.s.e.e.e.e.e.s.s.e.s.e.e.e.e.e.e.e.s.s.s.s.s.s.s.e.e.e.e.e.s.s.s.s.e.e.e.e.<.<.<.e.e.e.e.e.e.e.e.e.s.s.s.s.e.e.s.s.s.s.e.e.e.s.e.e.s.g.%.- ",
"I.Z.s.s.g.g.s.s.s.s.s.s.s.s.g.s.g.g.g.g.g.g.g.g.g.g.g.g.g.g.g.g.g.g.g.g.g.g.g.g.g.g.g.g.g.g.g.g.g.g.g.g.g.g.g.g.g.g.g.g.g.g.g.g.s.s.g.g.g.g.g.g.g.s.g.g.M.g.e.V e.Z.e.M.g.g.s.g.g.g.g.g.g.g.g.g.s.s.s.s.s.s.s.s.s.g.s.s.g.g.g.g.g.g.g.g.g.g.g.g.g.g.g.g.g.g.g.g.g.g.g.g.g.g.g.g.g.g.g.g.g.g.g.g.g.g.g.g.g.g.g.g.g.g.g.s.g.g.e.V s.M.s.s.M.s.g.g.s.s.g.g.g.g.g.g.s.s.s.s.s.s.s.s.s.s.s.s.s.g.g.g.g.g.g.g.g.g.g.g.g.g.g.g.g.g.g.g.g.g.g.g.g.g.g.g.s.s.s.g.g.g.g.g.g.s.g.g.g.g.g.g.g.g.s.g.s.M.e.v s.s.e.s.s.e.e.e.e.e.e.e.e.e.e.e.e.e.e.e.e.e.e.e.e.e.e.e.e.e.e.e.e.e.e.e.e.e.e.e.e.e.e.e.e.e.e.e.e.s.s.e.e.e.s.s.e.e.e.e.e.e.e.e.e.e.e.e.e.e.e.e.s.s.<.s.s.s.:.p M.g.s.s.s.e.e.s.g.g.g.g.g.g.g.g.g.g.g.g.g.g.g.g.s.g.g.g.g.g.g.g.g.g.g.g.g.g.g.g.s.g.g.g.g.g.s.g.g.g.g.g.g.g.g.g.s.s.s.s.s.s.s.s.s.g.g.g.g.g.g.g.s.s.s.M.g.g.<.v Z.g.s.s.g.g.g.g.g.g.g.g.s.g.g.g.g.g.g.s.s.s.s.g.s.e.e.s.s.s.s.s.g.g.g.g.g.g.g.g.g.g.g.g.g.g.g.g.g.g.g.g.g.g.g.g.g.g.g.g.g.g.g.g.g.g.s.s.s.s.g.g.s.g.g.g.g.g.%.V G.g.s.g.s.s.g.s.s.s.s.s.s.s.s.s.e.s.s.s.s.s.s.s.s.s.s.e.e.s.s.s.s.s.s.s.s.s.s.s.s.s.s.s.s.s.s.s.e.e.s.s.s.s.s.s.s.s.s.s.s.s.s.s.s.s.s.s.s.s.s.s.s.s.s.s.e.e...S J.g.s.g.s.s.g.s.s.g.g.g.g.s.s.s.g.g.g.g.g.g.g.g.g.g.g.g.g.g.g.g.g.g.g.g.g.s.s.s.g.g.g.g.s.g.g.g.s.s.e.s.s.g.g.s.s.s.g.g.g.g.g.g.g.g.g.g.g.g.g.s.s.g.g.M.M.g...- ",
"Z.e.%...%.%.%...%.....%.%.%.%.%.%.%.%.%.%.%.%.%.%.%.%.%.%.%.%.%.:.:.%.%.:.:.:.%.%.%.:.:.:.:.%.%.%.%.%.%.%.%.%.%.%.%.%.%.%.%.%.%.%.%.%.%.%.%.%.%.%.%.:.%.:.%.%.v <.s...:.%.:.%.%.%.%.%.%.%.%.%.%.%.%.%.%.%.%.%.%.%.%.%.%.%.%.%.%.%.%.%.%.%.%.%.%.%.%.%.%.%.%.%.%.%.%.%.%.%.%.%.%.%.%.%.%.%.%.%.%.%.%.%.%.%.%.%.%.:.%.:.%.:...%.V <.e.....:...%.%.%.%.%.%.%.%.%.%...%.%.%.%.%.%.%.%.%.%.%.%.%.%.%.%.%.%.%.%.%.%.%.%.%.:.:.:.:.:.:.:.:.%.%.%.%.:.:.%.%.%.%.:.:.%.%.%.%.%.%.%.%.%.%.:.%...:.%.%...v <.%.' ' ..' ' ' ' ' ............' ' ' ' ....' ' ....' ' ................' ........' ' ' ' ......................' ' ' ' ' ' ' ' ..' ' ' ' ' ' ' ..' / ....' ' p g.<.%.:.<.%.%.:.:.:.:.:.:.:.:.:.%.%.%.%.%.%.%.%.%.%.%.%.:.:.:.%.%.%.%.%.%.%.%.%.%.%.%.%.%.%.%.%.%.%.%.%.%.%.%.%.%.%.%.%.%.%.....%.%.%.%.%.%.%.%.%.%.%.<.%...' v g.<.....:.:.%.%.:.:.%.%.%.%.%.%.%.%.%.%.%.%.%.%.%.......%.%.%.%.:.:.:.:.%.%.%.%.:.:.:.:.:.:.:.:.%.%.%.%.%.%.%.%.%.:.%.%.%.%.:.:.%.%.%.%...%.%.%.:.:.:.:.%...^ V s.%.........%...................................................................................' ..............................................%.' ......' ^ J g.:.%.:.%...%.%.%.%.%.%.%.%.%.%.%.%.%.:.:.%.%.%.%.%.%.%.%.%.%.%.%.%.%.%.%.%.%.%.%.%.%.%.%.%.%.%.%.%...%.%.%.%.%.%.%.%.%.%.:.%.%.%.%.%.%.%.%.%.%.%.:.%.:.%...^ : ",
"' Y V V V V V V V V V V V S S S V V V V V V V V V V V V V V V V S S V V S S S V V V S S S S S V V V V V V V S S V V V V V V V V V V V V S S S S S S S v v v P e ^ ^ v S V S V S V V V V V V V V V V V V V V V V V V V V V V V V V V V V V V V V V V V V V V V V V V V V V V V V V V V V V V V V V V V V V V V V S V S S S v J e ^ ^ v v S v V V V V V V V V V V V V V V V V V V V V V V V V S S V V V V V V V V V V S S S S S S S S S V V V S S V V V S S S V V V V V V V V V V V v v J V V J e ^ S p p v v p p v v v v v v v v p p v p v v v v v v v v v v v v v v v v v v v v p p p p p p v v v v v v v p p p v v v v v v v v v p p p v p p p p u u V v v V 5 / S p V S v v S S S S S V S S S V V V V V V V V V V V S S S V V V V V V V V V V V V V V V V V V V V V V V V V V V V S S S V V V V V V V V V V V V v V J V V P v / P v v S S V V V V S S S V V V V V V V V V V V V V v v V V V V S S S S S V S S S S S S S S S S V V V V V V V V S V V V V V V S V V V V v v v V V V V S v V S v Y V v v p p v v v v v v v v v v p p v v v v v v v v v v v v v v v v v v v v v v v v v v v v v v p v v v v v v v v v v v v v v v v v v v v v v v V p p V V v v p ^ S V S V v V V V V V V V V V V V V V S S S V V S S S V V V V V V V V S S S S S V V V V V V V V S V V V S S S V V V V V V V V V V V V V v V V V S V v S V S J 5 ",
"J.G.Z.G.G.Z.G.G.Z.G.J.G.G.Z.G.G.G.G.G.G.G.G.J.G.G.G.G.G.G.J.G.G.J.G.G.G.G.G.G.G.J.J.G.G.G.G.G.G.Z.Z.G.G.G.G.G.G.G.G.G.G.G.G.G.G.G.G.G.G.G.G.J.G.I.G.G.M.Z.J.T...<.J.G.G.I.G.G.J.G.G.G.G.G.G.J.J.J.J.J.J.J.J.J.J.G.G.G.G.G.G.G.G.Z.Z.Z.G.G.J.G.G.G.G.G.G.G.G.G.G.J.J.G.G.G.G.G.G.J.J.J.J.G.G.G.G.G.G.G.G.J.J.J.G.G.Z.J.Z.G.J.T...g.J.Z.J.G.J.G.G.G.G.G.Z.Z.Z.G.G.G.G.G.G.G.G.J.G.G.G.G.G.G.G.G.G.G.G.G.G.G.G.G.G.G.G.G.G.G.G.G.G.J.J.J.J.G.G.G.G.G.G.G.G.G.G.G.G.G.G.G.G.G.G.G.G.J.G.J.Z.J.G.G./ M.I.G.G.J.Z.G.G.J.G.G.G.G.J.J.G.J.J.J.G.G.G.G.J.G.G.G.G.G.G.J.J.G.G.G.G.G.G.G.G.G.G.G.G.G.G.G.G.G.G.J.G.Z.Z.G.G.G.G.G.G.G.G.G.Z.Z.Z.G.G.G.G.G.G.M.M.Z.Z.J.G.G./ M.Z.G.G.G.G.G.G.G.G.G.G.G.G.G.G.G.G.G.G.G.G.G.G.J.G.G.G.G.G.G.G.G.G.G.G.G.G.G.G.G.G.G.J.J.G.G.G.G.G.G.G.G.G.G.G.G.G.G.G.G.G.J.J.G.G.G.G.G.G.G.G.G.G.G.J.G.I.G.^ J.G.Z.G.J.G.G.G.G.G.J.J.G.Z.Z.Z.Z.Z.G.G.G.G.G.G.G.G.G.G.Z.Z.Z.Z.G.G.G.G.G.G.G.G.G.G.G.G.G.G.G.G.G.G.G.G.G.G.G.G.G.G.J.J.J.G.G.G.G.G.Z.M.M.G.G.Z.Z.Z.Z.Z.Z.J.g./ J.Z.Z.G.Z.M.Z.M.G.G.G.G.G.G.G.G.G.G.Z.Z.Z.Z.Z.G.Z.Z.Z.G.G.G.G.G.Z.G.G.G.G.G.Z.Z.G.G.G.G.G.G.Z.Z.Z.Z.Z.G.G.Z.Z.Z.M.M.M.Z.M.Z.Z.Z.G.G.G.G.Z.Z.Z.M.Z.Z.Z.M.Z.G.s.^ G.Z.Z.G.G.G.G.G.G.G.G.G.G.G.G.G.G.G.G.G.G.J.J.J.J.J.J.G.G.J.J.J.G.G.G.G.G.G.G.J.G.G.G.G.G.G.G.G.G.G.G.G.J.J.J.G.G.G.G.G.G.G.G.G.G.G.G.G.G.G.G.G.G.I.J.G.Z.I.G.Y ",
"G.Z.M.M.g.g.g.M.g.M.M.g.g.s.s.g.g.g.g.g.g.g.M.M.g.g.g.g.M.M.g.g.M.M.g.g.g.g.M.M.g.M.g.g.g.g.g.g.s.g.g.g.g.g.g.g.g.M.M.M.M.M.g.g.g.g.g.g.M.g.g.g.M.g.M.g.M.M.M.J :.Z.M.g.Z.g.M.M.g.g.g.g.g.g.g.M.g.g.g.g.g.g.g.g.g.g.g.g.g.g.g.g.g.g.g.g.M.M.M.g.g.g.g.g.M.M.M.M.M.g.g.g.g.g.g.M.M.M.M.g.g.g.g.g.g.g.g.M.M.M.M.g.g.s.M.g.g.g.Z.P e.G.g.Z.M.M.g.g.M.g.g.g.g.g.g.g.g.g.g.g.g.g.M.g.M.M.M.g.g.g.g.g.g.g.g.g.g.g.g.g.M.g.g.g.g.g.g.M.g.M.M.M.g.g.g.g.g.g.g.g.g.g.g.g.M.g.g.g.g.M.M.M.g.g.M.g.M.g.s.S s.G.g.g.M.s.M.g.M.g.g.g.g.M.M.g.M.M.M.g.g.g.M.M.g.g.g.g.g.g.g.g.g.g.g.g.g.g.g.g.g.g.g.g.g.g.g.g.g.g.M.g.g.s.g.g.g.g.g.g.g.g.g.g.s.s.g.g.g.g.g.M.g.s.g.g.M.s.s.S s.s.g.g.g.g.g.g.g.g.g.g.g.g.M.M.g.g.g.g.g.g.g.g.M.M.g.g.g.g.M.M.g.g.g.g.g.g.g.g.g.g.g.g.g.g.g.g.g.g.g.g.g.g.g.g.g.g.g.g.g.g.g.g.g.g.g.g.g.g.g.g.M.M.g.M.g.M.s.S Z.g.g.g.M.M.g.g.g.M.M.M.g.g.g.g.g.g.g.g.g.g.g.g.g.g.g.s.s.s.g.g.M.g.g.g.g.g.g.M.g.g.g.g.g.g.g.g.g.g.g.g.g.g.g.g.g.g.g.g.g.g.g.g.M.M.g.s.g.M.M.M.g.g.g.s.s.g.:.J Z.g.g.g.s.s.g.s.g.g.g.g.s.s.g.g.g.g.s.s.s.s.s.s.s.s.s.g.g.g.g.g.s.s.g.g.g.g.s.s.g.g.s.s.g.g.s.s.s.s.g.g.g.g.g.s.s.s.s.s.s.s.g.g.g.g.g.g.s.s.s.e.g.s.s.s.s.g.:.S M.g.g.g.M.g.g.g.g.g.g.g.g.g.g.g.g.g.g.g.g.M.g.M.M.M.g.g.g.g.M.M.g.g.g.g.g.g.g.M.g.g.g.g.g.g.g.g.g.g.g.g.g.g.g.M.g.g.g.g.g.g.g.g.g.g.g.g.g.g.g.g.g.Z.Z.M.g.M.:.5 ",
"J.Z.g.g.g.s.s.g.s.g.g.g.s.e.e.s.s.s.s.s.s.g.s.g.s.s.s.s.s.s.s.s.g.g.g.g.s.s.s.s.s.s.s.s.s.s.s.s.s.s.s.s.s.s.s.s.g.g.g.g.g.s.s.s.s.g.s.s.g.g.s.s.s.e.M.g.g.g.s.V <.G.g.s.g.s.g.g.s.s.s.s.e.s.s.s.s.s.s.s.s.s.s.s.s.s.s.s.s.s.s.s.s.s.s.s.g.g.s.s.s.s.s.s.s.s.g.g.g.g.s.s.s.s.g.g.g.g.s.s.s.s.s.s.s.s.s.g.g.g.g.s.s.e.M.g.g.s.s.V s.G.s.M.s.g.s.s.g.g.s.s.s.s.s.s.s.s.s.s.g.s.s.s.g.g.g.s.s.s.s.s.s.s.s.s.s.s.s.s.s.s.s.s.s.s.s.s.s.s.s.s.s.s.s.s.s.s.s.s.s.s.s.s.g.g.s.s.s.g.g.g.s.s.g.s.g.e.<.p g.Z.s.s.s.e.g.g.s.s.s.s.s.s.s.s.s.s.s.g.g.g.g.s.s.s.s.s.s.s.s.s.s.s.s.s.s.s.s.s.s.s.s.s.s.s.s.s.s.s.g.s.s.e.s.s.s.s.s.s.s.s.s.s.e.e.s.s.s.s.s.g.g.s.s.e.g.s.e.v e.s.s.s.s.s.s.g.s.s.s.s.s.g.g.g.s.s.s.s.s.s.s.s.g.g.g.g.s.s.s.s.s.s.s.s.s.s.s.s.s.s.s.s.s.s.s.s.s.s.s.s.s.s.s.s.s.s.s.s.s.s.g.s.s.s.s.s.s.s.s.s.g.g.s.g.s.g.<.v M.g.s.s.g.g.s.g.s.g.g.s.s.s.s.s.s.s.s.s.s.s.e.e.s.s.s.e.e.e.s.g.g.s.s.s.s.s.s.g.s.s.s.s.s.s.s.s.s.s.s.s.s.s.s.g.s.s.s.s.s.s.s.s.s.g.g.s.e.s.s.s.s.s.s.s.s.s...V Z.s.s.s.e.s.s.s.s.s.e.e.e.e.s.e.e.s.e.e.e.e.e.e.e.e.e.e.e.e.s.s.e.e.s.e.s.s.s.e.s.s.e.e.e.e.e.e.e.e.s.s.s.s.s.s.e.e.e.e.e.e.e.s.s.s.s.s.e.e.e.e.s.s.s.e.e.s...v M.g.s.g.g.s.s.s.s.g.g.g.g.g.s.s.s.s.s.s.s.s.s.s.s.s.s.s.s.s.s.s.s.s.s.s.s.s.s.g.s.s.s.s.s.s.s.s.g.g.s.s.s.s.s.g.s.s.s.s.s.s.s.s.s.s.s.s.s.s.s.s.e.g.g.g.g.g...- ",
"J.Z.g.g.g.g.g.M.g.g.g.g.s.s.s.g.g.g.g.g.g.g.g.g.g.g.g.g.g.g.g.g.g.g.g.g.g.g.g.g.g.g.g.g.g.g.g.g.g.g.g.g.g.g.g.g.g.g.g.g.g.s.s.s.g.g.g.g.g.g.g.g.g.s.g.s.g.g.M.J e.G.g.s.M.g.g.g.g.g.g.g.s.s.s.s.g.g.g.g.g.g.g.g.g.g.g.g.g.g.g.g.g.g.g.g.g.g.g.s.s.s.s.s.g.g.g.g.g.g.g.g.g.g.g.M.g.g.g.g.g.g.s.s.g.g.g.g.g.g.g.g.g.s.M.g.g.g.s.V s.G.s.M.s.g.s.g.g.g.g.g.g.g.g.g.g.g.g.g.g.g.g.g.g.M.g.g.g.g.g.g.g.g.g.g.g.g.g.g.g.g.g.g.g.g.g.g.g.g.g.g.g.g.s.s.g.g.g.g.g.g.g.g.g.g.g.s.g.g.g.g.s.s.M.g.M.g.e.v M.G.g.s.g.s.M.g.g.g.s.s.g.g.g.g.s.g.g.g.g.g.g.g.g.g.g.g.g.g.g.g.g.g.g.g.g.g.g.g.g.g.g.g.g.g.g.g.g.g.g.g.g.s.g.g.g.g.g.g.g.g.g.g.s.s.s.g.g.g.g.g.g.s.s.s.M.g.s.V g.g.g.g.s.g.g.g.g.g.g.g.g.M.M.M.g.g.g.g.g.g.g.g.g.g.g.g.g.g.g.g.g.g.g.g.g.g.g.g.g.g.g.g.g.g.g.g.g.g.g.g.g.g.g.g.g.g.g.g.g.g.g.g.g.g.g.g.g.g.g.g.s.g.g.g.g.M.e.V Z.M.g.g.g.g.g.g.g.g.g.s.s.s.g.g.g.g.g.g.s.s.s.s.s.s.s.s.s.s.g.M.g.g.g.g.g.g.g.g.g.g.g.g.g.g.g.g.g.g.g.g.g.g.g.g.s.s.g.g.g.g.g.g.e.g.g.s.s.s.s.s.g.g.g.g.g.g.%.V G.s.s.s.e.s.g.s.s.s.s.s.s.s.s.s.s.s.s.s.s.e.e.e.s.s.s.s.s.s.s.s.s.s.s.s.s.s.s.s.g.s.s.e.s.s.s.s.s.s.s.s.s.s.s.s.e.s.s.s.s.e.s.s.s.s.s.s.s.s.s.s.s.s.g.s.s.g.%.V Z.M.g.M.M.g.g.g.g.g.g.g.g.g.g.g.g.g.g.g.g.g.g.g.g.g.g.g.g.g.g.g.g.g.g.g.g.g.g.g.g.g.g.g.g.g.g.g.M.g.g.g.s.g.g.g.g.g.g.g.g.g.g.g.s.s.g.g.g.g.g.g.s.g.s.s.g.Z.:.5 ",
"G.M.g.s.g.s.g.g.s.g.g.g.g.g.g.g.g.g.g.g.g.g.g.g.g.g.g.g.g.g.g.g.g.g.g.g.g.g.g.g.g.g.g.g.g.s.s.s.g.g.g.g.g.g.g.g.g.g.g.g.g.s.s.s.g.g.g.g.g.g.g.g.M.s.g.s.s.g.M.J <.Z.s.e.M.g.s.s.g.g.g.g.s.s.s.s.g.g.g.g.g.g.g.g.g.g.g.g.g.g.g.g.g.g.g.g.g.g.s.s.s.s.s.s.s.s.s.g.g.g.g.g.g.g.g.g.g.g.g.g.s.s.s.s.g.g.g.g.g.g.g.g.M.s.M.g.g.g.g.V s.Z.e.g.s.g.s.g.g.g.g.g.g.g.g.s.g.g.g.g.g.g.g.g.g.g.g.g.g.g.g.g.g.g.g.g.g.g.g.g.s.s.s.s.s.s.s.s.g.g.g.g.g.s.s.s.g.g.g.g.g.g.g.g.s.s.s.s.s.s.s.g.g.s.g.s.g.s.e.v g.Z.s.s.g.s.g.s.g.s.s.s.g.g.g.g.s.s.g.g.g.g.g.g.s.s.s.g.g.g.g.g.g.g.g.g.g.g.g.g.g.g.g.g.g.g.g.g.s.g.g.g.g.s.g.g.g.g.g.g.g.g.g.s.s.s.s.g.g.g.g.g.s.e.s.<.g.g.s.V g.g.g.g.s.s.g.g.g.g.g.g.g.g.g.g.g.g.g.g.g.g.g.g.g.g.g.g.g.g.g.g.g.g.g.g.g.g.g.g.g.g.g.s.s.g.g.g.g.g.g.g.g.g.g.g.s.s.s.g.g.g.g.g.g.g.g.g.g.g.g.g.s.g.s.g.g.g.<.v Z.g.s.s.g.g.g.g.g.g.s.s.s.s.s.g.s.s.s.s.s.s.s.s.e.s.s.g.g.g.g.g.g.g.g.g.g.g.g.g.g.g.g.g.g.g.g.g.s.s.g.g.g.g.g.g.s.s.s.s.g.g.s.s.s.g.M.g.s.g.g.g.g.s.g.s.g.M.%.v Z.s.e.e.e.s.g.s.s.s.s.s.s.s.s.s.s.s.s.s.s.e.e.e.s.s.s.s.s.s.e.s.s.s.s.s.s.s.s.s.s.s.e.e.e.s.s.s.s.s.s.e.e.e.e.e.e.e.s.s.e.e.e.s.s.s.s.s.s.s.s.s.s.e.s.s.s.g.%.V M.g.s.g.g.g.g.g.s.g.g.g.g.g.g.s.g.g.g.g.g.g.g.s.g.g.s.s.g.s.g.g.g.g.g.g.s.s.g.g.g.g.g.g.g.g.g.g.M.g.g.s.s.s.g.g.g.g.g.g.g.g.g.g.s.g.g.g.g.g.g.g.M.M.s.s.g.M.%.: ",
"J.M.g.s.g.s.s.s.s.s.s.s.g.g.g.g.g.g.s.s.g.g.g.g.g.g.g.g.g.g.g.g.g.g.g.g.g.g.g.g.g.g.g.g.g.s.s.s.g.g.g.g.g.g.g.g.g.g.g.g.g.g.s.s.g.g.g.g.g.g.g.g.g.s.M.g.g.s.g.V :.Z.g.s.M.g.g.g.g.g.g.g.s.s.s.s.g.g.g.g.g.g.g.g.g.g.g.s.s.g.g.g.g.g.g.g.g.g.g.s.g.g.g.g.g.g.g.g.g.g.g.g.g.g.g.g.g.g.g.g.g.s.s.s.g.g.g.g.g.g.g.s.g.s.g.s.g.g.g.S s.Z.e.g.s.g.g.g.s.g.g.g.g.s.s.s.s.g.g.g.g.g.g.g.g.g.g.g.g.g.g.g.g.g.g.g.g.g.g.g.s.s.s.s.s.s.s.s.g.g.g.g.g.s.s.s.g.g.g.g.g.g.g.g.s.s.s.s.s.g.g.g.M.s.s.e.s.e.<.p s.Z.s.s.g.s.g.e.g.s.s.s.g.g.g.g.s.s.s.g.g.g.s.s.s.s.s.g.g.g.g.g.g.g.g.g.g.g.g.g.g.g.g.g.g.g.g.g.s.s.s.s.g.g.g.g.g.g.g.g.g.s.s.s.s.s.s.g.g.g.g.g.s.s.s.<.s.s.e.v s.g.g.g.g.s.g.g.g.g.g.g.g.g.g.g.g.g.g.g.g.g.g.g.g.g.g.g.g.g.g.g.s.g.g.g.g.g.g.g.g.g.s.s.s.s.g.g.g.g.g.g.g.s.s.s.s.s.s.g.g.g.g.g.g.g.g.s.s.g.g.g.g.g.s.g.s.g.<.v Z.g.s.s.g.s.s.g.g.s.s.e.s.s.s.s.s.s.s.s.s.s.s.s.e.s.g.g.g.g.g.g.g.g.g.g.g.g.g.g.g.g.g.g.g.g.g.g.s.s.g.g.g.g.s.s.s.s.s.s.s.s.s.s.s.g.M.g.g.g.g.g.g.s.s.s.g.g.%.v G.s.e.s.e.s.g.s.e.e.e.e.e.e.e.e.s.s.s.s.e.e.e.e.s.s.s.s.s.e.e.s.s.s.s.s.s.s.s.s.s.e.e.e.e.s.s.s.s.s.e.e.e.e.e.e.s.s.s.s.s.s.s.s.s.s.s.e.e.s.s.s.e.e.s.s.s.g.%.V g.s.s.s.g.s.s.g.s.s.s.g.g.s.s.s.g.g.g.g.s.s.s.s.g.s.s.s.g.s.s.g.s.s.g.s.s.s.s.g.g.g.g.g.g.g.g.g.g.g.s.s.s.s.g.g.g.g.g.g.g.g.s.s.s.g.g.g.g.g.g.g.s.g.g.g.g.M...- ",
"G.M.s.s.g.g.s.s.g.g.s.g.g.g.g.g.g.g.g.g.g.g.g.g.g.g.g.g.g.g.g.g.g.g.g.g.g.g.g.g.g.g.g.g.g.g.g.g.g.g.g.g.g.g.g.g.g.g.g.g.g.g.g.g.g.g.g.g.g.g.g.g.g.s.M.g.g.g.g.S <.G.M.g.M.s.g.g.g.g.g.g.g.g.s.s.g.g.g.g.g.g.g.g.g.g.g.s.s.g.g.g.g.g.g.g.M.g.g.g.g.g.g.g.g.g.g.g.M.g.M.M.M.M.g.g.g.g.g.g.g.g.g.g.g.g.g.g.g.g.g.g.M.s.g.g.g.g.g.S s.G.s.M.g.M.g.g.g.g.g.g.g.g.g.g.g.g.g.g.g.g.g.g.g.g.g.g.g.g.g.g.g.g.g.g.g.g.g.g.g.g.g.s.s.g.g.g.g.g.g.g.g.g.g.s.g.g.g.g.g.g.g.g.g.g.g.g.g.g.g.M.M.g.g.e.g.s.<.p g.Z.s.s.M.g.g.s.g.g.g.g.g.M.g.g.g.g.g.s.s.s.s.g.g.g.g.g.g.g.g.g.g.g.g.g.g.g.g.g.M.g.g.g.g.g.g.g.g.s.s.g.g.g.g.g.g.g.g.g.g.g.g.g.g.g.g.g.g.g.g.g.s.s.g.e.s.s.e.v s.g.g.g.g.g.g.g.g.g.g.g.g.g.g.M.g.g.g.g.g.g.g.g.g.g.g.g.g.g.g.g.g.g.g.g.g.g.g.g.g.g.g.g.g.g.g.g.M.g.g.g.g.g.g.s.g.g.g.g.g.g.g.g.g.g.g.g.g.g.g.g.g.g.g.g.s.g.<.V G.M.g.g.g.g.g.g.g.g.s.s.g.g.g.g.s.s.g.g.g.g.g.g.s.g.g.g.g.g.g.g.g.g.g.g.g.g.g.M.g.g.g.g.g.g.g.g.g.g.g.g.g.g.s.s.s.s.s.g.g.g.g.g.g.g.g.s.s.g.g.s.g.g.s.s.g.M.%.V G.g.s.s.s.g.g.s.s.s.s.s.s.s.s.s.g.s.s.s.s.s.s.s.s.s.s.s.s.s.s.s.s.s.s.s.s.s.s.s.s.s.s.s.s.g.g.s.s.s.s.e.e.e.s.s.s.s.g.g.s.s.s.s.s.s.s.s.s.s.s.g.s.s.s.s.s.g.%.S M.g.s.s.g.g.g.g.g.g.g.g.g.g.g.g.g.g.g.g.g.g.g.g.g.g.g.g.g.g.g.g.s.g.g.g.s.s.g.g.g.g.g.g.g.g.g.g.g.g.g.g.g.g.g.g.g.g.g.g.g.s.s.s.g.g.g.g.g.g.g.g.e.g.g.M.M.M.%.: ",
"M.s.e.s.g.g.s.s.g.g.s.s.s.s.s.s.g.g.s.s.s.g.g.g.g.g.g.g.g.g.g.g.g.g.g.g.g.g.g.g.g.g.g.g.g.g.g.g.g.g.g.g.g.g.g.g.s.s.s.s.g.g.g.g.g.g.g.g.g.g.g.g.g.s.g.s.g.g.M.J <.G.M.s.g.e.s.g.s.g.g.g.g.g.s.s.g.g.g.g.g.g.g.g.g.g.s.s.s.s.g.g.s.s.s.s.g.g.s.s.s.s.g.g.g.g.g.g.g.g.g.g.g.g.g.g.g.g.g.g.g.g.g.g.g.g.g.g.g.g.s.s.g.s.g.g.g.g.g.V s.Z.s.M.s.g.s.s.g.g.g.g.g.g.g.g.s.s.s.g.g.g.g.g.g.g.g.g.g.g.g.g.g.g.g.g.g.g.g.g.g.g.g.s.s.g.g.g.g.g.g.g.g.g.g.g.g.g.g.g.g.g.g.g.g.g.g.g.g.g.g.g.g.s.s.e.M.g.e.v g.Z.s.s.M.g.M.g.g.g.s.g.g.g.g.g.g.g.s.s.s.s.s.s.g.g.g.g.g.g.g.g.g.g.g.g.g.g.g.g.g.g.g.g.g.g.g.g.s.s.s.s.g.g.g.g.g.g.g.g.g.g.s.s.g.g.g.g.g.s.s.s.e.s.g.e.s.s.s.V s.s.g.g.g.g.g.g.g.g.g.g.g.g.g.g.g.g.g.g.g.g.g.g.g.g.g.g.g.g.g.g.s.s.s.g.g.g.g.g.g.g.g.s.s.g.g.g.g.g.g.g.s.s.s.s.g.g.g.g.g.g.g.g.g.g.g.s.s.g.g.g.s.g.s.s.s.g.e.V G.M.g.g.g.g.g.g.g.g.s.s.g.g.g.g.s.s.g.g.g.s.s.s.g.g.g.s.s.s.s.g.g.g.g.g.g.g.g.g.g.g.g.g.g.g.g.g.g.g.g.g.g.s.s.e.s.s.s.s.g.g.g.g.g.g.s.s.g.g.g.s.M.g.s.s.s.g.%.v Z.s.e.s.s.s.g.e.s.s.s.s.s.s.s.s.s.s.s.e.e.e.s.s.s.s.s.s.s.s.s.s.e.e.e.s.e.e.e.e.s.s.e.s.s.s.s.s.e.e.e.e.e.s.s.s.e.s.s.s.e.e.e.e.s.s.e.e.e.s.s.s.e.e.s.s.s.g.%.V M.g.s.s.s.s.s.g.g.g.g.g.g.g.g.g.s.s.s.s.s.g.g.g.g.g.g.s.s.g.g.g.s.s.s.s.s.s.s.g.g.g.g.g.g.s.s.g.s.s.s.s.g.g.g.s.g.g.g.g.s.s.s.s.g.g.g.g.g.g.g.g.g.M.g.g.g.g.%.: ",
"G.M.s.s.g.g.g.g.g.g.g.g.g.g.g.g.s.s.s.g.g.g.g.g.g.g.g.g.g.g.g.g.s.s.s.g.g.g.g.g.g.g.g.g.g.g.g.g.g.g.g.g.g.g.g.g.g.g.g.g.g.g.g.g.g.g.g.g.g.g.g.g.g.g.g.g.g.s.M.S <.Z.s.e.g.s.s.g.g.g.g.g.g.g.g.g.g.s.g.g.g.g.g.g.g.g.s.s.s.s.s.s.g.g.g.g.g.g.g.g.g.g.g.g.s.s.s.g.g.g.g.g.g.g.g.g.g.g.g.g.g.g.g.g.g.g.g.g.g.g.g.g.g.s.M.g.g.g.g.S s.Z.g.s.g.e.g.g.g.g.g.g.g.g.g.s.g.g.g.g.g.g.g.g.g.g.g.g.g.g.g.g.g.g.g.g.g.g.g.g.s.g.g.g.g.g.g.g.g.g.g.g.g.s.s.s.g.g.g.g.g.g.g.g.g.g.g.g.g.g.g.g.g.s.g.s.g.g.s.p g.M.g.s.g.g.s.g.M.g.g.g.g.g.g.g.g.s.s.s.s.s.s.g.g.g.g.g.g.g.g.g.g.g.g.g.g.g.g.g.g.g.g.g.g.g.g.g.g.g.g.g.s.s.s.g.g.g.g.g.g.g.g.g.g.g.g.g.g.g.g.g.g.s.g.s.g.g.s.v s.s.s.g.g.g.g.g.g.g.g.g.g.g.g.g.g.g.g.g.g.g.g.g.s.g.g.g.g.g.g.g.s.g.g.g.g.g.g.g.g.g.g.g.g.g.g.g.g.g.s.s.s.s.g.g.g.g.g.g.g.g.g.g.g.g.s.s.s.s.g.g.g.g.s.g.s.g.<.V Z.g.s.g.g.g.g.g.s.s.s.g.g.g.g.g.g.g.g.g.g.g.g.g.s.g.g.g.g.g.g.g.g.g.g.g.g.g.g.g.g.g.g.g.g.g.g.g.g.g.g.g.g.s.s.s.s.s.s.s.s.g.g.g.g.g.g.g.g.g.g.g.g.g.s.g.g.g.:.V M.s.e.s.s.s.g.s.s.s.s.s.s.s.s.s.s.s.s.s.s.s.s.s.s.s.s.s.s.s.s.s.s.s.s.s.s.s.s.s.s.s.s.s.s.s.s.s.s.s.s.s.e.e.s.s.s.s.s.s.s.s.s.s.s.s.s.s.s.s.e.e.s.s.s.s.s.g.%.V M.s.s.g.g.g.g.s.g.g.g.g.g.g.g.g.g.g.g.s.g.g.g.g.g.g.g.g.g.g.g.g.g.g.g.g.g.g.g.g.g.g.g.g.g.g.g.g.g.g.g.g.g.g.g.g.g.g.g.g.s.s.s.g.g.g.g.g.g.g.g.g.g.g.g.g.s.M.:.: ",
"G.M.s.s.g.g.g.g.g.g.g.g.g.g.g.g.s.s.s.g.g.g.g.g.g.g.g.g.g.g.g.g.s.s.s.g.g.g.g.g.g.g.g.g.g.g.g.g.g.g.g.g.g.g.g.g.g.g.g.g.g.g.g.g.g.g.g.g.g.g.g.g.g.s.s.g.g.s.M.S <.Z.s.e.g.s.g.g.g.g.g.g.g.g.g.g.g.s.g.g.g.g.g.g.g.g.s.s.s.s.s.g.g.g.g.g.g.g.g.g.g.g.g.g.s.s.s.g.g.g.g.g.g.g.g.g.g.g.g.g.g.g.g.g.g.g.g.g.g.g.g.g.g.s.g.g.g.g.g.S s.Z.g.s.g.e.g.g.g.g.g.g.g.g.g.g.g.g.g.g.g.g.g.g.g.g.g.g.g.g.g.g.g.g.g.g.g.g.g.g.s.s.g.g.g.g.g.g.g.g.g.g.g.g.g.g.g.g.g.g.g.g.g.g.g.g.g.g.g.g.g.g.g.s.g.s.g.g.s.p g.M.g.s.g.g.s.g.g.g.g.g.g.g.g.g.g.g.s.s.s.s.s.g.g.g.g.g.g.g.g.g.g.g.g.g.g.g.g.g.g.g.g.g.g.g.g.g.g.g.g.g.s.s.s.g.g.g.g.g.g.g.g.g.g.g.g.g.g.g.g.g.g.s.g.s.g.g.s.v s.s.s.g.g.g.g.g.g.g.g.g.g.g.g.g.g.g.g.g.g.g.g.g.g.g.g.g.g.g.g.g.g.g.g.g.g.g.g.s.g.g.g.g.g.g.g.g.g.g.s.s.s.s.g.g.g.g.g.g.g.g.g.g.g.g.s.s.s.s.g.g.g.g.s.g.s.g.e.V Z.g.s.s.g.s.s.g.s.s.s.g.g.g.g.g.g.g.g.g.g.g.g.g.s.s.g.g.g.g.g.g.g.g.g.g.g.g.g.g.g.g.g.g.g.g.g.g.g.g.g.g.g.g.s.s.s.s.s.s.g.g.g.g.g.g.g.g.g.g.g.g.s.g.s.s.g.s.:.v M.e.e.s.s.s.g.s.s.s.s.s.s.s.s.s.s.s.s.s.s.s.s.s.s.s.s.s.s.s.s.s.s.s.s.s.s.s.s.s.s.s.s.s.s.s.s.s.s.s.s.e.e.e.s.s.s.s.s.s.s.s.s.s.s.s.s.s.s.s.e.e.s.s.s.s.s.g.%.V M.s.s.g.s.s.g.g.g.g.g.g.g.g.g.g.g.g.g.s.s.g.g.g.g.g.g.g.g.g.g.g.g.g.g.g.g.g.g.g.g.g.g.g.g.g.g.g.g.g.g.g.g.g.g.g.g.g.g.g.s.s.s.g.g.g.g.g.g.g.g.g.g.g.g.g.s.M.:.: ",
"G.M.s.s.g.g.g.g.g.g.g.g.g.g.g.g.s.s.s.s.g.g.g.g.g.g.g.g.g.g.g.g.g.g.g.g.g.g.g.g.g.g.g.g.g.g.g.g.g.g.g.g.g.g.g.g.g.g.g.g.g.g.g.g.g.g.g.g.g.g.g.g.s.s.s.s.g.s.M.S <.Z.s.e.g.s.g.g.g.g.g.g.g.g.g.g.s.s.g.g.g.g.g.g.g.s.s.s.s.s.g.g.g.g.g.g.g.g.g.g.g.g.g.g.s.s.s.g.g.g.g.g.g.s.s.s.g.g.g.g.g.g.g.g.g.g.g.g.g.g.g.g.g.s.g.g.g.g.g.V s.Z.s.s.g.s.g.g.g.g.g.g.g.g.g.g.g.g.g.g.g.g.g.s.g.g.g.g.g.g.g.g.g.g.g.g.s.s.s.s.s.s.s.s.s.s.g.g.g.g.g.g.g.g.g.g.g.g.g.g.g.g.g.g.g.g.g.g.g.g.g.g.g.s.g.s.g.g.s.p g.M.g.s.g.g.s.g.g.s.s.s.g.g.g.g.g.g.s.s.s.s.s.g.g.g.g.g.g.g.g.g.g.g.g.g.g.g.g.g.g.g.g.g.g.g.g.g.g.g.g.g.s.s.s.g.g.g.g.g.g.g.g.g.g.g.g.g.g.g.g.g.g.s.g.s.g.g.s.v s.s.s.g.g.g.g.g.g.g.g.g.g.g.g.g.g.g.g.g.g.g.g.g.g.g.g.g.g.g.g.g.M.g.g.g.s.s.s.s.g.g.g.g.g.g.g.g.g.g.s.s.s.s.g.g.g.g.g.g.g.g.g.g.g.g.s.s.s.s.g.g.g.g.g.g.g.g.e.V Z.g.s.s.g.s.s.g.s.s.s.g.g.g.g.g.g.g.g.g.s.s.s.s.s.s.s.g.g.g.g.g.g.g.g.g.g.g.g.g.g.g.g.g.g.g.g.g.g.g.g.g.g.g.g.g.g.g.s.s.g.g.g.g.g.g.s.s.s.s.s.g.s.g.s.s.g.s.:.v Z.s.e.s.s.s.s.e.s.s.s.s.s.s.s.s.s.s.s.s.s.e.s.s.s.s.s.s.s.s.s.s.s.s.s.s.s.s.s.s.s.s.s.s.s.s.s.e.s.s.e.e.e.e.s.s.s.s.s.s.s.s.s.s.s.s.s.s.s.s.e.e.s.s.s.e.s.s.%.V M.s.s.g.s.s.g.g.g.g.g.g.g.g.g.g.g.g.g.s.s.s.s.s.g.g.g.g.g.g.g.g.g.g.g.g.g.g.g.g.g.g.g.g.g.g.g.g.g.g.g.g.g.g.g.g.g.g.g.g.s.s.s.g.g.g.g.g.g.g.g.g.g.s.s.g.s.M.:.: ",
"G.M.s.s.g.g.g.g.g.g.g.g.g.g.g.g.s.s.s.s.s.s.s.s.g.g.g.g.s.s.s.s.g.g.g.g.g.s.s.s.g.g.g.g.g.g.g.g.g.g.g.g.g.g.g.g.g.g.g.g.g.g.g.g.g.g.g.g.g.g.g.s.s.s.s.s.g.s.M.S <.Z.s.e.g.s.g.g.s.s.s.s.s.s.g.g.s.g.g.g.g.g.g.g.s.s.s.s.s.g.g.g.g.g.g.g.g.g.g.g.g.g.g.g.s.s.s.g.g.g.g.g.s.s.s.s.g.g.g.g.g.g.g.g.g.g.g.g.g.g.g.s.g.s.g.g.g.g.g.V s.Z.s.s.g.s.g.g.g.g.g.s.s.g.g.g.g.g.g.s.g.g.g.s.s.s.s.s.s.s.s.s.g.g.g.g.s.s.s.s.s.s.s.s.s.s.s.s.g.g.g.g.g.g.g.g.g.g.g.g.g.g.g.g.g.g.g.g.g.g.g.s.g.s.g.s.g.g.s.p g.M.g.s.g.g.s.g.s.s.s.s.s.g.g.g.g.g.s.s.s.s.s.g.g.g.g.g.g.g.g.g.g.g.g.g.g.g.g.g.g.g.g.g.g.g.g.g.s.g.g.g.s.s.s.g.g.g.g.g.g.g.g.g.g.g.g.g.g.g.g.g.g.s.g.s.g.g.s.v s.s.s.g.s.g.g.g.g.g.g.g.g.g.g.g.g.g.g.g.g.g.g.g.g.g.g.g.g.g.g.g.g.g.s.s.s.s.s.g.g.g.g.g.g.g.g.g.g.g.s.s.s.s.g.g.g.g.g.g.g.g.g.g.g.g.s.s.s.s.g.g.g.g.g.g.g.M.e.V Z.g.s.s.s.s.s.s.s.s.s.g.g.g.g.g.g.g.s.s.s.s.s.s.s.s.s.s.g.g.g.g.g.g.g.g.g.g.g.g.g.g.g.g.g.g.g.g.g.g.g.s.g.g.g.g.g.g.g.s.g.g.g.g.g.g.s.s.s.s.s.s.s.g.e.s.g.s.%.v Z.s.e.s.s.s.s.e.s.s.s.s.s.s.s.s.s.s.s.s.e.e.s.s.s.s.s.s.s.s.s.s.s.s.s.s.s.s.s.s.s.s.s.s.s.s.e.e.s.s.e.e.e.s.s.s.s.s.s.s.s.s.s.s.e.s.s.s.s.e.e.e.s.s.s.e.e.s.%.V M.s.s.g.s.s.g.g.g.g.g.g.g.g.g.g.g.g.g.s.s.s.s.s.g.g.g.g.g.g.g.g.g.g.g.g.g.g.g.g.g.g.g.g.g.g.g.g.g.g.g.g.g.g.g.g.g.g.g.g.s.s.s.g.g.g.g.g.g.g.g.g.s.s.s.g.s.M.:.: ",
"G.M.g.g.g.g.g.g.g.g.g.g.g.g.g.g.s.s.s.s.s.s.s.s.s.s.s.s.s.s.s.s.g.g.g.g.g.s.s.s.g.g.g.g.g.g.g.g.g.g.g.g.g.g.g.g.g.g.g.g.g.g.g.g.g.g.s.s.g.s.s.s.s.s.s.s.g.s.M.S <.Z.s.e.g.s.s.g.s.s.s.s.s.s.s.s.s.s.g.g.g.g.g.g.s.s.s.s.g.g.g.g.g.g.g.g.g.g.g.g.g.g.g.g.s.s.s.g.g.g.g.s.s.s.s.s.g.g.g.g.g.g.g.g.g.g.g.g.g.s.s.s.g.s.g.g.g.g.g.V s.Z.s.s.g.s.g.g.g.g.s.s.s.s.g.g.g.s.s.s.s.s.s.s.s.s.s.s.s.s.s.s.g.g.s.s.s.s.s.s.s.s.s.s.s.s.s.s.g.g.g.g.g.g.g.g.g.g.g.g.g.g.g.g.g.g.g.g.g.s.s.s.g.s.g.s.g.g.s.p g.M.g.s.g.g.s.g.s.s.s.s.s.g.g.g.g.g.s.s.s.s.g.g.g.g.g.s.s.g.g.g.g.g.g.g.g.g.g.g.g.g.g.g.g.g.g.g.s.g.g.g.s.s.s.s.g.g.g.g.g.g.g.g.g.g.g.g.g.g.g.g.g.s.g.s.g.g.s.v s.s.s.s.g.g.g.g.g.g.g.s.s.g.g.g.g.g.g.g.g.g.g.g.g.g.g.s.s.s.s.s.s.s.s.e.s.s.s.g.g.g.g.g.g.g.g.g.g.g.s.s.s.s.g.g.g.g.g.g.g.g.g.g.g.g.s.s.s.s.g.g.g.g.g.g.g.M.e.V Z.g.s.s.s.s.s.s.g.g.g.g.g.g.g.g.g.g.s.s.s.s.s.s.s.s.s.s.s.s.g.g.g.g.g.g.g.g.g.g.g.g.g.g.g.g.g.g.s.s.s.s.s.g.g.g.g.g.g.s.g.g.g.g.g.s.s.s.s.s.s.s.s.g.e.s.g.s.%.v Z.s.e.s.s.s.s.e.s.s.s.e.e.s.s.s.s.s.e.e.e.e.e.e.s.s.s.s.s.s.s.s.s.s.s.s.s.s.s.s.s.s.s.s.s.e.e.e.s.s.e.e.e.e.s.s.s.s.s.s.s.s.s.s.s.s.s.s.s.s.e.e.s.s.s.e.e.s.%.V M.s.s.g.s.s.g.g.g.g.g.g.g.g.g.g.g.g.g.s.s.s.s.s.g.g.g.g.g.g.g.g.g.g.g.g.g.g.g.g.g.g.g.g.g.g.g.g.g.g.g.g.g.g.g.g.g.g.g.g.s.s.s.g.g.g.g.g.g.g.g.g.g.s.s.g.s.M.:.: ",
"G.M.g.g.g.g.g.g.g.g.g.g.g.g.g.g.s.s.s.s.s.s.s.s.s.s.s.s.s.s.s.s.g.g.g.g.g.s.s.s.g.g.g.g.g.g.g.g.g.g.g.g.g.g.g.g.g.g.g.g.g.g.g.g.g.g.g.s.g.s.s.s.s.s.s.s.g.s.M.S <.Z.g.s.g.s.s.s.s.s.s.s.s.s.s.s.s.s.g.g.g.g.g.g.s.s.s.g.g.g.s.s.s.s.s.g.g.g.g.g.g.g.g.g.s.s.s.g.g.g.g.s.s.s.s.s.g.g.g.g.g.g.g.g.g.g.g.g.s.s.s.s.g.s.g.s.g.g.g.V s.M.s.s.g.s.g.g.g.g.s.s.s.s.g.g.g.g.s.s.s.s.s.s.g.g.g.g.g.g.g.g.g.s.s.s.s.s.s.s.s.s.s.s.s.s.s.s.g.g.g.g.g.g.s.s.g.g.g.g.g.g.g.g.g.g.g.g.s.s.s.s.g.s.g.s.g.g.s.p g.M.g.s.g.s.s.g.s.s.s.s.s.g.g.g.g.g.g.s.s.g.g.g.g.g.s.s.s.s.g.g.g.g.g.g.g.g.g.g.g.g.g.g.g.g.g.g.s.g.g.s.s.s.s.s.g.g.g.g.g.g.g.g.g.g.g.g.g.g.g.g.g.s.g.s.g.g.s.v s.s.s.s.g.s.s.s.g.g.s.s.s.s.g.g.g.g.s.s.s.s.s.s.g.g.s.g.s.s.s.s.s.s.e.s.s.s.g.g.g.g.g.g.g.g.g.g.g.g.s.s.s.s.g.g.g.g.g.g.g.g.g.g.g.s.s.s.s.s.s.g.g.g.s.g.s.g.e.V Z.g.s.s.g.s.s.g.g.g.g.g.g.g.g.g.g.g.g.g.s.s.s.s.s.s.s.s.s.s.s.s.g.g.g.g.g.g.g.g.g.g.g.g.g.g.g.g.s.s.s.s.s.s.g.g.s.s.s.s.s.s.s.s.s.s.s.s.s.s.s.s.s.g.s.s.g.s.:.v Z.s.s.s.s.s.s.e.s.s.e.e.e.e.s.s.e.e.e.e.e.e.e.e.s.s.s.s.s.s.s.s.s.s.s.s.s.s.s.s.e.s.s.s.s.s.e.e.s.s.e.e.e.e.s.s.s.s.s.s.s.s.s.s.s.s.s.s.s.s.e.e.s.s.s.e.e.s...V M.s.s.g.s.s.g.s.g.g.g.g.g.g.g.g.g.g.s.s.s.s.s.s.g.g.g.g.s.s.s.s.g.g.g.g.g.g.g.g.g.g.g.g.g.g.g.g.g.g.g.g.g.g.g.g.g.g.g.g.s.s.s.g.g.g.g.g.g.g.g.g.g.g.s.g.s.g.:.: ",
"J.Z.g.g.g.g.g.g.s.s.s.s.s.s.s.s.s.g.g.g.g.g.s.s.s.s.s.s.s.s.s.s.g.g.g.g.g.g.g.s.s.s.s.s.s.s.s.s.s.s.s.s.s.s.s.s.g.g.g.g.g.g.g.g.g.g.g.g.s.s.s.s.g.s.s.g.g.s.M.S <.Z.g.s.g.s.s.s.g.g.g.g.g.g.g.g.s.s.g.g.g.g.g.g.s.s.g.g.g.s.s.s.s.s.g.s.s.g.g.g.g.g.g.g.s.s.s.g.g.g.g.g.g.g.s.s.s.s.s.s.s.s.s.s.g.g.g.s.s.s.s.s.g.s.g.s.g.g.g.V s.M.e.e.g.s.g.s.g.g.s.s.s.s.s.g.g.g.g.g.g.s.s.s.g.g.g.g.g.g.g.g.g.s.s.s.s.s.s.s.s.s.s.s.s.g.g.g.g.g.s.s.s.s.s.s.s.s.s.s.s.s.s.s.g.g.g.s.s.s.s.s.g.s.g.s.g.g.s.p g.M.g.s.g.s.s.g.g.g.s.s.g.g.g.g.g.g.g.g.g.g.g.g.g.g.s.s.s.s.g.g.s.s.s.s.s.s.s.s.s.s.s.s.s.s.s.s.s.s.g.s.s.s.s.s.g.g.g.g.g.g.g.g.s.s.s.s.s.s.s.s.g.s.g.s.g.g.s.v s.s.s.s.s.s.s.s.g.g.s.s.s.s.g.g.g.s.s.s.s.s.s.s.g.g.g.g.s.s.s.s.s.s.s.s.s.s.g.g.g.g.g.g.g.g.g.g.g.g.s.s.s.s.g.g.s.s.s.s.s.s.s.s.s.s.s.s.s.s.s.s.g.g.s.s.e.g.e.V Z.g.s.s.g.s.s.g.g.g.g.g.g.g.g.g.g.g.g.g.g.g.g.g.s.s.s.s.s.s.s.s.s.s.s.s.s.s.s.s.g.g.g.g.g.g.g.g.s.s.g.g.g.g.g.g.s.s.s.s.s.s.s.s.s.s.s.s.s.s.g.g.s.g.s.s.g.s.:.v Z.s.s.s.s.s.s.e.s.s.e.e.s.s.s.s.s.e.e.e.e.e.e.e.s.s.s.s.s.s.s.s.e.e.e.s.s.s.e.e.e.e.e.s.s.s.s.s.s.s.s.e.e.s.s.s.s.s.s.s.s.s.s.s.s.s.s.s.e.e.e.e.s.s.s.e.e.s.%.V M.s.s.g.s.s.g.s.s.s.s.s.s.s.s.s.s.s.s.s.s.s.s.s.g.g.g.s.s.s.s.s.g.g.g.g.g.g.g.g.s.s.s.s.s.s.s.s.s.s.s.s.s.s.s.s.g.g.g.g.s.s.s.g.g.g.g.g.g.g.g.g.g.g.s.g.s.g.%.- ",
"J.Z.g.g.g.g.g.g.s.s.s.s.s.s.s.s.g.s.g.g.g.g.g.s.s.s.s.s.s.s.s.s.g.g.g.g.g.g.g.g.s.s.s.s.s.s.s.s.s.s.s.s.s.s.s.s.g.g.g.g.g.g.g.g.g.g.g.g.g.s.s.s.g.g.g.g.g.s.M.S <.G.g.s.g.s.s.s.g.g.g.g.g.g.g.g.s.s.g.g.g.g.g.g.s.g.g.g.g.s.s.s.s.s.s.s.s.g.g.g.g.g.g.g.s.s.s.g.g.g.g.g.g.g.g.g.s.s.s.s.s.s.s.s.g.g.g.s.s.s.s.s.g.e.g.s.g.g.g.V s.M.e.e.g.s.g.s.g.g.s.s.s.s.s.s.g.g.g.g.g.g.g.s.g.g.g.g.g.g.g.g.s.s.s.s.s.s.s.s.s.s.s.s.g.g.g.g.s.g.g.s.s.s.s.s.s.s.s.s.s.s.s.s.g.g.g.s.s.s.s.s.g.s.g.s.g.g.s.p g.M.g.s.g.s.s.g.g.g.s.s.g.g.g.s.g.g.g.g.g.g.g.g.g.s.s.s.s.s.s.g.s.s.s.s.s.s.s.s.s.s.s.s.s.s.s.s.s.s.g.s.s.s.s.s.g.g.g.g.g.g.g.g.s.s.s.s.s.s.s.s.g.s.g.s.g.g.s.v s.s.s.s.s.s.s.s.g.s.s.s.s.s.s.g.s.s.s.s.s.s.s.s.g.g.g.g.g.s.s.s.g.g.g.g.g.g.g.s.g.g.g.g.g.g.g.g.g.g.s.s.s.s.g.g.s.s.s.s.s.s.s.s.s.s.s.s.s.s.s.s.g.g.s.s.e.s.e.V Z.g.s.g.g.g.g.g.g.g.g.g.g.g.g.s.g.g.g.g.g.g.g.g.s.s.s.s.s.s.s.s.s.s.s.s.s.s.s.s.g.g.g.g.g.g.g.g.g.g.g.g.g.g.g.g.s.s.s.s.s.s.s.s.s.s.s.s.s.g.g.g.g.g.s.g.g.s.:.v Z.s.s.s.e.e.s.e.s.e.e.e.e.s.s.s.s.e.e.e.e.e.e.e.s.s.s.s.s.s.s.s.e.e.e.s.s.s.e.e.e.e.e.s.s.s.s.s.s.s.s.e.e.e.s.s.s.s.s.s.s.s.s.s.e.s.e.e.e.e.e.e.e.e.s.e.s.s...V M.e.s.g.s.s.g.s.s.s.s.s.s.s.s.s.s.s.s.s.s.s.s.s.g.g.g.s.s.s.s.s.g.g.g.g.g.g.g.g.s.s.s.s.s.s.s.s.s.s.s.s.s.s.s.s.g.g.g.g.s.s.s.g.g.g.g.g.g.g.g.g.g.g.g.g.s.g.%.- ",
"J.M.s.s.g.s.s.g.g.s.s.s.s.s.s.s.s.s.s.s.s.s.s.s.s.s.s.s.s.s.s.g.g.g.g.s.s.s.s.s.g.g.g.g.g.g.g.g.g.g.g.g.g.g.g.g.g.g.g.g.g.g.g.g.g.g.g.g.g.g.g.g.g.g.g.g.g.s.M.S <.Z.s.g.s.g.g.g.s.s.s.s.s.s.s.s.s.s.s.s.s.s.s.s.g.g.g.g.g.g.g.g.g.g.g.g.g.g.g.g.g.g.s.s.s.s.s.g.s.s.g.g.g.g.s.s.g.g.g.g.g.g.s.s.g.g.g.g.g.g.g.g.g.s.g.s.g.s.g.V s.Z.s.s.g.s.g.s.s.s.s.s.s.s.s.s.g.g.g.g.g.g.s.s.g.g.g.g.s.s.g.g.s.s.s.s.s.s.s.s.s.s.s.s.s.s.s.s.s.s.s.s.s.s.s.s.g.g.g.g.g.g.g.g.s.s.s.g.g.g.s.s.s.s.g.e.g.g.e.p g.M.s.e.s.s.s.g.g.g.g.g.g.g.g.g.g.g.g.g.g.g.s.s.s.g.g.g.g.g.g.s.g.g.g.g.g.g.g.g.g.g.g.g.g.g.g.g.s.g.g.g.s.s.g.g.g.g.g.g.g.g.g.g.g.g.g.g.g.g.g.g.g.s.s.g.s.g.e.v s.s.s.s.s.s.e.e.s.s.s.s.s.s.s.s.s.s.s.s.s.s.s.s.s.s.s.s.s.s.s.s.s.s.s.g.g.g.g.g.g.g.g.s.g.g.g.g.g.g.g.g.g.g.g.g.s.s.g.g.g.g.s.s.g.g.s.s.s.s.g.g.s.g.s.s.s.g.<.v Z.g.s.s.g.s.s.s.g.g.g.g.g.g.g.g.g.g.g.g.g.g.g.g.g.s.s.s.g.g.g.g.g.g.g.s.s.g.g.g.g.g.g.g.g.g.g.g.s.s.s.s.s.s.s.s.e.s.s.s.g.s.s.s.s.s.s.g.g.g.g.g.g.g.g.g.g.g.%.V Z.g.s.s.s.s.e.s.e.e.e.e.s.s.s.s.s.s.s.e.e.e.e.e.s.s.s.s.s.s.s.s.s.s.s.e.e.e.s.s.s.e.e.e.e.e.s.s.s.s.s.s.s.s.s.s.s.s.s.s.e.e.e.e.<.<.e.e.e.e.e.e.e.e.s.e.e.s...v g.s.s.s.s.s.s.s.s.s.s.s.g.g.g.g.s.g.g.g.g.g.g.g.g.s.s.s.s.s.s.s.g.g.g.g.g.g.g.g.g.g.g.g.g.g.g.g.g.s.s.s.s.s.s.g.g.g.s.s.g.g.g.g.g.g.g.g.g.g.g.g.g.g.s.g.e.s.%.- ",
"J.M.s.s.g.s.s.g.s.s.s.s.s.s.s.s.s.s.s.s.s.s.s.s.s.s.s.s.s.s.g.g.g.g.g.g.s.s.s.s.g.g.g.g.g.g.g.g.g.g.g.g.g.g.g.g.g.g.g.g.g.g.g.g.g.g.g.g.g.g.g.g.g.g.g.g.g.s.M.S <.Z.s.g.s.g.g.g.g.g.g.s.s.s.s.s.s.s.s.s.s.s.s.s.g.g.g.g.g.g.g.g.s.s.s.g.g.s.s.s.s.g.s.s.s.s.s.g.s.s.g.g.g.g.s.s.g.s.s.s.s.s.s.s.g.g.g.g.g.g.g.g.g.s.g.s.g.s.g.V s.Z.s.s.g.s.g.s.s.s.s.s.s.s.s.s.g.g.g.g.g.g.s.s.g.g.g.g.s.s.g.g.s.s.s.s.s.s.s.s.s.s.s.s.s.s.s.s.s.s.s.s.s.s.s.s.g.g.g.g.g.g.g.g.s.s.s.g.g.g.g.g.s.s.g.e.g.g.e.p g.M.g.s.g.s.s.g.g.g.g.g.g.g.g.g.g.g.g.g.g.g.s.s.s.g.g.g.g.g.g.s.g.g.g.g.g.g.g.g.g.g.g.g.g.g.g.g.s.g.g.g.s.s.g.g.g.g.g.g.g.g.g.g.g.g.g.g.g.g.g.g.g.s.s.g.s.g.e.v s.s.s.s.s.s.s.e.s.s.s.s.s.s.s.s.s.s.s.s.s.s.s.s.s.s.s.s.s.s.s.s.g.s.g.s.g.g.g.g.s.s.g.g.g.g.g.g.g.g.g.g.g.g.g.g.s.s.g.g.g.g.s.s.s.s.s.s.s.s.g.g.s.g.s.g.s.g.<.V Z.g.s.s.g.s.s.g.g.g.g.g.g.g.g.g.g.g.g.g.g.g.g.g.g.s.s.s.g.g.g.g.g.g.g.s.s.g.g.g.g.g.g.g.g.g.g.g.s.g.g.g.g.s.s.s.e.s.s.s.g.s.s.s.s.s.s.g.g.g.g.g.g.g.g.g.g.g...V Z.g.e.s.s.s.e.s.e.e.e.e.s.s.s.e.s.s.s.s.e.e.e.e.s.s.s.s.s.s.s.s.s.s.s.s.s.s.s.s.e.e.e.e.e.e.s.s.s.s.s.s.s.s.s.s.s.s.s.s.e.e.e.e.<.e.e.e.s.s.s.e.e.e.s.e.e.s...V g.s.s.s.s.s.s.s.s.s.s.s.g.g.g.g.s.s.g.g.g.g.g.g.s.s.s.s.s.s.s.s.g.g.g.g.g.g.g.g.g.g.g.g.g.g.g.g.g.s.s.s.s.s.s.g.g.g.s.s.s.g.g.g.g.g.g.g.g.g.g.g.g.g.s.g.e.s.%.- ",
"J.M.s.s.g.s.s.g.g.s.s.s.s.s.s.s.s.s.s.s.s.s.s.s.g.g.s.s.s.g.g.g.g.g.g.g.g.g.g.s.g.g.g.g.g.g.g.g.g.g.g.g.g.g.g.g.g.g.g.g.g.g.g.g.g.g.g.g.g.g.g.g.g.g.g.g.g.s.M.S <.Z.s.g.s.g.g.s.g.g.g.g.g.s.s.s.s.s.s.s.s.s.s.s.g.g.g.g.g.g.g.g.s.s.s.s.s.s.s.s.s.g.g.s.s.s.s.s.g.g.g.g.g.g.g.g.g.s.s.s.s.s.s.s.g.g.g.g.g.g.g.g.g.s.g.s.g.s.g.V s.Z.s.s.g.s.g.s.s.s.s.s.s.s.s.s.g.g.g.g.g.g.s.s.s.s.s.s.s.s.s.s.s.s.s.s.s.s.s.s.s.s.s.s.s.s.s.s.s.s.s.s.s.s.s.s.g.g.g.g.g.g.g.g.s.s.s.g.g.g.g.g.s.s.g.e.g.g.e.p g.M.g.s.g.g.s.g.g.g.g.g.g.g.g.g.s.s.g.g.g.g.g.g.s.s.g.g.g.g.s.s.g.g.g.g.g.g.g.g.g.g.g.g.g.g.g.g.s.g.g.g.s.s.g.g.g.g.g.g.g.g.g.g.g.g.g.g.g.g.g.g.g.s.s.g.s.g.e.v s.s.s.s.s.s.s.s.s.s.s.s.s.s.s.s.s.s.s.s.s.s.s.s.s.s.s.s.s.s.s.s.g.g.s.g.g.s.s.s.s.s.g.g.g.g.g.s.g.g.g.g.g.g.g.g.s.s.s.g.s.s.s.s.s.s.s.s.s.s.s.s.g.g.s.g.s.g.e.V Z.M.s.g.g.s.s.g.g.g.g.g.g.g.g.g.g.g.g.g.g.g.g.g.g.s.s.s.g.g.g.g.g.g.s.s.s.s.g.g.g.g.g.g.g.g.g.g.g.g.g.g.g.g.s.s.s.s.s.g.g.g.s.s.s.s.s.g.g.g.g.s.g.g.g.s.g.g.%.V Z.g.e.e.s.e.e.s.e.s.e.e.s.s.e.e.s.s.s.s.s.s.e.e.s.s.s.s.s.s.s.s.s.s.s.s.s.s.s.s.e.e.e.e.e.e.s.s.s.s.s.s.s.s.s.s.s.s.s.s.e.s.e.e.e.e.e.s.s.s.s.e.e.s.s.s.s.s...V M.s.s.s.g.s.s.g.s.s.s.s.s.g.s.s.s.s.s.g.g.g.g.g.s.s.s.s.s.s.s.s.g.g.g.g.g.g.g.g.g.g.g.g.g.g.g.g.g.g.s.s.s.s.g.g.g.s.s.s.s.g.g.g.g.g.g.g.g.g.g.g.g.g.g.g.e.g.%.: ",
"J.M.s.s.g.s.s.g.s.s.s.s.s.s.s.s.s.s.s.s.s.s.s.s.g.g.s.s.s.g.g.g.g.g.g.g.g.g.g.g.g.g.g.g.g.g.g.g.s.s.s.s.s.s.s.s.g.g.g.g.g.g.g.g.s.s.s.s.s.s.s.s.g.s.s.g.g.s.M.S <.Z.s.g.s.g.g.s.g.g.g.g.s.s.s.s.s.s.s.s.s.s.s.s.s.s.s.s.s.s.s.s.g.g.g.s.s.s.s.s.s.s.g.s.s.s.s.s.g.g.g.s.s.g.g.g.g.g.s.s.s.s.g.g.s.s.s.s.s.s.s.s.g.e.g.s.s.s.g.S s.Z.s.s.g.s.g.s.s.s.s.s.s.s.s.s.s.g.g.g.g.s.s.s.s.s.s.s.s.s.s.s.s.s.s.s.s.s.s.s.s.s.s.s.s.s.s.s.s.s.s.s.s.s.s.s.g.g.g.g.g.g.g.g.s.s.s.g.g.g.g.g.s.s.g.e.g.g.e.p g.M.g.s.g.g.s.g.s.s.s.s.s.s.s.s.s.s.s.g.g.g.g.g.s.s.g.g.g.g.s.s.g.g.g.g.s.s.s.s.s.s.s.s.s.s.s.s.g.g.g.s.s.s.g.g.s.s.s.s.s.s.s.s.g.g.g.g.g.g.g.g.g.s.s.g.s.g.e.v s.s.s.g.s.s.s.s.s.s.s.s.s.s.s.s.s.s.s.s.s.s.s.s.s.s.s.s.s.s.s.s.g.g.g.g.s.s.s.s.s.s.s.g.g.g.s.s.s.s.s.s.s.s.s.s.s.s.s.s.s.s.s.s.e.s.s.s.s.s.s.s.g.g.s.g.s.g.e.V Z.M.s.g.g.g.s.g.s.s.s.s.s.s.s.s.s.s.s.s.s.s.s.s.g.s.s.s.g.g.g.s.g.g.s.s.s.s.g.g.s.s.s.s.s.s.s.s.g.g.g.g.g.s.s.s.s.s.s.s.g.s.s.s.s.s.s.g.g.g.s.s.s.g.g.s.s.g.%.V Z.g.e.e.e.e.e.s.s.s.s.e.s.e.e.s.s.s.s.s.s.s.e.e.e.e.s.s.e.e.e.e.s.s.s.s.e.e.e.e.e.e.e.e.e.e.s.s.e.s.e.e.e.e.e.e.s.e.s.s.s.s.e.e.s.s.s.s.s.s.s.e.s.s.s.s.s.s.%.V M.g.s.g.g.s.s.g.s.s.s.s.s.s.s.s.s.s.s.s.g.g.g.g.s.s.s.s.s.s.s.g.s.s.s.s.s.s.s.s.g.g.g.g.g.g.g.g.g.g.g.g.g.g.g.g.s.s.s.s.s.g.g.g.s.s.s.s.s.s.s.s.g.g.g.g.e.g.%.: ",
"J.M.s.s.g.s.s.g.s.s.s.s.s.s.s.s.s.s.s.s.s.s.s.s.g.g.s.s.s.g.g.g.g.g.s.g.s.s.s.s.g.g.g.g.g.g.g.g.s.s.s.s.s.s.s.s.g.g.g.g.g.g.g.g.s.s.s.s.s.s.s.s.s.s.s.s.g.s.M.S <.Z.s.g.s.g.s.s.g.s.s.s.s.s.e.e.s.s.s.s.s.s.s.s.s.s.s.s.s.s.s.s.g.s.s.s.s.s.s.s.s.s.s.s.s.s.s.s.g.g.g.s.s.g.g.g.g.g.s.s.s.s.s.g.s.s.s.s.s.s.s.s.s.e.g.s.s.s.g.S s.Z.s.s.g.e.g.s.s.s.s.s.s.s.s.s.s.s.g.g.g.s.s.s.s.s.s.s.s.s.s.s.s.s.s.s.s.s.s.s.s.s.s.s.s.s.s.s.s.s.s.s.s.s.s.s.g.g.g.g.g.g.g.g.s.s.g.g.g.g.g.g.s.s.g.e.g.g.e.p g.M.g.s.g.g.s.g.s.s.s.s.s.s.s.s.s.s.s.s.g.g.g.g.s.s.s.g.g.s.s.s.g.s.g.s.s.s.s.s.s.s.s.s.s.s.s.s.g.s.s.s.s.s.s.s.s.s.s.s.s.s.s.s.g.g.g.g.g.g.g.g.g.s.s.g.s.g.e.v s.s.s.g.g.g.g.g.s.s.s.s.s.s.s.s.s.s.s.s.s.s.s.s.s.s.s.s.s.s.s.s.g.g.g.s.s.s.s.s.e.s.s.s.g.s.s.s.s.s.s.s.s.s.s.s.s.s.s.s.s.s.s.s.s.s.s.s.g.g.g.g.g.g.s.g.s.g.e.V Z.M.s.g.g.s.s.g.s.s.s.s.s.s.s.s.s.s.s.s.s.s.s.s.s.s.s.s.g.g.g.s.g.s.s.s.s.s.s.g.s.s.s.s.s.s.s.s.s.s.s.s.s.s.s.s.s.s.s.s.s.s.s.s.s.s.g.g.g.s.s.s.s.s.g.s.s.g.%.V Z.g.e.e.e.e.e.s.s.s.s.s.e.e.e.e.e.e.s.s.s.s.e.e.s.e.s.s.e.e.e.e.e.e.e.e.e.e.e.e.e.e.e.e.e.e.s.s.e.e.e.e.s.s.s.s.e.e.e.e.s.s.s.s.s.s.s.e.e.e.e.e.s.s.s.s.s.s.%.V M.g.s.g.g.s.s.g.s.s.s.s.s.s.s.s.s.s.s.s.s.s.g.g.s.s.s.s.s.s.s.g.s.s.s.s.s.s.s.s.s.s.g.g.g.g.g.g.g.g.g.g.g.g.g.g.s.s.s.s.s.s.g.g.s.s.s.s.s.s.s.s.g.g.g.g.s.g.:.: ",
"J.M.s.s.g.s.s.g.s.s.s.s.s.s.s.s.s.s.s.s.s.s.g.g.g.g.s.s.s.g.g.g.g.g.s.s.s.s.s.s.s.s.s.s.s.s.s.s.s.s.s.s.s.s.s.s.g.g.g.g.g.g.g.g.s.s.s.s.s.s.s.s.g.s.s.s.g.s.M.S <.Z.s.g.s.g.s.s.s.s.s.s.s.s.s.e.s.s.s.s.s.s.s.s.s.s.s.s.s.s.s.s.s.s.s.e.e.s.s.s.s.s.s.s.s.s.s.s.g.s.s.s.s.s.s.s.s.s.s.s.e.s.s.s.s.s.s.s.s.s.s.s.s.e.g.s.s.s.g.S s.Z.s.s.g.e.g.s.s.s.s.s.s.s.s.s.s.s.s.g.s.s.s.s.s.s.s.s.s.s.s.s.s.s.s.s.s.s.s.s.s.s.s.s.s.s.s.s.s.s.s.s.s.s.s.s.g.g.g.g.g.g.g.g.s.s.s.g.g.g.s.s.s.s.g.e.g.g.e.p g.M.g.s.g.s.s.g.s.s.s.s.s.s.s.s.s.s.s.s.s.s.s.s.s.s.s.s.s.s.s.s.g.g.g.s.s.s.s.s.s.s.s.s.s.s.s.s.g.s.s.s.s.g.s.s.s.s.s.s.s.s.s.s.s.s.s.s.s.s.s.s.g.s.s.g.s.g.e.v s.s.s.g.g.g.g.g.s.s.s.s.s.s.s.s.s.s.s.s.s.s.s.s.s.s.s.s.s.s.s.s.s.s.s.s.s.s.s.s.e.e.s.s.s.s.s.s.s.s.s.s.s.s.s.s.s.s.s.s.s.s.s.s.s.s.s.s.g.g.g.g.g.g.s.g.s.g.e.V Z.g.s.s.g.s.s.s.s.s.s.s.s.s.s.s.s.s.s.s.s.s.s.s.s.s.s.s.s.g.g.s.s.s.s.s.s.s.s.s.s.s.s.s.s.s.s.s.s.s.s.s.s.s.s.s.s.s.s.s.s.s.s.s.s.g.g.g.g.s.s.s.s.s.g.s.s.g...v Z.g.e.e.e.e.e.s.s.s.s.s.e.e.e.s.e.e.e.s.s.s.e.e.s.e.e.s.e.e.e.e.e.e.e.e.e.e.e.e.e.e.e.e.e.e.s.s.e.e.e.e.s.s.s.s.e.e.e.e.s.s.s.s.s.s.s.e.e.e.e.s.e.s.s.s.s.s...V M.s.s.s.g.s.s.g.s.s.s.s.s.s.s.s.s.s.s.s.s.s.s.s.s.s.s.s.s.s.s.s.s.s.s.s.s.s.s.s.s.s.s.s.s.s.s.s.s.s.g.g.g.g.s.s.s.s.s.s.s.s.g.g.s.s.s.s.s.s.s.s.s.s.s.g.e.g.%.: ",
"J.M.s.s.g.s.s.g.s.s.s.g.g.s.s.s.s.s.s.s.s.g.g.g.s.s.s.s.s.s.g.g.s.s.s.s.s.s.s.s.s.s.s.s.s.s.s.s.s.s.s.s.s.s.s.s.s.s.s.s.s.s.s.s.s.s.s.s.s.s.s.s.s.s.s.s.g.s.M.S <.Z.s.g.s.g.s.s.s.s.s.s.s.s.s.s.s.s.s.s.s.s.s.s.s.s.s.s.s.s.s.s.s.s.e.e.e.e.s.s.s.s.s.s.s.s.s.s.s.s.s.s.s.s.s.s.s.s.s.s.s.s.s.s.s.s.s.s.s.s.s.s.s.e.g.s.s.s.g.S s.Z.s.s.g.s.g.s.s.s.s.s.s.s.s.s.s.s.s.s.s.s.s.s.s.s.s.s.s.s.s.s.s.s.s.s.s.s.s.s.s.s.s.s.s.s.s.s.s.s.s.s.s.s.s.s.s.s.s.s.s.s.s.s.s.s.s.s.s.s.s.s.s.s.g.e.g.g.e.p g.M.s.e.s.s.s.g.s.s.s.s.s.s.s.s.s.s.s.s.s.s.s.s.s.s.s.s.s.s.s.s.g.g.s.s.s.s.s.s.s.s.s.s.s.s.s.s.g.s.s.s.s.g.s.s.s.s.s.s.s.s.s.s.s.s.s.s.s.s.s.s.g.s.s.g.e.g.e.V s.s.s.s.g.g.g.g.s.s.s.s.s.s.s.s.s.s.s.s.s.s.s.s.s.s.s.s.s.s.s.s.s.s.s.s.s.s.s.s.e.e.s.s.s.s.s.s.s.s.s.s.s.s.s.s.s.s.s.s.s.s.s.s.g.s.s.s.s.s.s.s.s.g.s.g.s.g.<.V Z.g.s.s.s.s.s.s.s.s.s.s.s.s.s.s.s.s.s.s.s.s.s.s.s.s.s.s.s.g.s.s.s.s.s.s.s.s.s.s.s.s.s.s.s.s.s.s.e.s.s.s.s.s.s.s.s.s.s.s.s.s.s.s.g.g.g.g.g.s.s.s.s.s.g.s.s.g...v Z.g.e.e.e.e.e.s.e.e.s.s.s.e.s.e.<.e.e.e.s.e.e.e.e.e.s.s.s.s.s.s.e.e.e.e.e.e.e.e.e.e.e.s.e.s.s.s.s.s.e.e.s.s.s.s.e.e.e.e.s.s.s.s.s.e.e.e.e.e.e.s.e.e.s.e.e.s...V g.s.s.s.s.s.s.g.s.s.s.s.s.s.s.s.s.s.s.s.s.s.s.s.s.s.s.s.s.s.s.s.s.s.s.s.s.s.s.s.s.s.s.s.s.s.s.s.s.s.s.g.g.s.s.s.s.s.s.s.s.s.s.g.s.s.s.s.s.s.s.s.s.s.s.g.e.g.%.: ",
"J.M.s.s.g.s.s.g.s.s.s.g.g.s.s.s.s.s.s.s.g.g.g.g.s.s.s.s.s.s.s.g.s.s.s.s.s.s.s.s.s.s.s.s.s.s.s.s.s.s.s.s.s.s.s.s.s.s.s.s.s.s.s.s.s.s.s.s.s.s.s.s.s.s.s.s.g.s.M.S <.Z.s.g.s.g.s.s.s.s.s.s.s.s.s.s.s.s.s.s.s.s.s.s.s.s.s.s.s.s.s.s.g.s.s.s.s.s.s.s.s.s.s.g.s.s.s.s.s.s.s.s.s.s.s.s.s.s.s.s.s.s.s.s.s.s.s.s.s.s.s.s.s.e.g.s.s.s.g.S s.Z.s.s.g.s.g.s.s.s.s.s.s.s.s.s.s.s.s.s.s.s.s.s.s.s.s.s.s.s.s.s.s.s.s.s.s.s.s.s.s.s.s.s.s.s.s.s.s.s.s.s.s.s.s.s.s.s.s.s.s.s.s.s.s.s.s.s.s.s.s.s.s.s.g.e.g.g.e.p g.g.s.e.s.s.e.g.s.s.s.s.s.s.s.s.s.s.s.s.s.s.s.s.s.s.s.s.s.s.s.s.g.s.s.s.s.s.s.s.s.s.s.s.s.s.s.s.g.s.s.s.s.g.s.s.s.s.s.s.s.s.s.s.s.s.s.s.s.s.s.s.g.s.s.g.s.g.e.V s.s.s.s.s.g.g.g.s.s.s.s.s.s.s.s.s.s.s.s.s.s.s.s.s.s.s.s.s.s.s.s.s.s.s.s.s.s.s.g.s.e.s.s.s.s.s.s.s.s.s.s.s.s.s.s.s.s.s.s.s.s.s.s.g.s.s.e.e.s.s.s.s.g.s.s.s.g.<.v Z.g.s.s.s.s.s.s.s.s.s.s.s.s.s.s.s.s.s.s.s.s.s.s.s.s.s.s.s.g.s.s.s.s.s.s.s.s.s.s.s.s.s.s.s.s.s.s.s.s.s.s.s.s.g.g.g.s.s.s.s.s.s.s.g.g.g.g.g.s.s.s.s.s.g.s.s.g...v Z.g.e.e.e.e.e.s.e.e.e.e.s.s.s.e.<.<.e.e.s.e.e.e.e.e.e.e.e.e.e.e.e.e.e.e.e.e.e.e.e.e.e.s.e.s.s.s.e.e.e.e.e.e.e.e.e.e.e.e.s.s.s.s.s.e.e.e.e.e.e.e.e.s.s.e.e.s...v g.s.s.s.s.s.s.s.s.s.s.s.s.s.s.s.s.s.s.s.s.s.s.s.s.s.s.s.s.s.s.s.s.s.s.s.s.s.s.s.s.s.s.s.s.s.s.s.s.s.s.g.g.s.s.s.s.s.s.s.s.s.s.g.s.s.s.s.s.s.s.s.s.s.s.s.e.g.%.: ",
"J.Z.g.g.g.g.s.g.g.g.g.g.g.s.s.s.s.s.s.s.s.s.s.s.s.s.s.s.s.g.g.s.s.s.s.s.s.s.s.s.s.s.s.s.s.s.s.s.s.s.s.s.s.s.s.s.s.s.s.s.s.s.s.s.s.s.s.s.s.s.s.s.g.e.g.s.g.g.M.J :.M.s.s.s.s.g.s.s.s.s.s.s.s.s.s.g.g.g.g.s.s.s.s.s.s.s.g.g.g.g.s.s.s.s.s.s.s.e.e.s.s.s.s.s.s.e.e.s.s.s.s.s.s.s.s.s.s.g.g.g.g.s.s.s.s.s.s.s.s.s.s.g.s.g.s.s.g.g.V s.Z.s.s.g.s.g.s.s.s.s.s.s.s.s.s.s.s.s.s.s.s.s.s.s.s.s.s.g.g.g.g.s.s.s.s.s.s.s.s.s.s.s.s.s.s.s.s.s.s.s.s.s.g.g.g.s.s.s.s.s.s.s.s.s.s.s.s.s.s.s.g.s.s.g.s.s.s.s.p g.g.g.s.s.g.g.s.g.g.s.s.s.s.s.s.s.s.s.s.s.s.s.s.s.s.s.s.s.g.g.g.s.s.s.g.s.s.s.s.g.g.s.s.s.s.s.g.e.s.s.s.s.s.s.s.g.s.s.s.e.e.e.e.s.s.s.s.s.s.s.s.s.g.s.g.s.g.e.v s.s.s.s.s.s.g.g.s.s.s.s.s.s.s.s.s.s.s.s.s.s.s.s.s.s.s.s.s.s.s.s.s.s.s.s.s.s.s.s.s.s.s.s.s.s.s.s.s.s.s.s.s.s.s.s.s.s.s.s.s.s.s.s.s.s.s.s.s.s.s.s.s.g.s.g.s.s.<.v Z.g.s.s.s.e.e.e.s.s.s.s.s.s.s.g.s.s.s.s.s.s.s.s.g.s.g.s.s.s.s.s.s.s.s.s.s.s.s.s.g.g.g.g.s.s.s.s.s.s.s.s.s.s.s.s.g.s.s.s.s.s.e.e.s.s.s.s.s.s.s.s.g.g.s.s.s.s...v M.s.e.e.e.s.s.s.s.s.s.s.s.s.e.s.e.e.e.e.s.s.s.s.s.s.s.s.e.e.e.e.e.e.s.s.s.s.s.s.e.e.e.e.e.e.e.s.e.e.e.e.e.e.e.e.s.s.s.s.e.e.e.e.e.e.e.e.e.e.s.s.e.e.s.e.e.s.%.V M.s.s.g.s.s.g.s.s.s.s.s.s.s.s.s.s.s.s.s.s.s.s.s.s.s.s.s.s.s.s.s.s.s.s.s.s.s.s.s.s.s.s.s.s.s.s.s.s.s.s.s.s.s.s.s.s.s.s.s.s.s.s.s.s.s.s.s.s.s.s.s.g.s.s.g.s.g.:.: ",
"J.M.g.s.g.s.s.s.s.s.s.s.s.s.s.s.s.s.s.s.s.s.s.s.s.s.s.s.s.g.s.s.s.s.s.s.s.s.s.s.s.s.s.s.s.s.s.s.s.s.s.s.s.s.s.s.s.s.s.s.s.s.s.s.s.s.s.s.s.s.s.s.g.e.g.s.s.g.g.S %.M.s.s.g.s.g.s.s.s.s.s.s.s.s.s.g.g.g.s.s.s.s.s.s.s.s.g.g.g.s.s.s.s.s.s.s.s.s.s.s.s.g.s.s.e.e.e.s.s.s.s.s.s.s.s.s.s.g.g.g.g.s.s.s.s.s.s.s.s.s.s.g.s.g.e.s.g.g.V s.Z.s.s.g.s.g.s.s.s.s.s.s.s.s.s.s.s.s.s.s.s.s.s.s.s.s.s.s.g.g.g.g.s.s.s.s.s.s.s.s.s.s.s.s.s.s.s.s.s.s.s.s.g.g.g.s.s.s.s.s.s.s.s.s.s.s.s.s.s.s.s.s.e.g.s.s.s.e.p g.g.g.s.s.g.g.s.g.g.s.s.s.s.s.s.s.s.s.s.s.s.s.s.s.s.s.g.g.g.g.g.s.s.s.s.s.s.s.s.g.g.s.s.s.s.s.s.e.s.s.s.s.s.s.s.s.s.s.e.e.e.e.e.s.s.s.s.s.s.s.s.s.g.s.g.s.g.e.v s.s.s.s.s.s.g.g.s.s.s.s.s.s.s.s.s.s.s.s.s.s.s.s.s.s.s.s.s.s.s.s.s.s.s.s.s.s.s.s.s.s.s.s.s.s.s.s.s.s.s.s.s.s.s.s.s.s.s.s.s.s.s.s.s.s.s.s.s.s.s.e.s.g.s.g.s.s.<.v Z.g.s.s.s.e.e.s.s.s.s.s.s.s.s.g.s.s.s.s.s.s.s.s.s.s.s.s.s.s.s.s.s.s.s.s.s.s.s.s.s.s.s.s.s.s.s.s.s.s.s.s.s.s.s.s.s.s.s.s.s.s.s.e.s.s.s.s.s.s.s.s.g.s.s.e.s.s...v M.s.e.e.s.s.s.s.s.s.s.s.e.s.s.s.e.e.e.e.s.s.s.s.s.s.s.s.e.e.e.e.e.e.s.s.s.s.s.s.e.e.e.e.e.e.e.s.s.s.e.e.e.e.e.e.s.s.s.s.e.e.e.e.e.e.e.e.e.e.e.e.e.e.s.e.e.s...V M.s.s.g.s.s.s.s.s.s.s.s.s.s.s.s.s.s.s.s.s.s.s.s.s.s.s.s.s.s.s.s.s.s.s.s.s.s.s.s.s.s.s.s.s.s.s.s.s.s.s.s.s.s.s.s.s.s.s.s.s.s.s.s.s.s.s.s.s.s.s.s.g.s.s.g.s.g.:.: ",
"G.M.s.s.s.s.s.s.e.s.s.s.s.s.s.s.s.s.s.s.s.s.s.s.s.s.s.s.s.g.s.s.s.s.g.g.s.s.s.s.s.s.s.s.s.s.s.s.s.s.s.s.s.s.s.s.s.s.s.s.s.s.s.s.s.s.s.s.s.s.s.s.g.e.g.s.s.s.g.S %.g.s.s.s.s.g.s.s.s.s.s.s.s.s.s.g.g.s.s.s.s.s.s.s.s.s.g.g.s.s.s.s.s.s.s.s.g.s.s.s.s.g.s.s.e.e.e.s.s.s.s.s.s.s.s.s.s.s.g.g.s.s.s.s.s.s.s.s.s.s.s.g.e.g.s.s.g.g.V s.M.s.s.g.s.g.s.s.s.s.s.s.s.s.s.s.s.s.s.s.s.s.s.s.s.s.s.s.g.s.s.g.g.s.s.s.s.s.s.s.s.s.s.s.s.s.s.s.e.e.s.s.s.s.s.s.s.s.s.s.s.s.s.s.s.s.s.s.s.s.s.s.e.g.s.s.s.e.u g.g.g.s.s.g.g.s.g.s.s.s.s.s.s.s.s.s.s.s.s.s.s.s.s.s.s.g.g.g.g.g.s.s.s.e.s.s.s.s.g.g.g.g.s.s.s.s.s.s.s.s.s.s.s.s.s.s.s.s.s.s.s.s.s.s.s.s.s.s.s.s.s.g.s.g.s.g.e.v s.s.s.s.s.s.s.s.s.s.s.s.s.s.s.s.s.s.s.s.s.s.s.s.s.s.s.s.s.s.s.s.s.s.s.s.s.s.s.s.s.s.s.s.s.s.s.s.s.s.s.s.s.s.s.s.s.s.s.s.s.s.s.g.s.s.s.s.s.s.e.e.s.s.s.g.s.g.<.V M.g.e.s.s.s.s.s.s.s.s.s.s.s.s.g.s.s.s.s.s.s.s.s.s.s.s.s.s.s.s.s.s.s.s.s.s.s.s.s.s.s.s.s.s.s.s.s.s.s.s.s.s.s.s.s.s.s.s.s.s.s.s.s.s.s.s.s.s.s.s.s.g.s.s.e.s.g...v Z.g.e.e.e.e.e.e.e.e.e.e.e.e.s.s.e.e.e.e.s.e.s.s.e.s.s.e.e.e.e.e.e.e.e.e.s.e.s.s.e.e.e.e.e.e.s.s.s.s.s.s.e.e.e.s.e.e.e.e.e.e.e.e.e.e.e.e.e.e.e.e.e.e.s.e.e.s...V M.e.e.s.e.e.s.e.s.s.s.s.s.s.s.s.s.s.s.s.s.s.s.s.s.s.s.s.s.s.s.s.s.s.s.s.s.s.s.s.s.s.s.s.s.s.s.s.s.s.s.s.s.s.s.s.s.s.s.s.s.s.s.s.s.s.s.s.s.s.s.s.g.s.s.g.s.g.%.: ",
"G.M.s.s.s.s.s.s.s.s.s.g.g.g.g.g.s.s.s.s.s.s.s.s.s.s.s.s.s.g.s.s.g.g.g.g.g.s.s.s.s.s.s.s.s.s.s.s.s.s.s.s.s.s.s.s.s.s.s.s.s.s.s.s.s.s.s.s.s.s.s.s.g.e.g.s.s.s.g.S %.g.s.s.s.s.g.s.s.s.s.s.s.s.s.s.s.s.s.s.s.s.s.s.s.s.s.s.s.s.s.s.s.s.s.s.s.s.s.s.s.s.g.s.s.e.e.e.s.s.s.s.s.s.s.s.s.s.s.s.s.s.s.s.s.s.s.s.s.s.s.s.g.e.g.s.s.g.g.V s.M.s.s.g.s.g.s.s.s.s.s.s.s.s.s.s.s.s.s.s.s.s.s.s.s.s.s.s.s.s.s.g.g.s.s.s.s.g.g.s.s.s.s.s.s.s.s.s.e.e.s.s.s.s.s.s.s.s.s.s.s.s.s.s.s.s.s.s.s.s.s.s.s.g.s.s.s.e.p g.g.g.s.s.g.g.s.g.g.s.s.s.s.s.s.s.s.s.s.s.s.s.s.s.s.s.g.g.g.g.g.s.e.e.e.e.s.s.g.s.g.g.s.g.s.s.s.s.s.s.s.s.s.s.s.s.s.s.s.s.s.s.s.s.s.s.s.s.s.s.s.s.g.s.g.s.g.e.v s.s.s.s.s.s.s.s.s.s.s.s.s.s.s.s.s.s.s.s.s.s.s.s.s.s.s.s.s.s.s.s.s.s.s.s.s.s.s.s.s.s.s.s.s.s.s.s.s.s.s.s.s.s.s.s.s.s.s.s.s.g.g.g.s.s.s.s.s.s.s.s.s.s.s.g.s.g.<.V M.g.e.s.s.s.s.s.s.s.s.s.s.s.s.g.s.s.s.s.s.s.s.s.s.s.s.s.s.s.s.s.s.s.s.s.s.s.s.s.s.s.s.s.s.s.s.s.s.s.s.s.s.s.s.s.s.s.s.s.s.s.s.s.s.s.s.s.s.s.s.s.s.s.s.s.s.g...v Z.g.e.e.s.e.e.e.e.e.e.e.e.e.s.s.e.e.e.e.e.e.s.s.e.e.e.e.e.e.e.e.e.e.e.s.s.s.e.e.e.e.e.e.e.e.s.s.s.s.s.e.e.e.e.e.e.e.e.e.e.e.e.e.e.e.e.e.e.e.e.e.e.e.s.e.e.s...V g.e.e.s.e.e.s.e.s.s.s.s.s.s.s.s.s.s.s.s.s.s.s.s.s.s.s.s.s.s.s.s.g.g.s.s.s.s.s.s.s.s.s.s.s.s.s.s.s.s.s.s.s.s.s.s.s.s.s.s.s.s.s.s.s.s.s.s.s.s.s.s.s.s.s.g.s.g.%.: ",
"G.M.s.s.g.s.s.s.s.s.s.g.s.s.g.g.s.s.s.s.s.s.s.s.s.s.s.s.s.g.g.s.g.g.g.g.s.s.s.s.s.s.s.s.s.s.s.s.s.s.s.s.s.s.s.s.s.s.s.s.s.s.s.s.s.s.s.s.s.s.s.s.g.s.g.s.g.s.g.S %.g.s.s.s.s.g.s.s.s.s.s.s.s.s.s.s.s.s.s.s.s.s.s.s.s.s.s.s.s.s.s.e.e.s.s.s.s.s.s.s.s.s.s.s.e.e.s.s.s.s.s.s.s.s.s.s.s.s.s.s.s.s.s.s.s.s.s.s.s.s.s.g.s.g.s.s.g.g.V e.M.s.e.g.s.g.s.s.s.s.s.s.s.s.s.s.s.s.s.s.s.s.s.s.s.s.s.s.s.s.s.g.g.s.s.s.s.g.g.s.s.s.s.s.s.s.s.e.e.e.e.s.s.s.s.s.s.s.s.s.s.s.s.s.s.s.s.s.s.s.s.g.s.g.s.s.s.s.p g.g.g.s.s.g.g.s.s.s.s.s.s.s.s.s.s.s.s.s.s.s.s.s.s.s.s.g.g.g.s.s.s.s.e.e.e.s.s.g.s.s.g.g.s.s.s.e.s.s.s.s.s.s.s.s.s.s.s.s.s.s.s.s.s.s.s.s.s.s.s.s.s.g.s.g.s.g.e.v e.e.s.s.s.s.s.s.s.s.s.s.s.s.s.s.s.s.s.s.s.s.s.s.s.s.s.s.s.s.s.s.s.s.s.s.s.s.s.s.g.g.g.g.s.s.s.s.s.s.s.s.s.s.s.s.s.s.s.s.s.g.g.g.g.s.s.s.s.s.s.s.s.s.s.g.s.g.e.V M.g.s.s.s.s.s.s.s.s.s.s.s.s.s.g.s.s.s.s.s.s.s.s.e.s.s.s.s.s.s.s.s.s.s.s.s.s.s.s.s.s.s.s.s.s.s.s.s.s.s.s.s.s.s.s.s.s.s.s.s.s.s.s.s.s.s.s.s.s.s.s.s.s.s.s.s.g.%.v Z.g.e.s.s.e.<.<.e.e.e.e.e.s.s.s.s.s.s.s.e.e.e.e.e.e.e.e.e.e.e.e.s.s.e.e.e.e.e.e.e.e.e.e.s.e.e.s.e.e.e.e.e.e.e.e.s.e.e.e.e.e.e.e.e.s.s.s.s.s.s.s.e.e.e.e.e.s.%.V g.e.e.s.e.e.s.e.s.s.s.s.s.s.s.s.s.s.s.s.s.s.s.s.s.s.s.s.s.s.s.s.g.s.s.s.g.s.s.s.s.s.s.s.s.s.s.s.s.s.s.s.s.s.s.s.s.s.s.s.s.s.s.s.s.s.s.s.s.s.s.s.s.s.s.g.s.g.%.: ",
"J.M.s.s.g.s.s.s.s.s.s.s.s.s.s.s.s.s.s.s.s.s.s.s.s.s.s.s.s.g.g.s.s.s.s.g.s.s.s.s.s.s.s.s.s.s.s.s.s.s.s.s.s.s.s.s.g.s.s.s.s.s.s.g.s.s.s.s.s.s.s.s.g.s.g.s.g.g.g.S %.g.s.s.s.s.g.s.s.s.s.s.s.s.s.s.s.s.s.s.s.s.s.s.s.s.s.s.s.s.s.e.e.e.e.s.s.s.s.s.s.s.s.s.e.e.s.s.g.g.g.g.g.s.s.s.s.s.s.s.s.s.s.s.s.s.s.s.s.s.s.s.g.s.g.s.s.g.g.V e.M.e.s.g.s.g.s.s.s.s.s.s.s.s.s.s.s.s.s.s.s.s.s.s.s.s.s.s.s.s.s.s.s.s.s.s.s.g.g.s.s.s.s.s.s.s.s.e.e.s.s.s.s.s.s.s.s.s.s.s.s.s.s.s.s.s.s.s.s.s.s.g.s.M.s.s.s.s.p g.g.g.s.s.g.g.s.s.s.s.s.s.s.s.s.s.s.s.s.s.s.s.s.s.s.g.g.g.g.s.s.s.s.s.s.s.s.s.g.s.s.s.s.s.s.s.s.s.s.s.g.g.s.s.s.s.s.s.s.s.s.s.s.s.s.s.s.s.s.s.s.s.g.s.g.s.g.e.v e.e.e.s.s.s.s.s.s.s.s.s.s.s.s.s.s.s.s.s.s.s.s.s.s.s.s.s.s.s.s.s.s.s.s.s.s.s.s.s.s.s.s.s.s.s.s.s.s.s.s.s.s.s.s.s.s.s.s.s.s.s.s.g.g.g.s.s.s.s.s.g.s.g.s.g.s.g.e.V Z.g.s.s.s.s.s.g.s.s.s.s.s.s.s.g.s.s.s.s.s.s.s.s.e.s.s.s.s.s.s.s.s.s.s.s.s.s.s.s.s.s.s.s.s.s.s.s.s.s.s.s.s.s.s.s.s.s.s.s.s.s.s.e.s.s.s.s.s.s.s.s.s.s.s.s.s.g.%.v Z.g.e.e.e.e.e.e.e.e.e.e.e.e.s.s.s.s.s.s.e.e.e.e.e.e.e.e.e.e.e.e.s.s.e.e.e.e.e.e.e.e.e.e.s.s.s.s.e.e.e.e.e.e.e.e.s.s.e.e.e.e.e.e.e.e.s.s.s.s.s.s.e.e.e.e.e.s.%.V M.e.e.s.e.e.s.s.s.s.s.s.g.s.s.s.s.s.s.s.s.s.s.s.s.s.s.s.s.s.s.s.g.s.g.s.s.s.s.s.g.g.s.s.s.s.s.s.s.s.s.s.s.s.s.s.s.s.s.s.s.s.s.s.s.s.s.s.s.s.s.s.s.s.s.g.e.g.%.- ",
"G.M.s.s.s.s.s.s.s.s.s.s.s.s.s.s.s.s.s.s.s.s.s.s.s.s.s.s.s.g.g.s.s.s.s.s.s.s.s.s.s.s.s.s.s.s.s.s.s.s.s.s.s.s.s.s.g.s.s.s.s.s.s.g.s.s.s.s.s.s.s.s.g.e.g.s.g.g.g.S :.M.s.s.g.s.g.s.s.s.s.s.s.s.s.s.s.s.s.s.s.s.s.s.s.s.s.s.s.s.e.e.e.s.s.s.s.s.s.s.s.s.s.s.e.e.s.s.s.s.s.s.s.s.s.s.s.s.s.s.s.s.s.s.s.s.s.s.s.s.s.s.g.s.g.s.s.g.g.V s.M.e.s.g.s.g.s.s.s.s.s.s.s.s.s.s.s.s.s.s.s.s.s.s.s.s.s.s.s.s.s.s.s.s.s.s.s.s.g.s.s.s.s.s.s.s.s.s.s.s.s.g.g.s.s.s.s.s.s.s.s.s.s.g.g.s.s.s.s.s.s.g.s.g.s.s.s.e.p g.g.g.s.s.g.g.s.s.s.e.e.s.s.s.s.s.s.s.s.s.s.s.s.s.s.g.g.g.s.s.s.s.s.s.s.s.s.s.g.s.s.s.s.s.s.s.s.s.s.g.g.g.s.s.s.g.g.s.s.s.s.g.g.s.s.s.s.s.s.s.s.s.g.s.g.s.g.e.v s.s.s.s.s.s.s.s.s.s.s.s.s.s.s.s.s.s.s.s.s.s.s.s.s.s.s.s.s.s.s.s.s.s.s.s.s.s.s.s.s.s.s.s.s.s.s.s.s.s.s.s.s.s.s.s.s.s.s.s.s.s.s.s.g.s.s.s.e.s.s.s.s.g.s.g.s.g.<.V Z.g.s.s.s.s.s.s.s.s.s.s.s.s.s.g.s.s.s.s.s.s.s.s.e.e.s.s.s.s.s.g.s.s.s.s.s.s.s.s.s.s.s.e.s.s.s.e.s.s.s.s.s.s.s.s.s.s.s.s.s.s.s.e.s.s.s.s.s.s.s.s.s.s.s.s.s.g...v Z.g.e.e.e.e.e.e.e.e.e.e.e.e.e.e.s.e.e.e.e.e.e.e.e.e.e.e.s.s.s.s.s.s.e.e.e.e.e.e.e.e.e.e.e.e.e.e.e.e.e.e.e.e.e.s.s.s.s.s.e.e.e.e.e.e.s.s.s.s.s.s.e.e.e.e.e.s.%.V M.s.s.g.s.s.s.s.s.s.s.s.g.g.s.s.s.s.s.s.s.s.s.s.s.s.s.s.s.s.s.s.g.s.s.s.s.s.s.s.g.g.g.s.s.s.s.s.s.s.s.s.s.s.s.s.s.s.s.s.s.s.s.s.s.s.s.s.s.s.s.s.s.s.s.s.e.g.%.- ",
"G.M.s.s.s.s.e.s.g.g.s.s.s.s.s.s.s.s.s.s.s.s.s.s.s.s.s.s.s.g.g.s.s.s.s.s.s.s.s.s.s.s.s.s.s.s.s.s.s.s.s.s.s.s.s.s.g.s.s.s.s.s.s.g.s.s.s.s.s.s.s.s.s.e.g.s.s.s.g.S :.M.g.s.g.s.g.s.s.s.s.s.s.s.s.s.s.s.s.s.s.s.s.s.s.s.s.s.s.s.e.e.s.s.s.s.s.s.s.s.s.s.s.e.e.e.s.g.s.s.s.s.s.s.s.s.s.s.s.s.s.s.s.s.s.s.s.s.s.s.s.s.g.s.g.s.s.g.g.V s.M.s.s.g.s.g.s.s.s.s.s.s.s.s.s.s.s.s.s.s.s.s.s.s.s.s.s.s.s.s.s.s.s.s.s.s.s.s.s.s.s.s.s.s.s.s.s.s.s.s.s.g.g.g.s.s.s.s.s.s.s.s.s.g.g.g.s.s.s.s.s.s.e.g.s.s.s.e.p g.g.g.s.s.g.g.s.e.e.e.s.s.s.s.s.s.s.s.s.s.s.s.s.s.s.g.g.g.s.s.s.s.s.s.s.s.s.s.s.s.s.s.s.s.s.s.s.s.g.g.g.g.s.s.s.g.g.g.g.g.g.g.g.s.s.s.s.s.s.s.s.s.g.s.g.s.g.e.v e.s.s.s.s.s.s.s.s.s.s.s.s.s.s.s.s.s.s.s.s.s.s.s.s.s.s.s.s.s.s.s.s.s.s.s.s.s.s.s.s.s.s.s.s.s.s.s.s.s.s.s.s.s.s.s.s.s.s.s.s.s.s.s.g.s.e.e.e.e.s.s.g.g.s.g.s.g.<.V Z.g.s.s.s.s.s.s.s.s.s.s.s.s.s.g.s.s.s.s.s.s.s.s.s.s.s.s.s.s.g.g.s.s.s.s.s.s.s.s.s.s.s.s.s.s.s.s.s.s.s.s.s.s.s.s.g.s.s.s.s.s.s.e.s.s.s.s.s.s.s.s.s.s.s.s.s.g...v Z.g.e.e.e.e.e.s.e.e.e.e.e.e.e.e.s.s.e.e.e.e.e.e.e.e.s.s.s.s.s.s.s.s.e.e.e.e.e.e.e.e.e.e.e.e.e.e.e.e.e.e.e.s.s.s.s.s.s.s.e.e.e.e.e.e.s.s.s.s.s.e.e.e.e.e.e.s.%.V M.s.s.g.s.s.g.s.s.s.s.s.g.g.s.s.s.s.s.s.s.s.s.s.s.s.s.s.s.s.s.s.s.s.s.s.s.s.s.s.g.g.g.g.s.s.s.s.s.s.s.s.s.s.s.s.s.s.s.s.s.s.s.s.s.s.s.s.s.s.s.s.s.s.s.s.e.g.%.: ",
"G.M.e.e.s.s.s.s.s.s.s.s.s.s.s.s.s.s.s.s.s.s.e.e.s.s.s.e.e.e.s.g.s.s.s.s.s.s.s.s.s.s.s.s.s.s.s.s.s.s.s.s.s.g.s.s.s.s.s.s.s.s.s.s.s.s.s.s.s.s.s.s.s.e.s.s.s.s.s.V :.G.e.s.e.s.e.s.s.s.s.s.s.s.s.s.s.s.e.e.e.s.s.s.s.s.s.s.s.e.e.e.s.s.s.s.s.s.s.s.s.s.s.s.e.e.e.e.s.s.s.s.s.s.s.s.e.e.e.s.s.s.s.s.e.e.s.s.s.s.e.e.s.e.s.s.s.s.g.V s.Z.s.s.s.e.s.s.s.s.s.s.s.s.s.s.s.s.s.s.s.s.s.s.s.s.s.s.s.s.s.e.s.s.s.s.s.s.s.s.s.s.e.e.e.e.e.e.s.s.s.s.s.s.s.s.s.s.s.s.s.s.s.s.s.s.s.s.s.s.s.s.s.e.s.s.s.s.e.p s.g.s.s.g.s.e.g.s.s.s.s.s.s.s.s.s.s.s.s.s.s.s.s.s.s.s.s.s.e.s.s.s.s.s.s.s.s.s.s.e.e.e.s.s.s.s.s.s.s.s.s.s.s.s.s.s.s.s.s.s.s.s.s.s.s.s.s.s.s.s.s.s.s.s.s.s.g.<.v s.s.e.e.e.e.s.s.s.s.s.s.s.s.s.s.s.s.e.e.e.s.s.g.s.s.s.s.s.s.s.s.s.s.s.s.s.s.s.s.s.s.s.s.s.s.s.s.s.s.s.s.s.s.s.s.s.s.s.s.s.s.e.e.s.s.s.e.e.s.s.s.s.s.s.g.s.s.<.v Z.g.s.s.s.s.s.s.s.s.s.s.s.s.s.s.s.s.s.s.s.s.s.s.s.s.s.s.s.s.s.s.s.s.s.s.s.s.s.s.s.s.s.e.e.s.s.s.s.s.s.s.e.e.s.s.s.s.s.s.s.s.s.s.s.s.s.s.s.s.s.s.s.s.s.s.s.s...v Z.g.e.e.e.e.e.e.<.<.e.e.e.e.e.e.e.e.e.e.e.e.e.e.e.e.e.e.s.e.e.e.e.e.e.e.e.e.e.e.e.e.e.e.e.e.e.e.e.e.e.e.s.s.e.e.e.e.e.e.e.e.e.s.e.e.e.e.e.e.e.e.e.e.e.e.s.s...V M.e.e.s.e.s.g.s.s.s.s.s.s.s.s.s.s.s.s.s.s.s.s.s.s.s.s.s.s.s.s.s.s.s.s.s.s.s.s.s.s.s.s.s.e.s.s.s.s.s.s.s.e.s.s.s.s.s.s.e.e.s.s.s.s.s.s.s.s.s.s.s.s.s.e.s.g.g.%.1 ",
"G.g.e.e.e.e.s.s.s.s.s.s.s.s.s.s.s.s.s.s.s.s.s.s.s.s.s.e.e.e.s.g.s.s.s.s.s.s.s.s.s.s.s.s.s.s.s.s.s.s.s.s.s.s.s.s.s.s.s.s.s.s.s.s.s.s.s.s.s.s.s.s.s.e.s.s.s.s.g.S :.G.e.s.e.s.e.s.s.s.s.s.s.s.s.s.s.s.e.e.e.s.s.s.s.s.s.s.s.s.e.e.s.s.s.s.s.s.s.s.s.s.s.s.e.e.e.e.s.s.s.s.s.s.s.s.e.e.e.s.s.s.s.s.e.s.s.s.s.s.e.e.s.<.s.s.s.s.s.V e.M.s.s.s.e.s.s.s.s.s.s.s.s.s.s.s.s.s.s.s.s.s.s.s.s.s.s.s.s.s.e.s.s.s.s.s.s.s.s.s.s.s.s.e.e.s.s.s.s.s.s.s.s.s.s.s.s.s.s.s.s.s.s.s.s.s.s.s.s.s.s.s.e.s.s.s.s.e.p s.g.s.s.s.s.e.s.s.s.s.s.s.s.s.s.s.s.s.s.s.s.s.s.s.s.s.s.s.s.s.s.s.s.s.s.s.s.s.s.e.e.e.s.s.s.s.s.s.s.s.s.s.s.s.s.s.s.s.s.s.s.s.s.s.s.s.s.s.s.s.s.s.s.s.s.s.g.<.v s.s.e.e.e.s.s.s.s.s.s.s.s.s.s.s.s.s.e.e.e.s.s.s.s.s.s.s.s.s.s.s.s.s.s.s.s.s.s.s.e.s.s.s.s.s.s.s.s.s.s.s.s.s.s.s.s.s.s.s.s.s.s.s.s.s.s.e.e.s.s.s.s.s.s.s.s.s.<.v Z.g.s.s.s.s.s.s.s.s.s.s.s.s.s.s.e.e.e.e.e.e.e.e.s.s.s.s.s.s.s.s.s.s.s.s.s.s.s.s.s.s.s.e.e.s.s.s.s.s.s.s.e.e.s.s.s.s.s.s.s.s.s.s.s.s.s.s.s.s.s.s.s.s.s.s.s.s...v Z.g.e.e.e.e.e.e.<.<.e.e.e.e.e.e.e.e.e.e.e.e.e.e.e.e.e.e.e.e.e.e.e.e.e.e.e.e.e.e.e.e.e.e.e.e.e.e.e.e.e.e.e.e.e.e.e.e.e.e.e.e.e.s.s.e.e.e.e.e.e.e.e.e.e.e.s.s...V M.e.e.s.e.e.s.s.s.s.s.s.s.s.s.s.s.e.e.s.s.s.s.s.s.s.s.s.s.s.s.s.s.s.s.s.s.s.s.s.s.s.s.s.s.s.s.s.s.s.s.s.e.s.s.s.s.s.s.e.e.s.s.s.s.s.s.s.s.s.s.s.s.s.s.s.g.g...: ",
"Z.g.e.e.e.s.s.s.s.s.s.s.s.s.s.s.s.s.s.s.s.s.s.s.s.s.s.e.e.e.s.s.s.s.s.s.s.s.s.s.s.s.s.s.s.s.s.s.e.s.s.s.s.s.s.s.e.s.s.s.e.e.e.e.s.s.s.s.s.s.s.s.s.e.s.s.s.s.g.S :.G.s.s.s.s.e.s.s.s.s.s.s.s.s.s.s.s.e.e.e.s.s.s.s.s.s.s.s.s.s.s.s.s.s.s.s.s.s.s.s.s.s.s.e.e.e.e.s.s.s.s.s.s.s.s.e.e.e.e.s.s.s.s.s.s.s.s.s.s.e.e.s.<.s.s.s.s.s.V e.M.s.e.s.e.g.s.s.s.s.s.s.s.s.s.s.s.s.s.s.s.s.s.s.s.s.s.s.s.s.s.s.s.s.s.s.s.s.s.s.s.s.s.s.s.s.s.s.s.s.s.s.s.s.s.s.s.s.s.s.s.s.s.s.s.s.s.s.s.s.s.s.<.s.e.s.s.e.p g.g.s.s.g.s.e.s.s.s.s.s.s.s.s.s.s.s.s.s.s.s.s.s.s.s.s.s.s.s.s.s.s.s.s.s.s.s.s.s.e.e.e.e.s.s.s.s.s.s.s.s.s.s.s.s.s.s.s.s.s.s.s.s.s.s.s.s.s.s.s.s.s.g.s.s.s.g.<.v s.s.e.e.s.s.s.s.s.s.s.s.s.s.s.s.s.s.e.e.e.s.s.s.s.s.s.s.s.s.s.s.s.s.s.s.s.s.s.s.e.e.s.s.s.s.s.s.s.s.s.s.s.s.s.s.s.s.s.s.s.s.s.s.s.s.s.e.e.s.s.s.s.s.s.s.s.s.<.V Z.g.s.s.s.s.s.s.s.s.s.s.s.s.s.s.e.e.e.e.e.e.e.e.s.s.s.s.s.s.s.e.s.s.s.s.s.s.s.s.s.s.s.e.e.s.s.s.s.s.s.s.e.e.e.s.s.s.s.s.s.s.s.s.s.s.s.s.s.s.s.s.s.s.s.s.s.s...v Z.g.e.e.e.e.e.e.e.e.e.e.e.e.e.e.e.e.e.e.e.e.e.e.e.e.e.e.e.e.e.e.e.e.e.e.e.e.e.e.e.e.e.e.e.e.e.e.e.e.e.e.e.e.e.e.e.e.e.e.e.e.e.e.e.e.e.e.<.<.<.<.e.e.s.e.s.s...v g.e.e.s.e.e.s.e.s.s.s.s.s.s.s.s.e.e.e.s.s.s.s.s.s.s.s.s.s.s.s.s.s.s.s.s.s.s.s.s.s.s.s.s.s.s.s.s.s.s.s.s.e.s.s.s.s.s.s.s.s.s.s.s.s.s.s.s.s.s.s.s.s.s.e.s.s.g...: ",
"Z.g.e.e.s.s.s.s.s.s.s.s.s.s.s.s.s.s.s.s.s.s.s.s.s.s.s.s.e.e.s.s.s.s.s.s.s.s.e.e.s.s.s.s.s.s.s.s.e.e.s.s.s.s.s.e.s.s.s.s.e.e.e.e.s.s.s.s.s.s.s.s.s.e.g.s.s.s.g.S :.G.s.s.e.s.e.s.s.s.s.s.s.s.s.s.s.s.e.s.s.s.s.s.s.s.s.s.s.s.s.s.s.s.s.s.s.s.s.s.s.s.s.s.s.e.e.e.s.s.s.s.s.s.s.s.e.e.e.s.s.s.s.s.s.s.s.s.s.s.e.e.s.<.s.s.s.s.s.V e.M.e.e.s.e.g.s.s.s.s.s.s.s.s.s.s.s.s.e.e.e.e.e.s.s.s.s.s.s.s.s.s.s.s.s.s.s.s.s.s.s.s.s.s.s.s.s.s.s.s.s.s.s.s.s.s.s.s.s.s.s.s.e.s.s.s.s.s.s.s.e.s.<.s.e.s.e.e.u g.M.s.e.s.e.<.s.s.s.s.s.s.s.s.s.s.s.s.s.s.s.s.s.s.s.s.s.s.s.s.s.s.s.s.s.s.s.s.s.e.e.e.s.s.s.s.s.s.s.s.s.s.s.s.s.s.s.s.s.s.s.s.s.s.s.s.s.s.s.s.s.s.g.s.s.s.g.<.v s.s.s.s.s.s.s.s.s.s.s.s.s.s.s.s.s.s.s.e.e.s.s.s.s.s.s.s.s.s.s.s.g.s.s.s.s.s.e.e.e.e.s.s.s.s.s.s.s.s.s.s.s.s.s.s.s.s.s.s.s.s.s.s.s.s.s.e.e.s.s.s.s.s.s.s.s.g.<.V Z.g.s.s.s.s.e.s.s.s.s.s.s.s.s.s.e.e.e.e.s.s.s.s.s.s.s.s.s.e.e.e.s.s.s.s.s.s.s.s.s.s.s.e.s.s.s.s.s.s.s.s.e.e.e.s.s.s.s.s.s.s.s.s.s.s.s.s.s.s.s.s.s.s.s.s.s.s...v M.g.e.e.e.e.e.e.e.e.e.e.e.e.e.e.e.e.s.s.s.e.e.e.e.e.e.e.e.e.e.e.e.e.e.e.e.e.e.e.e.e.e.e.e.e.e.e.e.e.s.s.e.e.e.e.e.e.e.e.e.e.e.e.e.e.e.e.e.e.<.<.e.e.s.e.e.s...v g.e.e.s.e.e.s.e.s.s.s.s.s.s.s.s.e.e.e.s.s.s.s.s.s.s.s.s.s.s.s.s.s.s.s.s.s.s.s.s.s.s.s.s.s.s.s.s.s.s.s.e.e.s.s.s.s.s.s.s.s.s.s.s.s.s.s.s.s.s.s.s.s.s.e.s.s.g...: ",
"G.g.e.e.s.s.s.s.s.s.s.s.s.s.s.s.s.s.s.s.s.s.s.e.s.s.s.s.e.e.s.s.s.s.s.s.e.e.e.e.s.s.s.s.s.s.s.s.e.e.s.s.s.s.e.e.s.s.s.s.e.e.e.e.s.s.s.s.s.s.s.s.s.e.g.s.s.s.g.S :.Z.e.s.e.s.e.s.s.s.s.s.s.s.s.s.s.s.s.s.s.s.s.s.s.s.s.s.s.s.s.s.s.s.s.s.s.s.s.s.s.s.s.s.s.s.s.s.s.s.s.s.s.s.s.e.e.s.s.s.s.s.s.s.s.s.s.s.s.s.e.e.s.e.s.s.s.s.s.V e.M.s.e.g.s.g.s.s.s.s.s.s.s.s.s.s.s.s.e.e.e.e.e.s.s.s.s.s.s.s.s.s.s.s.s.s.s.s.s.s.s.s.s.s.s.s.s.s.s.s.s.s.s.s.s.s.s.s.s.s.s.s.s.s.s.s.s.s.e.e.e.s.e.s.e.s.e.e.u g.M.s.e.s.e.e.s.s.s.s.s.s.s.s.s.s.s.s.s.s.s.s.s.s.s.s.s.e.e.s.s.s.s.s.s.s.s.s.e.s.s.s.s.s.s.s.s.s.s.s.s.s.s.s.s.s.s.s.s.s.s.s.s.s.s.s.s.s.s.s.s.s.g.s.s.s.g.<.v s.s.s.s.s.s.s.s.s.s.s.s.s.s.s.s.s.s.e.e.s.s.s.s.s.s.s.s.s.s.s.s.s.s.s.s.s.s.e.e.s.s.s.s.s.s.e.e.s.s.s.s.s.s.s.s.s.s.e.e.e.e.s.s.s.s.s.e.e.s.s.s.s.s.s.s.s.g.<.V Z.g.s.s.s.s.e.e.s.s.s.s.s.s.s.s.s.s.s.s.s.s.s.s.s.s.s.s.s.s.e.e.s.s.s.s.s.s.s.s.s.s.s.e.e.s.s.s.s.s.s.s.e.e.e.s.s.s.s.s.s.s.s.s.s.s.s.s.s.s.s.s.s.s.s.s.s.g...v M.s.e.e.e.e.e.e.e.e.e.e.e.e.e.e.s.s.e.s.s.e.e.e.e.e.e.e.e.e.e.e.e.e.e.e.e.e.e.e.e.e.e.e.e.e.e.e.e.e.s.s.e.e.e.e.e.e.e.e.e.e.e.e.e.e.e.e.e.e.e.e.e.e.s.e.e.s...v g.e.s.g.s.s.s.s.s.s.s.s.s.s.s.s.e.e.s.s.s.s.s.s.s.s.s.s.s.s.s.s.s.s.s.s.s.s.s.s.s.s.s.s.s.s.s.s.s.s.s.e.e.s.s.s.s.s.s.s.s.s.s.s.s.s.s.s.s.s.s.s.s.s.e.s.s.g...: ",
"G.g.s.s.g.g.s.s.s.s.s.s.s.s.s.s.s.s.s.s.s.e.e.e.s.s.s.s.s.e.s.s.s.s.s.s.e.e.e.e.s.s.s.s.s.s.s.e.e.e.s.s.s.s.e.e.s.s.s.s.s.s.s.s.s.s.s.s.s.s.s.s.s.e.g.s.s.s.g.S :.Z.e.s.e.s.e.s.s.s.s.s.s.s.s.s.s.s.s.s.s.s.s.s.s.s.s.s.s.s.s.s.s.s.s.s.s.s.s.s.s.s.s.s.s.s.s.s.s.s.s.s.s.s.e.e.s.s.s.s.s.s.s.s.s.s.s.s.s.s.s.e.s.e.g.s.s.s.s.V e.M.s.e.g.s.g.s.s.s.s.s.s.s.s.s.s.s.s.e.e.e.e.e.s.s.s.s.s.s.s.s.s.s.s.s.s.s.s.s.s.s.s.s.s.s.s.s.s.s.s.s.s.s.s.s.s.s.s.s.s.s.s.s.s.s.s.s.s.s.s.s.g.e.s.s.s.e.e.p g.M.s.e.s.e.e.s.s.s.s.s.s.s.s.s.s.s.s.s.s.s.s.s.s.s.s.s.e.e.s.s.s.s.s.s.s.s.e.e.s.s.s.s.s.s.s.s.s.s.s.s.s.s.s.s.s.s.s.s.s.s.s.s.s.s.s.s.s.s.s.s.s.g.s.s.s.g.<.v e.s.s.s.s.s.s.s.s.s.s.s.s.s.s.s.s.s.s.s.s.s.s.s.s.s.s.s.s.s.s.s.s.s.s.s.s.s.s.s.s.s.s.s.s.e.e.e.s.s.s.s.s.s.s.s.s.s.e.e.e.s.s.s.s.s.s.e.e.s.s.s.e.s.s.s.s.g.<.V Z.g.s.s.s.e.e.e.s.s.s.s.s.s.s.s.s.s.s.s.s.s.s.s.s.s.s.s.s.s.s.e.s.s.s.s.s.s.s.s.s.s.s.e.e.s.s.s.s.s.s.s.e.e.e.s.s.s.s.s.s.s.s.s.s.s.s.s.s.s.s.s.s.s.s.s.s.g...v M.g.e.e.e.e.e.e.e.e.e.e.e.e.e.e.s.e.e.e.e.e.e.e.e.s.e.s.e.e.e.e.e.e.e.e.e.e.e.e.e.e.e.e.e.e.e.e.e.e.e.e.e.e.e.e.e.e.e.e.e.e.e.e.e.e.e.e.e.e.s.s.e.e.s.e.e.s.' v g.e.s.g.s.s.s.s.s.s.s.s.s.s.s.e.e.e.s.s.s.s.s.s.s.s.s.s.s.s.s.s.s.s.s.s.s.s.s.s.s.s.s.s.s.s.s.s.s.s.s.e.e.s.s.s.s.s.s.s.s.s.s.s.s.s.s.s.s.s.s.s.s.s.e.s.s.s...: ",
"G.g.e.s.s.s.s.s.s.s.s.s.s.s.s.s.s.s.s.s.s.s.s.s.s.s.s.s.s.e.s.s.s.s.s.s.s.e.e.e.s.s.s.g.s.s.e.e.e.e.s.s.s.s.s.s.s.s.s.s.s.s.s.s.s.s.s.s.s.s.s.s.s.e.g.s.s.s.g.V :.Z.e.s.e.s.e.s.s.s.s.s.s.s.s.s.e.s.s.s.s.s.s.s.s.s.s.s.s.s.s.s.s.s.s.s.s.s.s.s.s.s.s.s.s.s.s.s.s.s.s.s.s.s.e.e.s.s.s.s.s.s.s.s.s.s.s.s.s.s.s.e.g.e.s.s.s.s.s.V e.M.s.s.s.e.s.s.s.e.s.s.s.s.s.s.s.s.s.e.e.s.s.s.s.s.s.s.s.s.s.s.s.s.s.s.s.s.s.s.s.s.s.s.e.e.e.e.s.s.s.s.s.s.s.s.s.s.s.s.s.s.s.s.s.s.s.s.s.s.s.s.g.e.s.e.s.s.e.p g.M.s.e.s.e.<.s.s.s.s.s.s.s.s.s.s.s.s.s.s.s.s.s.s.s.s.s.e.e.e.e.s.s.s.s.s.s.e.e.s.s.s.s.s.s.s.s.s.s.s.s.s.s.s.s.s.s.s.s.s.s.s.s.s.s.s.s.s.s.s.s.s.s.s.s.s.g.<.v e.s.s.s.s.s.s.s.s.s.s.s.s.s.s.s.s.s.s.s.s.s.s.s.s.s.s.s.s.s.s.s.s.s.s.s.s.s.s.s.e.e.e.s.s.s.e.e.s.s.s.s.s.s.s.s.e.e.e.s.s.s.s.s.s.s.s.e.e.s.s.s.e.s.s.s.e.s.<.V Z.g.s.s.s.s.e.s.s.s.s.s.s.s.s.s.s.s.s.s.s.s.s.s.e.e.s.s.s.s.e.e.s.s.s.s.s.s.s.s.s.s.s.e.s.s.s.s.s.s.s.s.e.e.s.s.s.s.s.s.s.s.s.s.s.s.s.s.s.s.s.s.s.s.s.s.s.g...v M.s.e.e.e.e.e.e.e.e.e.e.s.e.e.e.s.e.e.e.e.e.e.e.s.s.s.s.e.e.e.<.e.e.e.e.e.e.e.e.e.e.e.e.e.e.e.e.e.e.e.e.e.e.e.e.<.e.e.e.e.e.e.e.e.e.e.e.e.s.s.s.e.e.e.e.e.e...v g.e.s.g.s.e.s.e.s.s.s.s.s.s.e.e.e.e.s.s.s.s.s.e.s.s.s.s.s.s.s.s.s.s.s.s.s.s.s.s.s.s.s.s.s.s.s.e.s.s.s.e.e.s.s.s.s.s.s.s.s.s.s.s.s.s.s.s.s.s.s.s.s.s.e.s.s.g...: ",
"G.g.e.s.s.s.s.e.s.s.s.s.s.s.s.s.s.s.s.s.s.s.s.s.e.s.s.s.s.e.s.s.s.s.s.s.s.e.e.e.s.s.s.g.g.s.e.e.s.e.s.s.s.s.s.s.s.s.s.s.s.s.s.s.s.s.s.s.s.s.s.s.s.e.g.s.s.s.s.V :.Z.e.s.e.s.e.s.s.s.s.s.s.s.s.s.e.s.s.s.s.s.s.e.s.s.s.s.s.s.s.s.s.s.s.s.s.s.s.s.s.s.s.s.s.s.s.s.s.s.s.s.s.s.e.e.s.s.s.s.s.s.s.s.s.s.s.s.s.s.s.s.g.e.s.s.s.s.s.v s.Z.s.s.s.e.s.s.s.e.s.s.s.s.s.s.s.s.s.e.e.s.s.g.s.s.s.s.s.s.s.s.s.s.s.s.s.s.s.s.s.s.e.e.e.e.e.e.s.s.s.s.s.s.s.s.e.s.s.s.s.s.s.s.s.s.s.s.s.s.s.s.g.e.g.s.s.s.e.p g.g.s.e.s.e.e.s.e.s.s.s.s.s.s.s.s.s.s.s.s.s.s.s.e.s.s.s.e.e.e.e.s.s.s.s.s.s.e.e.s.s.s.s.s.s.s.s.s.s.s.s.s.s.s.s.s.s.s.s.s.s.s.s.s.s.s.s.s.s.s.s.s.g.s.s.s.g.<.v e.s.s.s.s.s.s.s.s.s.s.s.s.s.s.s.s.s.s.s.s.s.s.s.s.s.s.s.s.s.s.s.s.s.s.s.s.s.s.s.e.e.e.s.s.s.s.s.s.s.s.s.s.s.s.s.e.e.e.s.s.s.s.e.s.s.s.e.e.s.s.s.e.s.s.s.e.g.e.V M.g.s.s.s.s.e.s.s.s.s.s.s.s.s.s.g.g.g.g.s.s.s.s.e.e.e.s.s.s.e.s.s.s.s.s.s.s.s.s.s.s.s.e.e.s.s.s.s.s.s.s.s.e.e.s.s.s.s.s.s.s.s.s.s.s.s.s.s.s.s.s.s.s.s.s.s.g...v M.s.e.e.e.e.e.e.e.e.e.e.s.s.e.e.s.e.e.e.e.e.e.e.s.s.s.s.e.e.e.<.e.e.e.e.e.e.e.e.e.e.e.e.e.e.e.e.e.e.e.e.s.s.e.e.<.e.e.e.e.e.e.e.s.s.e.e.e.e.e.e.e.e.e.e.e.e...v g.e.e.s.e.e.s.e.s.s.s.s.s.s.e.e.e.s.s.s.s.s.e.e.s.s.s.s.s.s.s.s.s.s.s.s.s.s.s.s.s.s.s.s.s.s.e.e.s.s.s.e.e.s.s.s.s.s.s.s.s.s.s.s.s.s.s.s.s.s.s.s.s.s.e.s.s.s...: ",
"G.M.s.s.s.s.s.s.s.s.s.s.s.s.s.s.s.s.s.s.s.s.s.s.s.s.s.s.s.s.s.s.s.s.s.s.s.s.s.s.s.s.s.s.s.s.s.s.e.e.s.s.s.s.s.s.s.s.s.s.s.s.e.e.s.s.s.s.s.s.s.s.s.e.g.s.s.s.g.S e.M.s.e.s.e.s.s.g.g.s.s.s.s.s.s.e.s.s.g.s.s.s.s.s.s.s.s.s.s.s.s.s.s.s.e.e.e.s.s.s.s.s.s.s.s.s.s.s.s.s.s.s.s.s.e.s.s.s.s.s.s.s.s.s.s.s.s.s.s.s.s.g.s.g.s.s.g.g.v e.M.s.s.s.e.s.s.s.s.s.s.s.s.s.s.e.e.s.s.s.s.s.s.s.s.s.s.s.s.e.e.e.e.s.s.s.s.s.e.s.s.s.s.e.e.e.s.e.s.s.s.s.s.s.s.e.e.s.s.s.s.s.s.g.s.s.s.s.s.s.s.s.s.g.e.g.s.<.p s.M.<.e.s.e.s.s.e.s.s.s.s.s.s.s.s.e.e.e.e.e.s.s.s.s.s.s.s.s.s.s.s.s.s.s.s.s.s.s.s.s.s.s.s.s.s.s.s.s.s.s.s.s.s.s.g.g.s.s.s.s.s.s.e.s.s.s.s.s.s.s.s.s.s.s.s.s.<.v s.s.s.s.s.s.e.e.s.s.s.s.s.s.s.s.e.e.e.s.s.s.s.s.g.g.g.g.s.s.s.s.s.s.s.s.s.s.s.s.e.e.e.e.s.s.s.s.s.s.s.s.s.s.s.s.s.s.s.s.s.s.s.s.s.s.e.e.s.s.s.s.s.s.s.s.s.g.<.v Z.g.s.s.s.s.e.s.s.s.s.s.s.s.s.s.s.s.s.s.s.e.e.e.s.s.s.s.s.s.s.s.s.s.s.s.s.s.s.s.s.s.s.s.s.s.s.s.s.s.s.e.e.s.s.s.s.s.s.s.s.s.s.s.s.s.s.s.e.s.s.e.s.e.s.e.e.s...v Z.s.e.e.e.<.e.<.e.e.e.e.e.e.e.e.e.e.e.<.<.<.<.<.e.e.e.e.e.e.e.e.e.e.e.e.e.e.e.e.e.e.e.e.e.e.e.e.s.s.s.e.e.e.e.e.e.e.e.e.e.s.s.s.s.e.e.e.e.e.e.<.e.e.e.<.<.e...v g.s.s.s.s.e.e.e.s.s.s.s.s.s.s.s.e.s.s.s.s.s.s.s.s.s.s.s.s.s.s.s.e.e.e.e.s.s.s.s.s.s.s.s.s.e.e.e.s.s.s.s.s.s.s.s.s.s.s.s.s.s.s.s.s.s.s.s.s.e.s.s.s.g.s.s.s.g...- ",
"G.M.s.s.s.s.e.s.s.s.s.s.s.s.s.s.s.s.s.s.s.s.s.s.s.s.s.s.s.s.s.s.s.s.s.s.s.s.s.s.s.s.s.s.s.s.s.s.e.e.s.s.s.s.s.s.s.s.s.s.s.s.s.s.s.s.s.s.s.s.s.s.s.e.g.s.s.s.g.S e.M.s.e.s.e.s.s.g.s.s.s.s.s.s.s.e.s.s.s.s.s.s.s.s.s.s.s.s.s.s.s.s.s.s.e.e.s.s.s.s.s.s.s.s.s.s.s.s.s.s.s.s.s.s.s.s.s.s.s.s.s.s.s.s.s.s.s.s.s.s.s.s.s.g.s.s.s.s.v e.M.s.s.s.e.s.s.s.s.s.s.s.s.s.s.e.e.e.s.s.s.s.s.s.s.s.s.s.s.s.e.e.e.s.s.s.s.s.e.s.s.s.e.e.e.s.s.e.s.s.s.s.s.s.s.s.s.s.s.s.s.s.s.s.s.s.s.s.s.s.s.s.e.s.e.g.e.<.p s.M.e.e.s.e.s.s.e.s.s.s.s.s.s.s.s.s.e.e.s.e.s.s.s.s.s.s.s.s.s.e.s.s.s.s.s.s.s.s.s.s.s.s.s.s.s.s.s.s.s.s.s.s.s.s.g.s.s.s.s.s.s.s.e.e.s.s.s.s.s.s.s.s.s.s.s.s.<.v s.s.s.s.s.s.e.e.s.s.s.s.s.s.s.s.s.s.s.s.s.s.s.s.s.s.s.s.s.s.s.s.s.s.s.s.s.s.s.s.e.e.e.s.s.s.s.s.s.s.s.s.s.s.s.s.s.s.s.s.s.s.s.s.s.s.s.e.s.s.s.s.s.s.s.s.s.g.<.v Z.g.s.s.s.s.e.s.s.s.s.s.s.s.s.s.s.s.s.s.s.e.e.e.s.s.s.s.s.s.s.s.s.s.s.s.s.s.s.s.s.s.s.s.s.s.s.s.s.s.s.e.e.s.s.s.s.s.s.s.s.s.s.s.s.s.s.s.e.s.e.e.s.e.s.e.e.s...v Z.s.e.e.e.e.e.<.e.e.e.e.e.e.e.e.e.e.e.<.<.<.e.e.e.e.e.e.e.e.e.e.e.e.e.e.e.e.e.e.e.e.e.e.e.e.e.e.s.s.e.e.e.e.e.e.e.e.e.e.e.s.s.s.s.e.e.e.e.e.e.e.e.e.e.<.e.s...v g.s.s.s.s.e.e.e.s.s.s.s.s.s.s.s.s.s.s.s.s.s.s.s.s.s.s.s.s.s.s.s.s.s.s.s.s.s.s.s.s.s.s.s.s.s.e.e.s.s.s.s.s.s.s.s.s.s.s.s.s.s.e.e.s.s.s.s.s.e.s.s.s.g.s.s.s.g...- ",
"G.M.s.s.s.s.s.s.s.s.s.s.s.s.s.s.s.s.s.s.s.s.s.s.s.s.s.s.s.s.s.s.s.s.s.s.s.s.s.s.s.s.s.s.s.s.s.s.e.e.s.s.s.s.s.s.s.s.s.s.s.s.s.s.s.s.s.s.s.s.s.s.s.e.g.s.s.s.g.S e.Z.s.s.s.e.g.s.s.s.s.s.s.s.s.s.e.s.s.s.s.s.s.s.s.s.s.s.s.s.s.s.s.s.s.e.e.s.s.s.s.s.s.s.s.s.s.s.s.s.s.s.s.s.s.s.s.s.s.s.s.s.s.s.s.s.s.s.s.s.s.s.s.s.g.s.s.g.g.V e.M.s.s.g.s.s.s.s.s.s.s.s.s.s.s.e.s.s.s.s.s.s.s.s.s.s.s.s.s.s.s.e.s.s.s.s.s.s.e.s.s.s.e.s.e.s.s.e.s.s.s.s.s.s.s.s.s.s.s.s.s.s.s.s.s.s.s.e.e.s.s.e.e.e.<.s.e.<.p s.M.e.e.s.e.s.s.e.s.s.s.s.s.s.s.s.s.s.s.s.s.s.s.s.s.s.s.s.s.e.e.s.s.s.s.s.s.s.s.s.s.s.s.s.s.s.s.s.s.s.s.s.s.s.s.s.s.s.s.s.s.s.s.e.e.s.s.s.s.s.s.s.s.s.s.s.s.<.v e.s.s.s.s.s.s.e.s.s.s.s.s.s.s.s.s.s.s.s.s.s.s.s.e.s.s.s.s.s.s.s.s.s.s.s.s.s.s.s.s.s.s.s.s.s.s.s.s.s.s.s.s.s.s.s.s.s.s.s.s.s.s.s.s.s.s.s.s.s.e.e.s.s.s.s.s.g.<.V Z.g.s.s.s.s.s.s.s.s.s.s.s.s.s.s.s.s.s.s.s.s.s.s.s.s.s.s.s.s.s.s.s.s.s.s.s.s.s.s.e.e.e.s.s.s.s.s.s.s.s.e.e.s.s.s.g.g.s.s.s.s.s.s.s.s.s.s.s.s.s.s.s.s.s.e.s.s...v Z.s.e.e.e.e.e.<.e.<.e.e.e.e.<.<.e.e.e.e.e.e.e.e.e.e.e.e.e.e.e.e.e.e.e.e.e.e.e.e.e.e.e.e.e.e.e.e.s.s.s.e.e.e.e.e.e.e.e.e.e.e.s.s.e.e.e.e.e.e.e.e.e.e.e.e.e.s...V g.s.s.s.s.e.s.s.s.s.s.s.s.s.s.s.s.s.s.s.s.s.s.s.s.s.s.s.s.s.s.s.s.s.s.s.s.s.s.s.s.s.s.s.s.s.s.s.s.s.s.s.s.s.s.s.s.s.s.s.s.s.e.s.s.s.s.s.s.s.s.s.s.g.s.s.s.g...- ",
"G.M.s.s.s.s.s.s.s.s.s.s.s.s.s.s.s.s.s.s.s.s.s.s.s.s.s.s.s.s.s.s.s.s.s.s.s.s.s.s.s.s.s.s.s.s.s.s.e.e.s.s.s.s.s.s.s.s.s.s.s.s.s.s.s.s.s.s.s.s.s.s.s.e.g.s.s.s.g.S <.Z.g.s.s.s.g.s.s.s.s.s.s.s.s.s.s.s.s.s.s.e.s.s.s.s.s.s.s.s.s.s.s.s.s.e.s.s.s.s.s.s.s.s.s.s.s.s.s.s.s.s.s.e.s.s.s.s.s.s.s.s.s.s.s.s.s.s.s.s.s.s.g.s.g.s.s.g.s.v e.M.s.s.g.s.s.s.s.s.s.s.s.s.s.s.e.s.s.s.s.s.s.s.s.s.s.s.s.s.s.s.e.e.s.s.s.s.s.e.e.e.e.e.e.s.s.s.e.s.s.s.s.s.s.s.s.s.s.s.s.s.s.s.s.s.s.s.e.e.e.s.e.<.e.<.s.e.<.p s.M.e.e.g.e.s.s.e.s.s.s.s.s.s.s.s.s.s.s.s.s.s.s.s.s.s.s.s.e.e.e.s.s.s.s.s.s.s.s.s.s.s.s.s.s.s.s.s.s.s.s.s.s.s.s.s.s.s.s.s.s.s.s.e.s.s.s.s.s.s.s.s.s.s.s.s.g.<.v e.e.s.s.s.s.s.s.s.s.s.s.s.s.s.s.s.s.s.s.s.s.s.s.e.e.s.s.s.s.s.s.s.s.s.s.s.s.s.s.s.s.s.s.s.s.s.s.s.s.s.s.s.s.s.s.s.s.s.s.s.s.s.s.s.s.s.s.s.s.e.e.s.s.s.s.s.g.<.V Z.g.s.s.s.s.s.s.s.s.s.s.s.s.s.s.s.s.s.s.s.s.s.s.s.s.s.s.s.s.s.s.s.s.s.s.s.s.s.s.s.s.s.s.s.s.s.s.s.s.s.e.e.s.s.s.s.s.s.s.e.e.e.e.s.s.s.s.s.s.s.s.s.s.s.s.s.s...v Z.s.e.s.e.e.s.<.e.e.e.e.e.e.e.e.e.e.e.e.e.e.e.e.e.e.e.e.e.e.e.e.e.e.e.e.e.e.e.e.e.e.e.e.e.e.e.e.s.s.e.e.e.e.e.e.e.e.e.e.e.e.s.s.s.e.e.<.e.e.e.s.s.e.s.e.e.s...V g.s.s.s.g.s.s.s.s.s.s.s.s.s.s.s.s.s.s.s.s.s.s.s.s.s.s.s.s.s.s.s.s.s.s.s.s.s.s.s.s.s.s.s.s.s.e.s.s.s.s.s.s.s.s.s.s.s.s.s.s.s.s.s.s.s.s.s.s.s.s.g.s.g.s.s.s.g...- ",
"G.M.s.s.s.s.s.s.s.s.s.s.s.s.s.s.s.s.s.s.s.s.s.s.s.s.s.s.s.s.s.s.s.s.s.s.s.s.s.s.s.s.s.s.s.s.s.s.e.s.s.s.s.s.s.s.s.s.s.s.s.s.s.s.s.s.s.s.s.s.s.s.s.e.s.e.s.s.g.S <.M.g.s.g.s.g.s.s.s.s.s.s.s.s.s.s.s.s.s.e.e.s.s.s.s.s.s.s.s.s.s.s.s.s.s.s.s.s.s.s.s.s.s.s.s.s.s.e.e.s.s.e.e.e.e.s.s.s.s.s.s.s.s.s.s.s.s.s.s.s.s.g.e.g.e.s.g.g.V e.M.s.s.g.s.s.s.s.s.s.s.s.s.s.s.e.e.s.s.s.s.s.s.s.s.s.s.s.s.s.s.s.s.s.s.s.s.s.e.e.e.e.e.s.s.s.s.s.s.s.s.s.s.s.s.s.s.s.s.s.s.s.s.s.s.e.e.e.s.e.s.e.e.s.e.s.e.<.p s.M.e.e.g.e.s.s.s.s.s.s.s.s.s.s.s.s.s.s.s.s.s.s.s.s.s.e.e.e.e.e.s.s.s.s.s.s.s.s.s.s.s.s.s.s.s.s.s.s.s.s.s.s.s.s.s.s.s.s.s.s.s.s.s.s.s.s.s.s.s.s.s.s.e.s.e.s.<.v e.e.s.s.s.s.s.s.s.s.s.s.s.s.s.s.s.s.s.s.s.s.s.s.e.e.s.s.s.s.s.s.s.s.s.s.s.s.s.s.s.s.s.s.s.s.s.s.s.s.s.s.s.s.s.s.s.s.s.s.s.s.s.s.s.s.s.s.s.s.e.e.s.s.s.s.s.g.<.V M.g.s.s.s.s.s.s.s.s.s.s.s.s.s.s.s.s.s.s.s.s.s.s.s.s.s.s.s.s.s.s.s.s.s.s.s.s.s.e.s.s.s.s.s.s.s.s.s.s.s.s.e.s.s.s.s.s.s.s.e.e.e.e.s.e.s.s.s.s.s.e.e.s.s.s.s.s...v Z.s.e.e.e.e.s.e.e.e.e.e.e.e.e.e.e.e.e.e.e.e.s.s.e.e.e.e.e.e.e.e.e.e.e.e.e.e.e.e.e.e.e.e.e.e.e.e.e.e.e.e.e.e.e.e.e.e.e.e.e.e.e.e.e.e.e.<.e.e.e.s.s.e.s.e.s.s...V g.s.s.s.s.s.s.s.s.s.s.s.s.s.s.s.s.s.s.s.s.s.s.s.s.s.s.s.s.s.s.s.s.s.s.s.s.s.s.s.s.s.s.s.s.e.s.s.s.s.s.s.s.s.s.s.s.s.s.s.s.s.s.s.e.s.s.s.s.s.s.s.s.g.s.s.s.g...- ",
"G.M.s.s.s.s.s.s.s.s.s.s.s.s.s.s.s.s.s.s.s.s.s.s.s.s.s.s.s.s.s.s.s.s.s.s.s.s.s.s.s.s.s.s.s.s.s.s.e.e.s.s.s.s.s.s.s.s.s.s.s.s.s.s.s.s.s.s.s.s.s.s.s.e.s.e.s.s.g.S <.M.s.s.g.s.g.s.s.s.s.s.s.s.s.s.s.s.s.e.e.e.e.s.s.s.s.s.s.s.s.s.e.e.s.s.s.s.s.s.s.s.s.s.s.s.s.s.e.e.s.s.e.e.e.e.s.s.s.s.s.s.s.s.s.s.s.s.s.s.s.s.g.s.g.e.s.g.g.V e.M.s.s.g.s.s.s.s.s.s.s.s.s.s.e.e.s.s.s.s.s.s.e.s.s.s.s.s.s.s.s.s.s.s.s.s.s.e.e.s.s.s.e.s.s.s.s.s.s.s.s.s.s.s.s.s.s.s.s.s.s.s.s.e.s.e.e.s.s.s.s.s.e.s.e.g.s.<.p s.M.e.s.g.e.s.e.s.s.s.s.s.s.s.s.s.s.s.s.s.s.s.s.s.s.e.e.e.e.e.s.s.s.s.s.s.s.s.s.s.s.s.s.s.s.s.s.s.s.s.s.s.s.s.s.s.s.s.s.s.s.s.s.s.s.s.s.s.s.s.s.e.s.e.s.e.s.<.v e.e.s.s.s.s.s.s.s.s.s.s.s.s.s.e.s.s.s.s.s.s.s.s.s.s.s.s.s.s.s.s.s.s.s.s.s.s.s.s.s.s.s.s.s.s.s.s.s.s.s.s.s.s.s.s.s.s.s.s.s.s.s.s.s.s.s.s.s.s.s.e.s.s.s.s.s.g.<.V M.g.e.s.s.s.s.s.s.s.s.s.s.s.s.s.s.s.s.s.s.s.s.s.s.s.s.s.s.s.s.s.s.s.s.s.s.s.s.s.s.s.s.s.s.s.s.s.s.s.s.s.e.s.s.s.s.s.s.e.e.e.e.e.e.s.s.s.s.s.e.e.e.s.s.s.s.g...v Z.s.e.e.e.e.s.e.e.e.s.s.e.e.e.e.e.e.e.e.e.e.s.s.e.e.e.e.e.e.e.e.e.e.e.e.e.e.e.e.e.e.e.e.e.e.e.e.e.e.e.e.e.e.e.e.e.e.e.e.e.e.e.e.e.e.e.e.e.e.e.e.e.e.s.e.s.s...V g.s.s.s.s.s.s.s.s.s.s.s.s.s.s.s.s.s.s.s.s.s.s.s.s.s.s.s.s.s.s.s.s.s.s.s.s.s.s.s.s.s.s.s.s.e.s.e.s.s.s.s.s.s.s.s.e.e.e.e.s.s.s.s.e.s.s.s.s.s.s.s.s.g.s.s.s.g...- ",
"G.g.s.s.s.s.s.s.s.s.s.s.s.s.s.s.s.s.s.s.s.s.s.s.s.s.s.s.s.s.s.s.s.s.s.s.s.s.s.s.s.s.s.s.s.s.s.s.s.s.s.s.s.s.s.s.s.s.s.s.s.s.s.s.s.s.s.s.s.s.s.s.s.e.s.e.s.s.g.S :.M.s.s.s.e.s.s.s.s.s.s.s.s.s.s.s.s.s.e.e.e.e.s.s.s.s.s.s.s.s.s.e.e.s.s.s.s.s.s.s.s.s.s.s.s.s.s.s.s.s.s.s.s.s.e.s.s.s.s.s.s.s.s.s.s.s.s.s.s.s.s.g.s.g.s.s.g.g.V e.M.s.s.g.s.s.s.s.s.s.s.s.s.s.s.s.s.s.s.s.s.e.e.s.s.s.s.s.s.s.s.s.s.s.s.s.e.s.s.s.s.s.s.s.s.s.s.s.s.s.s.s.s.s.s.s.s.s.s.s.s.s.s.e.e.e.e.s.s.s.s.s.s.g.e.g.s.<.p s.M.e.s.g.e.s.e.s.s.s.s.s.s.s.s.s.s.e.e.s.s.s.s.s.e.e.e.e.e.s.s.s.s.s.s.s.s.s.s.s.s.s.s.s.s.s.s.s.s.s.s.s.s.s.s.e.e.e.s.s.s.s.s.s.s.s.s.s.s.s.s.e.s.e.s.s.s.<.v e.e.e.s.s.s.s.s.s.s.s.s.s.s.s.e.s.s.s.s.s.s.s.s.s.s.s.s.s.s.s.s.s.s.s.s.s.s.s.s.s.s.s.s.s.s.s.s.s.s.s.s.s.s.s.s.s.s.s.s.s.s.s.s.s.s.s.e.s.s.s.s.s.s.s.s.s.g.<.V M.g.s.s.s.s.s.s.s.s.s.s.s.s.s.s.s.s.s.s.s.e.e.e.s.s.s.s.s.s.s.s.s.s.s.s.s.s.s.s.s.s.s.s.s.s.s.s.s.s.s.e.e.s.s.s.s.s.s.s.e.e.e.e.e.s.s.s.s.s.e.e.e.s.s.s.s.g...v Z.e.e.e.e.e.s.e.e.e.e.s.s.e.e.e.e.e.e.e.e.s.s.s.e.e.e.e.e.e.e.e.e.e.e.e.e.e.e.e.e.e.e.e.e.e.e.e.e.e.e.e.e.e.e.e.e.e.e.e.e.e.e.e.e.e.e.e.e.e.<.<.e.e.s.e.e.s...v g.s.e.s.s.s.e.s.s.s.s.s.s.s.s.s.s.s.s.s.s.s.s.s.s.s.s.s.s.s.s.s.s.s.s.s.s.s.s.s.s.s.s.s.s.e.e.e.s.s.s.s.s.s.s.s.e.e.e.e.e.s.s.e.s.s.s.s.s.e.s.s.s.g.s.s.s.g...- ",
"G.g.s.s.s.s.s.s.s.s.s.s.s.s.s.s.s.s.s.s.s.s.s.s.s.s.s.s.s.s.s.s.s.s.s.s.s.s.s.s.s.s.s.s.s.s.s.s.s.s.s.s.s.s.s.s.e.e.s.s.s.s.s.s.s.s.s.s.s.s.s.s.s.e.s.e.s.s.g.S :.M.s.s.s.e.s.e.s.s.e.s.s.s.s.s.s.s.s.e.e.e.e.s.s.s.s.s.s.s.s.s.e.e.s.s.s.s.s.s.s.s.s.s.s.s.s.s.s.s.s.s.s.s.s.s.s.s.s.s.s.s.s.s.s.s.s.s.s.s.s.s.g.s.g.s.s.g.g.V e.M.s.s.g.s.s.s.g.s.s.s.s.s.e.s.s.s.s.s.s.s.e.e.s.s.s.s.s.s.s.s.s.s.s.s.s.s.s.s.g.s.s.s.s.s.s.s.s.s.s.s.s.s.s.s.s.s.s.s.s.e.e.e.s.e.e.e.s.s.s.s.s.s.g.e.g.e.<.p s.M.e.s.g.e.s.e.e.s.s.s.s.s.s.s.s.e.e.e.e.e.e.s.e.e.e.e.e.e.s.s.s.s.s.s.s.s.s.s.s.s.s.s.s.s.s.s.s.s.s.s.s.s.s.s.e.e.e.s.s.s.s.s.s.s.s.s.s.s.s.s.e.s.e.s.s.g.<.v e.e.s.s.s.s.s.s.s.s.s.s.s.s.s.e.s.s.s.s.s.s.s.g.s.s.s.s.s.s.s.s.s.s.s.s.s.s.s.s.s.s.s.s.s.s.s.s.s.s.s.s.s.s.s.s.s.s.s.s.s.s.s.s.s.s.e.e.e.s.s.s.s.s.s.s.s.g.<.V M.g.s.s.s.s.s.s.s.s.s.s.s.s.s.s.s.s.s.s.s.e.e.e.s.s.s.s.s.s.s.s.s.s.s.s.s.s.s.s.s.s.s.s.s.e.e.e.s.s.s.e.e.s.s.s.s.s.s.s.s.s.s.s.s.s.s.s.s.s.e.e.e.s.s.s.s.g...v Z.e.e.e.e.e.s.e.e.e.e.e.e.e.e.e.e.e.e.e.e.e.s.s.e.e.e.e.e.e.e.e.e.e.e.e.e.e.e.e.e.e.e.e.e.e.e.e.e.e.e.e.e.e.e.e.e.e.e.e.e.e.e.e.e.e.e.e.e.<.<.<.e.e.e.e.e.s...v g.s.e.s.s.e.e.s.s.s.s.s.s.s.s.s.s.s.s.s.s.s.s.s.s.s.s.s.s.s.s.s.s.s.s.s.s.s.s.s.s.s.s.s.s.e.e.e.s.s.s.s.s.s.s.s.e.e.e.s.s.s.s.s.s.s.s.s.s.e.s.s.s.g.s.s.s.g...- ",
"G.M.s.e.e.e.e.e.s.s.s.s.s.s.s.s.s.s.s.s.s.s.s.s.s.s.s.s.s.s.s.s.s.s.s.s.s.s.s.s.s.s.s.s.s.s.s.s.s.s.s.s.s.s.s.s.s.s.s.s.s.s.s.s.s.s.s.s.s.s.s.s.s.e.g.e.s.s.s.V :.Z.e.s.s.g.e.s.s.s.s.s.s.s.s.s.s.s.s.e.e.s.s.s.s.s.s.e.e.e.e.s.s.s.s.s.s.s.s.s.s.s.s.s.s.s.s.s.s.s.s.s.s.s.s.s.s.s.s.s.s.s.e.e.s.s.s.s.s.s.s.s.e.e.g.s.s.s.s.v e.M.e.e.s.e.s.e.s.e.e.e.e.e.s.s.s.s.s.e.e.e.s.s.e.e.e.s.s.s.s.s.s.s.s.s.s.s.s.s.s.s.s.s.s.s.s.s.e.s.s.s.s.s.s.s.e.s.s.s.s.s.s.e.e.e.e.s.s.s.s.s.s.s.g.e.g.e.<.p g.M.g.s.g.s.e.s.s.s.s.s.s.s.s.s.e.e.e.e.e.e.e.e.e.e.e.e.e.e.s.s.e.e.e.s.s.s.s.s.s.s.s.s.s.s.s.s.s.s.s.s.e.e.e.e.s.s.s.s.s.s.s.s.s.s.s.s.s.s.s.s.s.e.e.g.e.g.e.v e.e.e.e.e.e.e.e.e.e.e.e.s.s.s.s.s.s.s.s.s.s.s.s.s.s.e.e.e.s.s.s.s.s.s.s.s.s.s.s.s.s.s.s.s.s.s.s.s.s.e.e.e.e.s.s.s.s.s.e.s.e.s.s.e.e.s.s.s.s.s.s.e.s.e.s.e.s.<.v M.g.s.s.s.s.s.g.s.s.s.s.s.s.s.s.s.s.s.s.s.s.e.e.e.s.s.s.s.s.s.e.e.e.s.s.s.s.s.s.s.s.s.s.e.e.e.e.e.e.e.e.s.s.s.s.s.s.s.s.s.s.s.s.s.s.s.s.e.e.e.e.e.s.e.s.s.e.%.v Z.s.e.s.e.e.s.e.e.e.e.e.e.e.e.<.e.e.e.e.e.e.e.e.e.e.e.e.e.e.e.e.e.e.<.<.e.e.e.s.e.e.e.e.e.e.e.e.e.e.e.e.e.e.e.<.e.e.e.e.e.e.e.e.e.e.e.e.<.<.<.<.s.e.s.e.e.s...v g.s.e.s.g.s.s.s.e.e.s.s.s.s.s.s.s.s.s.s.s.s.s.s.s.s.s.s.s.s.s.s.s.s.s.s.s.s.s.s.s.s.e.e.e.e.s.s.s.s.s.s.s.s.s.s.s.s.s.s.s.s.s.s.s.s.s.s.s.s.s.s.s.g.s.s.s.g...- ",
"G.M.s.e.e.e.e.e.e.e.e.s.s.s.e.e.s.s.s.s.s.s.s.s.s.s.s.s.s.s.s.s.s.s.s.s.s.s.s.s.s.s.s.s.s.s.s.s.s.s.s.s.s.s.s.s.s.s.s.s.s.s.s.s.s.s.s.s.s.s.s.s.s.e.g.e.s.s.s.V :.Z.e.s.s.g.e.s.s.s.s.s.s.s.s.s.s.s.s.e.e.s.s.s.s.s.s.e.e.e.s.s.s.s.s.s.s.s.s.s.s.s.s.s.s.s.s.s.s.s.s.s.s.s.s.s.e.e.e.e.s.s.s.s.s.s.e.e.s.s.s.s.e.e.g.e.s.s.s.v e.M.e.e.s.e.s.e.e.e.e.e.e.e.s.s.s.s.s.e.e.s.s.s.e.e.e.s.s.s.s.s.s.s.s.s.s.s.s.s.s.s.s.s.s.s.s.s.e.e.s.s.s.s.s.s.e.s.s.s.s.s.s.e.e.e.e.s.s.s.s.s.s.s.g.e.g.e.<.p s.g.s.e.s.s.e.s.s.s.s.s.s.s.s.s.s.s.s.s.s.s.e.e.e.e.e.e.e.e.s.s.e.e.e.s.s.s.s.s.s.s.s.s.s.s.s.s.s.s.s.s.e.e.e.e.s.s.s.s.s.s.s.s.s.s.s.s.s.s.s.s.s.e.s.g.e.g.e.v e.e.e.e.e.e.e.e.e.e.e.e.s.s.s.s.s.s.s.s.s.s.s.s.s.s.e.e.e.s.s.s.s.s.s.s.s.s.s.s.s.s.s.s.s.s.s.s.s.s.s.e.e.e.s.s.s.s.s.e.e.e.s.s.e.e.e.s.s.s.s.s.e.s.e.s.e.s.<.v M.s.e.s.s.s.s.s.s.s.s.s.s.s.s.s.s.s.e.e.s.s.e.e.e.s.s.s.s.s.s.e.e.e.e.e.e.e.e.e.s.s.s.s.e.e.e.e.e.e.e.e.s.s.s.s.s.s.s.s.s.s.s.s.s.s.s.s.e.e.e.e.e.s.e.s.s.e.%.p Z.e.e.e.e.e.s.e.e.e.e.e.e.e.<.<.<.<.e.e.e.e.<.<.e.e.e.e.e.e.e.e.e.e.e.e.e.e.s.e.e.e.e.e.e.e.e.e.e.e.e.e.e.e.<.<.e.e.e.e.e.e.e.e.e.e.e.e.e.<.<.<.e.e.e.e.e.s...v g.e.e.s.g.s.s.s.s.e.s.s.s.s.s.s.s.s.s.s.s.s.s.s.s.s.s.s.s.s.s.s.s.s.s.s.s.s.s.s.s.s.s.e.e.e.s.s.s.s.s.s.s.s.s.s.s.s.s.s.s.s.s.s.s.s.s.s.s.s.s.s.e.s.e.s.s.g...- ",
"G.M.s.e.s.s.e.s.e.e.e.e.s.s.s.e.e.e.e.s.s.s.s.e.e.s.s.s.s.s.e.e.s.s.s.s.s.s.s.s.s.s.s.s.s.s.s.s.s.s.s.s.s.s.s.s.s.s.s.s.s.s.s.s.e.e.e.e.e.e.e.e.g.e.g.e.s.s.s.V :.Z.e.s.s.s.e.s.s.s.s.s.s.s.s.s.s.s.s.e.s.s.s.s.s.s.s.s.e.e.e.s.s.s.s.s.s.s.s.s.s.s.s.s.s.s.s.s.s.s.s.s.s.s.s.s.e.e.e.s.s.s.s.s.s.e.e.e.s.s.s.s.e.e.g.s.s.s.s.v e.M.e.e.s.e.s.e.e.e.s.s.e.e.e.e.s.s.s.e.e.e.s.s.e.e.e.s.s.s.s.s.s.s.s.s.s.s.s.s.s.s.s.s.s.s.s.s.e.e.e.e.e.e.e.e.e.s.s.s.s.s.s.e.e.e.s.s.s.s.s.s.s.s.g.e.g.s.<.p s.g.s.e.s.e.e.s.s.s.s.s.e.e.e.e.e.e.e.e.s.e.e.s.s.e.e.e.e.s.s.s.e.e.e.s.s.s.s.s.s.s.s.s.s.s.s.s.s.s.s.s.s.e.e.e.s.s.s.s.s.s.s.s.s.s.s.s.s.s.s.s.s.e.e.s.e.g.e.v e.e.e.e.e.e.s.e.e.e.e.e.s.s.s.s.s.s.s.s.s.s.s.s.s.s.e.e.s.s.s.s.s.s.s.s.s.s.s.s.s.s.s.s.s.s.s.s.s.s.e.e.e.e.s.s.s.s.e.e.e.e.s.s.e.e.s.s.s.s.s.s.e.s.e.s.e.s.<.v M.s.e.e.s.e.s.s.s.s.s.s.s.s.s.s.s.e.e.e.s.s.e.e.e.s.s.s.s.s.s.e.e.e.e.e.e.e.s.e.s.s.s.s.s.e.e.e.e.e.e.e.s.s.s.s.s.s.s.e.s.s.s.s.s.s.s.s.e.s.e.e.e.s.e.s.s.e.%.p M.e.e.e.<.e.e.<.e.e.e.e.e.<.<.<.<.e.e.e.e.e.<.<.e.e.e.e.e.<.e.e.e.e.e.e.e.e.e.e.e.e.e.e.e.e.e.e.e.e.e.e.e.e.<.<.e.e.e.e.e.e.e.e.e.e.e.e.e.e.<.e.e.e.e.e.e.e.' p g.s.e.s.s.s.s.s.s.s.s.s.s.s.s.s.s.s.s.s.s.s.s.s.s.s.s.s.s.s.s.s.s.s.s.s.s.s.s.s.s.s.e.e.e.e.s.s.s.s.s.s.s.s.s.s.s.s.s.s.s.s.s.s.s.s.s.s.s.s.s.s.e.s.e.s.s.g...- ",
"G.M.s.e.s.s.e.s.s.s.s.s.s.s.s.s.e.e.e.s.e.s.s.e.e.e.e.s.s.e.e.e.s.s.s.s.s.s.s.s.s.s.s.s.s.s.s.s.s.s.s.s.s.s.s.s.s.s.s.s.s.s.s.s.e.e.e.e.e.e.e.e.g.e.g.e.s.s.s.V :.Z.e.s.s.s.e.s.s.s.s.s.s.s.s.s.s.s.s.e.s.s.s.s.s.s.s.s.e.e.e.s.s.s.s.s.s.s.s.s.s.s.s.s.e.e.e.e.e.e.e.e.e.e.e.e.s.s.s.s.s.s.s.s.e.e.e.e.e.s.s.s.e.e.g.e.s.s.s.v e.M.e.e.s.e.s.s.e.s.s.s.s.s.s.e.s.s.s.e.e.e.s.s.e.e.e.s.s.s.s.s.s.s.s.s.s.s.s.s.s.s.s.s.s.s.s.s.s.e.e.e.e.e.e.s.s.s.s.s.s.s.s.e.s.s.s.s.s.s.s.s.s.s.g.e.g.s.<.p s.g.s.e.s.e.e.s.e.s.s.s.e.e.e.e.e.e.e.e.s.s.e.s.s.s.s.e.e.e.s.s.s.s.e.e.s.s.e.e.s.s.e.e.e.e.e.s.s.s.s.e.s.e.e.e.s.s.s.s.s.s.s.s.e.e.e.e.e.e.e.e.s.e.s.g.e.g.e.v e.e.e.e.e.e.s.s.s.s.e.s.s.s.s.s.s.s.s.s.s.s.s.s.s.s.e.e.s.s.s.s.s.s.s.s.s.s.s.s.s.s.s.s.s.s.s.s.s.s.e.e.e.e.s.s.s.s.e.e.e.e.s.s.s.s.s.s.s.s.s.s.e.s.e.s.e.s.<.v M.s.e.s.s.e.e.s.s.s.s.s.s.s.s.s.e.e.e.e.s.s.e.e.e.s.s.s.s.s.s.e.e.s.s.s.s.s.s.s.s.s.s.s.s.e.e.e.e.e.e.e.s.s.s.s.s.s.e.e.s.s.s.s.s.e.s.s.s.s.e.e.e.s.e.s.s.e.%.v M.e.e.e.<.e.s.<.e.e.e.e.e.e.<.<.e.e.e.e.e.e.e.e.e.e.e.e.<.<.e.e.e.e.e.e.e.e.e.e.e.e.e.e.e.e.e.e.e.e.e.e.e.e.<.<.e.e.e.e.e.e.e.e.e.e.e.e.e.e.e.e.e.e.e.e.e.e...v g.s.e.s.s.s.s.s.s.s.s.s.s.s.s.s.s.s.s.s.s.s.s.s.s.s.s.s.s.s.s.s.s.s.s.s.s.s.s.s.s.s.e.e.e.e.s.s.s.s.s.s.s.s.s.s.s.s.s.s.s.s.s.s.s.s.s.s.s.s.s.s.e.s.e.s.s.g...- ",
"G.M.s.e.s.s.e.s.s.s.s.s.s.e.e.e.<.e.e.e.e.s.s.s.e.e.s.s.s.e.e.e.s.s.s.s.s.s.s.s.s.s.s.s.s.s.s.s.s.s.s.s.s.s.s.s.s.s.s.s.s.s.s.s.s.s.e.e.e.e.s.s.g.e.g.e.s.s.s.V :.Z.e.s.e.s.e.s.s.s.s.s.s.s.s.s.s.s.s.e.s.s.s.s.s.e.s.s.s.s.s.s.s.s.s.s.s.s.s.s.s.s.s.e.s.s.e.e.e.e.e.e.s.e.e.e.s.s.s.s.s.e.e.e.e.e.e.e.e.s.s.s.s.e.g.e.s.s.s.v e.M.e.e.s.e.s.s.e.s.s.s.s.s.e.e.s.s.s.e.e.e.s.s.s.e.s.s.s.e.e.e.s.s.s.s.s.s.s.s.s.s.s.s.s.s.s.s.s.e.e.e.e.e.e.s.e.s.s.s.s.s.s.e.s.s.s.s.s.s.s.s.s.s.g.e.g.e.<.p s.g.s.e.s.s.e.s.s.s.s.s.s.s.s.s.e.e.e.e.e.e.e.e.s.s.e.e.e.e.s.s.s.s.s.s.e.e.e.e.e.e.e.e.e.e.e.s.s.s.e.e.s.s.s.s.s.s.s.s.s.s.s.s.s.e.s.s.e.e.e.e.s.e.s.g.e.g.e.v e.e.e.e.s.s.s.s.s.s.s.s.s.s.s.s.s.s.s.s.s.s.s.s.s.s.s.s.s.s.s.s.s.s.s.s.s.s.s.s.s.s.s.s.s.s.s.s.s.e.e.e.s.s.s.s.s.e.e.e.e.e.s.s.s.s.s.s.s.s.s.s.e.s.e.s.e.s.<.v Z.g.e.s.s.s.s.s.s.s.s.s.s.s.s.s.e.e.e.e.e.s.s.e.e.s.s.s.s.s.s.e.s.s.s.s.s.s.s.s.s.s.s.s.s.e.e.e.e.e.e.e.s.s.s.s.e.e.s.s.s.s.e.e.e.e.e.e.s.s.s.s.e.s.e.s.s.e.%.p Z.s.e.e.e.e.s.e.e.e.e.e.e.e.<.<.e.e.e.e.e.e.e.e.e.e.e.e.e.e.<.<.<.e.e.e.e.e.e.e.e.e.e.e.e.e.e.e.e.e.e.<.e.e.e.e.e.e.e.e.e.e.e.e.e.e.e.e.e.e.e.e.e.e.e.e.e.s...v g.s.e.s.s.s.e.e.e.e.s.s.s.s.s.s.s.s.s.s.s.s.s.s.s.s.s.s.s.s.s.s.s.s.s.s.s.s.s.s.s.e.e.e.s.s.s.s.s.s.e.e.e.e.s.s.s.s.s.s.s.s.s.s.s.s.s.s.s.s.s.s.e.s.e.e.s.g...- ",
"G.M.s.e.s.s.e.e.s.s.s.e.e.e.e.e.e.e.e.e.e.s.s.s.e.e.s.s.s.s.s.e.s.s.s.s.s.s.s.s.s.s.s.s.s.s.s.s.s.s.s.s.s.s.s.s.s.s.s.s.s.s.s.s.s.e.e.e.e.s.s.s.g.e.g.e.s.s.s.V :.Z.e.s.e.s.e.s.s.s.s.s.s.s.s.s.s.s.s.e.e.s.s.s.e.e.s.e.s.s.s.s.s.s.s.s.s.s.s.s.s.s.s.e.e.e.e.e.e.e.e.e.s.e.e.e.s.s.s.e.e.e.<.<.s.e.e.e.e.s.s.e.s.e.g.e.s.s.s.V e.M.e.e.s.e.s.s.s.s.s.s.s.s.s.e.s.s.s.e.e.e.s.s.s.s.s.s.s.e.e.e.s.s.s.s.s.s.s.s.s.s.s.s.s.s.s.s.e.e.e.e.e.e.s.s.e.s.s.s.s.s.s.e.s.s.s.s.s.s.e.e.s.s.s.e.g.e.<.p s.g.s.e.s.s.e.s.s.s.s.s.s.s.s.s.s.s.s.s.s.s.s.s.s.s.s.e.s.s.s.s.s.s.s.s.e.s.e.e.e.e.e.e.e.e.s.s.s.e.e.e.s.s.s.s.s.s.s.s.s.s.s.s.s.e.e.s.e.e.e.e.s.e.s.g.e.g.e.v e.e.e.e.s.s.s.s.s.s.s.s.s.s.s.s.s.s.s.s.s.s.s.s.s.s.s.e.e.s.s.s.s.s.s.s.s.s.s.s.s.s.s.s.s.s.s.s.s.s.e.e.s.s.e.e.s.e.e.e.s.s.s.s.s.s.s.s.s.s.e.e.e.s.e.s.e.s.<.v Z.g.s.s.s.s.s.s.s.s.s.s.s.s.s.s.s.e.e.e.s.s.s.e.e.s.s.s.s.s.s.e.e.s.e.e.e.e.e.e.s.s.s.s.s.e.e.e.s.s.s.s.s.s.s.s.e.e.s.e.e.e.e.e.e.e.e.e.e.s.s.s.e.s.e.s.s.e...p M.s.e.e.e.e.s.e.e.e.e.e.e.e.e.e.<.<.e.e.e.e.e.e.e.e.e.e.e.<.<.<.e.e.e.e.e.e.e.e.e.e.e.e.e.e.e.e.e.e.e.e.e.e.e.e.e.e.e.e.e.e.e.e.e.e.e.e.e.e.e.e.e.e.s.e.e.s...V g.e.e.s.s.s.e.e.e.e.s.s.s.s.s.s.s.s.s.s.s.s.s.s.s.s.s.s.s.s.s.s.s.s.s.s.s.s.s.s.s.s.e.e.s.s.s.s.s.s.e.e.e.e.s.s.s.s.s.s.s.s.s.s.s.s.s.s.s.s.s.s.e.s.e.s.s.g...- ",
"G.M.s.e.e.e.e.e.s.s.e.e.e.e.e.e.e.e.e.e.s.s.s.s.s.s.s.s.s.s.s.s.s.s.s.s.s.s.s.s.s.s.s.s.s.s.s.s.s.s.s.s.s.s.s.s.s.s.s.s.s.s.s.s.s.s.e.e.e.e.s.s.g.e.g.e.s.s.s.V :.Z.e.s.e.s.e.s.s.s.s.s.s.s.s.s.s.s.s.e.e.s.s.s.e.e.e.e.s.s.s.s.s.s.s.s.s.s.s.s.s.s.s.s.e.e.e.e.e.s.e.s.s.e.e.e.e.e.s.e.e.e.e.e.s.s.e.e.e.s.s.e.s.e.g.e.e.s.s.v e.M.s.s.s.e.s.s.s.s.s.e.e.s.s.s.s.s.s.e.e.e.e.e.s.s.s.s.s.e.e.e.s.s.s.s.s.s.s.s.s.s.s.s.s.s.s.s.e.e.s.s.s.s.s.s.e.s.s.s.s.s.s.e.s.s.s.s.s.s.s.e.s.e.s.e.g.e.<.p s.g.s.e.s.s.e.s.s.s.s.s.s.s.s.s.s.s.s.s.s.s.s.s.s.s.s.s.s.e.e.s.s.s.e.e.e.e.s.s.s.s.e.e.e.e.s.s.s.s.e.e.e.e.s.s.s.s.s.s.s.s.s.s.e.e.s.s.s.s.s.s.s.e.s.g.e.g.e.v e.e.e.e.s.s.e.e.s.s.s.s.s.s.s.s.s.s.s.s.s.s.s.s.s.s.e.e.e.s.s.s.s.s.s.s.s.s.s.s.e.e.e.e.s.s.s.e.e.e.e.s.s.s.s.s.e.e.e.e.s.s.s.s.s.s.s.s.s.e.e.e.e.s.e.s.e.s.<.v Z.g.e.s.s.e.e.s.s.s.s.s.s.s.s.s.s.s.e.s.s.s.s.e.s.s.s.s.s.s.s.s.s.s.s.e.e.e.e.e.s.s.s.s.e.e.e.e.s.s.s.s.s.s.s.s.e.e.e.s.e.e.e.e.e.e.e.e.s.s.s.s.s.g.e.s.s.e...p M.e.<.e.e.e.s.e.e.e.e.e.e.e.e.e.<.<.e.e.e.e.e.e.e.e.e.e.e.e.e.e.e.e.e.e.e.e.e.e.e.e.e.e.e.e.e.e.e.e.e.e.e.e.e.e.e.e.e.e.e.e.e.e.e.e.e.e.e.e.e.e.e.e.e.e.e.s...v g.e.e.s.s.e.e.e.e.e.s.s.s.s.s.s.s.s.s.s.s.s.s.s.s.s.s.s.s.s.s.s.e.e.e.e.s.s.s.s.e.e.e.s.s.e.e.e.s.s.s.e.e.s.s.s.s.s.s.s.s.s.s.s.s.s.s.s.s.s.s.s.e.s.e.e.s.g...- ",
"G.M.s.e.e.e.e.e.s.s.s.s.e.e.e.e.e.e.e.s.s.s.s.s.s.s.s.s.s.s.s.s.s.s.s.s.s.s.s.s.s.s.s.s.s.s.s.s.s.s.s.s.s.s.s.s.s.s.s.s.s.s.s.s.s.s.s.s.s.s.s.s.g.e.g.e.s.s.s.V :.G.e.s.e.s.e.e.s.s.s.s.s.s.s.s.s.s.s.e.e.s.s.s.e.e.e.e.e.s.s.s.s.s.s.s.s.s.s.s.s.s.s.e.e.e.e.e.s.e.s.s.s.s.e.e.s.s.s.s.s.s.s.s.s.s.e.e.e.s.s.s.s.e.g.e.e.s.s.v e.M.s.s.s.e.s.s.s.s.s.e.e.s.s.s.s.s.s.e.e.e.e.e.s.s.s.s.s.e.e.e.s.s.s.s.s.s.s.s.s.s.s.s.s.s.s.s.e.s.s.s.s.s.s.s.e.s.s.s.s.s.s.e.s.s.s.s.s.s.s.e.s.e.s.e.g.e.<.p s.g.s.e.s.s.e.s.e.e.e.e.s.s.s.s.s.s.s.s.s.s.s.s.s.s.s.s.s.e.e.s.s.s.e.e.e.e.s.s.e.e.e.e.e.e.e.e.s.s.e.e.e.s.s.s.s.s.s.s.s.s.s.s.e.e.e.e.e.e.e.e.s.e.s.g.e.s.e.v e.e.e.e.e.e.e.e.s.s.s.s.s.s.s.s.s.s.s.s.s.s.s.s.s.s.e.e.e.s.s.s.s.s.s.s.s.s.s.s.e.e.e.e.s.s.s.e.e.e.s.s.s.s.s.s.e.e.e.e.e.e.s.s.s.s.s.s.s.e.e.e.e.s.e.s.e.s.<.v M.g.e.e.s.e.e.s.s.s.s.s.s.s.s.s.s.s.s.s.s.s.s.e.s.s.s.s.s.s.s.s.s.s.s.s.s.s.s.e.s.s.s.s.e.e.e.e.s.s.s.s.s.s.s.s.e.e.e.s.e.e.e.e.e.e.e.e.e.s.s.s.s.g.e.s.s.e...p M.e.<.e.<.e.e.<.e.e.e.e.e.e.e.e.e.e.e.s.s.s.e.e.e.e.e.e.e.e.e.e.e.e.e.e.e.e.e.e.e.e.e.e.e.e.e.e.e.e.e.e.e.e.e.e.e.e.e.e.e.e.e.e.e.e.e.e.e.e.e.e.e.e.e.e.e.s...v g.e.e.s.s.s.e.e.e.e.s.s.s.s.s.s.s.s.s.s.s.s.s.s.s.s.s.s.s.s.s.s.e.e.e.e.s.s.s.s.e.e.s.s.s.s.e.e.s.s.e.e.e.e.s.s.s.s.s.s.s.s.s.s.s.s.s.s.s.s.s.s.e.s.e.e.s.g...- ",
"Z.g.s.s.s.s.e.s.e.e.s.s.s.s.s.s.e.e.s.s.s.s.e.e.s.s.e.e.e.s.s.s.s.s.s.e.e.e.e.e.s.s.s.e.e.e.e.s.e.s.s.s.s.s.s.e.s.s.s.s.s.s.s.s.s.s.s.e.e.e.s.s.s.e.s.s.s.s.s.V :.Z.e.s.s.s.e.s.s.s.e.e.e.e.s.s.s.s.s.s.s.s.s.s.s.s.e.e.e.s.e.e.e.e.s.s.s.s.s.s.s.s.e.e.e.e.e.e.e.s.e.s.s.e.e.e.s.s.s.s.s.e.e.e.e.e.e.e.s.s.s.s.e.s.s.s.s.e.g.v e.M.e.e.s.e.s.e.s.s.s.e.s.s.e.e.s.s.s.s.s.s.s.s.e.e.e.e.e.s.s.s.s.s.s.s.s.s.s.s.s.s.s.s.s.s.s.s.s.s.s.s.e.e.s.s.s.s.s.s.s.s.s.s.s.s.s.s.s.s.s.s.s.e.s.s.s.e.<.u s.g.s.e.s.s.e.s.s.s.s.s.e.e.e.e.s.s.s.e.e.e.e.s.e.e.e.s.s.s.s.s.s.s.s.s.s.s.s.s.e.e.e.e.e.e.e.e.s.s.s.s.s.s.s.s.s.s.s.s.s.s.s.s.e.e.e.s.s.s.s.s.e.s.s.s.e.g.<.v e.e.s.s.s.s.s.s.s.s.s.s.s.s.s.s.s.s.s.s.s.s.s.s.s.s.e.e.e.e.e.<.s.e.e.e.e.e.s.s.s.s.s.e.s.s.s.s.s.s.s.e.e.s.s.s.s.s.e.e.s.s.s.e.e.s.s.s.s.e.e.e.s.s.s.s.e.s.<.V M.g.s.s.s.s.s.s.s.e.s.s.s.s.s.s.e.e.e.e.s.s.s.s.s.s.s.e.e.e.s.s.s.s.s.e.s.s.s.s.e.s.s.s.s.s.s.s.e.e.s.s.s.s.s.s.e.e.s.s.s.e.e.e.s.s.s.s.s.s.s.s.e.e.s.s.s.s...v M.e.<.e.<.e.e.<.e.e.e.e.e.e.e.e.e.e.e.e.e.e.e.e.e.e.<.<.e.<.e.e.e.e.e.e.<.<.<.<.e.e.e.e.e.e.e.e.e.e.e.e.e.e.e.e.e.e.e.e.e.e.e.e.e.e.e.e.e.e.e.e.e.e.e.e.e.s...v g.s.e.e.s.e.e.e.e.e.s.s.s.s.e.s.s.s.e.e.s.s.s.e.s.s.s.s.s.e.s.s.e.e.e.e.e.e.e.e.e.s.s.s.s.s.s.e.e.e.e.s.e.s.s.s.s.s.e.e.e.e.s.s.s.s.s.s.s.s.s.s.e.e.e.s.s.g.%.: ",
"Z.g.e.e.s.s.s.s.e.e.s.s.s.s.s.s.s.s.s.s.s.s.e.e.s.e.e.e.s.e.s.s.s.s.s.e.e.e.e.e.s.s.s.e.e.e.s.s.s.s.s.s.s.s.s.s.s.s.s.s.s.s.s.s.s.s.s.e.e.e.s.s.s.e.s.s.s.s.s.V :.Z.e.s.s.s.e.s.s.s.e.e.e.e.s.s.s.s.s.s.s.s.s.s.s.s.e.e.e.s.e.e.e.e.s.s.s.s.s.s.s.s.e.e.e.e.e.e.s.s.s.s.s.s.e.e.s.s.s.s.s.e.e.e.e.e.e.e.s.s.s.s.e.s.s.s.s.e.g.v <.g.e.e.s.e.s.s.s.s.s.e.s.s.e.e.s.s.s.s.s.s.s.s.e.e.e.e.s.s.s.s.e.e.e.e.s.e.e.e.s.s.s.s.s.s.s.s.s.s.s.s.e.e.s.s.s.s.s.s.s.s.s.s.s.s.s.s.s.s.s.s.s.e.s.s.s.e.<.u s.g.s.e.s.s.e.s.s.s.s.s.e.e.e.e.s.s.s.s.s.s.s.s.e.e.e.s.s.s.s.s.s.s.s.s.s.s.s.s.e.e.e.e.e.e.s.s.s.s.s.s.s.s.s.s.e.s.s.s.s.s.s.s.e.e.s.s.e.e.s.s.e.s.s.s.e.g.<.v e.e.s.s.s.s.s.e.s.s.s.s.s.s.s.s.e.e.e.s.s.s.s.s.s.s.e.e.e.e.e.e.s.s.e.e.e.e.s.s.s.s.s.e.s.s.s.s.s.s.s.s.e.s.s.s.s.s.e.e.s.s.s.e.e.e.s.s.e.e.e.e.e.s.e.s.e.s.<.v Z.g.s.s.s.s.s.s.e.s.s.s.s.s.s.s.e.e.e.e.s.s.s.s.s.s.s.e.e.e.s.s.s.s.s.e.s.s.s.s.e.s.s.s.s.e.e.s.s.s.s.s.s.s.s.s.e.e.s.s.s.e.e.e.s.s.s.s.s.s.s.s.e.e.s.e.s.s...v M.e.<.e.<.e.e.e.e.e.e.e.e.e.e.e.e.e.e.e.e.e.e.e.e.e.e.e.e.e.e.e.e.e.e.e.e.<.e.e.e.e.e.e.e.e.e.e.e.e.e.e.e.e.e.e.e.e.e.e.e.e.e.e.e.e.<.<.e.e.e.e.e.e.e.e.e.s...v g.s.e.e.s.e.e.e.e.e.s.s.s.e.e.e.s.s.e.e.s.s.s.e.s.s.s.s.e.e.s.s.e.e.e.e.e.e.e.e.e.s.s.s.s.s.s.e.e.e.e.s.e.s.s.s.s.s.e.e.e.e.s.s.s.s.s.s.s.s.s.s.e.e.e.s.e.g.%.- ",
"G.g.s.s.s.s.e.s.e.e.s.s.s.s.s.s.s.s.s.s.s.s.s.s.s.s.e.s.s.e.e.e.s.s.s.e.s.s.s.s.s.s.s.s.e.e.e.s.s.s.s.s.s.s.s.s.s.s.s.s.s.s.s.s.s.s.s.e.e.e.e.s.s.e.s.s.s.s.g.V :.Z.e.s.e.s.e.s.s.s.e.s.e.e.s.s.s.s.s.s.s.s.s.s.s.e.e.e.e.s.s.e.s.s.s.s.s.s.e.e.e.e.e.e.e.e.e.s.s.s.s.s.s.s.s.s.s.s.s.s.s.s.e.e.e.e.e.e.s.s.s.s.e.s.s.s.s.e.g.v <.g.e.e.s.e.g.s.s.s.s.s.s.e.e.e.s.s.s.s.s.s.s.s.e.e.s.s.s.s.s.s.e.e.e.e.e.e.e.e.s.s.s.s.s.s.s.s.s.s.s.s.e.e.s.s.s.s.s.s.s.s.s.s.s.s.s.s.s.s.s.s.s.e.s.s.s.e.<.u s.g.s.e.s.s.s.s.s.s.s.e.e.e.e.s.s.s.s.s.s.s.s.s.e.e.e.s.s.s.s.e.s.s.s.s.s.s.s.s.s.s.s.s.s.s.s.s.e.e.s.s.s.s.e.e.e.s.s.s.s.s.s.e.s.s.s.s.e.e.e.e.e.s.s.s.e.g.<.v e.e.s.s.s.s.s.e.s.s.s.s.s.s.s.s.e.e.e.e.s.s.e.s.s.s.s.e.s.e.e.e.s.s.s.s.e.e.s.s.s.s.e.e.e.e.s.s.s.s.s.s.s.s.s.s.s.s.e.s.s.s.e.e.e.e.e.e.e.e.e.e.e.s.e.s.e.s.<.v Z.g.s.s.s.s.e.s.e.e.s.s.s.s.e.e.e.e.e.e.e.s.s.s.s.s.s.e.e.e.e.s.s.s.s.e.s.s.s.s.e.e.s.s.s.e.e.e.s.s.s.s.s.s.s.s.e.e.e.s.s.e.e.e.s.s.s.s.s.s.s.s.e.e.s.e.s.s...v M.e.<.e.<.e.e.<.e.e.e.e.e.e.e.e.e.e.e.e.e.e.e.e.e.e.e.e.e.e.e.e.e.e.e.e.e.e.e.e.e.e.e.e.e.e.e.e.e.e.e.e.e.e.e.e.e.e.e.e.e.e.e.e.e.e.<.<.<.e.e.e.e.e.e.e.e.s...v g.e.e.e.s.s.e.e.e.s.s.s.e.e.e.e.s.s.e.e.s.s.s.e.s.s.s.s.e.e.s.s.s.e.e.e.e.e.e.s.e.s.s.s.s.s.s.e.s.e.e.e.s.s.s.s.s.s.e.e.e.e.s.s.s.s.s.s.s.s.s.s.e.e.e.s.e.g.%.- ",
"G.g.s.s.s.s.e.s.s.e.s.s.s.s.e.e.e.s.s.s.s.s.s.e.e.s.s.s.s.s.e.e.s.e.e.e.s.s.s.s.s.s.s.s.e.e.s.s.s.s.e.e.e.e.s.s.s.s.s.s.s.s.s.s.s.s.s.e.e.e.e.e.s.e.s.s.s.s.g.V :.Z.e.s.e.s.e.s.s.s.e.s.e.e.s.s.s.s.s.s.s.s.s.s.s.e.e.e.e.s.s.s.s.s.s.s.s.s.e.e.e.e.e.e.e.e.e.s.s.s.s.s.s.s.s.s.s.s.s.s.s.s.s.s.e.e.e.e.e.s.s.s.e.s.s.s.s.e.g.v <.g.e.e.s.e.g.s.s.e.s.s.s.s.e.e.s.s.s.s.s.s.s.s.e.s.s.s.s.s.s.s.e.e.e.e.e.e.e.e.s.s.s.s.s.s.s.s.s.s.s.s.e.e.s.s.s.s.s.s.s.s.s.s.s.s.s.s.s.s.s.s.s.<.s.e.s.e.<.u s.g.s.e.s.s.s.s.s.s.s.e.e.e.s.s.s.s.s.s.s.s.s.s.e.e.e.s.s.s.e.e.e.e.s.s.e.e.e.e.s.s.s.s.s.s.s.s.e.e.s.s.s.s.s.e.e.s.s.s.s.s.s.e.s.s.s.s.e.e.e.e.e.s.s.s.e.g.<.v e.e.s.s.s.s.s.e.s.s.s.s.s.s.s.s.e.e.e.e.e.s.e.e.s.s.s.s.s.s.s.s.s.s.s.s.e.e.s.s.s.s.e.e.e.e.s.s.s.s.s.s.s.s.s.s.s.s.e.s.s.s.e.e.s.s.s.e.e.e.e.e.e.s.e.s.e.s.<.v Z.g.s.s.s.s.e.e.e.e.s.s.s.s.s.e.e.e.e.e.e.s.s.s.s.s.s.e.e.e.e.e.s.s.s.e.e.e.e.e.e.e.s.s.s.e.e.e.s.s.s.s.s.s.s.s.e.e.s.s.s.s.e.e.s.s.s.s.s.s.s.s.e.e.s.s.s.s...v M.e.<.e.<.e.e.<.e.e.e.e.e.e.e.e.e.e.e.e.e.e.e.e.e.e.e.e.e.e.e.e.e.e.e.e.e.e.e.e.e.e.e.e.e.e.e.e.e.e.e.e.e.e.e.e.e.e.e.e.e.e.e.e.e.<.<.<.<.<.e.e.e.e.e.e.e.s...v g.e.e.e.s.s.e.e.s.s.s.s.e.e.e.e.s.e.e.e.s.s.s.e.s.s.s.s.e.e.s.s.s.s.e.e.e.e.s.s.s.s.s.s.s.s.s.e.s.s.s.s.s.s.s.s.s.s.e.e.e.e.s.s.s.s.s.s.s.s.s.s.s.e.e.s.e.g.%.- ",
"G.g.s.s.s.s.e.s.s.s.e.s.s.s.e.e.e.e.s.s.s.s.e.e.e.s.s.s.s.s.e.e.e.e.e.e.s.s.e.s.s.e.e.s.s.e.s.s.s.e.e.e.e.e.e.s.s.s.s.s.s.s.s.s.s.s.s.s.e.e.s.s.s.e.s.e.s.s.g.V :.Z.e.s.s.s.e.s.s.s.e.s.e.e.s.s.s.s.s.s.s.s.s.s.s.e.e.e.e.s.s.s.s.s.s.s.s.s.e.e.e.e.e.e.e.e.e.s.s.s.s.s.e.s.s.s.s.s.s.s.s.s.s.s.s.s.s.s.s.s.s.s.e.s.s.s.s.e.g.v e.M.s.e.s.e.s.s.e.e.e.e.e.e.e.s.s.s.s.s.s.s.s.s.s.s.s.s.e.s.s.s.s.s.e.e.e.e.s.s.s.s.s.s.s.s.s.s.s.s.e.e.e.e.s.s.s.s.s.s.s.s.s.s.s.s.s.s.s.s.s.s.s.<.s.e.s.e.<.u s.g.s.e.s.s.e.s.s.s.s.e.e.e.s.s.s.e.e.e.e.e.e.e.s.e.s.s.s.s.s.e.e.e.e.e.e.e.e.e.s.s.s.s.s.s.s.s.e.e.s.s.s.s.e.e.e.s.s.s.s.s.s.e.s.s.e.e.s.s.e.e.e.s.s.s.e.g.<.v e.e.e.s.s.s.s.e.s.s.s.s.s.s.s.s.e.e.e.e.e.e.e.e.s.s.s.s.s.s.s.s.e.e.e.s.s.s.s.s.s.s.s.e.e.e.e.s.s.s.s.e.e.s.s.s.e.e.e.e.s.s.s.e.s.s.s.e.e.e.e.e.s.s.s.s.e.s.<.v Z.g.s.s.s.e.e.e.e.e.s.s.s.s.e.e.e.e.e.e.s.s.s.s.s.s.s.s.e.e.s.s.s.s.s.e.e.e.e.e.e.e.s.s.e.e.e.e.e.e.s.s.s.s.s.s.e.e.s.s.s.s.e.e.s.s.s.s.s.s.s.s.s.s.s.s.e.s...v M.e.<.e.e.e.e.<.e.e.e.e.e.e.e.e.e.e.e.e.e.e.e.e.e.e.<.<.<.<.e.e.e.e.<.e.e.e.e.e.e.e.e.e.e.e.e.e.e.e.e.e.e.e.e.e.e.e.e.e.e.e.e.e.e.<.<.<.<.<.e.e.e.e.e.e.e.s...v g.e.e.e.s.e.e.s.s.s.s.e.e.e.e.e.s.e.e.e.s.s.e.e.e.s.s.s.e.e.s.s.e.e.e.e.e.e.s.s.e.s.s.s.s.s.s.e.s.s.s.s.s.s.s.s.s.s.e.e.e.e.s.s.s.s.s.s.s.s.s.s.s.s.e.s.e.g.%.- ",
"G.g.s.s.s.s.e.s.e.e.s.s.s.s.e.e.e.e.e.e.s.e.e.e.s.s.e.s.s.e.e.e.s.e.e.e.s.s.s.s.e.e.s.e.s.s.s.s.s.e.e.e.e.e.e.s.s.s.s.s.s.s.s.s.s.s.s.s.e.s.s.s.s.e.s.e.s.s.g.V :.Z.e.s.s.s.e.s.s.s.s.s.s.e.s.s.s.s.s.s.s.s.s.s.s.e.e.e.e.s.s.s.s.s.s.s.s.s.e.e.s.e.e.e.e.e.s.s.s.s.s.e.e.s.s.s.e.e.s.s.s.s.s.s.s.s.s.s.s.s.s.s.e.s.s.s.s.e.g.v s.M.s.s.s.e.s.e.e.e.e.e.e.s.s.s.s.s.s.s.s.s.s.s.s.s.s.s.e.s.s.s.s.s.s.s.s.s.s.s.s.s.s.s.s.s.s.s.s.s.e.e.e.e.s.s.s.s.s.s.s.s.s.s.s.s.s.s.s.s.s.s.s.e.s.e.s.e.<.u s.g.s.e.s.s.e.s.s.s.s.s.e.e.e.s.e.e.e.e.e.e.e.e.s.s.s.s.s.s.e.e.e.e.e.e.e.e.e.e.s.s.s.s.s.s.s.s.e.e.s.s.s.s.e.e.e.s.s.s.s.s.s.e.e.e.e.e.s.s.e.s.e.s.s.s.e.g.<.v e.e.e.s.s.s.s.e.s.s.s.s.s.s.s.s.e.e.e.s.e.e.e.s.s.s.s.s.s.s.s.s.e.e.e.s.s.s.s.s.s.s.e.e.e.e.e.s.s.s.s.e.e.s.s.s.e.e.e.e.s.s.e.e.s.s.s.e.e.e.s.s.s.s.s.s.e.s.<.v M.g.s.s.s.s.e.e.e.e.s.s.s.s.e.e.s.s.s.s.s.s.s.s.s.s.s.s.e.e.s.s.s.s.e.e.e.e.e.e.e.e.s.s.e.e.e.e.e.e.s.s.s.s.s.s.s.s.s.s.s.s.s.s.s.s.s.s.s.s.s.s.s.s.s.s.e.s...v M.e.e.e.e.e.e.e.e.e.e.e.e.e.e.e.e.e.e.e.e.e.e.e.e.e.e.<.e.e.e.e.e.e.e.e.e.e.e.e.e.e.e.e.e.e.e.e.e.e.e.e.e.e.e.e.e.e.e.e.e.e.e.e.e.e.<.<.<.<.e.e.e.e.e.e.e.s...v g.e.e.e.s.s.e.s.s.s.s.e.e.e.e.s.e.e.e.e.s.e.e.e.e.s.s.s.s.s.s.s.s.e.e.e.e.s.e.s.e.s.s.s.s.s.s.e.s.s.s.s.s.s.s.s.s.s.e.e.e.e.s.s.s.s.s.s.s.s.s.s.s.s.s.s.e.g.%.- ",
"Z.g.e.s.s.s.e.s.e.e.e.s.s.e.e.e.e.e.e.s.s.s.e.e.s.e.e.e.s.s.s.s.e.e.e.e.e.s.s.s.e.e.e.e.s.s.s.s.s.e.e.e.e.e.e.s.s.s.s.s.s.s.s.s.s.s.s.e.e.e.s.s.s.e.s.e.s.s.s.V :.Z.e.s.s.s.e.s.s.s.e.e.s.s.s.s.s.s.s.s.s.s.s.s.s.e.e.e.s.s.s.s.e.e.s.s.s.s.s.s.s.s.e.e.e.s.s.s.s.e.e.e.e.e.e.s.e.e.e.s.s.s.s.s.s.s.s.s.s.s.e.e.e.s.s.s.s.e.g.v s.Z.s.e.s.e.s.s.e.e.e.e.e.s.s.s.s.s.s.s.s.s.s.s.e.e.e.e.e.s.s.s.s.s.s.s.s.s.s.s.s.s.s.s.s.s.s.s.s.s.e.e.e.s.s.s.s.s.s.s.s.s.s.s.s.s.s.s.s.s.s.s.s.e.s.s.s.e.<.u s.g.s.e.s.s.e.s.s.s.s.s.e.e.e.e.e.e.e.e.e.e.e.e.s.s.s.s.s.s.e.e.e.e.s.s.s.e.e.s.e.e.e.e.s.e.e.e.e.e.s.s.s.s.e.e.e.s.s.s.s.s.s.e.e.e.e.e.s.s.s.s.e.s.s.s.e.g.<.v e.e.e.s.s.s.s.e.s.s.s.s.s.s.s.s.s.s.s.s.s.s.s.s.s.e.e.s.s.s.s.s.e.e.e.e.s.s.e.e.e.e.e.e.e.e.e.e.s.s.s.e.e.s.s.s.e.e.e.s.s.s.e.e.s.s.s.e.e.e.e.e.e.s.e.s.e.s.<.v M.g.e.s.s.e.e.s.e.e.s.s.s.s.e.e.s.s.s.s.s.s.s.s.s.s.s.e.e.e.s.s.s.s.e.e.e.e.e.e.s.s.s.s.e.e.s.s.e.e.s.s.s.s.s.s.s.s.s.s.s.s.s.s.s.s.s.s.s.s.s.s.s.s.s.e.e.s...v M.e.e.e.e.e.s.e.e.e.e.e.e.e.e.e.e.e.e.e.e.e.e.e.e.e.e.<.e.e.e.e.e.e.e.e.e.e.e.e.e.e.e.e.e.e.e.e.e.e.e.e.e.e.e.e.e.e.e.e.e.e.e.e.e.e.e.e.e.e.e.e.e.e.e.e.e.s...v g.e.e.e.s.s.e.s.s.s.e.e.<.e.e.s.s.e.s.s.s.s.e.s.e.s.s.s.s.s.s.s.s.s.e.e.e.s.s.s.e.s.s.s.s.s.s.e.s.s.s.s.s.s.s.s.s.s.s.e.e.s.s.s.s.s.s.s.s.s.s.s.e.e.s.s.e.g.%.- ",
"Z.g.s.s.s.s.e.s.e.e.e.s.s.e.e.e.e.s.s.s.s.s.s.e.s.s.e.e.e.s.s.s.e.e.e.e.e.s.s.s.e.e.e.e.e.s.s.s.s.e.e.e.e.e.e.s.s.s.s.s.s.s.s.s.s.s.s.e.e.e.s.s.s.e.s.e.s.s.s.V :.Z.e.s.s.s.e.s.s.s.e.e.e.e.s.s.s.s.s.s.s.s.s.s.s.e.e.e.s.s.s.s.e.e.s.s.s.s.s.s.s.s.s.e.s.s.s.s.s.e.e.e.<.e.e.e.e.e.e.s.s.s.s.s.s.s.s.e.e.e.e.e.e.s.s.s.s.e.g.v e.M.s.e.s.e.s.s.e.e.e.e.e.s.s.s.s.s.s.s.s.s.s.s.e.e.e.e.e.s.s.s.s.s.s.s.e.e.e.e.s.s.s.s.s.s.s.s.s.s.e.e.s.s.s.s.s.s.s.s.s.s.s.s.s.s.s.s.s.s.s.s.s.e.s.s.s.e.<.u s.g.s.e.s.s.e.s.s.s.s.s.e.e.e.e.s.s.s.s.s.s.e.e.s.s.s.s.s.s.e.e.s.s.s.s.s.s.s.s.e.e.e.e.e.e.e.e.e.e.s.s.s.s.e.e.e.s.s.s.s.s.s.e.e.e.e.e.s.s.s.s.e.s.s.s.e.g.<.v e.e.e.s.s.s.s.e.s.s.s.s.s.s.s.s.s.s.s.s.s.s.s.s.s.s.e.e.e.e.s.s.e.e.e.s.s.s.e.e.e.e.e.e.e.e.s.s.s.s.s.e.e.s.s.s.e.s.e.s.s.s.e.e.s.e.e.e.e.e.e.e.e.s.e.s.e.s.:.v M.s.e.s.s.e.e.s.e.e.s.s.s.s.e.e.s.s.s.s.s.s.s.s.s.s.s.e.e.e.s.s.s.e.e.e.e.e.e.e.s.s.s.s.e.e.s.s.e.e.s.s.s.s.s.s.s.s.s.e.e.s.s.s.s.s.s.s.s.s.s.s.s.e.s.e.e.s...v M.e.e.e.e.e.s.e.e.e.e.e.e.e.e.e.e.e.e.e.e.e.e.e.e.e.e.e.e.e.e.e.e.e.e.e.e.e.e.e.e.e.e.e.e.e.e.e.e.e.e.e.e.e.e.e.e.e.e.e.e.e.e.e.e.e.e.e.e.e.e.e.e.e.e.e.e.s...v g.e.e.e.s.s.e.s.e.e.e.e.<.e.e.s.s.s.s.s.s.e.e.s.e.s.s.s.s.s.s.s.s.s.e.e.e.s.s.s.e.s.s.s.s.s.s.e.s.s.s.s.s.s.s.s.s.s.s.e.e.s.s.s.s.s.s.s.s.s.s.s.e.e.e.s.s.g.%.: ",
"G.g.s.e.s.e.e.s.e.e.e.e.e.e.e.e.s.s.s.s.e.e.e.e.e.e.e.e.e.e.e.e.s.s.s.e.e.e.s.s.s.s.s.s.s.s.s.s.s.e.e.e.e.s.s.s.e.e.e.e.s.e.s.s.s.s.s.s.s.e.s.s.s.s.s.s.s.e.g.S ..g.<.s.e.s.s.s.s.s.s.e.s.s.e.e.e.s.s.s.e.e.e.e.e.e.e.e.e.e.s.s.s.s.s.s.e.e.s.s.e.e.s.s.s.s.s.s.e.s.s.s.s.s.s.s.e.e.s.s.s.s.s.s.s.s.s.s.e.s.e.e.s.e.g.s.s.s.s.V e.M.s.e.s.e.s.e.e.s.s.s.s.s.e.e.s.s.s.s.s.s.s.s.s.s.s.s.s.s.s.s.s.s.e.e.e.s.s.s.s.s.s.s.s.s.s.s.s.s.e.e.e.e.s.s.e.e.s.s.s.s.e.e.s.s.s.s.s.s.e.e.s.e.g.e.s.e.e.u s.M.e.s.g.e.s.s.s.s.s.e.e.e.e.e.s.s.s.s.s.s.s.s.e.s.s.s.s.s.e.e.s.s.s.s.s.s.s.s.e.e.e.e.e.e.e.e.s.s.s.e.e.e.e.e.s.s.s.s.s.s.s.s.s.s.s.s.s.s.s.s.s.e.s.e.s.e.<.v e.e.s.e.e.e.e.s.e.e.e.e.e.e.e.e.s.s.s.s.s.s.s.s.s.s.s.s.s.s.s.s.s.s.s.s.s.s.s.s.e.e.e.e.e.e.s.s.e.e.e.e.e.e.s.s.s.s.e.e.e.s.s.s.s.s.s.s.s.s.e.e.e.e.<.e.e.s.<.v M.s.e.e.e.e.e.s.s.s.s.s.e.e.e.e.e.e.s.s.s.s.s.s.s.s.s.s.s.e.e.e.s.s.s.s.e.e.e.e.e.e.e.e.e.e.e.e.s.s.s.s.s.s.s.s.e.e.e.e.e.e.e.e.e.s.s.s.s.s.e.e.s.s.s.e.s.s...v M.e.e.e.<.e.e.e.e.e.e.e.e.e.e.e.e.e.e.e.e.e.e.e.e.e.e.e.e.e.e.e.e.e.e.e.e.e.e.e.e.e.e.e.e.e.e.e.<.<.e.e.e.e.e.e.e.e.e.e.e.e.e.e.s.e.e.<.<.<.e.e.e.e.e.<.e.s...v s.e.e.s.s.e.e.s.s.s.s.s.s.s.s.s.s.s.s.s.s.s.s.s.s.s.e.e.e.e.e.e.s.s.e.e.e.e.s.s.s.s.s.s.s.s.s.s.s.s.s.s.s.s.s.s.s.s.s.s.s.s.s.s.e.e.e.e.e.e.e.e.e.s.e.s.s.g.%.: ",
"G.g.s.e.s.e.e.s.e.s.s.s.e.e.e.e.s.s.s.s.e.e.e.s.e.e.e.e.e.e.e.e.s.s.s.s.e.s.s.s.s.s.s.s.s.s.s.s.s.e.e.e.e.s.s.s.e.e.e.e.s.s.s.s.s.s.s.e.e.e.s.s.s.s.s.s.s.e.g.V %.g.<.s.e.s.s.s.s.s.s.e.e.s.e.e.e.s.s.s.e.e.e.e.e.e.e.e.e.e.s.s.s.s.s.s.e.e.e.s.e.e.s.s.s.s.s.s.e.s.s.s.s.s.s.s.e.e.s.s.s.s.s.s.s.s.s.s.e.s.e.e.s.e.g.s.s.s.s.v e.M.e.e.s.e.s.s.s.s.s.s.s.s.e.e.s.s.s.s.s.s.s.s.s.s.s.s.s.s.s.s.s.s.e.e.e.s.s.s.s.s.s.s.s.s.s.s.s.s.e.e.e.e.s.s.e.e.s.s.s.s.e.e.s.s.s.s.s.s.e.e.e.e.g.e.s.s.e.u s.M.e.s.g.e.s.s.s.s.e.e.e.e.s.s.s.s.s.s.s.s.e.e.e.s.s.s.s.s.e.e.s.s.s.s.s.s.s.s.e.e.e.e.e.e.e.e.s.s.s.e.e.e.e.e.s.s.s.s.s.s.s.s.s.s.s.s.s.s.s.s.s.e.s.e.s.e.<.v e.e.s.s.e.e.e.s.s.e.e.s.e.e.e.e.s.s.s.s.s.s.s.s.s.s.s.s.s.s.s.s.s.s.s.s.s.s.s.s.e.e.e.e.e.e.s.s.e.e.e.e.e.e.s.s.s.s.e.e.e.s.s.s.s.e.e.e.e.s.s.s.e.e.e.e.e.s.<.v M.s.e.e.e.e.e.s.s.s.s.s.e.e.s.e.e.e.s.s.s.s.s.s.s.s.s.s.s.e.e.e.s.s.s.s.s.s.s.s.e.e.s.e.e.s.e.e.s.s.s.s.s.s.s.s.e.e.e.e.e.e.e.e.e.s.s.s.s.s.e.e.s.e.s.e.s.s...v M.e.e.e.<.e.e.e.e.e.e.e.e.e.e.e.e.e.e.e.e.e.e.e.e.e.e.e.e.e.e.e.e.e.e.e.e.e.e.e.e.e.e.e.e.e.e.e.<.<.e.e.e.e.e.e.e.e.e.e.e.e.e.e.e.e.<.<.<.<.e.e.e.e.e.<.e.s...v s.e.e.s.s.e.e.s.s.s.s.s.s.s.s.s.s.s.s.s.s.s.s.s.s.s.e.e.e.s.e.s.s.s.s.e.e.e.s.s.s.s.s.s.s.s.s.s.s.s.s.s.s.s.s.s.s.s.s.s.s.s.s.s.e.s.s.s.s.e.e.e.e.s.e.s.s.g...: ",
"G.g.e.e.s.e.s.s.s.s.s.s.s.s.s.s.s.s.s.s.e.e.s.s.e.e.e.e.e.e.s.s.e.e.e.s.s.s.s.s.s.s.s.s.s.s.s.s.s.e.e.e.e.s.s.s.s.e.s.e.e.s.s.s.s.s.s.e.e.e.e.s.e.e.e.e.s.<.g.V :.M.e.s.e.s.s.s.s.s.e.e.e.s.s.s.s.s.s.s.s.s.s.s.e.e.e.e.e.s.s.s.s.s.e.e.e.e.s.s.e.e.s.s.s.s.s.s.e.s.s.s.s.s.s.e.e.e.s.s.s.s.s.s.s.s.e.e.e.e.e.e.s.e.g.s.s.s.s.v <.M.e.e.s.e.s.s.s.s.s.e.e.s.s.s.s.s.s.s.s.s.s.s.s.s.s.s.s.s.s.s.s.s.e.e.e.e.s.s.s.s.s.s.s.s.s.s.s.s.e.e.e.e.e.s.e.e.s.s.s.s.e.e.s.s.s.s.s.s.e.e.e.e.g.s.s.s.e.u s.M.e.e.g.e.s.s.s.e.e.e.e.s.s.s.e.s.e.e.e.e.e.e.e.e.s.s.s.s.s.e.s.s.s.s.s.s.s.s.s.s.s.e.e.e.e.e.s.s.s.e.e.e.e.e.s.s.s.s.s.s.s.s.s.s.s.s.s.e.s.s.s.e.s.e.s.e.<.v e.e.s.s.e.e.s.s.s.s.s.s.s.s.e.e.s.s.s.s.s.e.e.e.s.s.s.s.s.s.s.s.s.s.s.s.s.s.s.s.e.e.e.e.e.e.s.s.e.e.e.e.e.e.s.s.s.e.e.e.e.s.s.s.e.e.e.e.s.s.s.s.e.s.e.s.s.g.<.v M.g.s.s.s.e.e.s.e.e.s.s.e.s.s.s.e.e.s.s.s.s.s.s.s.s.s.s.e.e.s.s.s.s.s.s.s.s.s.s.s.s.s.s.s.s.s.s.s.s.s.s.s.s.s.s.s.s.e.e.e.e.s.s.e.e.s.s.s.s.s.s.s.e.s.e.s.s...v M.e.e.e.<.e.e.e.e.e.e.e.e.e.e.e.<.e.e.e.e.e.e.e.e.e.e.e.e.e.e.e.e.e.e.e.e.e.e.e.e.e.e.e.e.e.e.e.<.<.e.e.e.e.e.e.e.e.e.e.e.e.e.e.e.<.<.<.<.<.e.e.e.e.e.e.e.s...v g.s.e.s.s.e.s.s.s.s.s.s.s.s.s.s.s.s.s.s.s.s.s.s.s.e.e.e.s.s.s.s.s.s.e.e.e.e.s.s.s.s.s.s.s.s.s.s.s.s.s.s.s.s.s.s.s.s.s.s.s.s.s.s.s.s.s.s.s.s.e.e.s.g.s.s.s.g...- ",
"G.g.e.e.s.e.s.s.s.s.s.s.s.s.s.s.s.s.s.e.e.e.s.s.e.e.e.e.e.s.s.s.e.e.e.s.s.s.s.s.s.s.s.s.s.s.s.s.e.e.e.e.e.s.s.s.s.s.s.e.e.s.s.s.s.s.s.e.e.e.e.e.e.e.e.e.s.<.g.V :.M.e.g.e.s.s.s.e.e.e.s.e.s.s.s.s.s.s.s.s.s.s.s.e.e.e.e.e.s.s.s.s.s.e.e.e.e.s.s.s.s.s.s.s.e.s.s.e.s.s.s.s.s.s.e.e.e.s.s.s.s.s.s.s.s.e.e.e.e.e.e.s.e.g.s.s.s.s.v <.g.e.e.s.e.s.s.s.s.e.e.e.e.s.s.s.e.e.s.s.s.s.s.s.s.s.s.s.s.s.s.s.s.e.e.e.e.s.s.s.s.s.s.s.s.s.s.s.s.e.e.e.e.e.s.e.e.s.s.s.s.e.e.e.s.s.s.s.e.e.e.e.<.g.s.s.s.e.u s.M.e.s.g.e.s.s.s.s.e.e.e.s.s.s.e.e.s.e.e.e.e.e.e.s.s.s.s.e.e.s.s.s.s.s.s.s.s.s.s.s.s.e.e.e.e.s.s.s.s.s.s.s.e.e.s.s.s.s.s.s.s.s.s.s.s.s.e.e.s.s.s.e.s.e.s.e.<.v <.e.s.s.s.s.e.s.s.s.s.s.s.s.s.e.s.s.s.s.s.e.e.e.s.s.s.s.s.s.s.s.s.s.s.s.s.s.s.s.s.e.e.e.e.s.s.s.s.e.e.e.e.s.s.s.s.e.e.e.e.s.s.s.s.s.e.e.e.s.s.s.e.s.e.s.s.g.<.v M.g.s.s.s.e.s.s.e.e.e.e.e.s.s.s.s.s.s.s.s.s.s.s.s.s.e.e.e.e.e.s.s.s.s.s.s.s.s.s.s.s.s.s.s.s.s.s.s.s.s.s.s.s.s.s.s.e.e.e.e.e.s.s.e.e.s.s.s.s.s.s.s.e.s.e.s.s...v M.e.e.e.<.e.e.e.e.e.e.e.e.e.e.e.<.<.<.e.e.e.e.e.e.e.e.e.e.e.e.e.e.e.e.e.e.e.e.e.e.e.e.e.e.e.e.e.e.e.e.e.e.e.e.e.e.e.e.e.e.e.e.e.e.<.<.<.<.e.e.e.<.<.e.e.e.s...v g.e.e.s.s.e.e.s.s.s.s.s.s.s.s.s.s.s.s.s.s.s.s.s.e.e.e.e.s.s.s.s.s.e.e.e.e.e.s.s.s.s.s.s.s.s.s.s.s.s.s.s.s.s.s.s.s.s.s.s.s.s.s.s.s.s.s.s.s.s.s.s.s.g.s.s.s.g...- ",
"G.g.s.e.s.s.s.s.s.s.s.s.s.s.s.s.s.s.s.e.s.s.s.s.e.e.s.s.s.e.e.e.e.e.e.s.s.s.s.s.s.s.s.s.s.s.s.s.e.s.e.s.e.e.s.s.e.e.e.e.e.e.s.s.s.s.s.s.e.e.e.s.s.e.s.s.s.e.g.S <.Z.e.g.e.s.s.e.e.e.e.s.e.s.s.s.s.s.s.s.s.s.s.s.s.s.s.s.s.s.s.s.s.e.e.e.e.s.s.s.s.s.s.s.s.e.e.e.e.s.s.s.s.s.s.e.e.e.s.s.s.s.s.s.s.s.s.e.e.e.s.s.s.e.g.s.s.s.s.v <.M.e.e.s.e.s.s.e.e.e.e.e.s.s.s.e.e.s.s.e.s.s.s.s.s.s.s.s.s.s.s.s.s.s.e.e.e.s.s.s.s.s.s.s.s.s.s.s.s.e.e.e.e.s.s.e.s.s.s.s.s.e.e.s.s.s.s.s.s.e.e.e.<.g.s.s.s.e.u s.M.e.e.s.e.s.s.s.s.s.s.e.e.e.e.e.e.e.e.s.s.e.e.s.e.s.e.e.e.s.s.s.s.s.s.s.s.s.s.s.s.s.e.e.e.e.s.s.s.s.s.e.e.e.e.s.s.s.s.s.s.s.s.s.s.e.e.s.s.e.e.s.e.s.e.s.e.<.v <.<.e.s.s.s.s.s.e.e.e.e.s.s.s.s.s.s.s.s.s.e.e.e.s.s.s.s.s.s.s.s.s.s.s.s.s.s.s.s.s.s.e.e.s.e.s.s.s.s.s.s.e.e.s.s.s.e.e.e.e.s.s.s.s.s.s.s.e.e.e.e.e.s.e.s.s.g.<.v M.g.s.s.s.s.e.s.e.e.e.e.e.s.s.s.s.s.s.s.s.s.s.e.e.e.e.e.e.e.e.s.e.e.e.e.s.e.s.e.s.s.s.s.s.s.s.s.s.s.s.s.s.s.s.s.s.s.e.e.e.e.s.s.e.e.s.s.s.s.s.s.s.e.s.e.s.s...v M.e.<.e.e.e.e.e.e.e.e.e.e.e.e.e.<.<.<.e.e.e.e.e.e.e.e.e.e.e.e.e.e.e.e.e.e.e.e.e.e.e.e.e.e.e.e.e.e.e.e.e.e.e.e.e.<.<.e.e.e.e.e.e.e.e.e.e.e.e.e.e.e.e.e.e.e.s...v g.s.e.s.s.e.s.s.s.s.s.s.s.s.s.s.s.s.s.s.s.s.s.s.e.e.e.e.s.s.s.s.s.e.e.e.e.e.e.e.s.s.s.s.s.s.s.s.s.s.s.s.s.s.s.s.s.s.s.s.s.s.s.s.s.s.s.s.s.s.s.s.s.g.s.s.s.g...- ",
"G.g.s.e.s.s.s.s.s.s.s.s.s.s.s.s.s.s.s.e.s.s.s.s.e.e.s.s.s.s.s.e.e.e.e.e.s.s.s.s.s.s.s.s.s.s.s.s.e.s.s.s.s.e.s.s.e.e.e.e.e.e.s.s.s.s.s.e.e.e.e.e.s.s.s.s.s.e.g.V <.Z.s.g.e.s.s.e.e.e.e.s.e.s.s.s.s.s.s.s.s.s.s.s.s.s.s.s.s.s.s.s.e.e.e.e.s.e.s.s.s.s.s.e.e.e.e.e.e.s.s.s.s.s.s.e.e.e.s.s.s.s.s.s.s.s.s.e.e.e.e.s.s.e.g.s.s.s.s.v e.M.s.e.s.e.s.s.e.e.e.e.e.s.s.s.e.e.e.e.e.s.s.s.s.s.s.s.s.s.s.s.s.s.e.s.e.e.e.s.s.s.s.s.s.s.s.s.s.s.e.e.e.e.s.s.e.e.s.s.s.s.e.e.s.s.s.s.s.s.e.e.e.e.g.s.s.s.e.u e.M.e.e.s.e.e.e.s.s.s.s.e.e.e.<.e.e.e.e.s.s.s.e.s.s.s.e.e.e.s.s.s.s.s.s.s.s.s.s.s.s.s.e.e.e.s.s.s.s.s.s.s.s.s.s.s.s.s.s.s.s.s.s.e.e.e.e.e.e.e.e.s.e.s.e.s.e.<.v <.<.e.e.e.e.s.s.s.s.s.s.s.s.s.s.s.s.s.s.s.e.e.e.s.s.s.s.s.s.s.s.s.s.s.s.s.s.s.s.s.s.e.e.e.e.s.s.s.s.e.s.e.e.s.s.s.e.e.e.e.s.s.s.s.s.s.s.e.e.e.e.e.s.e.s.e.s.<.v M.s.s.s.s.s.e.s.e.e.e.e.e.s.s.s.s.s.s.s.s.s.e.e.e.e.e.e.e.e.e.s.e.e.e.e.e.e.s.s.s.s.s.s.s.s.s.s.s.s.s.s.s.s.s.s.s.s.e.e.e.e.s.s.e.e.s.s.s.e.e.e.s.s.s.e.s.s...v M.e.e.e.<.e.e.e.e.e.e.e.e.e.e.e.<.<.e.e.e.e.e.e.e.e.e.e.e.e.e.e.<.<.<.e.e.e.e.e.e.e.e.e.e.e.e.e.e.e.e.e.e.e.e.e.<.<.<.e.e.e.e.e.e.e.e.e.e.e.e.e.e.e.e.e.e.s...v g.s.e.s.s.e.s.s.s.s.s.s.s.s.s.s.s.s.s.s.s.s.s.s.e.s.s.s.s.s.e.e.e.e.e.e.e.e.e.e.s.s.s.s.s.s.s.s.s.s.s.s.s.s.s.s.s.s.s.s.s.s.s.s.s.s.e.e.e.s.s.s.s.s.s.s.s.g...- ",
"G.g.s.e.s.s.e.s.e.e.e.e.s.s.s.s.s.s.s.e.e.e.e.e.e.e.s.s.s.s.e.e.s.s.e.e.e.s.s.s.s.s.s.s.s.s.s.s.e.s.s.s.s.e.s.s.e.e.s.e.s.s.s.s.s.s.s.e.e.e.e.e.e.s.s.s.s.<.g.V <.Z.e.g.e.s.s.e.s.s.s.e.s.s.e.s.s.s.s.s.s.s.s.s.s.s.s.s.s.s.s.s.s.e.e.e.e.e.e.e.s.s.s.e.e.e.e.e.e.s.s.s.s.s.s.e.e.e.s.s.s.s.s.s.s.s.s.s.e.e.e.e.s.e.g.s.s.e.s.v e.M.s.s.s.e.s.s.e.e.e.e.s.s.s.s.e.e.e.e.e.e.s.s.s.s.s.s.s.s.s.s.e.e.s.s.s.s.e.e.s.s.s.s.s.s.s.s.s.s.s.e.e.s.s.s.s.s.s.s.s.s.s.s.s.s.e.s.e.e.e.e.s.e.g.e.s.e.e.u e.M.e.e.s.<.e.e.e.e.s.e.s.e.e.e.e.e.s.s.s.s.e.e.s.s.e.e.e.s.s.s.s.s.s.s.s.s.s.s.e.e.s.s.s.e.s.s.s.s.s.s.s.s.s.s.s.s.s.s.s.s.s.s.s.e.e.e.e.e.e.e.s.e.s.e.s.e.<.v <.<.e.e.e.e.e.s.s.s.s.s.s.s.s.s.s.s.s.s.s.s.s.s.s.s.s.s.s.s.s.s.s.s.s.s.s.s.s.s.s.s.s.e.s.s.s.s.s.s.s.e.e.s.s.s.s.s.e.e.e.s.s.s.s.s.s.s.e.e.e.e.s.s.e.s.e.s.:.p g.s.e.s.s.s.e.e.s.s.s.s.s.e.s.e.s.s.s.s.s.s.e.e.s.s.e.e.s.s.s.s.e.e.e.e.s.s.s.s.s.s.e.e.e.e.e.e.s.s.s.s.s.s.s.s.s.s.s.e.e.s.s.s.s.s.s.s.s.e.e.e.s.s.s.e.s.s...v M.e.e.e.<.e.e.<.e.e.e.e.e.e.e.e.e.e.e.e.e.e.e.e.e.e.e.e.e.e.e.e.<.<.<.e.e.e.e.e.e.e.e.e.e.e.e.e.e.e.e.e.e.e.e.e.e.e.<.e.e.e.e.e.e.e.e.e.e.e.e.e.e.e.e.<.e.e...v s.s.e.s.s.e.s.s.s.s.s.s.s.s.s.s.s.s.s.s.s.s.s.s.s.s.s.s.s.e.e.e.e.e.e.e.e.e.e.e.s.s.s.s.s.s.s.s.s.s.s.s.s.s.s.s.e.e.e.e.s.s.s.s.s.e.e.e.e.e.s.s.e.s.e.s.s.g...: ",
"G.g.s.e.s.e.e.s.e.e.e.e.e.e.e.e.s.s.s.e.e.e.e.e.e.e.s.s.s.s.e.e.s.s.e.e.e.e.s.s.s.s.s.s.s.s.s.s.e.e.s.s.s.e.s.s.e.e.s.e.s.s.s.s.s.s.e.e.e.e.e.e.e.e.e.e.e.<.g.V <.Z.e.g.e.s.s.e.s.s.s.e.e.s.e.e.s.s.s.s.s.s.s.s.s.s.s.s.s.s.s.s.s.e.e.e.e.e.e.e.s.s.s.e.e.e.e.e.e.s.s.s.s.s.s.e.e.e.s.s.s.s.s.s.s.s.s.e.e.e.s.s.s.e.s.s.s.e.s.v e.M.s.s.s.e.s.e.e.e.e.e.s.s.s.s.e.e.e.e.e.e.s.s.s.s.s.s.s.s.s.s.e.e.s.s.s.s.e.e.s.s.s.s.s.s.s.s.s.s.s.e.e.s.s.s.s.s.s.s.s.s.s.s.e.s.e.e.e.e.e.e.s.e.g.e.e.e.<.u e.g.e.e.s.e.e.e.e.e.e.s.s.e.e.e.s.s.s.s.s.s.s.s.s.s.e.e.e.s.s.s.s.s.s.s.s.s.s.s.e.e.s.s.s.s.s.s.s.s.s.s.s.s.s.s.s.s.s.s.s.s.s.s.s.e.e.e.e.e.e.e.s.e.s.e.s.e.<.v <.<.e.e.e.e.s.s.s.s.s.s.s.s.s.s.s.s.s.s.s.s.s.s.s.s.s.s.s.s.s.s.s.s.s.s.s.s.s.s.s.s.s.e.e.s.s.s.s.s.s.e.e.s.s.s.s.s.e.e.e.s.s.s.s.s.s.e.e.s.e.s.s.s.e.e.e.s.:.p g.s.e.s.s.s.e.e.s.s.s.s.s.s.e.e.s.s.s.s.s.s.e.e.s.s.s.s.s.s.s.s.e.e.e.e.s.s.s.s.s.s.e.e.e.e.e.e.s.s.s.s.s.s.s.s.s.s.s.e.e.e.s.s.s.s.s.s.e.e.e.e.s.e.s.e.e.s...v M.e.e.e.<.e.e.<.<.<.<.<.<.e.<.<.e.e.e.e.e.e.e.<.e.e.e.e.e.e.e.e.<.<.<.e.e.e.e.e.e.e.e.e.e.e.e.e.e.e.e.e.e.e.e.e.<.e.e.e.e.e.e.e.e.e.e.e.e.e.<.<.e.e.e.<.e.e...v s.s.e.s.s.e.s.s.s.s.s.s.s.s.s.s.s.s.s.s.s.s.s.s.s.s.s.s.s.e.e.e.e.e.e.e.e.e.e.e.s.s.s.s.s.s.s.s.s.s.s.s.s.s.s.s.e.e.e.e.s.s.s.s.e.e.e.e.e.e.s.s.e.s.e.s.s.g.%.: ",
"Z.M.s.e.e.s.s.e.s.s.s.e.e.e.e.e.s.e.e.e.e.s.e.e.s.e.e.e.s.s.s.e.s.s.s.s.s.s.e.e.s.s.s.s.s.s.s.s.e.e.s.s.s.s.e.e.e.e.e.s.s.s.s.s.s.s.s.e.e.e.s.s.s.e.s.e.g.s.s.S :.M.s.e.s.s.g.e.s.s.s.s.s.s.s.s.s.s.s.s.s.s.e.e.s.s.s.s.s.e.e.e.e.e.e.e.s.s.s.s.e.e.e.e.e.e.e.e.s.e.e.e.e.s.e.s.s.s.s.s.s.s.s.s.s.e.e.e.e.e.s.s.s.e.e.<.s.s.e.S <.M.s.e.g.s.s.<.s.s.s.s.s.s.s.s.e.s.s.s.s.s.s.e.s.s.s.s.s.s.e.e.e.e.e.e.s.s.s.s.e.s.e.e.e.s.s.s.s.s.s.s.s.s.e.e.s.s.s.s.s.s.s.s.e.e.e.e.s.s.s.s.g.s.<.e.e.s.:.p s.g.s.e.e.s.s.s.s.s.s.s.s.s.e.e.s.s.s.s.s.s.s.s.s.s.e.e.e.e.e.s.s.s.s.s.s.s.s.s.s.s.s.s.s.s.e.e.s.s.s.s.s.s.s.s.e.s.s.s.s.s.s.s.s.s.e.e.e.s.s.s.s.e.<.e.s.g.<.v e.e.<.<.e.e.e.e.s.s.s.s.s.s.s.s.e.e.e.e.e.e.s.s.s.s.s.e.s.s.s.s.s.s.s.e.e.e.e.s.s.s.s.s.s.s.s.s.s.s.s.e.e.e.s.s.e.e.e.s.s.s.s.s.s.s.s.s.s.s.s.s.g.s.<.s.e.e.:.v g.g.s.e.s.s.s.e.e.e.e.e.s.s.s.s.s.s.s.s.s.s.s.s.s.s.s.s.s.s.s.e.e.e.s.s.s.s.s.s.e.e.e.s.s.s.s.s.s.s.s.s.s.s.s.s.s.s.e.e.e.s.s.s.s.s.s.s.s.e.e.e.g.e.e.e.g.g...v M.s.e.e.<.e.s.<.e.e.e.s.s.s.s.s.e.e.e.e.e.e.e.e.e.e.e.e.e.e.e.e.e.e.e.e.e.e.e.e.e.e.e.e.e.e.e.e.<.<.e.e.e.e.e.e.e.e.e.e.e.e.e.e.e.e.e.e.e.e.e.e.s.s.e.<.e.s...v s.e.s.s.s.e.s.s.e.s.s.s.s.s.e.e.s.s.e.e.e.s.s.s.s.s.s.s.s.e.e.e.e.e.e.e.e.e.e.e.s.s.s.s.s.s.s.s.e.s.s.s.s.s.s.e.s.s.s.e.e.e.e.e.s.s.s.s.s.s.s.s.g.s.<.e.s.s...: ",
"G.M.s.s.s.s.s.s.s.s.s.e.e.e.e.<.<.<.<.e.e.s.s.s.s.e.e.e.s.s.s.s.s.s.s.s.s.s.s.s.s.s.s.s.s.s.s.s.s.s.s.s.s.s.e.e.e.e.e.e.s.s.s.s.s.s.s.s.e.s.s.s.s.s.g.e.s.s.s.S :.M.s.e.s.e.s.e.s.s.e.s.s.s.e.e.s.s.s.s.s.s.s.s.s.s.e.e.e.e.e.e.e.e.e.e.s.e.e.e.e.s.s.e.s.e.e.e.s.s.s.s.s.s.s.s.e.e.s.s.e.e.e.e.s.s.s.s.s.s.s.s.e.e.g.e.g.s.e.V e.M.s.e.s.s.s.e.s.s.s.s.s.s.s.s.s.s.s.s.s.s.s.s.s.e.e.s.e.e.e.e.e.e.e.e.s.e.e.e.e.e.e.e.s.s.e.s.s.s.s.e.e.e.e.e.s.s.s.e.e.e.s.s.e.e.e.e.s.s.s.s.<.e.e.s.s.g.<.p s.g.s.e.e.s.s.e.e.s.s.s.s.s.e.e.s.s.s.s.s.s.e.e.s.e.e.e.e.e.e.e.e.e.e.e.e.e.e.e.<.e.e.e.e.e.e.e.e.e.e.e.e.e.e.e.e.e.e.s.e.e.s.s.e.e.e.e.e.e.e.e.e.s.s.s.s.g.<.p e.e.e.e.e.e.e.e.s.s.s.s.s.s.s.s.s.s.e.e.e.e.s.s.e.e.e.e.e.e.e.e.s.s.s.s.s.s.s.s.s.s.e.e.e.e.e.e.s.s.e.e.e.e.e.e.s.s.s.s.s.s.s.g.e.e.s.s.s.s.s.s.s.s.s.g.s.s.:.v M.g.s.s.s.s.s.e.e.e.e.e.e.s.e.s.e.e.e.e.s.s.e.e.s.s.s.e.e.e.e.e.e.e.e.s.s.s.s.s.e.e.e.e.s.s.s.s.s.s.s.e.e.e.e.e.s.s.s.s.s.s.s.s.s.s.s.s.s.s.e.e.e.e.s.s.g.g...p M.e.e.e.<.e.s.<.e.<.<.e.e.e.e.e.e.e.e.e.e.e.e.e.<.e.e.e.<.<.<.e.e.e.e.e.e.e.e.e.e.<.<.e.e.<.<.<.e.e.e.e.e.e.e.e.e.e.e.e.e.e.e.e.e.e.e.e.e.e.e.e.<.<.e.e.s.s...v g.e.e.s.e.e.s.e.e.e.e.e.s.e.e.e.e.e.e.e.e.e.s.s.s.s.s.s.s.e.e.e.s.s.s.s.s.s.s.s.e.e.e.e.s.s.e.e.e.e.s.s.s.s.e.e.s.s.s.s.s.e.e.e.e.e.s.s.s.s.s.s.e.s.e.s.s.g.%.: ",
"G.M.s.s.s.s.s.e.e.e.e.e.e.<.<.<.<.<.<.<.e.s.s.s.s.e.e.s.s.s.s.s.s.s.s.s.s.s.s.s.e.s.s.s.s.s.s.s.s.s.s.e.e.s.e.s.e.e.e.s.e.s.s.s.s.s.s.s.s.s.s.s.s.g.g.e.e.s.s.S :.M.s.s.s.e.s.e.e.e.e.e.s.s.s.s.s.s.s.s.s.s.s.s.s.s.s.s.e.e.e.e.s.s.s.s.s.s.e.e.s.s.s.s.s.s.s.s.s.s.s.s.s.s.s.s.s.s.s.s.s.s.s.s.s.s.s.s.s.s.s.s.e.s.M.e.s.s.s.V e.Z.s.e.s.e.s.e.s.s.s.s.s.s.s.s.s.s.s.s.s.s.s.s.s.s.s.s.s.s.e.e.e.s.e.s.e.e.e.e.e.e.s.s.s.s.s.s.s.s.s.s.s.e.e.e.s.s.s.s.e.e.e.s.e.e.e.s.s.s.s.s.e.g.s.s.s.g.<.p s.g.g.s.s.s.s.e.s.s.s.s.s.s.s.s.s.s.s.s.s.s.s.s.s.s.s.e.e.e.e.s.s.s.s.s.s.s.s.s.e.e.e.e.e.s.s.s.e.e.e.e.s.s.s.s.e.s.s.s.s.s.s.s.s.s.s.s.s.s.s.s.<.s.s.s.e.g.<.p <.e.s.s.s.e.e.s.e.e.e.e.e.e.s.s.s.s.s.s.e.s.s.s.s.s.s.e.s.s.e.e.s.s.e.e.e.e.s.s.s.s.s.s.s.s.s.s.s.s.s.e.e.e.e.s.s.s.s.s.s.s.s.s.e.e.e.e.e.s.s.s.e.g.g.g.s.s.<.V M.g.s.s.s.s.s.e.e.e.e.e.e.e.s.s.s.s.e.e.s.s.s.s.s.s.s.s.s.s.s.s.e.s.e.e.s.s.s.s.e.e.e.e.e.e.s.s.s.s.s.s.s.s.s.s.s.s.s.s.s.s.s.s.s.s.s.s.s.s.s.s.e.s.g.s.s.g...v M.s.e.e.e.s.s.e.e.e.e.e.e.e.e.e.e.<.e.e.<.e.e.e.e.e.e.e.e.e.e.e.e.e.e.e.e.e.e.e.e.e.e.e.e.e.e.e.e.e.e.e.e.e.e.e.e.e.e.e.e.e.e.e.e.e.e.e.e.e.e.e.e.e.s.e.e.e.' v g.e.e.s.s.s.s.s.e.e.s.s.e.e.e.e.e.e.e.e.e.s.s.s.s.s.s.s.e.e.e.e.s.s.s.s.s.s.s.s.e.e.e.e.s.s.s.s.e.e.s.s.s.s.e.e.s.s.s.s.s.e.e.e.e.e.e.e.e.e.e.e.e.s.s.s.e.s...- ",
"Z.g.s.e.e.e.e.<.e.e.e.e.e.<.<.<.e.<.<.<.e.e.e.e.e.e.e.s.s.s.s.s.s.s.s.s.s.s.s.s.e.e.e.e.e.e.e.e.e.e.e.e.e.e.e.e.e.e.e.s.e.s.s.s.e.e.e.e.e.e.e.s.e.s.g.<.s.g.g.V :.g.s.s.s.e.s.s.e.e.e.e.e.e.e.e.s.s.e.e.e.e.e.e.s.s.s.s.e.e.e.e.s.s.s.s.s.e.e.e.e.e.e.e.e.e.e.e.s.e.e.e.e.s.s.s.s.s.s.s.s.s.s.s.s.s.s.s.e.e.e.s.e.s.s.:.e.s.s.V e.M.s.e.s.<.s.s.s.s.s.s.s.s.s.s.e.s.s.s.s.e.e.e.e.e.s.e.e.s.s.s.e.e.s.s.e.e.e.e.e.e.s.s.s.s.s.s.s.s.s.s.s.s.e.e.s.s.s.s.e.e.e.e.e.e.e.e.e.s.s.s.s.g.s.<.<.g.<.p s.s.s.e.e.s.e.e.s.e.e.e.e.e.e.s.e.e.s.s.s.s.e.e.e.e.e.e.e.e.e.e.e.s.s.s.s.s.e.e.e.e.e.s.s.s.s.s.e.e.e.e.s.s.s.s.e.s.s.s.s.s.s.s.e.e.e.e.e.e.e.e.e.s.e.<.<.g.<.p <.e.s.s.s.e.e.e.e.e.e.e.e.e.e.s.s.s.s.s.e.e.s.s.s.s.s.s.s.s.e.e.e.e.e.e.e.e.e.e.s.s.s.s.s.s.s.s.s.s.s.e.e.e.s.s.e.e.s.e.e.s.s.s.e.e.e.s.e.e.e.e.s.g.s.e.<.g.e.V M.g.e.e.e.e.e.e.e.e.e.e.e.e.s.s.s.e.e.e.s.s.s.s.s.s.e.e.s.s.s.e.s.s.e.e.e.s.s.s.e.e.e.e.e.e.s.s.s.s.s.s.s.s.s.s.s.s.e.e.e.e.s.s.e.e.s.s.s.s.e.e.e.s.s.<.e.g.%.v M.e.<.e.e.e.s.e.e.e.e.e.e.e.<.e.<.<.<.<.<.<.<.<.e.e.s.e.e.e.e.e.e.e.e.e.e.e.e.e.e.e.e.e.e.e.e.e.e.e.e.e.e.e.e.e.e.e.e.e.e.e.e.e.e.e.<.<.<.e.e.e.s.e.e.<.<.e.' v M.e.e.s.s.e.s.e.e.e.s.s.e.s.e.e.e.e.e.s.s.s.s.s.e.e.e.s.s.e.s.s.e.e.s.s.s.s.e.e.s.e.e.s.s.s.s.s.e.e.s.s.s.s.e.e.e.s.s.s.e.e.e.e.e.e.e.e.e.e.e.e.e.s.e.<.<.s.%.- ",
"G.M.e.s.s.e.e.e.e.s.s.s.s.e.e.e.e.e.e.<.e.e.e.<.s.s.s.s.s.s.s.s.s.s.s.s.s.s.s.s.e.e.s.s.s.s.e.e.s.s.e.e.e.e.s.s.s.s.s.s.s.s.s.s.s.s.s.s.s.s.s.s.e.s.g.e.g.M.g.V :.g.s.s.g.e.g.g.s.s.s.s.s.s.s.s.s.s.s.s.s.s.s.s.s.s.s.s.s.s.s.s.s.s.s.s.s.s.s.s.s.s.s.s.s.s.s.s.s.s.s.s.s.s.s.s.s.s.s.s.s.s.s.s.s.s.s.s.s.s.s.s.s.s.s.<.s.g.s.v e.M.s.s.g.e.s.s.s.s.s.s.s.s.s.s.s.s.s.s.s.s.s.s.s.s.s.s.s.s.s.s.s.s.s.s.s.s.s.s.s.s.s.s.s.s.s.s.g.s.s.s.s.s.s.s.s.s.s.s.s.s.s.s.s.s.s.s.s.s.s.s.s.s.e.e.e.M.e.p s.s.e.e.e.s.e.e.e.e.e.e.e.e.s.s.e.e.e.s.s.e.e.e.e.e.e.e.e.e.e.e.e.e.s.s.s.s.e.e.s.s.s.s.s.s.e.s.s.s.s.s.s.s.s.s.s.s.s.s.s.s.s.s.e.e.e.e.s.e.e.s.s.g.e.e.e.g.<.p e.s.s.s.s.s.e.e.s.s.s.s.s.s.s.s.s.s.s.s.s.s.s.s.s.s.s.s.s.s.s.s.e.e.e.e.s.s.s.s.s.s.s.s.s.s.s.s.s.s.s.s.s.s.s.s.s.s.s.s.s.s.s.s.s.s.s.s.s.s.s.s.g.g.s.s.e.g.<.v Z.g.e.s.e.e.e.e.s.s.s.s.s.s.s.s.s.s.s.s.s.s.s.s.s.s.s.s.s.s.s.s.s.s.s.s.s.s.s.g.s.s.s.s.s.s.s.s.s.s.s.s.s.s.s.s.s.s.s.s.s.s.s.s.s.s.s.s.s.s.s.s.s.s.e.<.e.s...v M.e.<.e.<.e.e.e.e.e.e.e.e.e.<.<.e.e.e.e.e.e.e.e.e.e.s.e.e.e.e.e.s.s.s.s.e.e.e.e.e.e.e.e.e.e.e.e.e.e.e.e.e.e.e.e.e.e.e.e.e.e.e.e.e.e.e.e.e.s.s.s.s.e.<.e.e.s...V Z.s.s.g.s.s.g.s.s.s.s.s.s.s.s.s.s.s.s.s.s.s.s.s.s.s.s.s.s.s.s.s.e.e.s.s.s.s.e.e.s.s.s.s.s.s.s.s.s.s.s.s.s.s.s.s.s.s.s.s.s.s.s.e.e.s.s.s.s.s.s.s.e.s.s.s.s.M.%.: ",
"I.M.s.s.s.s.e.e.s.s.g.s.g.s.s.s.e.e.<.e.e.e.e.e.s.s.s.s.s.s.s.s.s.s.s.s.s.s.s.s.s.s.s.s.s.s.s.s.s.s.s.s.s.s.s.s.s.s.s.s.s.s.s.s.s.s.s.s.s.s.s.g.g.s.g.e.g.g.s.V e.M.e.s.g.e.g.g.s.s.s.s.s.s.s.s.g.g.g.s.s.s.s.s.s.s.s.s.s.s.s.s.s.s.s.s.s.s.s.s.s.s.s.s.s.s.s.s.g.s.s.s.s.g.g.g.s.s.s.s.s.s.s.s.g.g.g.g.g.g.g.g.s.s.g.s.g.s.e.v s.M.s.s.g.s.s.s.s.s.s.s.s.s.s.s.s.s.s.g.g.g.s.s.s.s.s.s.s.s.s.s.s.s.s.s.s.s.s.s.s.s.s.s.s.s.s.s.g.g.s.s.s.s.s.s.s.s.s.s.s.s.s.s.s.s.s.s.s.s.s.s.g.g.e.s.s.g.:.u M.g.s.s.g.g.s.g.s.s.s.s.s.s.s.s.s.g.s.g.g.s.s.s.s.s.s.s.s.s.s.s.s.s.s.s.s.s.s.s.g.g.g.g.g.g.s.s.g.g.g.g.g.g.s.s.s.g.g.s.s.s.s.s.s.s.s.s.s.s.g.g.g.g.s.g.s.g.<.v s.s.s.s.s.s.s.e.s.s.s.s.s.s.s.s.s.s.s.s.s.s.s.s.s.s.s.s.s.s.s.s.s.s.s.s.s.s.s.s.s.s.s.s.s.s.s.s.s.s.s.s.s.s.s.s.g.s.g.s.s.s.s.s.s.s.s.s.s.s.s.s.s.s.s.g.g.g.:.v Z.g.s.s.s.e.e.s.s.s.s.s.s.s.s.s.s.s.s.s.s.s.s.s.s.s.s.s.s.s.s.s.s.s.s.s.s.s.s.s.s.s.s.s.s.s.s.s.s.s.s.s.s.s.s.s.g.s.s.s.g.g.g.g.s.s.g.g.g.g.g.s.s.s.s.s.s.s...v G.s.e.s.e.e.s.e.s.s.s.s.s.e.e.e.e.e.e.s.s.s.s.s.s.s.s.s.s.e.s.s.s.s.s.s.s.s.s.s.s.s.s.s.s.e.e.e.s.s.s.s.e.e.e.e.s.s.e.e.e.e.e.s.s.s.s.e.s.s.s.s.s.e.e.s.s.s.' V Z.s.s.s.s.g.g.s.s.s.s.s.s.s.s.s.s.s.s.s.s.s.s.s.s.s.s.s.s.s.s.s.s.s.s.s.s.s.s.s.s.s.s.s.s.s.s.s.s.s.s.g.g.s.s.s.s.s.s.g.g.s.s.s.s.s.s.s.s.s.s.s.s.g.s.g.g.g.' $ ",
"M.<.....%.......%.%.%.%.%.........' ' ' ' ..........%.........%...%.................%.%.%.%.....%.%.%.%.%.%.%...%.%.............%.%...........%.%...%...%...%.V :.<.....%.....%.%.%.%.%.........%.%.....%.%.%.....%.%.%.%...................%...%.%.%.%.%.%.%.%.%.%.%.%.%.%.%.%.%.%.%.%.%.%.....%.%.%.%.%.%.%.%.%...%.%.:...%.v <.<.....%...%.....................%.%.%.%.%.%.............%.%.%.........%.%.%.%...........%.%.%.%.%.%.%.%.%.....................%.%.%.%.........:.%...:.....' u s.:.%.%.%.%...%.......%.%.%.....%.%.%.%.%.%.%...%.%.%.%.%.%.%.....................%.%.%.%.%...%.%.%.%.%.........%.%.%.%.%.......%.%.%.%.%.%.%.%.......%.....' v <.%.......%.........%...%.%...%.................%...............%.%.%.%.%.%.%.%.%.%.%.%.%.%.................%.%.%.%.%.%.......%.....%.%.%.%.%.%.%.....:.%...' v e.%...%.%.....%.%.%.%.%.%.%.%.%.................................................%.%.%...........%.%...%.%.%.%.%.%.%.%.%.%.%.%.%...%.%.%.%.%.%.%.%...%.%.%...^ V s.%...%...' ....................' ' ' ........' ................' ' ........' ' ......................' ' ' ' ' ................' ' ' ' ' ..........%.%...' Y v <.....%.%.%.%.....%.%...%.............%.%.%.............%.............%.%.%.%.......................%.%.%.%.%.....%...%.%.%.%.%.........%.%.%.%.%.%...%...' Y - ",
"..P V S J S S J S S S S S S S S S S V V S S S S S S S S S S S J S S J J S S S S S S S S S S S S S S J J J S S S S S S S S S S S S S S S S S S S S V S S J V P u ^ ^ S S J S S S J J J J S S S S S S S S S S S S S S S S S S S S S S S S S S S S J J J S S J J J S S S S S S S S S S S S S S S S S S S S S S S S P S J S S V Y p / / V V J S J S S S S S S S S S S S S S S S S S S S S S S S J J S S S S J J J J S S S S S S S S J S J J S S S S S S S S S S S S S S S S S S S S J S V S V J Y p ^ J V V V v v v v v v V V V v v V V V V V V V V V V V V V V V v v v v v v V V V v v v V V V V V v V V V v v v v V V V V V V V v V V V V V V V V V V v V p v J u ^ P S V S J J S S S J J J J J J S S S S S S S S S S S S S S S S S S S S S S S S S S S S S S S S S S S S S S J J J S S S S S S S S S J J J J J J J V V J S S P v ^ J S S J S S J J J J J S S S S S S S S S S S S S S S S S S S S V S S S S S S S J J S S S S S S S S S S S S S S S S S S S S S S S S S S S S S S J V S J S S S V ^ S V S V v V V V V V v v v v v v v v V V V V V v v V V v v v v v v V V V v v v V V V v v v v v V V V V V v v v v v v v v v v v v v v v v V V V v v V V v S J V ^ J S J S J J S S S S S S S S S S S S J J J S S S S S S S S S S S S S S S S S S S S S S S S S S S S J J J S S S S S S S S S S S S S S S S J J J S S V J S J Y u ",
"I.G.Z.G.J.J.G.G.J.J.J.J.J.J.J.J.J.G.G.G.G.G.G.G.Z.Z.Z.Z.Z.G.J.J.J.G.G.G.G.G.G.J.Z.G.G.G.G.Z.G.J.J.J.J.G.J.J.G.G.G.G.G.G.G.G.G.G.G.G.G.G.G.G.G.G.J.G.J.G.G.J.T...<.J.Z.Z.I.J.J.J.J.J.J.J.J.J.J.G.I.Z.M.Z.G.Z.G.J.G.J.J.J.J.G.G.J.G.J.J.J.J.J.G.G.G.G.G.G.G.G.G.G.G.G.G.G.G.G.G.G.J.J.J.J.G.G.G.G.J.J.J.J.J.G.G.G.J.G.J.G.J.J.T.' M.J.Z.G.J.G.J.G.J.J.J.J.J.J.J.J.J.G.G.G.G.G.G.G.J.J.G.G.G.G.J.J.G.J.J.J.J.G.G.G.J.J.G.G.G.J.J.J.J.J.J.G.G.J.J.J.G.G.G.G.J.J.G.G.G.G.G.G.G.G.G.G.G.Z.J.Z.G.J.J.^ s.Z.g.g.g.s.g.g.s.g.g.g.M.g.g.g.g.g.g.M.g.g.g.g.M.g.g.g.g.g.M.M.g.g.g.g.g.g.g.g.g.g.g.g.g.g.M.g.g.g.g.g.g.g.g.M.M.M.M.g.g.M.g.g.g.M.M.M.M.M.g.g.g.M.g.M.g.M.M.Y Z.G.G.G.G.G.G.G.G.J.J.J.J.J.J.J.G.G.G.G.G.G.G.G.G.J.J.J.J.J.J.J.J.J.J.J.J.J.J.J.G.G.J.J.J.J.J.J.G.G.G.G.G.G.G.G.Z.G.J.G.M.M.Z.J.G.G.J.J.J.J.G.G.G.J.J.I.J.I.G./ G.G.G.J.J.J.J.J.G.G.J.J.J.J.G.G.G.G.G.G.J.G.G.G.G.G.G.G.G.G.G.G.g.M.G.J.J.J.J.G.G.G.J.G.G.G.G.G.J.J.G.G.G.G.J.J.G.G.G.J.J.J.J.J.G.G.G.G.G.G.J.J.J.I.G.J.J.J.M.^ G.Z.M.M.Z.M.M.M.g.g.M.M.M.M.M.M.M.M.M.M.M.M.M.M.M.M.M.M.M.M.M.M.M.M.M.M.M.M.M.M.M.M.M.M.M.M.M.M.M.M.M.M.M.M.M.M.M.M.M.M.M.M.M.M.g.g.M.M.M.M.M.Z.Z.M.M.M.Z.Z.s.^ I.Z.G.J.J.J.J.G.J.G.G.G.G.G.G.G.J.J.J.J.J.J.J.J.J.J.J.J.J.J.J.G.J.J.J.J.J.J.J.J.G.G.G.G.G.J.J.J.G.J.G.G.G.G.G.G.G.G.G.G.J.G.G.G.J.G.G.G.G.G.G.J.J.J.J.J.G.T.G.J ",
"G.M.g.M.M.M.g.g.M.g.g.g.g.g.g.g.g.g.g.g.g.g.g.g.g.g.g.s.s.g.g.M.g.g.g.g.g.g.g.g.s.g.M.g.g.s.g.M.M.M.g.g.g.g.g.g.g.g.g.g.g.g.g.g.g.g.g.g.g.g.g.g.M.g.M.g.M.M.Z.Y <.Z.g.g.Z.g.g.g.M.M.M.M.M.M.g.g.M.s.e.g.M.g.s.g.g.g.M.M.g.g.g.M.g.M.M.M.M.M.g.g.g.g.g.g.g.g.g.g.g.g.g.g.g.g.g.g.M.M.M.M.M.M.g.g.M.M.M.M.M.g.g.g.M.s.M.g.g.g.M.J s.Z.g.g.M.g.M.g.M.M.M.M.M.M.M.M.M.M.g.g.g.g.g.g.g.g.g.s.g.g.g.g.g.g.g.g.g.g.g.g.g.g.g.g.g.M.M.M.g.g.g.g.g.g.g.g.g.g.g.g.M.M.g.g.g.g.g.M.M.g.g.g.g.s.M.g.g.M.M.S e.M.e.e.s.<.e.e.<.e.e.e.e.e.e.e.e.e.e.e.e.e.e.<.s.e.e.e.e.e.s.s.e.e.e.e.s.e.s.e.s.e.e.e.s.s.s.s.e.e.e.s.e.e.s.s.s.s.e.e.e.e.e.e.e.s.s.s.s.s.e.e.e.s.s.s.e.s.<.V g.g.M.g.g.g.g.M.M.M.M.g.g.g.g.g.g.g.g.g.g.g.g.g.g.g.M.M.M.M.M.M.g.g.g.g.g.g.g.g.g.g.M.M.M.M.g.g.g.g.g.g.g.g.g.g.g.g.M.g.s.s.g.M.g.g.g.M.M.g.g.g.e.s.s.s.e.s.<.V M.M.M.M.M.g.g.M.g.g.g.g.g.g.g.g.g.g.g.g.M.g.g.g.g.g.g.g.g.g.g.g.e.s.g.M.M.M.g.g.g.g.M.M.g.M.g.g.M.M.M.g.g.M.M.M.g.g.g.g.g.g.M.M.g.g.g.g.g.M.M.M.g.M.s.g.M.M.<.J Z.g.s.g.g.g.s.g.s.s.s.s.s.s.s.s.s.s.s.s.s.s.s.s.s.s.s.s.s.s.s.s.s.s.s.s.s.s.s.g.s.s.s.s.s.s.s.s.s.s.s.s.s.s.s.s.s.s.s.s.s.s.s.s.s.s.s.s.s.s.s.g.g.s.s.s.s.g.:.P G.g.g.M.g.M.M.g.M.g.g.g.g.g.g.g.M.M.M.M.M.M.M.M.g.g.g.g.g.M.M.M.M.M.g.M.M.M.M.M.g.g.g.g.g.M.M.M.M.M.g.g.g.g.g.g.g.g.g.M.M.g.g.g.M.g.g.g.g.g.g.M.g.g.g.g.s.g.:.1 ",
"G.M.s.s.g.g.s.s.s.s.s.s.s.s.s.s.s.s.s.s.s.s.s.s.g.g.s.s.s.s.s.g.s.s.s.s.s.s.s.s.e.s.g.s.s.s.s.g.g.s.s.s.s.s.s.s.s.s.s.s.s.s.s.s.s.s.s.s.s.s.s.s.s.e.g.s.g.s.g.S <.G.g.s.M.s.s.s.s.g.g.g.g.s.s.s.s.e.e.s.g.s.e.s.s.s.g.s.s.s.s.s.s.s.s.s.s.s.s.s.s.s.s.s.s.s.s.s.s.s.s.s.s.g.s.g.s.s.s.g.g.g.g.g.g.g.g.g.s.s.s.s.g.e.g.s.s.s.s.V s.Z.s.s.g.e.s.s.g.g.g.g.g.g.s.g.g.g.s.s.s.s.s.s.e.e.s.s.s.s.s.s.s.s.s.s.e.e.s.s.s.s.s.s.s.s.s.g.s.s.s.s.s.s.s.s.s.s.s.s.g.g.g.g.s.s.s.s.s.g.s.s.s.e.g.s.g.g.g.V e.M.e.e.s.e.e.<.<.e.e.e.e.e.e.e.e.e.e.e.e.e.e.<.e.e.e.e.e.e.e.s.e.e.e.e.e.e.e.s.s.s.e.e.s.s.s.s.e.e.e.e.e.e.s.e.e.e.e.e.e.e.e.e.e.e.e.e.s.e.e.e.e.s.e.s.e.s.:.p M.M.g.s.e.e.s.g.g.g.s.s.s.s.s.s.s.s.s.s.s.g.g.g.s.s.s.g.g.g.g.s.s.s.s.s.s.s.s.s.s.s.s.s.s.s.s.s.s.s.s.s.s.s.s.s.s.g.s.s.s.s.s.g.s.s.s.s.s.s.s.s.s.g.g.M.s.g.<.V M.g.g.g.s.s.s.s.s.e.e.e.e.e.s.s.s.s.s.s.g.g.g.g.g.s.s.s.s.s.s.s.s.s.g.g.g.s.s.s.s.s.s.s.s.s.s.s.g.g.s.s.s.s.g.g.s.s.s.s.s.s.s.s.s.s.s.g.g.g.s.s.s.g.e.s.s.s.:.V G.M.s.s.g.s.s.g.s.s.s.s.s.s.s.s.s.s.s.s.s.s.s.s.s.s.s.s.s.g.s.s.s.s.s.s.s.s.s.s.s.s.s.s.s.s.s.s.s.s.s.s.s.s.s.s.g.s.s.s.s.s.s.s.s.s.s.s.s.s.s.s.s.s.s.s.s.s.%.J J.g.s.s.s.s.g.s.g.s.s.s.s.s.s.s.s.s.s.g.s.s.s.s.s.s.s.s.s.s.g.g.s.s.s.s.s.s.s.s.s.s.s.s.s.g.g.g.s.s.s.s.s.s.s.s.s.s.s.g.g.s.s.s.s.s.s.s.s.s.g.g.g.M.M.M.g.g.%.- ",
"G.M.s.s.g.g.g.M.g.g.g.g.g.g.g.g.s.g.g.g.M.M.g.g.g.g.g.g.s.s.g.g.g.g.g.g.g.g.g.g.g.g.g.g.g.g.g.g.g.g.g.s.s.g.g.g.g.g.g.g.g.g.g.g.g.g.g.g.g.g.g.g.g.s.M.g.g.g.M.J e.G.g.s.M.g.g.g.g.g.g.g.g.g.g.g.g.s.s.s.g.s.s.s.g.g.g.g.g.s.g.g.g.g.g.g.g.g.g.g.g.g.g.g.g.g.g.g.g.g.g.g.g.g.g.g.g.g.g.g.g.g.g.M.g.g.g.g.g.g.g.g.g.s.M.g.g.g.g.V g.G.g.g.g.s.g.g.g.g.g.g.g.g.g.g.g.g.g.g.g.g.g.g.s.g.g.g.g.g.g.g.g.g.g.g.s.s.g.g.g.g.g.g.g.g.g.g.g.g.g.s.s.g.g.g.g.g.g.g.g.g.g.g.g.g.g.g.g.g.g.g.g.s.M.g.g.g.g.V g.Z.e.e.g.s.s.e.e.e.e.e.e.s.s.s.s.s.s.s.s.s.s.s.s.s.e.e.e.s.s.s.s.s.s.s.s.s.s.s.g.s.s.s.s.s.s.s.s.s.s.s.s.s.s.s.s.s.s.s.s.s.s.s.s.s.s.s.g.g.g.s.s.s.e.s.s.g.<.v Z.M.g.g.s.s.g.g.g.g.g.g.g.g.s.s.s.s.g.g.g.g.g.g.g.g.g.g.g.g.g.g.g.g.g.g.g.g.g.g.g.g.g.g.g.g.g.g.g.g.g.g.g.g.g.g.g.g.g.g.g.g.g.g.s.g.g.g.g.g.g.s.g.M.g.M.g.g.<.V M.g.g.g.g.g.g.M.s.s.s.s.s.s.s.g.g.g.g.g.g.M.g.g.g.g.g.g.g.g.g.g.g.g.g.g.g.g.g.g.g.g.g.g.g.g.g.g.g.g.g.g.g.g.g.g.g.g.g.g.g.g.g.g.s.g.g.g.M.g.g.g.g.M.s.g.g.g.<.S J.Z.g.g.g.g.g.g.g.g.g.g.g.g.g.g.g.g.g.g.g.g.g.g.g.g.g.g.g.g.g.g.g.g.g.g.g.g.g.g.g.g.g.g.g.g.g.g.g.g.g.g.g.g.g.g.g.g.g.g.g.g.s.s.g.g.g.g.g.g.g.g.g.g.g.g.g.g.:.J J.M.g.g.s.g.g.g.g.g.g.g.g.g.g.g.g.g.g.g.g.g.g.g.s.s.g.g.g.g.g.g.g.g.g.g.g.g.g.g.g.g.g.g.g.g.M.g.g.g.g.g.g.g.g.s.g.g.g.g.g.g.g.g.g.g.g.g.g.g.g.M.g.g.g.M.g.M.:.: ",
"G.M.s.s.g.g.g.g.g.g.g.g.g.g.g.g.s.s.g.g.g.g.g.g.s.g.g.g.s.s.g.g.g.g.s.s.g.g.g.g.g.g.g.g.g.g.g.g.g.g.s.s.s.s.g.g.g.g.g.g.g.g.g.g.g.g.g.g.g.g.g.g.M.s.M.g.g.g.M.J <.Z.g.s.g.s.g.g.g.g.g.g.g.g.s.s.g.s.s.s.s.s.s.g.g.g.g.s.s.s.g.g.g.g.g.s.s.s.s.s.g.g.g.g.g.g.g.g.g.g.g.g.g.g.g.g.g.g.g.g.g.g.g.g.g.g.g.g.g.g.g.g.g.s.M.g.g.g.g.S s.Z.g.g.g.s.g.g.g.g.g.g.g.g.g.g.g.g.g.g.g.g.g.g.s.g.g.g.g.g.g.g.g.g.g.s.s.s.g.g.s.s.s.s.s.g.g.g.g.g.g.g.g.g.g.g.g.g.g.g.g.g.g.g.g.g.g.g.g.g.g.g.g.s.M.g.g.g.g.v s.M.e.e.g.e.s.<.e.e.e.e.e.e.s.s.s.s.s.s.s.s.s.e.s.e.e.e.e.e.s.s.s.s.s.s.s.s.s.s.s.s.s.s.s.s.e.e.s.s.s.s.s.s.s.s.s.s.s.s.s.s.s.s.s.s.s.s.s.s.s.s.s.s.e.e.e.s.<.v M.g.g.s.s.s.s.s.g.g.g.g.s.s.s.s.s.s.g.g.g.g.g.g.g.g.g.g.g.g.g.g.g.g.g.g.g.g.g.g.g.g.g.g.g.s.s.s.g.g.s.s.s.g.g.g.g.g.s.s.g.g.s.s.s.s.g.g.g.g.s.s.s.s.s.g.s.g.<.v Z.g.s.s.g.g.g.g.e.s.s.s.s.s.s.s.s.s.s.g.g.g.g.g.g.g.g.g.g.g.g.g.s.g.g.g.s.s.g.g.g.g.g.g.g.g.g.g.g.g.g.g.g.g.g.g.g.g.g.g.g.g.g.g.s.g.g.g.g.g.s.s.g.M.s.g.g.g.<.S G.M.g.s.s.s.s.g.g.g.g.g.g.g.g.s.g.g.g.g.g.g.g.g.s.g.s.s.s.s.g.g.g.g.g.g.g.g.g.g.g.g.g.g.g.g.g.g.g.g.g.g.g.g.g.g.g.g.g.g.g.s.s.s.g.g.g.g.g.g.s.s.g.s.g.g.g.g.:.J G.g.g.g.g.g.g.s.g.g.g.g.g.s.g.g.g.g.g.g.g.g.g.g.s.s.s.s.g.g.g.g.s.s.s.s.g.g.g.s.g.g.g.g.g.g.g.g.s.g.g.g.g.g.s.s.g.g.g.g.g.g.s.s.s.s.s.g.g.g.g.g.g.g.g.g.s.M.:.: ",
"I.Z.g.g.g.g.g.g.s.s.s.s.s.s.s.g.e.s.s.s.s.s.s.s.s.s.s.s.s.s.g.g.g.g.s.s.g.g.g.g.g.g.g.g.g.g.g.g.g.g.s.s.s.g.g.g.g.g.g.g.g.g.g.g.g.g.g.g.g.g.g.g.M.s.M.s.s.g.M.J <.G.g.e.g.s.s.s.g.g.g.g.g.g.s.s.g.g.s.s.s.s.s.g.g.g.g.s.s.s.g.g.g.g.s.s.s.s.s.s.g.g.g.g.g.g.g.g.g.g.g.g.g.g.g.g.g.g.g.g.g.g.g.g.s.s.s.s.s.g.g.g.s.e.g.g.g.g.g.S s.Z.g.g.g.s.g.g.g.g.g.g.g.g.g.g.g.g.g.g.s.s.s.s.s.s.g.g.g.s.s.s.s.s.s.s.s.s.s.g.s.s.s.s.s.s.g.g.g.g.g.g.g.g.g.g.g.g.g.g.g.g.g.g.g.g.g.g.g.g.g.g.g.s.M.s.g.g.s.v s.M.e.e.s.e.s.e.e.e.s.e.s.s.s.s.e.e.s.s.s.s.e.e.s.s.e.e.e.e.s.s.s.s.s.s.s.s.s.s.s.s.s.s.s.s.s.e.s.s.s.s.s.s.s.s.e.e.e.e.s.s.s.s.e.e.e.e.e.e.e.e.g.g.e.e.<.e.:.p g.g.s.s.s.s.s.s.g.g.g.s.s.s.s.s.s.s.g.g.g.g.g.g.g.g.g.g.g.g.g.g.s.s.s.s.g.s.s.g.g.g.g.g.g.s.s.s.s.s.s.s.s.s.g.g.g.s.s.s.s.s.s.s.s.s.g.g.g.g.s.s.g.g.g.M.g.M.e.V Z.g.s.s.s.s.s.s.s.s.s.g.g.g.s.s.s.s.s.s.g.g.g.g.g.g.g.g.g.g.g.g.s.s.s.s.s.s.g.g.g.g.g.g.g.g.g.g.g.g.g.g.g.g.g.g.g.g.g.g.g.g.g.g.s.g.g.g.g.g.s.s.g.g.s.s.g.g.<.S G.M.s.s.g.s.s.s.g.g.g.g.g.g.g.s.g.s.s.s.s.s.s.g.g.g.g.g.g.g.g.g.g.g.g.g.g.g.g.g.g.g.g.g.g.g.g.g.g.g.g.g.g.g.g.g.g.g.g.g.g.g.g.g.g.g.g.g.g.g.g.g.s.s.s.s.g.g.%.J G.g.s.g.g.g.g.s.g.g.g.g.g.g.g.g.g.g.g.g.g.g.g.g.s.s.s.s.s.g.g.g.s.s.s.s.g.g.g.g.g.g.g.g.g.g.g.g.s.g.g.g.g.g.s.s.g.g.g.g.g.s.s.s.s.s.s.g.g.g.g.g.M.M.g.M.g.M.<.1 ",
"I.G.M.g.g.g.g.g.g.g.g.g.g.g.g.g.s.s.s.s.s.s.s.s.s.g.g.g.g.g.g.g.g.g.g.g.g.g.g.g.g.g.g.g.g.g.g.g.g.g.g.g.g.g.g.g.g.g.g.g.g.g.g.g.g.g.g.g.g.g.g.g.g.s.M.g.g.g.M.J e.G.g.s.M.s.s.s.g.g.g.g.g.g.g.g.g.g.g.s.s.g.g.g.g.g.g.g.s.s.g.g.g.g.g.g.g.g.g.g.g.g.g.g.g.g.g.g.g.g.g.g.g.g.g.g.g.g.g.g.g.g.g.g.s.s.s.s.g.g.g.g.g.s.M.g.g.g.g.S s.Z.g.g.M.g.g.g.g.g.g.g.g.g.g.g.g.g.g.g.g.g.g.g.g.g.g.g.s.s.s.s.s.s.g.g.g.g.g.g.g.g.g.g.g.g.g.g.g.g.g.g.g.g.g.g.g.g.g.g.g.g.g.g.g.g.g.g.g.g.g.g.M.s.M.s.s.g.g.V s.Z.s.s.g.e.s.s.s.s.s.s.g.g.s.s.s.s.s.s.s.s.s.s.s.s.s.s.s.s.s.g.g.g.g.g.s.s.s.s.s.s.s.s.s.s.s.s.g.g.s.s.s.s.s.s.e.e.e.e.s.s.s.s.s.s.s.s.s.s.s.s.g.g.s.s.<.e.:.v M.M.s.s.s.g.g.g.g.g.g.g.g.g.g.g.g.g.g.g.g.g.g.g.g.g.g.g.g.g.g.g.g.g.g.g.g.g.g.g.g.g.g.g.g.g.s.s.g.g.g.g.g.g.g.g.g.g.g.g.g.g.g.g.g.g.g.g.g.g.g.g.g.g.s.g.s.g.<.v Z.g.s.g.g.g.s.s.g.s.g.g.g.g.g.g.g.g.g.g.g.g.g.g.g.g.g.g.g.g.g.g.s.g.g.g.g.g.g.g.g.g.g.g.g.g.g.g.g.g.g.g.g.g.g.g.g.g.g.g.g.g.g.g.g.g.g.g.g.g.s.s.g.g.s.g.g.g.<.S G.M.g.g.g.g.g.g.g.M.g.g.g.g.g.g.g.g.g.s.s.g.g.g.g.g.g.g.g.g.g.g.g.g.g.g.g.g.g.g.g.g.g.g.g.g.g.g.g.g.g.g.g.g.g.g.g.g.g.g.g.M.g.M.M.g.g.g.g.g.g.g.s.s.g.g.g.g.:.J J.M.g.g.s.g.M.g.g.g.g.g.g.g.g.g.g.g.g.g.g.g.g.g.g.g.g.g.g.g.g.g.g.g.g.g.g.g.g.g.g.g.g.g.g.g.g.g.g.g.g.g.g.g.g.s.g.g.g.g.g.g.s.s.g.g.g.g.g.g.g.g.g.s.s.s.s.g.%.- ",
"G.M.g.g.g.g.s.g.g.g.g.g.g.g.g.g.g.g.g.s.s.s.g.g.g.g.g.g.g.g.g.g.g.g.g.g.g.g.g.g.g.g.g.g.g.g.g.s.s.g.g.g.g.g.g.g.g.g.g.s.s.s.s.s.g.g.g.g.g.g.g.g.s.e.M.g.g.g.g.S <.Z.g.s.M.g.g.g.g.g.g.g.g.g.g.s.s.g.g.g.g.g.g.g.g.g.g.s.s.s.g.g.g.g.g.s.s.s.g.g.g.g.g.g.g.g.g.g.g.g.g.g.g.g.g.g.g.g.g.g.s.s.s.s.s.s.s.s.s.s.s.s.g.s.M.g.g.s.g.V s.Z.g.g.M.s.g.s.g.g.g.g.g.g.g.g.g.g.s.s.s.s.s.s.g.g.g.s.s.s.s.s.s.g.g.g.g.g.g.g.g.g.s.s.s.g.g.g.g.g.g.s.s.g.g.g.g.g.g.g.g.g.g.g.g.g.g.g.g.g.g.g.g.s.g.s.s.s.s.v e.M.s.s.s.e.s.s.e.e.e.s.s.s.s.e.s.s.s.s.s.s.s.s.s.s.e.e.e.e.s.s.s.s.s.s.s.s.e.e.e.e.e.e.s.s.s.s.s.s.s.s.e.e.e.e.e.e.e.e.e.e.e.e.s.s.s.s.s.s.s.s.e.s.s.s.<.e.:.V Z.M.s.e.s.s.g.g.g.g.g.g.g.g.g.g.g.g.g.g.g.g.s.s.s.g.g.g.g.g.g.g.g.g.g.g.g.g.g.g.g.g.g.g.g.s.s.s.s.s.s.s.s.s.g.g.g.g.g.g.g.s.g.g.g.g.g.g.g.g.g.g.M.M.g.g.g.M.e.V M.s.e.s.g.g.g.g.g.g.s.s.s.s.g.g.s.s.s.s.s.s.s.s.s.s.g.s.g.g.g.g.s.g.g.g.g.g.g.g.g.g.g.g.g.g.g.g.g.g.g.s.s.s.g.g.s.s.s.s.s.s.s.s.g.g.s.s.s.s.s.s.g.g.s.s.g.g.<.S Z.M.g.g.g.g.s.s.g.g.g.g.g.g.g.g.g.s.s.s.s.s.s.g.g.g.g.g.g.g.g.g.g.s.s.s.s.s.s.g.g.g.g.g.g.g.g.g.g.g.g.g.g.g.g.g.s.s.s.g.g.g.g.g.g.g.g.g.g.g.g.g.s.s.s.g.g.g.:.J J.M.s.s.e.s.g.g.g.g.g.g.g.g.g.g.g.g.g.g.g.g.g.g.g.g.g.g.g.g.g.g.g.g.g.g.g.g.g.g.g.g.g.g.g.g.g.g.g.g.g.g.M.g.g.s.g.g.g.g.s.s.s.s.g.g.g.g.g.g.s.s.g.s.s.M.g.Z.<.: ",
"G.M.s.s.g.g.g.g.g.g.g.g.g.g.g.g.g.g.g.g.g.g.g.g.g.g.g.g.g.g.g.g.s.s.g.g.g.g.g.g.g.g.g.g.g.g.g.g.g.g.g.g.g.g.g.g.g.g.g.s.s.s.s.s.g.g.g.s.s.s.g.g.g.e.g.s.g.g.g.S <.Z.s.g.s.g.g.g.g.g.g.g.g.g.g.g.g.g.g.g.g.g.g.g.g.g.s.s.s.s.g.g.g.g.s.s.s.s.g.g.g.g.g.g.g.g.g.g.g.g.g.g.g.g.g.g.g.g.g.g.g.g.g.g.g.g.g.g.g.g.g.g.g.s.M.s.g.g.g.V s.Z.g.s.g.s.g.s.g.g.s.s.g.g.g.g.g.g.g.g.g.g.g.g.g.g.g.g.g.g.g.g.g.g.g.g.g.g.g.g.s.g.g.g.g.g.g.s.g.g.g.g.g.g.g.g.g.g.g.g.g.g.g.g.s.g.g.g.s.s.s.g.g.s.M.s.s.g.s.v e.M.e.e.g.s.g.s.e.s.e.s.s.e.e.e.s.s.s.s.s.s.s.s.e.e.s.s.s.s.s.s.s.s.s.s.s.s.s.s.e.s.s.s.s.s.s.s.e.s.s.g.s.s.s.s.e.e.e.e.e.s.s.s.s.s.s.s.s.s.s.s.s.s.e.s.e.s.<.v M.g.s.e.e.s.g.g.g.g.g.g.g.g.g.g.g.g.g.g.g.g.g.g.g.g.g.g.g.g.g.g.g.g.g.g.g.g.g.g.g.g.g.g.g.g.g.g.g.g.g.g.g.g.g.g.g.g.g.g.g.g.g.g.g.g.g.g.g.g.g.g.g.g.g.g.g.g.e.V Z.g.s.g.g.g.g.g.s.s.g.g.g.g.g.g.s.s.s.s.s.s.s.s.g.g.g.g.g.s.s.s.g.g.g.g.g.g.g.g.g.g.g.g.g.g.g.g.s.s.g.g.g.g.g.g.g.g.g.g.g.g.g.g.g.g.g.g.g.g.g.g.g.s.g.s.e.g.<.S Z.g.s.g.g.g.s.g.g.g.g.g.g.g.g.g.g.g.g.g.g.g.s.s.g.g.g.g.g.g.g.g.g.g.g.g.g.g.g.g.g.g.g.g.g.g.g.g.g.g.g.g.g.g.g.s.g.g.g.g.g.g.g.g.g.g.s.s.s.s.g.g.g.g.g.s.g.M.:.J G.g.s.g.s.s.g.g.g.g.g.g.g.g.g.g.g.g.g.g.g.g.g.g.g.g.g.g.g.g.g.g.g.g.g.g.g.g.g.s.g.g.g.g.g.g.g.g.g.g.g.g.g.s.s.s.g.g.g.g.g.s.g.g.g.g.g.g.s.s.s.g.s.g.g.g.g.M.%.: ",
"G.M.s.g.g.g.g.g.g.g.g.g.g.g.g.g.g.g.g.g.g.g.g.g.g.g.g.g.g.g.g.g.s.s.g.g.g.g.g.g.g.g.g.g.g.g.g.s.g.g.g.g.g.g.g.g.g.g.g.g.s.s.s.s.g.g.g.s.s.s.g.g.g.s.g.s.g.g.g.S <.Z.s.g.s.g.g.g.g.g.g.g.g.g.g.g.g.g.g.g.g.g.g.g.g.g.s.s.s.s.g.g.g.g.s.s.s.s.g.g.g.g.g.g.g.g.g.g.g.g.g.g.g.g.g.g.g.g.g.g.g.g.g.g.g.g.g.g.g.g.g.g.g.s.M.s.g.g.g.V s.Z.g.s.g.s.g.g.g.g.s.s.s.g.g.g.g.g.g.g.g.g.s.s.s.g.g.g.g.g.g.g.g.g.g.g.g.g.g.g.s.g.g.g.g.g.g.s.g.g.g.g.g.g.g.g.g.g.g.g.g.g.g.g.s.g.g.g.s.s.s.g.g.s.M.s.s.s.s.v e.M.e.e.s.s.g.s.s.s.s.s.s.s.e.e.s.s.s.s.s.s.s.s.e.e.s.s.s.s.s.s.s.s.s.s.s.s.s.s.s.s.s.s.s.s.s.s.e.s.s.s.s.s.s.s.s.s.s.s.s.s.s.s.s.s.s.s.s.s.s.s.s.s.e.s.e.s.<.v M.M.s.s.e.s.s.s.g.g.s.s.g.g.g.g.g.g.g.g.g.g.g.g.g.g.g.g.g.g.g.g.g.g.g.g.g.g.g.g.g.g.g.g.g.g.g.g.g.g.g.g.g.g.g.g.g.g.g.g.g.g.g.g.g.g.g.g.g.g.g.g.g.g.g.g.g.g.e.V Z.g.s.g.g.g.g.g.s.s.g.g.g.g.g.g.s.s.s.s.s.s.s.s.g.g.g.g.g.g.g.g.g.g.g.g.g.g.g.g.g.g.g.g.g.g.g.g.s.s.g.g.g.g.g.g.g.g.g.g.g.g.g.g.g.g.g.g.g.g.g.g.g.s.g.s.s.g.<.S Z.M.s.s.g.s.s.g.g.g.g.g.g.g.g.g.g.g.g.g.g.g.g.g.g.g.g.g.g.g.g.g.g.g.g.g.g.g.g.g.g.g.g.g.g.g.g.g.g.g.g.g.g.g.s.s.g.g.g.g.g.g.g.g.g.g.g.s.s.g.g.g.g.g.g.s.g.M.:.J G.g.s.g.s.s.g.g.g.g.g.g.g.g.g.g.g.g.g.g.g.g.g.g.g.g.g.g.g.g.g.s.g.g.g.g.g.g.g.g.g.g.g.g.g.g.g.g.g.g.g.g.g.s.s.s.g.g.M.g.g.s.g.g.g.g.g.g.s.s.s.g.s.g.s.g.g.M.%.: ",
"G.M.s.g.g.g.g.g.g.g.s.s.s.s.g.g.g.g.g.g.g.g.g.g.g.g.g.g.g.g.g.g.s.s.g.g.g.g.g.g.g.g.g.s.s.s.s.s.g.g.g.g.g.g.g.g.g.g.g.g.s.s.s.s.g.g.g.s.s.s.g.g.g.s.g.g.g.g.g.S <.Z.s.g.s.g.g.g.g.g.g.g.g.g.g.g.g.g.g.g.g.g.g.g.g.g.s.s.s.s.g.g.g.g.s.s.s.s.g.g.g.g.g.g.g.g.g.g.g.g.g.g.g.g.g.g.g.g.g.g.g.g.g.g.g.g.g.g.g.g.g.g.g.s.M.s.g.g.g.V s.Z.s.s.g.s.g.g.g.g.s.s.s.s.s.s.g.g.g.g.g.s.s.s.s.s.g.g.g.g.g.g.g.g.g.g.g.g.g.g.s.g.g.g.g.g.g.s.g.g.g.g.g.g.g.g.g.g.g.g.g.g.g.g.s.g.g.g.s.s.s.g.g.s.M.s.s.g.s.v e.M.e.e.g.s.s.s.s.s.s.s.s.s.s.s.s.s.s.s.s.s.s.s.e.e.s.s.s.s.s.s.s.s.s.s.s.s.s.s.s.s.s.s.s.s.s.s.e.e.s.s.s.s.s.s.s.s.s.s.s.s.s.s.s.s.s.s.s.s.s.s.s.s.e.s.e.s.<.v M.M.g.s.s.s.s.s.g.s.s.s.g.g.g.g.g.g.g.g.g.g.g.g.g.g.g.g.g.g.g.g.s.s.s.g.g.g.g.g.g.g.g.g.g.g.g.g.g.g.g.g.g.g.g.g.g.g.g.g.g.g.g.g.g.g.g.g.g.g.g.g.g.g.g.g.g.g.e.V Z.g.s.s.g.s.s.g.s.s.g.g.g.g.g.g.s.s.s.s.s.s.s.s.g.g.g.g.g.g.g.g.g.g.g.g.g.g.g.g.g.g.g.g.g.g.g.g.s.s.g.g.g.g.g.g.g.g.g.g.g.g.g.g.g.g.g.g.g.g.g.g.g.s.g.s.s.g.:.S G.M.s.s.s.s.s.g.g.g.g.g.g.g.g.g.g.g.g.g.g.g.g.g.g.g.g.g.g.g.g.g.g.g.g.g.g.g.g.s.g.g.g.g.g.g.g.g.g.g.g.g.g.s.s.s.g.g.g.g.g.g.g.g.s.g.g.g.g.g.g.s.g.g.g.s.g.M.:.S G.g.s.g.s.s.g.g.g.g.g.g.g.g.g.g.g.g.g.g.g.g.g.g.g.g.g.g.g.g.g.s.s.g.g.g.g.g.g.g.g.g.g.g.g.g.g.g.g.g.g.g.g.g.g.g.g.g.g.g.s.s.g.g.g.g.s.s.s.s.s.s.s.g.s.g.g.M.%.: ",
"G.M.g.s.g.g.g.g.g.s.s.s.s.s.s.g.g.g.g.g.g.g.g.g.g.g.g.g.g.g.g.g.s.s.g.g.g.g.g.g.s.s.s.s.s.s.s.s.g.g.g.g.s.s.s.s.g.g.g.g.s.s.s.s.g.g.g.s.s.s.g.g.g.s.M.g.g.s.g.S <.Z.s.g.s.g.g.g.g.g.g.g.g.g.g.g.g.g.g.s.g.g.g.g.g.g.g.s.s.g.g.g.g.g.g.s.s.g.g.g.g.g.g.g.g.g.g.g.g.g.g.g.g.g.g.g.g.s.s.s.s.s.s.s.g.g.g.g.g.g.g.g.g.s.M.s.g.g.g.V e.Z.s.s.g.s.g.g.g.g.s.s.s.s.s.s.g.g.g.g.s.s.s.s.s.s.s.g.g.g.g.g.s.s.s.s.s.s.s.s.s.g.g.g.g.g.g.s.g.g.g.g.g.g.g.g.s.g.g.g.g.g.g.g.s.g.g.s.s.s.g.g.g.s.M.s.g.g.s.v s.M.e.e.g.s.s.e.s.s.s.s.s.s.s.s.s.s.s.s.s.s.s.s.e.e.e.s.s.s.s.s.s.s.s.s.s.s.s.s.s.s.s.s.s.s.s.s.e.s.s.s.s.s.s.s.s.s.s.s.s.e.e.e.s.s.s.s.s.s.s.s.s.s.e.s.e.s.<.v M.M.g.s.s.s.s.e.s.s.s.s.s.g.g.g.g.g.g.g.g.g.g.s.g.g.g.g.g.g.g.g.s.s.s.g.g.g.g.g.g.g.g.g.g.g.g.g.g.g.g.g.g.g.g.g.s.g.g.g.g.g.g.g.g.g.g.g.g.g.g.g.g.g.s.g.g.g.e.V Z.g.s.s.s.s.s.s.s.g.g.g.g.g.g.g.s.s.s.s.s.s.s.s.s.s.s.g.g.g.g.g.g.g.g.g.g.g.g.g.g.g.g.g.g.g.g.g.s.s.g.g.g.g.g.g.g.g.g.g.g.g.g.g.g.g.g.g.g.g.g.g.g.s.g.g.s.g.:.S G.M.s.s.s.s.s.g.g.g.g.g.g.g.g.g.g.g.g.g.g.g.g.g.g.g.g.g.g.g.g.g.g.g.g.s.s.s.s.s.g.g.g.g.g.g.g.g.g.g.g.s.s.s.s.s.g.g.g.g.g.g.g.g.s.s.g.g.g.g.s.s.g.g.g.s.g.M.:.S G.g.s.g.s.s.g.g.g.g.g.g.g.g.g.g.g.g.g.g.g.g.g.g.g.g.g.g.g.g.s.s.s.s.g.g.g.g.g.g.g.g.g.s.s.g.g.s.s.s.s.g.g.g.g.g.g.g.g.g.s.s.g.g.g.s.s.s.s.s.s.s.s.g.s.s.s.g.%.: ",
"J.M.g.g.g.g.g.g.g.s.s.s.s.s.s.g.g.g.g.g.g.g.g.g.g.g.g.g.g.g.g.g.s.s.g.g.g.g.g.g.s.s.s.s.s.s.s.s.g.g.g.s.s.s.s.s.g.g.g.s.s.s.s.s.g.g.g.s.s.s.g.g.g.s.M.g.g.g.g.S <.Z.s.g.s.g.g.s.g.g.g.g.g.g.g.g.g.g.g.s.s.s.g.g.g.g.g.g.g.g.g.g.g.g.g.g.g.g.g.g.g.g.g.g.g.g.g.g.g.g.g.g.g.s.s.s.g.s.s.s.s.s.s.s.g.g.g.g.g.g.g.g.g.s.g.s.g.g.g.V e.Z.s.s.g.s.g.g.g.g.s.s.s.s.s.s.g.g.s.s.s.s.g.g.s.s.s.s.s.s.s.s.s.s.s.s.s.s.s.s.s.g.g.g.g.g.g.s.g.g.g.g.g.g.g.g.s.s.s.g.g.g.g.g.s.s.s.s.g.g.g.g.g.s.g.s.g.g.g.v s.M.e.e.s.s.s.e.s.s.s.s.s.s.s.s.s.s.s.s.s.s.e.e.e.e.s.s.s.s.e.s.s.s.s.s.s.s.s.s.e.e.e.s.e.e.s.s.s.s.s.s.s.s.s.s.s.s.s.e.e.e.e.e.s.s.s.s.s.s.s.s.e.s.e.s.e.s.<.v M.M.g.g.s.s.s.e.s.s.s.s.s.g.g.g.g.g.g.g.g.s.s.s.g.g.g.g.g.g.g.g.s.s.s.g.g.g.g.g.g.g.g.g.g.g.g.g.g.g.g.g.g.g.g.g.s.s.s.g.g.g.g.g.g.g.g.g.g.g.g.g.g.g.s.g.s.g.<.v Z.g.s.s.s.s.s.s.g.g.g.g.g.g.g.s.s.s.s.s.s.s.s.s.s.s.s.g.g.g.g.g.s.s.s.s.s.s.s.s.g.g.g.g.g.g.s.s.s.s.g.g.g.g.g.g.g.g.g.g.g.g.g.g.g.g.g.g.g.g.g.g.g.s.g.g.s.g.:.S G.M.s.s.s.s.s.g.g.g.g.g.g.g.g.g.s.s.g.g.g.g.g.g.g.g.g.g.g.g.g.g.g.g.g.g.s.s.s.s.g.g.g.g.g.g.g.g.g.g.s.s.s.s.s.s.g.g.g.g.g.g.g.g.s.s.g.g.g.g.s.s.g.g.g.s.g.M.:.S G.g.s.g.s.s.g.g.g.g.g.g.g.s.s.s.s.s.s.g.g.g.g.g.g.g.g.g.g.g.s.s.s.s.s.g.g.g.g.g.g.s.s.s.s.s.s.s.s.s.s.g.g.g.g.g.g.g.s.s.s.g.g.g.s.s.s.e.s.s.s.s.s.g.s.s.s.g.%.: ",
"J.M.g.g.g.g.s.g.g.g.s.s.s.s.g.g.g.g.g.g.g.g.g.g.g.g.g.g.g.g.g.g.s.s.g.g.g.g.g.g.s.s.s.s.s.s.s.s.g.g.g.s.s.s.s.s.g.g.g.s.s.s.s.s.g.g.g.s.s.s.g.g.g.s.g.g.g.g.g.S <.Z.s.g.s.g.g.s.g.g.g.g.g.g.g.g.g.g.g.s.s.s.s.s.g.g.g.g.g.g.g.g.g.g.g.g.g.g.g.g.g.g.g.g.g.g.g.g.g.g.g.g.s.s.s.s.s.s.s.s.s.s.s.s.g.g.g.g.g.g.g.g.g.s.g.s.s.g.g.V s.Z.s.s.g.s.g.g.g.g.s.s.s.s.s.s.g.g.s.s.s.s.s.g.s.s.s.s.s.s.s.s.s.s.s.s.s.s.s.s.s.g.g.g.g.g.g.s.g.g.g.g.g.g.g.g.s.s.s.s.g.g.g.g.s.s.s.s.g.g.g.g.g.s.g.s.g.g.g.v s.M.e.e.s.e.s.e.s.s.s.s.s.s.e.e.e.e.s.s.s.s.e.e.e.e.s.s.s.e.e.s.s.s.s.s.s.s.s.s.e.e.e.s.e.e.e.e.s.s.s.s.e.e.s.s.s.s.s.s.s.s.s.s.s.s.s.s.s.s.s.s.e.s.e.s.e.s.<.v M.M.g.s.s.s.s.e.s.s.s.s.s.g.s.s.g.g.g.g.s.s.s.s.g.g.g.g.g.g.g.g.s.s.s.g.g.g.g.g.g.g.g.g.g.g.g.g.g.g.g.g.g.g.g.g.s.s.s.s.g.g.g.g.g.g.g.g.g.g.g.g.g.g.g.g.s.g.<.v Z.g.s.s.s.s.s.g.g.g.g.g.g.g.s.s.s.s.s.s.s.s.s.s.g.g.g.g.g.g.g.g.s.s.s.s.s.s.s.s.g.g.g.g.g.s.s.s.s.s.g.g.g.g.g.g.s.s.s.g.g.g.g.g.g.g.g.g.g.g.g.g.g.s.g.g.s.g.:.S G.M.s.s.s.s.s.g.g.g.g.g.g.g.g.g.g.g.g.g.s.s.s.s.s.s.s.g.g.g.g.g.g.g.g.g.s.s.s.s.g.g.g.g.g.g.g.g.g.s.s.s.s.s.s.s.g.g.g.g.s.s.s.s.s.g.g.g.g.g.g.s.g.g.g.s.s.g.:.S G.g.s.g.s.s.g.g.g.g.g.g.s.s.s.s.s.s.s.s.g.g.g.g.g.g.g.g.g.s.s.s.s.s.g.g.g.g.g.s.g.g.s.s.s.s.s.s.s.s.s.g.g.g.g.g.g.s.s.s.g.g.g.g.s.s.s.e.s.s.s.s.s.g.s.g.g.M.%.: ",
"J.Z.g.g.g.g.s.g.g.g.g.g.g.g.g.g.s.s.s.s.s.s.s.s.s.s.s.s.s.s.s.s.s.s.g.g.g.g.g.g.s.s.s.s.s.s.g.g.g.g.g.g.s.s.s.s.g.g.g.s.s.s.s.s.g.g.g.s.s.s.g.g.g.s.g.s.g.g.g.S <.Z.s.g.s.g.s.s.s.s.s.s.s.s.s.s.g.g.g.s.s.s.s.s.g.g.g.g.g.g.g.g.g.g.g.g.g.g.g.g.s.s.s.s.s.s.s.s.g.g.g.g.s.s.s.s.g.g.g.g.g.g.g.g.s.s.s.s.s.s.s.s.g.s.g.s.s.g.g.v s.Z.g.s.g.s.g.s.g.g.s.s.s.g.g.g.g.g.s.s.s.s.s.e.s.s.s.s.s.s.s.s.s.s.s.s.s.s.s.s.s.g.g.g.g.g.g.s.g.g.g.g.g.g.g.g.s.s.s.s.s.g.g.g.s.s.s.s.g.g.g.g.s.s.g.s.g.g.g.v s.M.e.e.s.e.s.e.e.e.e.e.e.e.e.e.e.e.s.s.s.s.e.e.e.e.e.s.e.e.e.e.s.s.s.s.s.s.s.s.e.e.e.e.s.s.e.e.s.s.s.e.e.e.e.s.s.s.s.s.s.s.s.s.e.e.e.s.s.s.e.e.e.e.e.e.e.g.<.V M.M.g.s.s.s.s.s.g.s.s.s.s.s.s.s.g.g.g.s.s.s.s.s.s.s.s.s.s.s.s.s.g.g.g.g.g.g.g.g.s.s.s.s.s.s.s.s.s.s.s.s.s.s.s.s.s.s.s.s.s.g.g.g.s.s.s.s.s.s.s.s.s.g.s.g.s.g.<.v Z.g.s.s.s.s.s.g.g.g.g.g.g.g.s.s.s.s.s.s.s.s.s.s.g.g.g.g.g.g.g.g.s.s.s.s.s.s.s.s.s.g.g.g.g.s.s.s.s.s.g.g.g.g.g.g.s.s.g.s.s.g.g.g.g.g.g.g.g.g.g.g.g.s.g.g.s.g.:.V Z.M.g.g.g.s.s.s.s.s.s.s.s.s.s.s.g.g.g.s.s.s.s.s.s.s.g.s.s.g.g.g.g.g.g.g.g.s.s.s.s.s.s.s.s.s.s.s.s.s.s.s.s.s.g.g.g.g.g.s.s.s.s.s.g.g.g.s.s.g.g.g.g.s.g.s.s.g.:.S G.g.s.g.s.s.g.g.g.g.g.g.s.s.s.s.s.s.s.s.g.g.g.g.s.g.g.g.g.s.s.s.s.s.g.g.g.s.s.s.g.g.g.g.g.s.s.s.s.g.g.g.g.g.g.g.g.s.s.s.g.g.g.g.g.s.s.s.s.s.s.s.s.g.s.g.g.M.%.: ",
"J.Z.g.g.g.g.s.s.g.g.g.g.g.g.g.g.s.s.s.s.s.s.s.s.s.s.s.s.s.s.s.s.s.s.g.g.g.g.g.g.s.s.s.s.g.g.g.g.g.g.g.g.g.g.s.s.g.g.g.s.s.s.s.s.g.g.g.s.s.s.g.g.g.e.g.s.g.g.M.S <.Z.s.g.s.g.s.s.s.s.s.s.s.s.s.s.g.g.g.s.s.s.s.s.s.g.g.g.g.g.g.s.s.g.g.g.g.g.g.s.s.s.s.s.s.s.s.s.g.g.g.g.s.s.s.s.g.g.g.g.g.g.g.g.s.s.s.s.s.s.s.s.g.s.g.s.s.g.g.v s.Z.g.s.g.s.g.s.g.g.s.s.g.g.g.g.s.g.g.g.g.s.e.<.s.s.s.s.s.s.s.s.s.s.s.s.s.s.s.s.s.g.g.g.g.g.g.s.g.g.g.g.g.g.g.g.s.s.s.s.s.g.g.g.s.s.s.s.g.g.g.g.s.s.g.s.g.g.g.v s.M.e.e.s.e.s.e.e.e.e.e.e.e.e.e.e.s.s.s.s.e.e.e.e.e.e.s.e.e.e.e.s.s.s.s.s.s.s.s.e.e.e.e.s.s.e.e.s.s.s.s.e.e.e.e.e.e.e.s.e.s.s.s.e.e.e.e.s.s.e.s.e.e.e.e.e.g.<.V M.M.g.s.s.s.s.s.g.g.s.s.s.s.s.s.g.g.g.s.s.s.s.s.s.s.s.s.s.s.s.s.g.g.g.g.g.g.g.g.s.s.s.s.s.s.s.s.s.s.s.s.s.s.s.s.s.s.s.s.s.g.g.g.s.s.s.s.s.s.s.s.s.g.s.g.s.g.<.v Z.g.s.s.s.s.g.g.g.g.g.g.g.g.s.s.s.s.s.s.s.s.s.s.g.g.g.g.g.s.s.s.g.g.g.g.g.g.g.g.s.s.g.g.g.s.s.s.s.s.g.g.g.g.g.g.s.s.s.s.s.g.g.g.g.g.g.g.g.g.g.g.g.s.g.g.s.g.:.V Z.M.s.g.g.s.s.s.s.s.s.s.s.s.s.s.g.g.g.s.s.s.s.s.s.s.s.s.s.g.g.g.g.g.g.g.g.g.g.s.s.s.s.s.s.s.s.s.s.s.s.s.s.g.g.g.g.g.g.s.s.s.s.s.g.g.s.s.s.s.g.g.g.s.g.s.s.g.:.S G.g.s.g.s.s.g.g.g.g.g.g.s.s.s.s.s.s.s.s.g.g.g.g.s.s.g.g.g.s.s.s.g.g.g.g.g.s.s.s.g.g.g.g.g.g.g.s.g.g.g.g.g.g.g.g.g.s.s.s.g.g.g.s.g.s.s.s.s.g.g.s.s.g.g.g.g.M.%.: ",
"J.Z.g.g.g.g.g.g.g.g.g.s.s.g.g.g.g.g.s.s.s.s.g.g.g.g.g.g.s.s.g.g.g.g.g.g.g.g.g.g.s.s.s.g.g.g.g.g.s.s.g.g.g.g.s.s.s.s.s.g.g.g.g.s.s.s.s.s.s.s.s.s.g.s.g.s.g.g.g.S e.G.s.g.s.g.g.g.g.g.g.g.g.s.s.s.g.g.s.s.s.s.s.g.s.s.g.g.g.g.s.s.s.g.g.g.g.g.g.s.g.g.s.s.s.s.g.g.g.g.g.s.s.s.s.s.s.s.s.s.g.g.g.g.g.g.g.g.g.g.g.g.g.e.g.s.g.s.s.V s.Z.g.g.M.s.g.s.g.g.g.g.g.g.g.g.s.s.s.s.s.s.s.s.s.s.s.s.s.s.s.s.s.s.e.e.e.s.s.g.s.s.g.g.s.s.g.g.s.g.g.g.g.g.g.s.s.s.s.g.g.s.s.s.g.g.g.g.g.g.g.g.g.e.g.g.g.g.s.v s.g.s.e.s.e.e.s.e.e.s.s.s.s.s.s.e.e.e.e.e.e.e.e.s.s.e.e.s.s.s.e.s.s.s.s.s.s.s.s.s.s.s.e.e.e.s.s.e.s.s.s.s.s.s.s.s.s.s.s.s.s.s.s.s.s.s.e.e.e.s.s.e.s.e.s.s.g.<.v M.M.g.s.s.s.s.s.g.g.g.g.g.g.g.g.s.s.s.s.s.s.s.s.g.g.g.g.g.g.g.g.s.s.s.s.s.s.s.s.g.g.g.g.g.g.g.g.s.s.g.g.g.g.g.g.s.g.g.g.g.g.g.s.s.s.g.g.g.g.s.s.s.g.s.g.s.g.<.V M.g.s.s.g.s.g.g.g.g.g.g.g.g.s.s.s.s.g.g.g.g.g.g.s.s.s.g.g.g.s.s.g.g.g.g.g.g.g.g.s.s.s.s.s.g.g.g.s.s.s.s.s.s.s.s.s.g.g.g.g.g.g.g.s.s.s.s.s.s.s.s.s.g.s.g.g.g.<.S G.g.s.g.s.s.g.s.s.s.s.s.s.s.s.s.s.s.s.s.s.s.s.s.s.s.s.s.s.s.s.s.s.s.g.g.g.s.s.s.s.s.g.g.g.s.s.g.s.s.s.s.s.g.g.g.s.s.s.s.s.s.g.g.g.s.s.s.s.s.s.g.s.s.s.s.s.g.%.S G.g.g.g.s.g.g.s.s.g.g.g.s.s.s.g.s.g.g.g.g.g.g.s.s.s.s.s.g.g.g.g.s.g.g.g.g.s.s.s.s.s.s.s.s.s.s.s.g.g.s.s.s.s.s.g.s.s.s.g.g.g.g.s.g.g.g.s.s.s.s.s.s.s.s.g.s.g.%.- ",
"J.M.g.s.g.g.s.g.g.g.g.s.s.g.g.g.g.g.s.s.s.s.g.g.g.g.g.s.s.s.g.g.g.g.g.g.g.g.g.g.s.s.s.g.s.s.g.g.s.s.g.g.g.g.s.s.s.s.s.g.g.g.g.s.s.s.s.s.s.s.s.s.g.s.g.s.g.g.g.S e.G.s.g.s.g.g.g.g.g.g.g.g.g.g.g.g.s.s.s.s.s.s.g.s.s.s.s.s.s.s.s.s.g.g.g.g.g.g.s.g.g.s.s.s.s.g.g.g.g.g.g.s.s.s.s.s.s.s.s.g.g.g.g.g.g.g.g.g.g.g.g.g.e.g.s.g.s.s.V s.Z.g.g.g.s.g.s.g.g.g.g.g.g.g.g.s.s.s.s.s.s.s.s.s.s.s.s.s.s.s.s.s.s.s.s.s.s.g.g.s.g.g.g.s.s.s.g.s.g.g.g.g.g.g.s.s.s.g.g.g.g.s.s.g.g.g.g.g.g.g.g.g.s.g.g.g.s.s.v s.g.s.e.s.e.e.s.e.e.e.s.s.s.s.s.e.e.e.e.e.e.s.s.s.s.e.e.e.s.s.s.s.s.s.s.s.s.s.s.s.s.s.e.e.e.s.s.s.s.s.s.s.s.s.s.s.s.s.s.s.s.s.s.s.s.s.e.e.e.s.s.e.s.e.s.s.g.<.v M.M.g.s.s.s.s.s.s.g.g.g.s.s.g.g.s.s.s.s.s.s.s.s.g.g.g.g.g.g.g.g.s.s.s.s.s.s.s.s.g.g.g.g.g.g.g.g.s.s.g.g.g.g.g.g.s.g.g.g.g.g.g.s.s.g.g.g.g.g.g.s.s.g.s.g.s.g.<.V M.g.s.s.g.s.g.g.s.s.g.g.g.s.s.s.s.s.g.g.g.g.g.g.s.s.s.g.g.g.g.s.g.g.g.g.g.g.g.g.s.s.s.s.s.g.g.g.g.g.g.g.g.g.g.g.s.s.g.g.g.g.g.g.g.g.g.g.g.g.g.g.s.g.s.g.g.g.<.S G.g.s.g.s.s.g.s.s.s.s.s.s.s.s.s.s.s.s.s.s.s.s.s.g.g.g.g.g.g.g.g.s.s.g.g.s.s.s.s.s.s.g.g.g.g.g.g.s.s.s.s.s.g.g.g.g.s.s.s.s.g.g.g.s.s.s.s.s.s.s.g.s.s.s.s.e.s.%.S G.g.s.g.s.g.g.s.s.g.g.g.s.s.s.s.s.g.g.g.g.g.g.s.s.s.s.s.s.g.g.g.s.g.g.g.s.s.s.s.s.s.s.s.s.s.s.s.g.g.s.s.s.s.s.s.s.s.s.s.g.g.g.s.g.g.g.s.s.s.s.s.g.g.s.g.s.g.%.- ",
"G.M.s.s.g.s.s.s.g.g.s.s.s.s.g.g.g.g.s.s.s.s.g.g.g.g.g.s.s.s.s.g.g.g.s.s.s.s.g.g.s.s.g.g.g.g.g.g.s.s.s.g.g.s.s.s.s.s.s.g.g.g.g.s.g.g.g.g.g.g.g.g.g.s.g.s.g.g.g.S <.Z.s.g.s.g.s.s.s.s.s.g.g.g.g.g.s.s.s.s.s.s.s.g.g.g.s.s.s.s.g.g.s.s.g.g.g.g.s.s.g.g.s.s.s.s.g.g.g.g.g.g.g.g.g.s.s.s.s.s.g.g.g.g.g.g.g.g.g.g.g.g.g.e.g.s.g.s.g.V s.Z.g.s.g.s.g.s.g.g.g.g.g.g.g.g.g.g.g.g.g.g.g.g.s.s.s.g.g.s.s.s.s.s.s.g.s.s.g.g.s.g.g.g.s.s.s.s.s.s.g.g.g.g.s.s.g.g.g.g.g.g.g.g.g.g.g.g.g.g.g.g.g.s.g.s.g.s.s.v s.g.s.e.s.e.e.s.e.e.s.s.s.s.e.s.s.s.s.s.s.s.s.s.s.s.e.e.e.e.e.s.s.e.e.e.e.e.s.e.s.s.s.e.e.e.e.s.e.s.s.s.s.s.s.s.s.s.s.s.s.s.s.s.s.e.s.e.e.e.e.s.s.s.e.s.s.g.<.v M.M.g.s.s.s.s.s.g.g.g.g.g.s.s.g.g.s.s.s.s.s.s.g.g.g.g.g.g.g.s.s.g.g.s.s.s.s.s.s.g.g.g.g.g.g.g.g.s.s.g.g.s.s.s.s.s.s.g.g.g.g.s.s.g.g.g.g.g.g.s.s.s.g.s.g.s.g.<.V Z.g.s.s.s.s.s.g.s.g.g.g.g.g.g.s.s.s.g.g.g.g.s.s.s.s.s.s.s.s.g.g.g.g.g.g.g.g.s.s.s.s.s.s.s.g.g.g.g.g.g.g.g.g.g.g.s.s.s.g.g.g.g.g.g.g.g.g.g.g.g.g.s.g.s.g.g.g.<.S G.g.s.g.s.s.g.s.s.s.s.s.s.s.s.s.s.s.s.s.s.s.s.s.g.g.g.g.g.g.g.g.s.s.s.s.s.s.s.s.s.s.g.g.g.g.g.g.s.s.s.s.s.g.g.g.g.g.s.s.g.g.g.g.s.s.s.s.s.s.s.g.s.s.g.s.s.g.%.S G.g.s.g.s.g.g.s.s.g.g.g.s.s.s.s.s.s.g.g.g.g.s.s.s.s.s.s.s.s.s.s.s.g.g.g.s.s.s.s.s.s.s.s.s.s.s.s.s.s.s.s.s.s.s.s.s.s.s.s.g.g.g.s.g.g.g.g.g.g.s.s.g.g.g.g.s.g.:.: ",
"G.M.s.s.s.s.s.s.g.g.s.s.s.s.g.g.g.g.s.s.s.s.g.g.g.g.g.s.s.s.s.s.g.g.s.s.s.s.g.g.s.g.g.g.g.g.g.g.s.s.s.s.s.s.s.s.s.s.s.g.g.g.g.s.g.g.g.g.g.g.g.g.g.e.g.s.g.g.g.S <.Z.s.g.s.g.s.s.s.s.s.s.g.g.g.g.s.s.s.s.s.s.s.s.g.g.s.s.s.s.g.g.s.s.g.g.g.g.s.s.g.g.s.s.s.s.g.g.g.g.g.g.g.g.g.s.s.s.s.s.s.g.g.g.g.g.g.g.g.g.g.g.g.e.g.s.g.g.g.V s.Z.s.s.g.s.g.g.s.s.s.s.s.s.s.s.g.g.g.g.g.g.g.g.s.g.g.g.g.g.g.s.s.g.g.g.g.s.s.s.g.g.g.g.s.s.s.s.s.s.g.g.g.g.s.s.g.g.g.g.g.g.g.g.s.s.s.s.s.s.s.s.g.s.g.s.g.s.s.v s.g.s.e.s.e.e.s.e.e.e.e.e.e.e.e.s.s.s.s.s.s.s.s.s.s.e.e.e.e.e.s.e.e.e.e.e.e.e.e.s.s.e.e.e.e.e.e.s.s.s.s.s.s.s.s.e.e.e.e.e.e.e.e.s.s.e.e.e.e.e.e.s.s.e.s.s.g.<.V M.M.g.s.s.s.s.s.g.g.g.g.g.g.g.g.g.s.s.s.s.s.s.g.g.g.g.g.g.s.s.s.g.g.s.s.s.s.s.s.s.s.s.s.g.g.s.s.s.g.g.g.g.s.s.s.s.s.g.g.g.g.s.s.g.g.g.g.s.s.s.s.s.g.s.g.s.g.<.V Z.g.s.g.s.s.s.g.g.g.g.g.g.g.g.g.s.g.g.g.g.s.s.s.g.s.s.s.s.s.g.g.g.g.g.g.s.s.s.s.s.s.s.s.s.g.g.g.g.g.g.g.g.g.g.g.s.s.s.s.g.g.g.g.g.g.g.g.s.s.g.g.s.g.s.g.g.g.<.S G.g.s.g.s.s.g.s.s.s.s.s.s.s.s.s.g.g.s.s.s.s.s.s.g.g.g.s.g.g.g.g.s.s.s.s.s.s.s.s.s.g.g.g.g.g.g.g.s.s.s.s.s.g.g.g.g.g.g.g.g.g.g.g.s.s.s.s.s.s.s.g.s.s.g.s.s.g.:.S G.g.s.g.s.s.g.s.s.s.g.s.s.s.s.s.s.s.g.g.g.g.s.s.s.s.s.s.s.s.s.s.s.g.g.g.s.s.s.s.s.s.s.s.s.s.s.s.s.s.s.s.s.s.s.s.s.s.s.g.g.g.g.s.s.s.g.g.g.g.g.g.g.g.s.g.s.g.%.- ",
"G.M.s.s.s.s.s.s.g.s.s.s.s.s.s.g.g.g.s.s.s.s.g.g.g.g.s.s.s.s.s.s.g.g.s.s.s.s.g.g.g.g.g.g.g.g.g.s.s.s.s.s.s.s.s.s.s.s.s.g.g.g.g.s.g.g.g.g.g.g.g.g.g.e.g.s.s.s.g.S <.Z.s.g.s.g.s.s.s.s.s.s.s.g.g.g.s.s.s.s.s.s.s.s.g.g.s.s.s.s.g.g.s.s.s.s.s.s.s.s.g.g.s.s.s.s.g.g.g.g.g.g.g.g.s.s.s.s.s.s.s.s.g.g.g.g.g.g.g.g.g.g.g.e.g.s.g.g.g.V s.Z.s.s.g.s.g.g.s.s.s.s.s.s.s.s.s.s.s.s.s.s.s.s.g.g.g.g.g.g.g.g.s.s.s.g.s.s.s.s.s.s.s.s.s.s.s.s.s.s.s.g.g.s.s.s.s.g.g.g.g.g.g.s.s.s.s.s.s.s.s.s.g.s.g.s.s.s.s.v s.g.s.e.s.s.e.s.e.e.e.s.e.e.e.e.s.s.s.e.e.e.s.s.s.s.e.e.e.e.e.e.e.e.e.e.e.e.e.e.s.e.e.e.e.e.e.e.e.e.s.s.s.s.s.s.s.e.s.s.e.e.e.e.s.s.e.e.e.e.s.s.s.s.e.s.e.s.<.V M.M.g.s.s.s.s.s.s.s.g.g.s.s.s.g.g.s.s.s.s.s.s.g.g.g.s.s.s.s.s.s.g.g.s.s.s.s.s.s.s.s.s.s.s.s.s.g.s.g.g.g.g.s.s.s.s.s.s.g.g.s.s.s.g.s.s.s.s.s.s.s.s.g.s.g.s.g.<.V Z.M.g.g.s.s.s.g.s.s.s.g.g.g.g.g.s.g.g.g.s.s.s.s.g.s.s.s.s.s.g.g.g.g.g.s.s.s.s.s.s.s.s.s.s.g.g.g.s.s.g.g.g.g.g.g.s.s.s.s.s.s.g.g.g.g.g.g.g.g.g.g.s.g.s.s.g.g.:.S G.g.s.g.s.s.g.s.s.s.s.s.s.s.s.s.g.g.s.s.s.s.g.g.g.g.s.s.g.g.g.g.s.s.s.s.s.s.s.s.g.g.g.g.s.s.g.g.s.s.s.s.s.g.g.g.g.g.g.g.g.g.g.g.s.s.s.s.s.s.s.g.s.s.g.s.s.g.:.S G.g.s.g.s.s.g.s.s.s.s.s.s.s.s.s.s.s.s.g.g.s.s.s.s.s.s.s.s.s.s.s.s.s.s.s.s.s.s.s.s.s.s.s.s.s.s.s.s.s.s.s.s.s.s.s.s.s.s.g.g.g.g.s.s.s.s.g.g.g.g.g.s.s.s.g.s.g.%.- ",
"G.M.s.s.g.s.s.s.s.s.s.s.s.s.s.s.g.g.s.s.s.s.g.g.g.g.s.s.s.s.s.s.g.s.s.s.s.s.s.g.s.s.g.g.g.s.s.s.s.s.s.s.s.s.s.s.s.s.s.g.g.g.g.s.g.g.g.g.g.g.g.g.g.e.g.s.s.s.g.S <.Z.s.g.e.g.s.s.s.s.s.s.s.s.s.s.s.s.s.s.s.s.s.s.g.g.s.s.s.s.g.g.g.s.s.s.s.s.s.g.g.g.s.s.s.s.g.g.g.g.g.s.s.s.s.s.s.s.s.s.s.s.s.s.g.g.g.g.g.g.g.g.g.e.g.s.g.g.g.V s.Z.s.s.g.s.g.s.s.s.s.s.s.s.s.s.s.s.s.s.s.s.s.s.g.g.g.g.g.g.g.g.s.s.s.s.s.s.s.s.s.s.s.s.s.s.s.s.s.s.s.s.s.s.s.s.s.s.s.g.g.s.s.s.s.s.s.s.s.s.s.s.g.e.g.s.s.s.s.v s.g.s.e.s.s.e.s.e.e.e.s.e.e.e.e.e.e.e.e.e.e.e.e.s.s.e.e.e.e.e.e.e.e.e.e.e.e.e.e.s.e.e.e.e.e.e.e.e.e.s.e.e.s.s.s.s.e.e.s.e.e.e.e.s.e.e.e.e.e.e.s.s.s.e.e.e.s.<.v M.M.g.s.s.s.s.s.e.s.s.s.s.e.s.s.g.s.s.s.s.s.s.g.g.s.s.s.s.s.s.s.s.s.s.s.s.s.s.s.s.s.s.s.s.s.s.s.s.g.g.g.s.s.s.s.s.s.s.s.s.s.s.s.s.s.s.e.e.e.s.s.s.g.s.g.s.g.<.V Z.M.g.g.s.s.s.g.e.e.s.s.s.s.s.s.s.g.g.g.s.s.s.s.s.s.s.s.s.s.g.g.s.s.s.s.s.s.s.s.s.s.s.s.s.g.g.g.s.s.s.s.s.s.s.s.s.s.s.s.s.s.s.s.s.s.s.s.s.s.s.s.s.g.e.s.g.s.:.V G.g.s.g.s.s.g.s.s.s.s.s.s.s.s.s.g.g.s.s.s.s.g.g.s.s.s.s.s.s.s.s.s.s.s.s.s.s.s.s.g.g.g.s.s.s.s.g.s.s.s.s.s.g.g.g.s.s.g.g.g.s.s.s.s.s.s.s.s.s.s.g.s.g.g.s.s.g.:.S G.g.s.g.s.s.g.s.s.s.s.s.s.s.s.s.s.s.s.s.s.s.s.s.s.s.s.s.s.s.s.s.s.s.s.s.s.s.s.g.s.s.s.s.s.s.s.s.s.s.s.s.s.s.s.s.s.s.s.g.g.g.g.s.s.s.s.s.g.g.g.g.s.s.s.s.e.g.%.- ",
"J.M.g.s.g.g.s.g.s.s.s.s.s.s.s.s.g.g.s.s.s.s.g.g.g.s.s.s.s.s.s.s.s.s.s.s.s.s.s.s.s.s.s.s.s.s.s.s.s.s.s.s.s.s.s.s.s.s.s.g.g.g.g.s.s.s.s.s.s.s.s.s.g.e.g.s.s.s.g.S <.Z.s.g.e.g.s.s.s.s.s.s.s.s.s.s.e.s.s.s.s.s.s.s.s.s.s.s.s.s.s.s.g.s.s.s.s.s.s.g.g.g.s.s.s.s.g.g.s.s.s.s.s.s.s.s.g.g.s.s.s.s.s.s.s.s.s.s.s.s.s.s.g.e.g.s.g.g.g.S e.M.s.s.g.s.s.s.s.s.s.s.s.s.s.s.s.s.s.s.s.s.s.s.s.s.g.g.g.g.s.s.g.s.s.s.s.s.s.s.s.s.s.s.s.s.s.s.s.s.s.s.s.s.s.s.s.s.s.s.s.s.s.s.s.s.s.s.s.s.s.s.g.e.s.e.s.s.s.v s.g.s.e.s.s.e.s.e.e.e.e.s.e.e.e.s.s.e.e.e.e.s.s.s.s.e.e.e.e.e.e.e.e.e.e.e.e.e.e.e.e.e.e.e.e.e.e.e.e.e.e.e.e.s.e.e.e.s.s.s.s.s.s.e.e.e.e.e.e.e.e.s.s.<.e.<.s.<.v M.M.g.s.s.s.s.s.s.s.s.s.s.s.s.s.g.s.s.e.e.s.s.g.g.s.s.s.s.s.s.s.s.s.s.s.s.s.s.s.s.s.s.s.s.s.s.s.g.g.g.s.s.s.s.s.s.s.s.s.s.s.s.s.s.s.e.e.s.s.s.s.s.g.s.g.s.g.<.V Z.g.s.s.s.s.s.g.e.s.s.s.s.s.s.s.g.g.s.s.s.s.s.s.s.s.s.g.g.g.g.s.s.s.s.s.s.s.s.s.s.s.s.s.s.g.g.g.s.s.s.s.s.s.s.s.s.s.s.s.s.s.s.s.s.s.s.s.s.s.s.s.s.g.s.s.g.g.:.S G.g.s.g.s.s.g.s.s.s.s.s.s.s.s.s.s.s.s.s.s.s.s.s.s.s.s.s.s.s.s.s.s.s.s.s.s.s.g.g.s.g.s.s.s.s.s.s.s.s.s.s.s.g.g.g.s.s.s.s.s.s.s.s.s.s.s.s.s.s.s.g.g.g.g.s.s.g.:.J G.g.s.g.s.s.g.s.s.s.s.s.s.s.s.s.s.s.s.s.s.s.s.s.s.s.s.s.s.s.s.s.s.s.s.s.s.s.s.s.s.s.s.s.s.s.s.s.s.g.s.s.s.s.s.s.s.s.s.g.g.g.g.s.s.s.s.s.s.s.s.s.s.s.s.g.e.g.%.- ",
"J.Z.g.g.g.g.g.g.s.s.s.s.s.s.s.s.g.g.s.s.s.s.g.g.g.s.s.s.s.s.s.s.s.s.s.s.s.s.s.s.s.s.s.s.s.s.s.s.s.s.s.s.s.s.s.s.s.s.s.g.g.g.g.s.s.s.s.s.s.s.s.s.g.e.g.s.s.s.g.S e.Z.s.g.e.g.g.g.g.s.s.s.s.s.s.s.e.e.s.s.s.s.s.s.s.s.g.g.g.g.s.s.g.s.s.s.s.s.s.g.g.g.s.s.s.s.g.g.s.s.s.s.s.s.s.s.g.g.g.s.s.s.s.s.s.s.s.s.s.s.s.s.g.e.g.s.g.g.g.S e.M.s.s.g.s.s.s.s.s.s.s.s.s.s.s.g.g.g.g.g.g.g.g.s.s.s.g.g.s.s.s.g.g.s.s.s.s.s.s.s.s.s.s.s.s.s.s.s.s.s.s.s.s.s.s.s.s.s.s.s.s.s.s.s.s.s.s.s.s.s.s.g.e.s.e.s.s.s.V s.g.s.e.s.s.e.s.e.e.e.e.e.e.e.e.s.s.s.s.s.s.s.s.s.e.e.e.e.e.e.e.e.e.s.s.s.s.s.s.e.e.e.e.e.e.e.e.e.e.e.e.e.e.e.e.e.e.e.e.e.e.e.e.e.e.e.e.e.e.e.e.s.s.<.e.<.s.<.v M.M.g.s.s.s.s.s.s.s.g.g.s.s.s.g.g.s.s.e.e.s.s.g.s.s.s.s.s.s.s.s.s.s.s.s.s.s.s.s.s.s.s.s.s.s.s.s.g.g.g.s.s.s.s.s.s.s.s.s.s.s.s.s.s.s.s.e.s.s.s.s.s.g.s.g.s.g.<.V Z.g.s.s.s.s.s.g.s.s.s.g.g.g.g.g.g.s.s.s.s.s.s.s.s.s.s.g.g.g.s.s.s.s.s.s.s.s.s.s.s.s.s.s.s.g.g.g.s.s.s.s.s.s.s.s.s.s.s.s.s.s.s.s.s.s.s.s.s.s.s.s.s.g.s.g.g.g.<.S G.g.s.g.s.s.g.s.s.s.s.s.s.s.s.s.s.s.s.s.s.s.s.s.s.s.s.s.s.s.s.s.s.s.s.s.s.s.g.g.s.s.s.s.e.e.s.s.s.s.s.s.s.g.g.g.s.s.s.s.s.s.s.e.s.s.s.s.s.s.g.g.s.g.g.s.s.g.:.J G.g.s.g.s.s.g.s.s.s.s.s.s.s.s.s.s.s.s.s.s.s.s.s.s.s.s.s.s.s.s.s.s.s.s.s.s.s.s.s.s.s.s.s.s.s.s.s.g.g.s.s.s.s.s.g.s.s.s.g.g.g.g.s.s.s.s.s.s.s.s.s.s.s.s.g.s.g.%.- ",
"G.M.s.s.s.s.s.s.s.s.s.s.s.s.s.s.s.s.s.s.s.s.s.s.s.s.s.s.s.g.s.s.s.s.s.s.s.s.s.s.s.s.s.s.s.s.s.s.s.s.s.s.s.s.s.s.s.s.s.s.s.s.s.s.s.s.s.s.s.s.s.s.s.e.g.s.s.s.g.S :.Z.e.g.s.g.s.g.s.s.s.s.s.s.s.s.s.s.s.s.s.s.s.s.s.s.s.s.s.s.s.s.s.s.s.s.s.s.s.s.s.s.s.s.s.s.s.g.g.s.s.e.s.s.s.s.s.s.s.s.s.s.s.s.s.s.s.s.s.s.s.s.s.e.s.e.s.s.s.V e.M.s.s.g.s.g.s.s.s.s.s.s.s.s.s.s.s.s.s.s.s.s.s.s.s.s.s.s.s.s.s.s.s.s.s.g.g.g.g.g.g.g.g.s.s.s.s.s.s.s.s.s.s.s.s.s.s.s.s.s.s.s.s.s.s.s.g.g.s.s.s.g.s.g.s.s.g.s.v s.g.<.e.s.e.e.e.s.s.e.e.e.s.s.s.s.s.s.e.e.e.s.s.s.s.s.s.e.e.e.e.e.s.s.s.s.s.e.e.s.s.s.s.s.s.s.s.e.e.e.e.e.e.e.e.e.e.e.e.e.e.s.s.e.e.e.e.e.e.e.e.e.e.e.s.s.g.<.V M.g.g.s.s.s.s.s.s.s.s.s.s.s.s.s.g.g.s.s.s.s.g.g.g.s.s.s.s.s.g.g.s.s.s.s.s.s.s.s.s.s.s.s.s.s.s.s.s.s.s.s.s.s.s.s.s.s.s.s.s.s.s.s.s.s.s.s.s.s.s.s.s.s.s.g.s.g.<.v Z.g.s.s.s.s.s.g.s.s.s.s.s.s.s.s.s.s.s.s.s.s.s.e.s.g.g.g.g.s.s.s.s.s.e.s.s.g.g.g.s.s.s.s.s.s.s.s.g.g.s.s.s.s.s.s.s.s.s.s.g.g.s.s.s.s.s.s.g.g.g.g.s.e.g.g.s.g.:.S G.g.s.g.s.g.g.s.s.s.s.s.s.s.s.s.s.s.s.s.s.s.s.s.s.s.s.s.s.s.s.s.s.s.s.g.g.s.s.s.s.s.s.s.s.s.s.s.s.s.s.s.s.s.s.s.g.s.s.s.s.s.s.e.s.s.s.s.s.s.s.s.g.s.s.s.s.g.%.J G.g.s.g.s.g.g.s.g.s.s.s.s.s.s.s.g.s.s.s.s.s.s.e.e.e.s.s.s.s.s.s.s.s.s.s.s.s.g.g.g.g.g.s.s.s.s.s.s.s.s.s.s.s.s.s.s.s.s.s.s.s.g.g.s.s.s.s.s.s.s.s.s.g.s.g.g.g.%.: ",
"G.M.s.s.s.s.s.s.s.s.s.s.s.s.s.s.s.s.s.s.s.s.s.s.s.s.s.s.s.g.s.s.g.s.s.s.s.s.g.g.s.s.s.s.s.s.s.s.s.s.s.s.s.s.s.s.s.s.s.s.s.s.s.s.s.s.s.s.s.s.s.s.s.e.g.s.s.s.g.S :.Z.e.g.s.g.s.g.s.s.s.s.s.s.s.s.s.s.s.s.s.s.s.s.s.s.s.s.s.s.s.s.s.s.s.s.s.s.s.s.s.s.s.s.s.s.s.g.s.s.e.e.s.s.s.s.s.s.s.s.s.s.s.s.s.s.s.s.s.s.s.s.g.e.s.s.s.s.s.V e.M.s.s.g.s.g.s.s.s.s.s.s.s.s.s.s.s.s.s.s.s.s.s.s.s.s.s.s.s.s.s.s.s.s.s.s.s.s.g.g.g.g.s.s.s.s.s.s.s.s.s.s.s.s.s.s.s.s.s.s.s.s.s.s.s.s.g.g.s.s.s.g.s.g.s.s.g.s.v s.M.e.e.s.e.e.e.e.s.e.e.s.s.s.s.s.s.e.e.e.e.s.s.s.s.s.s.e.e.e.e.s.s.s.s.s.s.e.e.s.s.s.e.s.s.s.s.e.e.e.e.e.e.e.e.s.s.s.e.e.e.e.e.e.e.e.e.e.e.e.e.e.s.e.s.e.s.<.v M.g.g.s.s.s.s.s.s.s.s.s.s.s.s.s.g.g.s.s.s.s.g.g.g.g.s.s.s.s.g.g.s.s.s.s.s.s.s.s.s.s.s.s.s.s.s.s.s.s.s.s.s.s.s.s.s.s.s.s.s.s.s.s.s.s.s.s.s.s.s.s.s.g.s.g.s.g.<.v Z.g.s.s.s.s.s.s.s.s.s.s.s.s.s.s.s.s.s.s.s.s.s.s.s.g.g.g.g.s.s.s.s.s.e.s.s.g.g.s.s.s.s.s.s.s.s.s.g.s.s.s.s.s.s.s.s.s.s.s.s.s.s.s.s.s.s.s.s.g.g.g.s.e.g.g.s.g.:.S G.s.s.s.s.s.g.s.s.s.s.s.s.s.s.s.s.s.s.s.s.s.s.s.s.s.s.s.s.s.s.s.s.s.s.g.g.s.s.s.s.s.s.s.g.g.s.s.g.g.g.g.s.s.s.s.g.s.s.s.s.s.s.e.s.s.s.s.s.s.s.s.g.s.s.s.s.g.%.J G.g.s.g.s.g.g.s.s.s.s.s.e.s.s.g.s.s.s.s.s.s.s.e.e.e.s.s.s.s.s.s.s.s.s.s.s.s.g.g.g.g.g.s.s.s.s.s.s.s.s.s.s.s.s.s.s.s.s.s.s.s.s.g.s.s.s.s.s.s.s.s.s.g.s.s.s.g.%.: ",
"G.M.s.s.s.s.s.s.s.s.s.s.s.s.s.s.s.s.s.s.s.s.s.s.s.s.s.s.s.g.s.s.g.s.s.s.s.g.g.g.s.s.s.s.s.s.s.s.s.s.s.s.s.s.s.s.s.s.s.s.s.s.s.s.s.s.s.s.s.s.s.s.g.e.g.s.s.s.g.S :.G.s.g.s.g.s.g.s.s.s.s.s.s.s.s.s.s.s.s.s.s.s.s.s.s.s.s.s.s.s.s.s.s.s.s.s.s.s.s.s.s.s.s.s.s.s.g.s.s.e.s.s.g.g.g.s.s.s.s.s.s.s.s.s.s.s.s.s.s.s.s.g.e.g.s.s.s.g.V e.M.s.s.g.s.g.s.s.s.s.s.s.s.s.s.s.s.s.s.s.s.s.s.s.s.s.s.s.s.s.s.s.s.s.s.s.s.s.s.s.s.g.s.s.s.s.s.s.s.s.s.s.s.s.s.s.s.s.s.s.s.s.s.s.s.s.s.s.s.s.s.s.e.g.s.s.g.s.v s.M.e.e.g.e.s.e.e.s.e.e.e.s.s.s.s.s.s.s.e.e.e.s.s.s.s.s.e.e.e.e.e.e.s.s.s.s.s.s.s.s.e.e.s.s.e.e.e.e.e.e.e.e.s.s.s.s.s.e.e.e.e.e.e.e.e.e.e.e.e.e.e.s.e.s.e.s.:.p M.g.g.s.s.s.s.s.s.s.s.s.s.s.s.s.s.s.s.s.s.s.s.g.s.s.s.s.s.s.s.g.s.s.s.s.s.s.s.s.s.s.s.s.s.s.s.s.s.s.s.s.s.s.s.s.s.s.s.s.s.s.s.s.s.s.s.s.s.s.s.s.s.g.s.g.s.g.<.V Z.g.s.s.s.s.s.s.s.s.s.s.s.s.s.s.s.s.s.s.s.s.s.s.s.s.s.g.g.s.s.s.s.s.s.s.s.s.s.s.s.s.s.s.s.s.s.s.s.s.s.s.s.s.s.s.g.s.s.s.s.s.s.s.s.s.s.s.s.s.s.s.s.e.g.g.s.g.:.S Z.s.e.s.e.s.g.s.s.s.s.s.s.s.s.s.s.s.s.s.s.s.s.s.s.s.s.s.s.s.s.s.s.s.s.s.s.s.s.s.s.s.s.g.s.s.s.s.g.g.g.g.g.g.g.g.s.s.s.s.s.s.s.s.s.s.s.s.s.s.s.s.g.s.s.s.s.s.%.J G.g.s.g.s.s.g.s.s.s.s.s.s.s.s.s.s.s.s.s.s.s.s.s.s.s.s.s.s.s.s.s.s.s.s.s.s.s.s.g.g.g.g.s.s.s.s.s.s.s.s.s.s.s.s.s.s.s.s.s.s.s.s.s.s.s.s.s.s.s.s.s.s.g.s.s.s.g.%.: ",
"G.M.s.s.s.s.s.g.s.s.s.s.s.s.s.s.s.s.s.s.s.s.s.s.s.s.s.s.s.g.s.s.s.g.s.s.s.s.g.g.s.s.s.s.s.s.s.s.s.s.s.s.s.s.s.s.s.s.s.s.s.s.s.s.s.s.g.s.s.s.s.s.g.e.g.s.s.s.g.S :.G.s.g.s.g.s.g.s.s.s.s.s.s.s.s.s.s.s.s.s.s.s.s.s.s.s.s.s.s.s.s.s.s.s.s.s.s.s.s.s.s.s.s.s.s.s.g.s.s.s.s.s.g.s.s.s.s.s.s.s.s.s.s.s.s.s.s.s.s.s.s.s.e.g.s.g.s.g.V e.M.s.s.g.s.g.s.s.s.s.s.s.s.s.s.s.s.s.s.s.s.s.s.s.s.s.s.s.s.s.s.g.g.s.s.s.s.s.s.s.s.s.s.s.s.s.s.s.s.s.s.s.s.s.s.s.s.s.s.s.s.s.s.s.s.s.s.s.s.s.s.g.e.g.s.s.g.s.v s.M.e.e.s.e.s.e.e.s.e.e.e.s.s.s.s.s.s.s.e.e.e.e.e.e.s.s.e.e.e.e.e.s.s.s.s.s.s.s.e.s.s.e.s.e.e.e.<.e.e.e.e.e.s.s.s.s.s.e.e.e.e.e.e.e.e.e.e.e.e.e.e.e.e.s.e.s.:.p M.g.g.s.s.s.s.s.s.s.s.s.s.s.s.s.s.s.s.s.s.s.s.s.s.s.s.s.s.s.s.s.s.s.s.s.s.s.s.s.s.g.g.s.s.e.e.s.s.s.s.s.s.s.s.s.s.s.s.s.s.s.s.s.s.s.s.s.s.s.s.s.s.g.s.g.s.g.e.V Z.g.s.s.s.s.s.s.s.s.s.s.s.s.s.s.s.s.s.s.s.s.g.g.s.s.s.s.s.s.s.s.s.s.e.s.s.s.s.s.s.s.s.s.s.s.s.s.s.s.s.s.s.s.s.s.g.s.s.s.s.s.s.g.g.g.s.s.s.s.s.s.s.e.g.g.s.g.:.S Z.s.e.s.e.s.g.s.s.s.s.s.s.s.s.s.s.s.s.s.s.s.s.s.s.s.s.s.s.s.s.s.g.s.s.s.e.s.s.s.s.s.g.g.s.s.s.s.s.s.s.s.s.s.g.g.s.s.s.s.s.s.s.s.s.s.s.s.s.s.s.s.g.s.s.s.s.s.%.S G.g.s.g.s.s.g.s.s.s.s.s.s.s.s.g.s.s.s.s.s.s.s.s.s.s.s.s.s.s.s.s.s.s.s.s.s.s.s.s.g.g.g.s.s.s.s.s.s.s.s.s.s.s.s.s.s.s.s.s.s.s.s.s.s.s.s.s.s.s.s.s.s.g.s.s.s.g...: ",
"G.M.s.s.s.s.s.g.s.s.s.s.s.s.s.s.s.s.s.s.s.s.s.s.s.s.s.s.s.g.s.s.s.s.s.s.s.s.s.s.s.s.s.s.s.s.s.s.s.s.s.s.s.s.s.s.s.s.s.s.s.s.s.s.s.s.g.s.s.s.s.s.g.e.g.s.s.s.g.S <.G.s.g.s.g.s.g.s.s.s.s.s.s.s.s.s.s.s.s.s.s.s.s.s.s.s.s.s.s.s.s.s.s.s.s.s.s.s.s.s.s.s.s.s.s.s.g.g.s.s.s.s.s.s.s.s.s.s.s.s.s.s.s.s.s.s.s.s.s.s.s.s.e.s.s.s.s.g.V e.M.s.s.g.s.g.s.s.s.s.s.s.s.s.s.s.s.s.s.s.s.s.s.s.s.s.s.s.s.s.s.s.s.s.s.s.s.s.s.s.s.s.s.s.s.s.s.s.s.s.s.s.s.s.s.s.s.s.s.s.s.s.s.s.s.s.s.s.s.s.s.g.s.g.s.s.g.s.v s.M.e.e.s.e.e.e.e.e.e.e.e.e.e.e.e.e.e.e.e.e.e.e.e.e.e.e.e.e.e.e.e.e.e.e.e.e.e.e.e.e.s.e.e.e.e.e.e.e.e.e.e.s.e.s.s.s.e.e.e.e.e.s.e.e.e.e.e.e.e.e.e.e.<.e.e.s.<.v M.g.g.s.s.s.s.s.s.s.s.s.s.s.s.s.s.s.s.s.s.s.s.s.s.s.s.s.s.s.s.s.s.s.s.s.s.s.s.s.s.g.g.s.e.e.s.s.s.s.s.s.s.s.s.s.s.s.s.s.s.s.s.s.s.s.s.s.s.s.s.s.s.g.s.g.s.g.e.V Z.g.s.s.s.s.s.s.s.s.s.s.s.s.s.s.s.s.s.s.s.s.s.s.s.s.s.s.s.s.s.s.s.s.e.s.s.s.s.s.s.s.s.s.s.s.s.s.s.s.e.s.s.s.s.s.g.s.s.s.s.s.s.s.s.s.s.s.s.s.s.s.s.e.g.g.s.g.:.S Z.s.s.s.s.s.g.s.s.s.s.s.s.s.s.s.s.s.s.s.s.s.s.s.s.s.s.s.s.s.s.s.s.s.s.e.e.s.s.s.s.s.g.g.g.s.s.s.s.s.s.s.s.s.s.s.s.s.s.s.s.g.s.s.s.s.s.s.s.s.s.s.g.s.s.s.s.s.%.J G.g.s.s.s.s.g.s.e.e.s.s.s.s.s.s.s.s.s.s.s.s.s.s.s.g.g.g.s.s.s.s.s.s.s.s.s.s.s.s.g.g.g.s.s.s.s.s.s.s.s.s.s.s.s.s.s.s.s.s.s.s.s.s.s.s.s.s.s.s.s.s.s.g.s.s.s.g...: ",
"G.M.s.s.s.s.s.g.s.s.s.s.s.s.s.s.s.s.s.s.s.s.s.s.s.s.s.s.s.g.s.s.s.s.s.e.s.s.s.s.s.s.s.s.s.s.s.s.s.s.s.s.s.s.s.s.s.s.s.s.s.s.s.s.s.g.g.g.s.s.s.s.g.e.g.s.s.s.g.S <.G.s.g.s.g.s.g.s.s.s.s.s.s.s.s.s.s.s.s.s.s.s.s.s.s.s.s.s.s.s.s.s.s.s.s.s.s.s.s.s.s.s.s.s.s.s.g.g.g.s.s.g.g.s.s.s.s.s.s.s.s.s.s.s.s.s.s.s.s.s.s.s.e.s.e.s.s.s.V e.M.s.s.g.e.g.s.s.s.s.s.s.s.s.s.s.s.s.s.s.s.s.s.s.s.s.s.s.s.s.s.s.s.s.s.s.s.s.s.s.s.s.s.s.s.s.s.s.s.s.s.s.s.s.s.s.s.s.s.s.s.s.s.s.s.s.s.s.s.s.s.g.e.g.s.s.g.s.v s.g.<.e.s.e.e.e.e.e.e.e.e.e.e.e.e.e.e.e.e.e.e.e.e.e.e.e.e.e.s.s.e.e.e.e.e.e.e.e.e.e.e.e.e.e.e.e.e.e.e.e.e.e.s.s.e.e.e.e.e.s.s.s.e.e.e.e.e.e.e.e.e.e.e.s.e.s.<.v M.g.g.s.s.s.s.s.s.s.s.s.s.s.s.s.s.s.s.s.s.s.s.s.s.s.s.s.s.s.s.s.s.s.s.s.s.s.s.s.s.s.s.s.e.e.s.s.s.s.s.s.s.s.s.s.s.s.s.s.s.s.s.s.g.g.s.s.s.s.s.s.s.g.s.s.s.g.<.V Z.g.s.s.s.s.s.s.s.s.s.s.s.s.s.s.s.s.s.s.s.s.s.s.s.s.s.s.s.s.s.s.s.s.e.e.s.s.s.s.s.s.s.s.s.s.s.s.e.e.s.s.s.s.s.s.s.s.s.s.s.s.s.s.s.s.s.s.s.s.s.s.s.e.g.g.s.g.:.S Z.g.s.g.s.s.g.s.s.s.s.s.s.s.s.s.s.s.s.s.s.s.s.s.s.s.s.s.s.s.s.s.s.s.s.e.e.s.s.s.s.s.s.s.s.s.s.s.s.s.s.s.s.s.s.s.s.s.s.s.s.g.g.s.s.s.s.s.s.s.s.s.g.s.s.s.s.s.%.J G.g.s.g.s.s.g.s.e.s.s.s.s.s.s.s.s.s.s.s.s.s.s.s.g.g.g.g.s.s.s.s.s.s.s.s.s.s.s.s.g.g.g.s.s.s.s.s.s.s.s.s.s.s.s.s.s.s.s.s.s.s.s.s.s.s.s.s.s.s.s.s.s.g.s.s.s.g...- ",
"G.M.s.s.g.s.s.g.s.s.s.s.s.s.s.s.s.s.s.s.s.s.s.s.s.s.s.s.s.g.s.s.s.s.s.s.s.s.s.s.s.s.s.s.s.s.s.s.s.s.s.s.s.s.s.s.s.s.s.s.s.s.s.s.s.g.g.g.s.s.s.s.g.e.g.s.s.s.g.S <.G.s.g.s.g.s.s.s.s.s.s.s.s.s.s.s.s.s.s.s.s.s.s.s.s.s.s.s.s.s.s.s.s.s.s.s.s.s.s.s.s.s.s.s.s.s.g.s.s.s.s.g.g.g.s.s.s.s.s.s.s.s.s.s.s.s.s.s.s.s.s.s.e.s.e.s.s.s.V e.M.s.s.g.s.g.s.s.s.s.s.s.s.s.s.s.s.s.s.s.s.s.s.s.s.s.s.s.s.s.s.s.s.s.s.s.s.s.s.s.s.s.s.s.s.s.s.s.s.s.s.s.s.s.s.s.s.s.s.s.s.s.s.g.s.s.s.s.s.s.s.g.s.g.s.s.g.s.v s.g.<.e.s.e.e.e.e.e.e.e.e.e.e.e.e.e.e.e.e.e.e.e.e.e.e.e.e.e.e.e.e.e.e.e.e.e.e.e.e.e.e.e.e.e.e.e.s.s.e.e.e.e.e.e.s.s.e.e.e.e.e.s.e.e.e.e.e.e.e.e.e.s.e.s.e.s.<.v M.g.g.s.s.s.s.s.s.s.s.s.s.s.s.s.s.s.s.s.s.s.s.s.s.s.s.s.s.s.s.s.s.s.s.s.s.s.s.s.s.s.s.s.e.e.s.s.s.s.s.s.s.s.s.s.s.s.s.s.s.s.s.s.g.g.s.s.s.s.s.s.s.s.e.s.e.g.<.V Z.g.s.s.s.s.s.s.s.s.s.s.s.s.s.s.s.s.s.s.s.s.e.e.s.s.s.s.s.s.s.s.s.e.e.s.s.g.g.s.s.s.s.s.s.s.s.s.e.e.s.s.g.g.s.s.s.s.s.s.s.s.s.s.s.s.s.s.s.s.s.s.s.e.g.g.s.g.:.S G.g.s.g.s.s.g.s.g.g.g.s.s.s.s.s.s.s.s.s.s.s.s.s.s.s.s.s.s.s.s.s.s.s.e.s.s.s.s.s.s.s.s.s.s.s.s.s.e.s.s.s.s.s.s.s.g.s.s.s.g.g.g.s.s.s.s.s.s.s.s.s.g.s.s.s.s.s.%.J G.g.s.s.s.s.g.s.s.s.s.s.s.s.s.s.s.s.s.s.s.s.g.g.s.s.g.g.g.s.s.s.s.s.g.g.s.s.s.s.g.g.g.s.s.s.s.s.s.s.s.s.s.s.s.s.g.s.s.s.s.s.s.s.s.s.s.s.s.s.s.s.s.g.s.s.s.g...- ",
"G.M.s.s.g.g.g.g.s.s.s.s.s.s.s.s.s.s.s.s.s.s.s.s.s.s.s.s.s.g.s.s.s.s.s.s.s.s.s.s.s.s.s.s.s.s.s.s.s.s.s.s.s.s.s.s.s.s.s.s.s.s.s.s.s.g.g.g.s.s.s.g.s.e.g.s.s.s.g.S <.G.s.g.s.g.s.s.s.s.s.s.s.s.s.s.s.s.s.s.s.s.s.s.s.s.s.s.s.s.s.s.s.s.s.s.s.s.s.s.s.s.s.s.s.s.s.g.s.s.s.s.g.g.g.g.s.s.s.s.s.s.s.s.s.s.s.s.s.s.s.s.s.<.s.e.s.s.s.v e.M.s.s.g.s.g.s.s.s.s.s.s.s.s.s.s.s.s.s.s.s.s.s.s.s.s.s.s.s.s.s.s.s.s.s.s.s.s.s.s.s.s.s.s.s.s.s.s.s.s.s.s.s.s.s.s.s.s.s.s.s.s.s.g.s.s.s.s.s.s.s.g.s.g.s.s.g.s.v s.M.e.e.g.e.s.e.e.e.e.e.e.e.e.e.e.e.e.e.e.e.e.e.e.e.e.e.e.s.e.e.e.e.e.e.e.e.e.e.e.e.e.e.e.e.e.e.s.s.s.e.e.e.e.e.s.s.e.e.e.e.e.e.e.e.e.e.e.e.e.e.s.s.e.s.e.s.<.v M.g.g.s.s.s.s.s.s.s.s.s.s.s.s.s.s.s.s.s.s.s.s.s.s.s.s.s.s.s.s.s.s.s.s.s.s.s.s.s.s.s.s.s.s.s.s.g.s.s.s.s.s.s.s.s.s.s.s.s.s.s.s.s.g.g.g.s.s.s.s.s.s.s.e.s.e.s.<.v Z.g.s.s.s.s.s.s.s.s.s.s.s.s.s.s.s.s.s.s.s.e.e.e.s.s.s.s.s.s.s.s.s.e.e.e.s.g.g.g.s.s.s.s.s.s.s.s.e.s.s.s.g.g.g.s.s.s.s.s.s.s.s.s.s.s.s.s.s.s.s.s.s.e.g.g.s.g.:.S G.s.s.s.s.s.g.s.g.g.g.g.s.s.s.s.s.s.s.s.s.s.s.s.s.s.s.s.s.s.s.s.s.s.s.e.e.s.s.s.s.s.s.s.s.s.e.e.s.s.s.s.s.g.g.g.g.s.s.s.g.g.g.s.s.s.s.s.s.s.s.s.g.s.s.s.s.s.%.J G.g.s.s.s.s.g.s.s.s.s.s.s.s.s.s.s.s.s.s.s.g.g.g.s.s.g.g.g.g.s.s.s.s.g.g.g.s.s.s.g.g.g.s.s.s.s.s.s.s.s.g.g.g.g.g.g.g.s.s.s.s.s.s.s.s.s.s.s.s.s.s.s.g.s.s.s.g...- ",
"G.M.s.s.s.s.s.s.s.s.s.s.s.s.s.s.s.s.s.s.s.s.s.s.s.s.s.s.s.s.s.s.e.e.s.s.s.s.s.s.s.s.s.s.s.s.s.s.s.s.s.s.s.s.s.s.s.s.s.s.s.s.s.s.s.s.s.s.s.s.s.s.s.e.g.s.s.s.g.S <.G.s.s.s.g.s.g.g.s.s.s.s.s.s.s.s.s.s.s.s.s.s.s.s.s.s.s.s.s.s.s.s.s.s.s.s.s.s.s.s.s.s.s.s.s.s.s.s.s.s.s.s.s.s.s.s.s.s.s.s.s.s.s.s.s.s.s.s.s.s.s.s.e.s.s.s.s.g.V e.M.s.s.s.e.s.s.s.s.s.s.e.e.s.s.s.s.s.s.s.s.s.s.s.s.s.s.s.s.s.s.s.s.e.e.e.s.s.s.s.s.s.s.s.s.s.s.s.s.s.s.s.s.s.s.s.s.s.s.s.s.s.s.s.e.e.e.s.s.s.s.g.s.s.g.e.g.e.v e.g.s.e.s.e.<.e.e.e.e.e.e.e.e.e.e.e.e.e.s.s.e.e.e.e.e.e.s.s.e.e.e.e.e.e.e.e.e.e.e.e.e.e.e.e.e.e.s.s.e.e.e.e.e.e.e.e.e.e.e.e.e.e.e.e.e.e.e.e.e.e.e.e.e.s.e.s.:.v M.g.s.s.s.s.s.s.s.s.s.e.e.s.s.s.e.e.e.e.e.e.e.e.s.s.s.s.s.s.s.s.s.s.s.s.s.s.s.s.s.s.s.s.s.s.s.e.s.s.s.s.s.s.s.s.s.s.s.s.s.s.g.g.s.s.s.s.s.s.s.s.s.s.e.e.e.s.<.v M.s.e.s.s.s.s.s.s.s.s.s.s.s.s.s.s.s.s.s.s.s.s.s.s.s.s.s.s.s.s.s.e.e.s.s.s.s.s.s.s.s.s.s.s.s.s.s.s.s.s.s.s.s.s.s.s.s.s.s.s.s.s.s.s.s.s.s.s.s.s.s.s.s.s.g.s.s.<.V Z.s.s.g.s.s.s.s.s.s.s.e.e.s.s.s.s.s.s.s.s.s.s.s.s.s.s.s.s.s.s.s.s.s.s.e.e.s.s.s.s.s.s.s.s.s.s.s.s.s.s.s.s.s.s.s.s.s.g.g.g.s.s.s.s.s.s.s.s.s.s.s.s.s.s.s.s.s.%.S Z.s.s.g.s.s.g.s.e.s.s.s.s.s.s.s.s.s.s.s.s.s.s.s.s.s.s.s.s.s.s.s.s.s.s.s.s.e.e.e.s.s.s.s.s.s.s.s.s.s.s.s.s.s.s.s.s.s.s.s.s.s.e.s.s.s.s.e.s.s.s.s.s.s.e.s.s.g...: ",
"G.M.s.s.s.s.s.s.s.s.s.s.s.s.s.s.s.s.s.s.s.s.s.s.s.s.s.s.s.s.s.s.s.s.s.s.s.s.s.s.s.s.s.s.s.s.s.s.s.s.s.s.s.s.s.s.s.s.s.s.s.s.s.s.s.s.s.s.s.s.s.s.s.e.s.e.s.s.g.S :.Z.e.s.s.g.e.s.s.s.s.s.s.s.s.s.s.s.s.s.s.s.s.s.s.s.s.s.s.s.s.s.s.s.s.s.s.s.s.s.s.s.s.s.s.s.s.s.s.s.s.s.s.s.s.s.s.s.s.s.s.s.s.s.s.s.s.s.s.s.s.s.s.e.s.e.s.s.g.V e.M.s.s.s.e.g.s.s.s.s.s.e.e.e.s.s.s.s.s.s.s.s.s.s.s.e.s.s.s.s.e.s.s.e.e.e.s.s.s.s.s.s.s.s.s.s.s.s.s.s.s.s.s.s.s.s.s.s.s.s.s.s.s.s.e.e.e.s.s.s.s.s.e.e.g.e.s.e.v s.g.s.e.s.e.<.e.e.e.e.e.e.e.e.e.e.e.e.e.s.s.e.e.e.e.e.e.s.s.e.e.e.e.e.e.e.e.e.e.e.e.e.e.e.e.e.e.s.s.e.e.e.e.e.e.e.e.e.e.e.e.e.e.e.e.e.e.e.e.e.e.e.e.e.s.e.s.:.v M.g.s.s.s.s.s.s.s.s.s.e.e.s.s.s.e.e.e.e.s.e.s.s.s.s.s.s.s.s.s.s.s.s.s.s.s.s.s.s.s.s.s.s.s.s.s.e.s.s.s.s.s.s.s.s.s.s.s.s.s.s.s.s.s.s.s.s.s.s.s.s.s.s.e.s.e.s.<.V M.g.s.s.s.s.s.s.s.s.s.s.s.s.s.s.s.s.s.s.s.s.s.s.s.s.s.s.s.s.s.s.s.s.s.s.s.s.s.s.s.s.s.s.s.s.s.s.s.s.s.s.s.s.s.s.s.s.s.s.e.s.s.s.s.s.s.s.s.s.s.s.s.s.s.g.s.s.<.V Z.s.s.g.s.s.s.s.s.s.s.s.s.s.s.s.s.s.s.s.s.s.s.s.s.s.s.s.s.s.s.s.s.s.s.s.s.s.s.s.s.s.s.s.s.s.s.s.s.s.s.s.s.s.s.s.s.s.s.s.s.s.s.s.s.s.s.s.s.s.s.s.s.s.s.s.s.s.%.S Z.s.s.g.s.s.s.e.e.s.s.s.s.s.s.s.s.s.s.s.s.s.s.s.s.s.s.s.s.s.s.s.s.s.s.s.s.e.e.e.s.s.s.s.s.s.s.s.s.s.s.s.s.s.s.s.s.s.s.s.s.e.e.e.s.s.s.s.s.s.s.s.s.s.e.s.s.g...: ",
"G.M.s.s.s.s.s.s.s.s.e.e.s.s.s.s.s.s.s.s.s.s.s.s.s.s.s.s.s.s.s.s.s.s.s.s.s.s.s.s.s.s.s.s.s.s.s.s.s.s.s.s.s.s.s.s.s.s.s.s.s.s.s.s.e.s.s.s.s.s.e.e.s.<.s.e.e.s.s.S :.Z.e.s.s.s.e.s.s.s.s.s.s.s.s.s.s.s.s.s.s.s.s.s.s.s.s.s.s.s.s.s.s.s.s.s.s.s.s.s.s.s.s.s.s.s.s.s.s.s.s.s.s.s.s.s.s.s.s.s.s.s.s.s.s.s.s.s.s.s.s.s.s.e.s.s.s.s.s.V e.M.s.s.s.e.g.s.s.s.s.s.e.e.e.s.s.s.s.s.s.s.s.s.e.e.e.s.s.s.s.e.s.s.e.e.s.s.s.s.s.s.s.s.s.s.s.s.s.s.s.s.s.s.s.s.s.s.s.s.s.s.s.s.s.s.e.e.s.s.s.s.s.e.e.g.e.s.e.v e.g.s.e.s.e.<.e.e.e.e.e.e.e.e.e.e.e.e.e.e.e.e.e.e.e.e.e.e.s.s.s.e.e.e.e.e.e.e.e.e.e.e.e.e.e.e.e.s.s.e.e.e.e.e.e.e.e.e.e.e.e.e.e.e.e.e.e.e.e.e.e.e.e.e.e.e.s.:.v M.g.g.s.s.s.s.e.s.s.s.s.s.s.s.s.s.s.s.s.s.s.s.s.s.s.s.s.s.s.s.s.s.s.s.s.s.s.s.s.s.s.s.s.s.s.s.s.s.s.s.s.s.s.s.s.s.s.s.s.s.s.s.s.s.s.s.s.s.s.s.s.s.g.e.s.s.g.e.V Z.g.s.s.s.s.s.s.s.s.s.s.s.s.s.s.s.s.s.s.s.s.s.s.s.s.s.s.s.s.s.s.s.s.s.s.s.s.s.s.s.s.s.s.s.s.s.s.s.s.s.s.s.s.s.s.s.s.s.s.e.s.s.s.s.s.s.s.s.s.s.s.s.s.s.g.s.s.<.V Z.s.s.g.s.s.s.s.s.s.s.s.s.s.s.s.s.s.s.s.s.s.s.s.s.s.s.s.s.s.s.s.s.s.s.s.s.s.s.s.s.s.s.s.s.s.s.s.s.s.s.s.s.s.s.s.s.s.s.s.s.s.s.s.s.s.s.s.s.s.s.s.s.s.s.s.s.s...S G.s.s.s.e.e.s.e.s.s.s.s.s.s.s.s.s.s.s.s.s.s.s.s.s.s.s.s.s.s.s.s.s.s.s.s.e.e.e.e.s.s.s.s.s.s.s.s.s.s.s.s.s.s.s.s.s.s.s.s.e.e.e.e.s.s.s.s.s.s.s.e.s.s.e.s.s.g...: ",
"G.M.s.s.s.s.s.s.s.s.e.e.s.s.s.s.s.s.s.s.s.s.s.s.s.s.s.s.s.s.s.s.s.s.s.s.s.s.s.s.s.s.s.s.s.s.s.s.s.s.s.s.s.s.s.s.s.s.s.s.s.s.s.s.e.s.s.s.s.s.e.e.s.e.g.s.s.s.g.S :.Z.e.s.s.s.e.s.s.s.s.s.s.s.s.s.s.s.s.s.s.s.s.s.s.s.s.s.s.s.s.s.s.s.s.s.s.s.s.s.s.s.s.s.s.s.s.s.s.s.s.s.s.s.s.s.s.s.s.s.s.s.s.s.s.s.e.e.e.s.s.s.s.e.s.s.s.s.s.V e.M.s.s.s.e.s.s.e.e.s.e.e.e.e.s.s.s.s.s.s.s.s.s.e.e.e.s.s.s.e.e.s.s.e.e.s.s.s.s.s.s.s.s.s.s.s.s.s.s.s.s.s.s.s.s.s.s.s.s.s.s.s.s.s.s.e.e.s.s.s.s.g.s.s.g.e.g.e.v s.g.s.e.s.e.<.e.e.e.e.e.e.e.e.e.e.e.e.e.e.e.e.e.e.e.e.e.e.e.s.s.e.e.e.e.e.e.e.e.e.e.e.e.e.e.e.e.s.s.e.e.e.e.e.e.e.s.s.s.s.s.e.e.e.e.e.e.e.e.e.e.e.e.e.e.e.s.:.v M.M.g.s.s.s.e.e.s.s.s.s.s.s.s.s.s.s.s.s.s.s.s.s.s.s.s.s.s.s.s.s.s.s.s.s.s.s.s.s.s.s.s.s.s.s.s.s.s.s.s.s.s.s.s.s.s.s.s.s.s.s.e.e.s.s.s.s.s.s.s.s.s.s.s.s.s.g.e.V Z.g.s.s.s.s.s.s.s.s.s.s.s.s.s.s.s.s.s.s.s.s.s.s.s.s.s.s.s.s.s.s.s.s.s.s.s.s.s.s.s.s.s.s.s.s.s.s.s.s.s.s.s.s.s.s.s.s.s.s.s.s.s.s.s.s.s.s.s.s.s.s.s.s.e.s.s.s.<.V Z.s.s.g.s.s.s.s.s.s.e.e.e.e.s.s.s.s.s.s.s.s.s.s.s.s.s.s.s.s.s.s.s.s.s.s.s.s.s.s.s.s.s.s.s.s.s.s.s.s.s.s.s.s.s.s.s.s.s.s.s.s.s.s.s.s.s.s.s.s.s.s.s.s.s.s.s.s...S G.s.s.s.e.e.s.e.s.s.s.s.s.s.s.s.s.s.s.s.s.s.s.s.s.s.s.s.s.s.s.s.e.s.s.s.s.s.s.s.s.s.s.s.s.s.s.s.s.s.s.s.s.s.s.s.s.s.s.e.e.e.e.e.s.s.s.s.s.s.e.e.s.s.e.s.s.g...: ",
"G.M.s.s.s.s.s.s.s.e.e.e.s.s.s.s.s.s.s.s.s.s.s.s.s.s.s.s.s.s.s.s.e.e.s.s.s.s.s.s.s.s.s.s.s.s.s.s.s.s.s.s.s.s.s.s.s.s.s.e.e.s.s.s.e.s.s.s.s.s.e.<.s.e.g.s.s.s.g.S :.Z.e.s.s.s.e.s.s.s.s.s.s.s.s.s.s.s.s.s.s.s.s.s.s.s.s.s.s.s.s.s.s.s.s.s.s.s.s.s.s.s.s.s.s.s.s.s.s.s.s.s.s.s.s.s.s.s.s.s.s.s.s.e.s.s.s.e.e.s.s.s.s.e.s.s.s.s.s.V e.M.s.s.s.e.s.e.e.e.s.e.e.e.s.s.s.s.s.s.s.s.s.s.e.e.s.s.s.s.e.e.s.s.s.s.s.s.s.s.s.s.s.s.s.s.s.s.s.s.s.s.s.s.s.s.s.s.s.s.s.s.s.s.s.s.e.s.s.s.s.s.g.s.s.g.e.g.e.v s.g.s.e.s.e.<.s.e.e.e.e.e.e.e.e.e.e.e.e.e.e.e.e.e.e.e.e.e.e.e.e.e.e.e.e.e.e.e.e.e.e.e.e.e.e.e.e.e.e.e.e.e.e.<.<.s.s.e.s.e.s.e.s.e.e.e.e.e.e.e.e.e.e.e.e.e.s.<.v M.M.g.s.s.s.e.e.s.s.s.s.s.s.s.s.s.s.s.s.s.s.s.s.s.s.s.s.s.s.s.s.s.s.s.s.s.s.s.s.s.s.s.s.s.s.s.e.s.s.s.s.s.s.s.s.s.s.s.s.s.s.e.e.s.s.s.s.s.s.s.s.s.s.e.s.s.g.<.v Z.g.s.s.s.s.s.s.s.s.s.s.s.s.s.s.s.s.s.s.s.s.s.s.s.s.s.s.s.s.s.s.s.s.s.s.s.s.s.e.s.s.s.s.s.s.s.s.s.s.s.s.s.s.s.s.s.s.e.e.e.e.s.s.s.s.s.s.s.s.s.s.g.s.s.g.e.s.:.V Z.s.s.g.s.s.s.s.e.e.e.e.e.e.s.s.s.s.s.s.s.s.s.s.s.s.s.s.s.s.s.s.s.s.s.s.s.s.s.s.s.s.s.s.s.s.s.s.s.s.s.s.s.s.s.s.s.s.s.s.s.s.s.s.s.s.s.s.s.s.s.s.s.s.s.s.s.s...S G.s.s.s.e.e.s.e.s.s.s.s.s.s.s.s.s.s.s.s.s.s.s.s.s.s.s.s.s.s.s.s.e.e.s.s.s.s.s.s.s.s.s.s.s.s.s.s.s.s.s.s.s.s.s.s.s.s.e.e.e.e.s.s.s.s.s.s.s.s.e.e.s.s.e.s.s.g...: ",
"G.M.s.s.s.s.s.s.s.e.e.e.s.s.s.s.s.s.s.s.s.s.s.s.s.s.s.s.s.s.s.s.e.e.s.s.s.s.s.s.s.s.s.s.s.s.s.s.s.s.s.s.s.s.s.s.s.s.s.s.s.s.s.s.s.s.s.s.s.e.e.e.g.e.g.s.s.s.g.J :.Z.e.s.s.s.e.s.s.s.s.s.s.s.s.s.s.s.s.s.s.s.s.s.s.s.s.s.s.s.s.s.s.s.s.s.s.s.s.s.e.e.s.s.s.s.s.s.s.s.s.s.s.s.s.s.s.s.s.s.s.s.s.e.s.s.s.s.s.s.s.s.s.e.s.s.s.s.s.V e.M.s.e.s.e.e.e.e.e.e.e.e.e.s.s.s.s.s.s.s.s.s.s.e.e.s.s.s.s.e.e.s.s.s.e.e.s.s.s.s.s.s.s.s.s.s.s.s.s.s.s.s.s.s.s.s.s.s.s.s.s.s.s.s.s.e.s.s.s.s.s.s.e.e.g.e.s.e.v s.g.s.e.s.s.e.s.e.e.e.e.e.e.e.e.e.e.e.s.e.e.e.e.e.e.e.e.e.e.e.e.e.e.e.e.e.e.e.e.e.e.e.e.e.e.e.e.e.e.e.e.e.e.e.e.e.e.e.e.e.e.e.e.e.e.e.e.e.e.e.e.e.e.e.e.e.s.<.v M.g.g.s.s.s.s.e.s.s.s.s.s.s.s.s.s.s.s.s.s.s.s.s.s.s.s.s.s.s.s.s.s.s.s.s.s.s.s.s.s.s.s.s.s.s.s.e.s.s.s.s.s.s.s.s.s.e.s.s.e.s.e.e.s.s.s.s.s.s.s.s.e.s.e.s.s.g.<.v Z.g.s.s.s.s.s.s.s.s.s.s.s.s.s.s.s.s.s.s.s.s.s.s.s.s.s.s.s.s.s.s.e.e.e.e.s.s.s.s.s.s.s.s.s.s.s.s.s.s.s.s.s.s.s.s.s.s.e.e.e.e.s.s.s.s.s.s.s.s.s.s.g.s.s.s.e.s.<.V Z.s.s.g.s.s.s.e.e.e.e.e.e.e.s.s.s.s.s.s.s.s.s.s.s.s.s.s.s.s.s.s.s.s.s.s.s.s.s.s.s.s.s.s.s.s.s.s.s.s.s.s.s.s.s.s.s.s.s.s.s.s.s.s.s.s.s.s.s.s.s.s.s.s.s.s.s.s...S Z.s.s.s.s.s.s.e.s.s.s.s.s.s.s.s.s.s.s.s.s.s.s.s.s.s.s.s.s.s.s.s.e.s.s.s.s.s.s.s.s.s.s.s.s.s.s.s.s.s.s.s.s.s.s.s.s.s.s.s.s.s.s.s.s.s.s.s.s.s.s.e.s.s.e.s.s.g...: ",
"G.M.s.s.s.s.s.s.s.e.e.e.s.s.s.s.s.s.s.s.s.s.s.s.s.s.s.s.s.s.s.s.e.e.s.s.s.s.s.s.s.s.s.s.s.s.s.s.s.s.s.s.s.s.s.s.s.s.s.s.s.s.s.s.s.s.s.s.s.s.s.s.s.e.g.s.s.s.g.S <.G.e.s.s.s.e.s.s.s.s.s.s.s.s.s.s.s.s.s.s.s.s.s.s.s.s.s.s.s.s.s.s.s.s.s.s.s.s.s.e.e.s.s.s.s.s.s.s.s.s.s.s.s.s.s.s.s.s.s.s.s.s.e.s.s.s.s.s.s.s.s.s.e.s.s.s.s.s.v e.M.s.e.s.e.s.e.e.e.s.e.s.s.s.g.s.s.s.s.s.s.s.s.s.s.s.s.s.s.s.e.s.s.e.e.e.s.s.s.s.s.s.s.s.s.s.s.s.s.s.s.s.s.s.s.s.s.s.s.s.s.s.s.s.e.e.e.s.s.s.s.s.e.e.g.e.s.e.v s.g.s.e.s.e.e.s.e.e.s.e.s.s.s.s.e.e.s.e.e.e.e.e.e.e.e.e.e.e.e.e.e.e.e.e.e.e.e.e.e.e.e.e.e.e.e.e.<.e.e.e.e.e.e.e.e.e.e.e.e.e.e.e.e.e.e.e.e.e.e.e.e.e.e.s.e.s.<.v M.g.s.s.s.s.s.s.s.s.s.s.s.s.s.s.s.s.s.s.s.s.s.s.s.s.s.s.s.s.s.s.s.s.s.s.s.s.s.s.s.s.s.s.s.s.s.e.s.s.s.s.s.s.s.s.e.e.e.e.s.s.e.e.s.s.s.s.s.s.s.s.e.s.e.s.s.g.<.v M.g.s.s.s.s.s.s.s.s.s.s.s.s.s.s.s.s.s.s.s.s.s.s.s.s.s.s.s.s.s.s.e.e.e.s.e.s.s.s.s.s.s.s.s.s.s.s.s.s.s.s.s.s.s.s.s.s.s.e.e.e.s.s.s.s.s.s.s.s.s.s.g.s.s.s.e.s.<.V Z.s.s.s.s.s.s.e.s.s.s.s.s.s.s.s.s.s.s.s.s.s.s.s.s.s.s.s.s.s.e.e.s.s.s.s.s.s.s.s.s.s.s.s.s.s.s.s.s.s.s.s.s.s.s.s.s.s.s.s.s.s.s.s.s.s.s.s.s.s.s.s.s.s.s.s.s.s...S Z.s.s.g.s.s.g.s.s.s.s.s.s.s.s.s.s.s.s.s.s.s.s.s.s.s.s.s.s.s.s.s.s.s.s.s.s.s.s.s.s.s.s.s.s.s.s.s.s.s.s.s.s.s.s.s.s.s.s.s.s.s.s.s.s.s.s.s.s.s.s.s.s.s.e.s.s.g...: ",
"G.M.s.s.s.s.s.s.s.e.e.e.e.s.s.s.s.s.s.s.s.s.s.s.s.s.s.s.s.s.s.s.e.e.s.s.s.s.s.s.s.s.s.s.s.s.s.s.s.s.s.s.s.s.s.s.s.s.s.s.s.s.s.s.s.s.s.s.s.s.s.s.s.e.g.s.s.s.g.S <.G.s.s.s.g.e.g.s.s.s.s.s.s.s.s.s.s.s.s.s.s.s.s.s.s.s.s.s.s.s.s.s.s.s.s.s.s.s.s.e.e.s.s.s.s.s.s.s.s.s.s.s.s.s.s.s.s.s.s.s.s.s.e.s.s.s.g.g.g.s.s.g.e.s.e.s.s.s.v e.M.e.e.s.e.s.s.e.e.s.s.s.s.s.g.s.s.s.s.s.s.s.s.s.s.s.s.s.s.s.s.s.s.e.e.e.s.s.s.s.s.s.s.s.s.s.s.s.s.s.s.s.s.s.s.s.s.s.s.s.s.s.s.s.e.e.e.s.s.s.s.g.s.s.g.e.g.e.v s.g.s.e.s.s.e.s.e.e.s.s.s.s.s.s.e.s.e.e.e.e.e.e.e.e.e.e.e.e.e.e.e.e.e.e.e.e.e.e.e.e.e.e.e.e.e.e.<.<.e.e.e.e.e.e.e.e.e.e.e.e.e.e.e.e.e.e.e.e.e.e.e.e.e.s.e.s.<.v M.g.s.s.s.s.s.s.s.s.s.s.s.s.s.s.s.s.s.s.s.s.s.s.s.s.s.s.s.s.s.s.s.s.s.s.s.s.s.s.s.s.s.s.s.s.s.e.s.s.s.s.s.s.s.s.e.e.e.e.s.s.e.e.s.s.s.s.s.s.s.s.e.s.s.s.s.g.<.v M.s.e.s.s.s.s.s.s.s.s.s.s.s.s.s.s.s.s.s.s.s.s.s.s.s.s.s.s.s.s.s.e.e.e.e.e.s.s.s.s.s.s.s.s.s.s.s.s.s.s.s.s.s.s.s.s.s.s.e.e.e.s.s.s.s.s.s.s.s.s.s.g.g.s.s.e.s.<.V Z.s.s.s.s.s.s.e.g.s.s.s.s.s.s.g.s.s.s.s.s.s.s.s.s.s.s.s.s.e.e.e.e.s.s.s.s.s.s.e.s.s.s.s.s.s.s.s.s.s.s.s.s.s.s.s.s.s.e.e.e.e.e.e.s.s.s.s.s.s.s.s.s.s.s.s.s.s...S Z.s.s.g.s.s.g.s.s.s.s.s.s.s.s.s.s.s.s.s.s.s.s.s.s.s.s.s.s.s.s.s.s.s.s.s.s.s.s.s.s.s.s.s.s.s.s.s.s.s.s.s.s.s.s.s.s.s.s.s.s.s.s.s.s.s.s.s.s.s.s.s.s.s.e.s.s.g...: ",
"G.M.s.s.s.s.s.s.e.e.e.s.s.s.s.s.s.s.s.s.s.s.s.s.s.s.s.s.s.s.s.s.s.s.s.s.s.s.s.s.s.s.s.s.s.s.s.s.s.s.s.s.s.s.s.s.s.s.s.s.s.s.s.s.s.s.s.s.s.s.s.s.g.e.g.s.s.s.g.S <.Z.s.g.e.s.s.s.s.s.s.s.s.s.s.s.s.s.s.s.s.s.s.s.s.s.s.s.s.s.s.s.s.s.s.s.s.s.e.e.s.s.s.s.s.s.s.e.e.e.s.s.s.s.s.s.s.s.s.s.s.s.s.s.s.s.s.s.s.s.s.s.g.e.s.e.e.e.e.V e.M.s.s.g.s.s.s.s.s.s.s.s.s.s.s.g.g.s.s.s.s.s.s.s.s.s.s.s.s.s.s.s.e.e.e.e.s.s.g.g.g.s.s.s.s.s.s.s.s.s.s.s.s.s.s.s.s.s.s.s.s.s.s.e.e.s.s.s.s.s.s.g.e.g.s.s.s.s.v s.M.e.e.s.<.e.e.<.<.e.e.e.e.e.e.s.s.e.e.e.e.e.s.e.e.e.e.e.s.s.s.e.e.e.e.e.e.e.e.e.e.e.e.e.e.e.s.e.s.s.s.s.s.s.s.s.e.e.e.e.s.s.e.e.e.e.e.e.e.e.e.s.s.e.s.e.s.:.v g.g.s.s.s.s.s.s.s.s.s.s.s.s.s.s.s.s.s.e.e.s.s.s.s.s.s.s.s.s.s.s.s.s.s.s.s.s.s.s.s.s.s.s.s.s.s.s.s.s.s.s.s.s.s.s.e.e.e.s.s.s.s.s.s.s.s.s.s.s.s.s.e.s.e.s.s.g.<.v Z.g.e.s.s.s.s.s.s.s.s.s.s.s.s.s.s.s.s.s.s.s.s.s.s.s.s.s.s.s.s.e.s.s.s.s.s.s.s.s.s.s.s.s.s.s.s.s.s.s.s.s.s.s.s.s.s.s.s.s.s.s.s.s.s.s.s.s.s.s.s.s.s.s.s.e.e.g.%.S G.g.s.s.s.s.s.e.s.s.s.s.s.s.s.s.s.s.s.s.s.s.s.s.s.s.s.s.s.s.s.s.s.s.s.s.s.s.s.s.s.s.s.s.s.s.s.s.e.e.s.s.s.s.s.s.s.s.s.s.s.s.s.s.s.s.s.s.s.s.s.s.s.s.g.s.s.g.:.S J.g.s.s.s.s.s.s.s.s.s.s.s.g.s.s.e.s.s.s.s.s.s.s.s.s.s.s.s.s.s.e.s.s.s.s.s.s.s.s.e.e.s.s.s.s.s.s.s.s.s.s.s.s.s.e.s.s.s.s.s.s.s.s.s.s.s.s.s.s.s.s.s.g.s.s.s.g...- ",
"G.M.s.s.s.s.s.s.e.e.e.s.s.s.s.s.s.s.s.s.s.s.s.s.s.s.s.s.s.s.s.s.s.s.s.s.s.s.s.s.s.s.s.s.s.s.s.s.s.s.s.s.s.s.s.s.s.s.s.s.s.s.s.s.s.s.s.s.s.s.s.s.g.e.g.s.s.s.g.S <.Z.s.g.e.g.s.s.s.s.s.s.s.s.s.s.s.s.s.s.s.s.s.s.s.s.s.s.s.s.s.s.s.s.s.s.s.s.e.e.s.s.s.s.s.s.s.s.e.e.s.s.s.s.s.s.s.s.s.s.s.s.s.s.s.s.s.s.s.s.s.s.g.e.s.e.e.e.e.V e.M.s.s.g.s.s.s.s.s.s.s.s.s.s.s.s.s.s.s.s.s.s.s.s.s.s.s.s.s.s.s.s.e.e.e.e.s.s.g.s.s.s.s.s.s.s.s.s.s.s.s.s.s.s.s.s.s.s.s.s.s.s.s.s.e.s.s.s.s.s.s.g.e.g.s.s.s.s.v s.M.e.e.s.<.e.e.<.<.e.e.e.e.e.e.e.e.e.e.e.e.e.s.e.e.e.e.e.s.s.s.e.e.e.e.e.e.e.e.e.e.e.e.e.e.s.e.e.s.s.s.s.s.s.s.s.e.e.e.e.s.s.e.s.s.s.e.e.e.e.e.s.s.e.s.e.s.:.v g.g.s.s.s.s.s.s.s.s.s.s.s.s.s.s.s.s.s.s.s.s.s.s.s.s.s.s.s.s.s.s.s.s.s.s.s.s.s.s.s.s.s.s.s.s.s.s.s.s.s.s.s.s.s.s.e.e.e.s.s.s.s.s.s.s.s.s.s.s.s.s.e.s.e.s.s.g.<.v Z.g.e.s.s.s.s.s.s.s.s.s.s.s.s.s.s.s.s.s.s.s.s.s.s.s.s.s.s.s.s.e.s.s.s.s.s.s.s.s.s.s.s.s.s.s.s.s.s.s.s.s.s.s.s.s.s.s.s.s.s.s.s.s.s.s.s.s.s.s.s.s.s.s.s.e.s.g.%.S G.g.s.s.s.s.g.e.s.s.s.s.s.s.s.s.s.s.s.s.s.s.s.s.s.s.s.s.s.s.s.s.s.s.s.s.s.s.s.s.s.s.s.s.s.s.s.s.e.s.s.s.s.s.s.s.s.s.s.s.s.s.s.s.s.s.s.s.s.s.s.s.s.s.g.s.s.g.%.S G.g.s.s.e.s.s.s.s.s.e.s.s.s.s.s.e.s.s.s.s.s.s.s.s.s.s.s.s.s.s.e.s.s.s.s.e.e.e.e.e.e.s.s.s.s.s.s.s.s.s.s.s.s.s.s.s.s.s.s.s.s.s.s.s.s.s.s.s.s.s.s.e.g.s.s.s.g...: ",
"G.M.s.s.s.s.s.s.e.e.e.e.s.s.s.s.s.s.s.s.s.s.s.s.s.s.s.s.s.s.s.s.s.s.s.s.s.s.s.s.s.s.s.s.s.s.s.s.s.s.s.s.s.s.s.s.s.s.s.s.s.s.s.s.s.s.s.s.s.s.s.s.g.e.g.s.s.s.g.S <.Z.e.g.e.s.s.s.s.s.s.s.s.s.s.s.s.s.s.s.s.s.s.s.s.s.s.s.s.s.s.s.s.s.s.s.e.e.e.e.s.s.s.s.s.s.s.s.e.e.s.s.s.s.s.s.s.s.s.s.s.s.s.s.s.s.s.s.s.s.s.s.g.e.s.e.e.e.s.V e.M.s.s.g.s.s.s.s.s.s.s.s.s.s.s.s.s.s.s.s.s.s.s.s.s.s.s.s.s.s.s.s.e.e.e.s.s.s.s.s.s.s.s.s.s.s.s.s.s.s.e.s.s.s.g.s.s.s.s.s.s.s.s.e.s.s.s.s.s.s.s.g.e.g.s.s.s.s.v s.M.<.e.e.<.e.e.<.e.e.e.e.e.e.e.s.e.e.e.e.e.e.e.e.e.e.e.e.e.e.e.e.e.e.e.e.e.e.e.e.e.e.e.e.e.e.e.e.e.e.e.e.e.e.e.e.e.e.e.s.e.e.e.s.s.s.s.e.e.e.e.e.s.e.s.e.s.:.p g.g.s.s.s.s.s.s.s.s.s.s.e.s.s.s.s.s.s.s.s.s.s.s.s.s.s.s.s.s.s.s.s.s.s.s.s.s.s.s.s.s.s.s.s.s.s.s.s.s.s.s.s.s.e.e.e.e.s.s.s.s.s.s.s.s.s.s.e.e.e.s.e.s.e.s.s.g.<.v Z.g.e.s.s.s.s.s.s.s.s.s.s.s.s.s.s.s.s.s.s.s.s.s.s.s.s.s.s.s.e.e.s.s.s.s.s.s.s.s.s.s.s.s.s.s.s.s.s.s.s.s.s.s.s.s.s.s.s.s.s.s.s.s.s.s.s.s.s.s.s.s.s.s.s.e.s.g.%.S G.g.s.g.s.s.g.s.s.s.s.s.s.s.s.s.s.s.s.s.s.s.s.s.s.s.s.s.s.s.s.s.s.s.s.s.s.s.s.s.s.s.s.s.s.s.s.s.s.s.s.s.s.s.s.s.s.s.s.s.s.s.s.s.s.s.s.s.s.s.s.s.s.s.g.s.s.g.%.S G.s.s.s.e.s.s.e.s.s.e.e.e.s.s.e.e.e.s.s.s.s.s.s.s.s.s.e.e.e.e.s.e.e.e.e.e.e.e.e.s.s.s.s.s.s.s.s.s.s.s.s.s.s.s.s.s.s.s.s.s.s.s.s.s.s.s.s.s.s.s.s.s.g.e.s.s.g.%.: ",
"G.M.s.s.s.s.s.s.e.e.e.s.s.s.s.s.s.s.s.s.s.s.s.s.s.s.s.s.s.s.s.s.s.s.s.s.s.s.s.s.s.s.s.s.s.s.s.s.s.s.s.s.s.s.s.s.s.s.s.s.s.s.s.s.s.s.s.s.s.s.s.s.g.e.g.s.s.s.g.S <.Z.e.g.e.s.s.s.s.s.s.s.s.s.s.s.s.s.s.s.s.s.s.s.s.s.s.s.s.s.s.s.s.s.s.s.e.e.e.s.s.s.s.s.s.s.s.s.e.e.s.s.s.s.s.s.s.s.s.s.s.s.s.s.s.s.s.s.s.s.s.s.s.e.s.e.e.e.s.V e.M.s.s.g.s.s.s.s.s.s.s.s.s.s.s.s.s.s.s.s.s.s.s.s.s.s.s.s.s.s.s.s.s.s.s.s.s.s.s.s.s.s.e.s.e.s.s.s.s.s.e.s.s.s.g.s.s.s.s.s.s.s.s.e.s.s.s.s.s.e.e.g.e.g.s.s.s.s.v s.M.<.e.s.<.e.e.e.e.e.e.e.e.e.e.e.e.e.e.e.e.e.e.e.e.e.e.e.e.e.e.e.e.e.e.e.e.e.e.e.e.e.s.s.s.e.e.e.e.e.e.e.e.e.e.e.e.e.e.e.s.e.e.e.e.e.e.e.e.e.e.e.s.e.e.e.s.:.p M.g.s.s.s.s.s.s.s.s.s.e.e.e.s.s.s.s.s.s.s.s.s.s.s.s.s.s.s.s.s.s.s.s.s.s.s.s.s.s.s.s.s.s.s.s.s.s.s.s.s.s.s.e.e.e.e.e.s.s.s.s.s.s.e.e.e.e.e.e.e.e.s.s.s.s.s.g.<.v Z.g.e.s.s.s.s.s.s.s.s.s.s.s.s.s.s.s.s.s.s.s.s.s.s.s.s.s.s.e.e.e.s.s.s.s.s.s.s.s.s.s.s.s.s.s.s.s.s.s.s.s.s.s.s.s.s.s.s.s.s.s.s.s.e.s.s.s.s.s.s.s.s.e.s.s.s.g.%.S G.g.s.s.s.s.s.s.s.s.s.s.s.s.s.s.s.s.s.s.s.s.s.s.s.s.s.s.s.s.s.s.s.s.s.s.s.s.s.s.s.s.s.s.s.s.s.s.s.s.s.s.s.s.s.s.s.s.s.s.s.s.s.s.s.s.s.s.s.s.s.s.s.s.s.s.s.g.%.S Z.s.s.s.s.s.s.s.s.s.e.e.e.e.e.e.e.s.s.s.s.s.s.s.s.s.e.e.e.e.s.s.e.e.e.e.e.e.e.e.s.s.s.s.s.s.s.s.s.s.s.s.s.s.s.s.s.s.s.s.s.s.s.s.s.s.s.s.s.s.s.s.s.g.e.e.s.g.%.: ",
"G.M.s.s.s.s.s.s.s.s.s.s.s.s.s.s.s.s.s.s.s.s.s.s.s.s.s.s.s.s.s.s.s.s.s.s.s.s.s.s.s.s.s.s.s.s.s.s.s.s.s.s.s.s.s.s.s.s.s.s.s.s.s.s.s.s.s.s.s.s.s.s.g.e.g.s.s.s.g.S <.Z.s.g.e.s.s.s.s.s.s.s.s.s.s.s.s.s.s.s.s.s.s.s.s.s.s.s.s.s.s.s.s.s.s.e.e.s.s.s.s.s.s.s.s.s.s.e.e.e.s.s.s.s.s.s.s.s.s.s.s.s.s.s.s.s.s.s.s.s.s.s.s.e.g.s.s.s.s.V e.M.s.s.s.s.s.s.s.s.s.s.s.s.s.s.s.s.s.s.s.s.e.e.s.s.s.s.s.s.s.s.s.s.s.s.s.s.s.s.s.e.e.e.e.s.s.s.s.s.s.s.e.s.s.g.s.s.s.s.s.s.s.s.e.e.s.s.s.s.e.e.g.e.g.s.s.s.s.v s.g.<.e.s.<.e.e.e.e.e.e.e.e.e.e.e.e.e.e.e.e.e.e.e.s.e.e.e.e.e.e.e.e.e.e.e.e.e.e.e.e.e.s.e.e.e.e.e.e.e.e.e.e.e.e.e.e.e.e.e.s.e.e.e.e.e.e.e.e.e.e.e.s.e.s.e.s.:.p M.g.s.s.s.s.s.s.s.s.e.e.e.e.s.s.s.s.s.s.s.s.s.s.s.s.s.s.s.s.s.s.s.s.s.s.s.s.s.s.s.s.s.s.s.s.s.s.s.s.s.s.e.e.e.e.s.s.s.s.s.s.s.s.s.s.e.s.e.e.e.e.s.s.s.g.s.g.<.v Z.g.s.s.s.s.s.s.s.s.s.s.s.s.s.s.s.s.s.s.s.s.s.s.e.e.s.s.e.e.e.e.s.s.s.s.s.s.s.s.s.s.s.s.s.s.s.s.s.s.s.s.s.s.s.s.s.s.s.s.s.s.s.s.e.s.s.s.s.s.s.s.s.s.s.s.s.g.%.S Z.s.e.s.e.s.s.e.s.s.s.s.s.s.s.s.s.s.s.s.s.s.s.s.s.s.s.s.s.s.s.s.s.s.s.s.s.s.s.s.s.s.s.s.s.s.s.s.s.s.s.s.s.s.s.e.s.s.s.s.s.s.s.s.s.s.s.s.s.s.s.s.s.s.s.e.e.s.%.S Z.g.s.g.s.s.g.s.s.s.e.e.e.e.e.e.s.s.s.s.s.s.s.s.s.s.e.e.e.e.s.s.s.s.s.s.s.s.s.s.s.s.s.s.s.s.s.s.s.s.s.s.s.s.s.e.s.s.s.s.s.s.s.s.s.s.s.s.s.s.s.s.s.g.s.s.s.g.%.: ",
"G.M.s.s.s.s.s.s.s.s.s.s.s.s.s.s.s.s.s.s.s.s.s.s.s.s.s.s.s.s.s.s.s.s.s.s.s.s.s.s.s.s.s.s.s.s.s.s.s.s.s.s.s.s.s.s.s.s.s.s.s.s.s.s.s.s.s.s.s.s.s.s.g.e.g.s.s.s.g.S <.Z.s.g.e.s.s.s.s.s.s.s.s.s.s.s.s.s.s.s.s.s.s.s.s.s.s.s.s.s.s.s.s.s.s.e.e.s.s.s.s.s.s.s.s.s.s.s.e.e.s.s.s.s.s.s.s.s.s.s.s.s.s.s.s.s.s.s.s.s.s.s.s.e.g.s.s.s.s.V e.M.s.s.s.e.s.s.s.s.s.s.s.s.s.s.s.s.s.s.s.s.e.e.e.s.s.s.s.s.s.s.s.s.s.s.s.s.s.s.e.e.e.e.s.s.s.s.s.s.s.s.s.s.s.s.s.s.s.s.s.s.s.s.s.s.s.s.s.s.e.e.g.e.g.s.s.s.s.v e.g.<.e.s.<.e.e.e.e.e.e.e.e.e.e.e.e.e.e.s.s.s.e.e.e.e.e.e.e.e.e.e.e.e.e.e.e.e.e.e.e.e.e.e.e.e.e.e.e.e.e.e.e.e.e.e.e.e.e.e.e.e.e.e.<.<.e.e.e.e.e.e.e.e.s.e.s.:.p M.g.s.s.s.s.s.s.s.e.e.e.e.e.s.s.s.s.s.s.s.s.s.s.s.s.s.s.s.s.s.s.s.s.s.s.s.s.s.s.s.s.s.s.s.s.s.s.s.s.s.s.e.e.e.e.s.s.s.s.s.s.s.s.s.s.s.s.s.s.s.s.s.s.s.g.s.g.<.v Z.g.s.s.s.s.s.s.s.s.s.s.s.s.s.s.s.s.s.s.s.s.s.s.s.s.s.s.s.s.s.s.s.s.s.s.s.s.s.s.s.s.s.s.s.s.s.s.s.s.s.s.s.s.s.s.s.s.s.s.s.s.s.s.e.s.s.s.s.s.s.s.s.s.s.s.s.g.%.V Z.s.e.s.e.s.s.e.s.s.s.s.s.s.s.s.s.s.s.s.s.s.s.s.s.s.s.s.s.s.s.s.s.s.s.s.s.s.s.s.s.s.s.s.s.s.s.s.s.s.s.s.s.s.s.s.s.s.s.s.s.s.s.s.s.s.s.s.s.s.s.s.s.s.s.e.e.s.%.S G.g.s.g.s.s.g.s.s.e.e.e.e.e.s.s.s.s.s.s.s.s.s.s.s.s.e.e.e.s.s.s.s.s.s.s.s.s.s.s.s.s.s.s.s.s.s.s.s.s.s.s.s.s.s.e.s.s.s.s.s.s.s.s.s.s.s.s.s.s.s.s.s.g.s.s.s.g.%.: ",
"G.M.s.s.s.s.s.s.s.s.s.s.s.s.s.s.s.s.s.s.s.s.s.s.s.s.s.s.s.s.s.s.s.s.s.s.s.s.s.s.s.s.s.s.s.s.s.s.s.s.s.s.s.s.s.s.s.s.s.s.s.s.s.s.s.s.s.s.s.s.s.s.g.e.g.s.s.s.g.S <.Z.s.g.e.s.s.s.s.s.s.s.s.s.s.s.s.s.s.s.s.s.s.s.s.s.s.s.s.s.s.s.s.s.s.e.s.s.s.s.s.s.s.s.s.s.s.s.s.s.s.s.s.s.s.s.s.s.s.s.s.s.s.s.s.s.s.s.s.s.s.s.s.e.g.s.s.s.s.V e.M.s.s.s.e.s.s.s.s.s.s.s.s.s.s.s.s.s.s.s.s.s.s.e.e.s.s.s.s.s.s.s.s.s.s.g.s.s.s.e.e.e.e.s.s.s.s.e.e.s.s.s.s.s.s.s.s.s.s.s.s.s.s.s.s.s.s.s.s.e.s.g.e.g.s.s.s.s.v e.g.<.e.s.<.e.e.e.e.e.e.e.e.e.e.<.e.e.e.s.s.s.e.e.e.e.e.e.e.e.e.e.e.e.e.e.e.e.e.e.e.e.e.e.e.e.e.e.e.e.e.e.e.e.e.e.e.e.e.e.e.e.e.<.<.<.e.e.e.e.e.e.s.e.e.e.e.:.p M.g.s.s.s.s.s.s.e.e.s.e.s.s.s.s.s.s.s.s.s.s.s.s.s.s.s.s.s.s.s.s.s.s.s.s.s.s.s.s.s.s.s.s.s.s.s.s.s.s.s.e.e.s.s.s.s.s.s.s.s.s.s.s.e.s.s.s.s.s.s.s.s.g.s.g.s.g.<.v Z.g.s.s.s.s.s.s.s.s.s.s.s.s.s.s.s.s.s.s.s.s.s.s.s.s.s.s.s.s.s.s.s.s.s.s.s.s.s.s.s.s.s.s.s.s.s.s.s.s.s.s.s.s.s.s.s.s.s.s.s.s.s.s.s.s.s.s.s.s.s.s.e.s.s.s.s.g.%.V Z.s.e.s.e.s.s.e.s.s.s.s.s.s.s.s.s.s.s.s.s.s.s.s.s.s.s.s.s.s.s.s.s.s.s.s.s.s.s.s.s.s.s.s.s.s.s.s.s.s.s.s.s.s.s.s.s.s.s.s.s.s.s.s.s.s.s.s.s.s.s.s.e.e.e.e.e.s.%.S G.g.s.g.s.s.s.e.e.e.e.e.s.s.s.s.s.s.s.s.s.s.s.s.s.s.s.s.s.s.s.s.s.s.s.s.s.s.s.s.s.s.s.s.s.s.s.s.s.s.s.s.s.s.s.e.s.s.s.s.s.s.s.s.s.s.s.s.s.s.s.s.s.g.s.s.s.g...- ",
"G.M.s.s.s.s.s.s.s.s.s.s.s.s.s.s.s.s.s.s.s.s.s.s.s.s.s.s.s.s.s.s.s.s.s.s.s.s.s.s.s.s.s.s.s.s.s.s.s.s.s.s.s.s.s.s.s.s.s.s.s.s.s.s.s.s.s.s.s.s.s.s.g.e.g.s.s.s.g.S <.Z.s.g.e.s.s.s.s.s.s.s.s.s.s.s.s.s.s.s.s.s.s.s.s.s.s.s.s.s.s.s.s.s.e.s.s.s.s.s.s.s.s.s.s.s.s.s.s.s.s.s.s.s.s.s.s.s.s.s.s.s.s.s.s.s.s.s.s.s.s.s.s.e.g.s.s.s.s.V e.M.s.s.s.e.s.s.s.s.s.s.s.s.s.s.s.s.s.e.e.s.s.s.e.e.s.s.s.s.s.s.s.s.s.s.g.s.s.s.e.e.e.e.s.s.s.g.e.e.s.s.g.g.s.s.s.s.s.s.s.s.s.s.s.s.s.s.s.e.s.s.g.e.g.s.s.s.s.v e.g.<.e.s.<.e.e.e.e.e.e.e.e.e.e.<.e.e.e.s.s.s.e.e.e.e.e.e.e.e.e.e.e.e.e.e.e.e.e.e.e.e.e.e.e.s.s.e.e.e.e.e.e.e.e.e.e.e.e.e.e.e.e.e.e.e.e.e.e.e.e.e.e.e.e.e.e.:.p M.g.s.s.s.s.s.s.e.e.s.s.s.s.s.s.s.s.s.e.e.s.s.s.s.s.s.s.s.s.s.s.s.s.s.s.s.s.s.s.s.s.s.s.s.s.s.s.s.s.s.e.e.e.s.s.s.s.s.s.s.s.s.s.s.s.s.s.s.s.s.s.s.g.s.g.s.g.<.v M.g.e.s.s.s.s.s.s.s.s.s.s.s.s.s.s.s.s.s.s.s.s.s.s.s.s.s.s.s.s.s.s.s.s.s.s.s.s.s.s.s.s.s.s.s.s.s.s.s.s.s.s.s.s.s.s.s.s.s.s.s.s.s.s.s.s.s.s.s.s.s.e.e.s.s.s.g.%.V Z.s.e.s.s.s.g.s.s.s.s.s.s.s.s.s.s.s.s.s.s.s.s.s.s.s.s.s.s.s.s.s.s.s.s.s.s.s.s.s.s.s.s.s.s.s.s.s.s.s.s.s.s.s.s.s.s.s.s.s.s.s.s.s.s.s.s.s.s.s.s.s.e.e.e.<.e.s.:.J G.g.s.g.s.s.s.e.e.e.e.e.s.s.s.s.s.s.s.s.s.s.s.s.s.s.s.s.s.s.s.s.s.s.s.s.s.s.s.s.s.s.s.s.s.s.s.s.s.s.s.s.s.s.s.e.s.s.s.s.s.s.s.s.s.s.s.s.s.s.s.s.s.g.s.s.s.g...- ",
"G.g.e.e.s.e.e.s.s.s.s.s.s.s.s.s.s.s.s.s.s.s.s.e.s.s.s.s.s.s.s.s.s.s.s.s.s.s.s.s.s.s.s.s.s.s.s.s.e.e.s.s.s.s.s.s.s.s.s.s.e.s.s.s.s.s.s.s.s.s.s.s.s.<.s.e.e.e.s.V <.G.e.s.s.s.e.s.s.s.s.s.e.s.s.s.e.e.s.s.s.s.e.e.s.s.s.s.s.s.s.s.s.s.s.s.s.s.s.s.s.s.s.s.s.s.s.s.s.s.s.s.s.s.s.s.s.s.s.s.s.s.s.s.s.s.s.s.e.s.s.s.s.e.s.e.s.s.s.V e.M.s.s.s.e.s.e.s.s.s.s.e.e.e.e.s.s.s.s.s.s.s.s.e.e.s.s.s.s.s.s.e.e.s.s.s.s.s.s.s.s.s.s.s.s.s.s.s.s.s.s.s.s.e.e.e.e.s.s.s.s.s.s.e.e.s.s.s.e.e.e.s.e.g.s.s.s.e.v s.M.<.<.e.<.e.e.e.e.e.e.e.e.e.e.e.e.e.e.e.e.e.e.e.e.e.e.e.e.e.e.e.e.e.e.e.e.e.e.e.e.e.s.s.e.e.e.<.<.<.e.e.e.e.e.e.e.e.e.e.e.e.e.e.e.e.e.e.e.e.e.e.e.<.e.e.s.:.p M.g.s.s.s.s.s.s.e.e.s.s.s.s.s.s.s.s.e.e.e.e.s.s.s.s.s.s.s.s.s.s.s.s.s.s.s.s.s.s.e.e.s.s.s.s.s.s.s.s.s.e.e.s.s.s.s.s.s.s.s.s.s.s.s.s.s.s.s.s.s.s.s.s.e.s.e.s.<.V Z.g.s.e.s.s.e.s.s.s.e.s.s.s.s.s.s.s.e.e.e.e.s.s.e.e.s.s.s.e.e.s.s.s.s.s.s.s.s.s.s.s.s.s.s.s.s.s.e.e.s.s.s.s.s.s.e.e.s.s.s.s.s.s.e.e.e.s.s.s.s.s.s.s.s.e.s.g.%.V Z.s.s.s.s.s.s.s.s.s.s.s.s.s.s.s.s.s.s.e.e.s.s.s.s.s.s.e.e.e.e.e.e.e.e.e.s.s.s.s.s.s.s.s.s.s.e.e.s.s.s.s.s.s.s.s.s.s.s.s.s.s.s.s.e.e.e.e.e.e.e.e.s.e.e.e.s.s.%.S Z.s.e.g.s.e.e.e.s.e.s.s.s.s.s.s.s.s.s.s.s.s.s.s.s.s.s.s.s.s.s.s.e.e.e.s.s.s.e.e.s.s.s.s.s.s.s.s.e.e.e.e.e.e.e.e.s.s.e.e.e.e.e.e.s.s.e.s.s.s.e.s.s.g.s.s.s.s...- ",
"G.g.e.e.s.e.e.s.s.s.s.s.s.s.s.s.s.s.s.s.s.s.e.e.s.s.s.s.s.s.s.s.e.e.s.s.s.s.s.s.s.s.s.s.s.s.s.s.s.s.s.s.s.s.s.s.e.e.e.e.e.e.e.s.e.e.e.s.s.s.s.s.s.<.s.e.e.e.s.V :.Z.e.s.e.s.e.s.s.s.s.s.e.s.s.s.e.e.s.s.s.s.s.e.s.s.s.s.s.s.s.s.s.s.s.s.s.s.s.s.s.s.s.s.s.s.s.s.s.s.s.s.s.s.s.s.s.s.s.s.s.s.s.s.s.s.s.s.e.e.e.s.s.e.s.e.s.s.s.V e.M.s.s.s.e.s.e.s.s.s.s.e.e.e.e.s.s.s.s.s.s.s.s.s.s.s.s.s.s.s.s.e.e.s.s.s.s.s.s.s.s.s.s.s.s.s.e.s.s.s.s.s.s.e.e.e.e.s.s.s.s.s.s.e.e.s.s.s.e.e.e.s.e.s.s.s.s.e.v s.g.<.<.s.<.e.e.e.e.e.e.e.e.e.e.e.e.e.e.e.e.e.e.e.e.e.e.e.e.e.e.e.e.e.e.e.e.e.e.e.e.e.e.e.e.e.e.<.<.<.e.e.e.e.e.e.e.e.e.e.e.e.e.e.e.e.e.e.e.e.e.e.e.<.e.e.s.:.p M.g.s.s.s.s.s.s.e.e.s.s.s.s.s.e.s.e.e.e.e.e.s.s.s.s.s.s.s.s.s.s.s.s.s.s.s.s.s.s.e.e.s.s.s.s.s.s.s.s.s.e.e.s.s.s.s.s.s.s.s.s.s.s.s.s.s.s.s.s.s.s.s.s.e.s.e.s.<.V Z.g.e.e.s.s.e.s.s.s.e.e.s.s.s.e.s.s.e.e.e.e.s.s.e.e.s.s.s.e.e.s.s.s.s.s.s.s.s.s.s.s.s.s.s.s.s.s.e.e.s.s.s.s.s.s.s.s.s.s.s.s.e.e.e.e.e.s.s.s.s.s.s.s.s.e.s.g.%.V Z.s.s.s.s.s.s.s.s.s.s.s.s.s.s.s.s.s.s.e.e.s.s.s.s.s.s.e.e.e.e.e.e.e.e.e.s.s.s.s.s.s.s.s.s.s.e.e.e.e.s.s.s.s.s.s.s.s.s.s.s.s.s.s.e.e.e.e.e.e.e.e.s.e.e.e.s.s.%.S Z.e.e.g.s.e.s.e.e.e.s.s.s.s.s.s.s.s.s.s.s.s.s.s.e.e.e.s.s.s.s.s.e.e.e.s.s.s.e.e.s.s.s.s.s.s.s.s.e.e.e.e.e.e.e.e.s.s.e.e.e.e.e.e.s.e.e.e.e.s.s.s.s.g.s.s.e.s...- ",
"G.M.e.e.s.e.e.s.s.s.s.s.s.s.s.s.s.s.s.s.s.e.e.e.s.s.s.s.s.s.s.s.e.e.e.e.e.s.e.e.s.s.s.s.s.s.s.s.s.s.s.s.s.e.e.e.e.e.e.e.e.e.s.s.e.e.e.e.e.e.s.s.s.e.s.e.e.e.s.V :.Z.e.e.e.s.e.e.s.s.s.s.e.s.s.s.s.s.s.s.s.e.e.e.s.s.s.s.s.s.s.s.s.s.s.s.s.s.s.s.e.e.e.e.e.e.e.s.s.s.s.s.s.s.s.s.s.s.e.e.e.e.e.e.s.s.s.e.e.e.e.e.s.e.s.e.s.s.s.V e.M.s.s.s.e.s.e.e.e.e.e.e.e.e.e.s.s.s.s.s.s.s.s.s.s.s.s.s.s.s.s.e.e.s.s.s.s.s.s.s.s.s.s.e.e.e.e.s.s.s.s.s.s.s.e.e.e.s.s.s.s.s.s.s.e.s.e.e.e.e.e.s.e.g.s.s.s.s.v e.g.<.e.s.e.e.e.e.e.e.e.e.e.e.e.e.e.e.e.e.e.e.e.e.e.e.e.e.e.e.e.e.e.e.e.e.e.e.e.<.<.e.e.e.e.<.e.e.<.<.e.e.e.e.e.e.e.e.e.e.e.e.e.e.e.e.e.e.e.e.e.e.e.e.e.e.s.:.p M.g.s.s.s.s.s.s.e.s.s.s.s.s.s.e.e.e.e.e.e.e.e.s.s.s.s.s.s.s.s.s.s.s.s.s.s.s.s.s.e.e.s.s.s.s.s.s.s.s.s.e.s.s.s.s.s.s.s.s.s.s.s.s.s.s.s.s.s.s.s.s.s.s.e.s.e.s.<.V Z.g.s.s.s.s.e.s.s.s.s.e.e.e.e.e.e.e.e.e.s.s.s.s.e.s.s.s.e.e.e.s.s.s.s.s.s.s.s.s.s.s.s.s.s.s.s.s.s.s.s.s.s.s.s.s.s.s.s.s.e.e.e.e.e.e.e.e.s.s.s.s.s.s.s.e.s.g.%.V Z.s.s.s.s.s.s.e.e.e.s.s.s.s.s.s.s.s.s.s.s.s.s.s.s.s.s.e.e.e.e.e.e.e.e.e.s.s.s.s.s.s.s.s.s.s.e.e.s.e.s.s.s.s.s.s.s.s.s.s.s.s.s.s.s.s.s.e.e.e.e.e.s.e.s.s.s.s.%.S Z.e.e.g.s.e.s.e.s.e.s.s.s.s.s.s.s.s.s.s.s.s.s.s.e.e.e.e.e.e.s.s.e.e.s.s.s.s.s.s.s.s.s.s.s.s.s.s.e.e.e.e.e.e.e.s.s.s.s.s.s.s.e.s.e.e.e.e.e.s.s.s.s.g.s.e.e.s...- ",
"G.M.s.e.s.e.e.s.s.s.s.s.s.s.s.s.s.s.s.s.e.e.e.e.s.s.s.s.s.s.s.s.e.e.e.e.e.e.e.e.s.s.s.s.s.s.s.s.s.s.s.s.s.e.e.e.s.s.s.s.s.s.s.s.s.e.e.e.s.s.s.s.s.e.s.e.s.s.s.V :.Z.e.e.e.s.<.e.s.s.s.s.e.s.s.s.s.s.s.s.e.e.e.e.s.s.s.s.s.s.s.s.s.s.s.s.s.s.s.s.e.e.e.e.e.e.e.e.s.s.s.s.s.s.s.s.e.e.e.e.e.e.e.e.s.e.e.e.e.e.e.e.s.e.s.e.s.s.s.V e.M.s.e.s.e.s.e.e.e.e.e.e.e.e.e.s.s.s.s.s.s.s.s.s.s.s.s.s.s.s.s.e.e.s.s.s.s.s.s.e.s.s.e.e.e.e.e.s.s.s.s.s.s.e.e.e.e.s.s.s.s.s.s.s.s.s.s.s.e.e.e.s.e.g.s.s.s.s.v e.g.<.e.s.e.e.e.e.e.e.e.e.e.e.e.e.e.e.e.e.e.e.e.e.e.e.e.e.e.e.e.e.e.e.e.e.e.e.e.<.e.e.e.e.e.e.e.e.e.<.e.e.e.e.<.e.e.e.e.e.e.e.e.e.e.e.e.e.e.e.e.e.e.e.e.e.s.:.v M.g.s.s.s.s.s.s.s.s.s.s.e.s.e.e.e.e.e.e.e.s.s.s.s.s.s.s.s.s.s.s.e.e.e.e.e.e.e.e.s.e.s.s.s.s.s.s.s.s.s.e.s.s.s.s.s.s.s.s.s.s.s.s.s.s.s.s.s.s.s.s.s.s.e.s.e.s.<.V Z.g.s.s.s.s.e.s.s.e.e.e.e.e.e.e.e.e.s.s.s.s.s.e.e.e.s.s.e.e.e.s.s.s.s.s.s.s.s.s.e.e.e.e.s.s.s.e.s.s.s.s.s.s.s.e.e.e.e.e.e.e.e.e.e.e.e.s.s.s.s.s.s.s.s.e.s.g.%.V Z.s.s.s.s.s.s.e.e.e.e.e.s.e.e.e.e.e.s.s.e.s.s.s.s.s.e.e.e.e.e.e.e.e.e.e.s.s.s.s.s.s.s.s.s.s.e.e.s.s.s.s.e.e.e.e.s.s.s.s.s.s.s.s.s.s.s.e.e.e.e.e.s.e.s.s.s.s.%.S Z.s.e.s.s.e.s.e.e.e.s.s.s.s.s.s.s.s.s.s.s.s.s.s.e.e.e.e.e.e.e.e.e.e.s.s.s.s.s.e.s.s.s.s.s.s.s.s.e.e.e.e.e.e.s.s.s.s.s.s.s.s.s.s.s.e.e.e.e.s.s.s.e.g.e.e.e.s...- ",
"G.M.e.e.s.e.s.s.s.s.s.s.s.s.s.s.s.s.e.e.e.e.e.e.s.s.s.s.s.s.s.s.e.e.s.s.s.s.e.e.s.s.s.s.s.s.s.s.s.s.s.e.e.e.e.e.e.e.s.s.s.s.s.s.s.s.s.s.s.s.s.s.s.e.s.e.s.s.s.V :.Z.e.s.s.s.e.s.s.s.s.e.e.s.s.s.s.s.s.e.e.e.e.e.s.s.s.s.s.s.s.s.s.s.s.s.s.s.s.s.e.e.e.e.e.e.e.e.s.s.s.s.s.s.s.s.e.e.e.e.e.e.e.e.e.e.e.e.e.e.e.e.s.e.s.e.s.s.s.V e.M.s.e.s.e.s.s.e.e.e.e.e.e.e.e.s.s.s.s.s.s.s.s.e.e.s.s.s.s.s.s.e.e.s.s.s.s.s.s.e.s.s.e.e.e.e.e.s.s.s.s.s.s.e.e.e.e.s.s.s.s.s.s.s.s.e.e.s.s.s.s.s.e.g.s.s.s.s.v e.g.<.e.s.e.e.e.e.e.e.e.e.e.e.e.e.e.e.e.e.e.e.e.e.e.e.e.e.e.e.e.e.e.e.<.<.e.e.e.e.e.e.e.e.e.e.e.e.e.e.e.e.e.e.e.<.<.e.e.e.e.e.e.e.e.e.e.e.e.e.e.e.e.e.e.e.s.:.v g.g.s.s.s.s.s.s.s.s.s.e.e.e.e.e.s.e.s.s.s.s.s.s.s.s.s.s.s.s.s.s.s.s.s.e.e.e.e.e.s.s.s.s.s.s.s.s.s.s.s.e.e.s.s.s.s.s.s.s.s.s.s.s.s.s.s.s.s.s.s.s.s.s.s.s.e.s.<.v Z.g.e.s.s.e.e.s.e.e.e.e.e.s.s.e.s.s.s.s.s.s.e.e.e.e.s.s.e.e.s.s.s.s.s.s.s.s.s.s.e.e.s.s.s.s.e.e.s.s.s.s.s.e.e.e.e.e.e.e.e.s.s.s.s.s.s.s.s.s.s.s.s.s.s.e.s.g.%.V Z.s.s.s.e.s.s.e.e.e.e.s.e.e.e.e.e.e.e.e.s.s.s.s.e.e.s.s.s.s.e.s.e.e.e.s.s.s.s.s.s.s.s.s.s.s.s.s.s.s.s.s.e.e.e.e.s.s.s.s.s.s.s.s.s.s.e.e.e.e.e.e.s.s.s.s.s.s...S G.s.e.s.s.e.e.e.s.s.s.s.s.s.s.s.s.s.s.s.s.s.s.s.e.e.e.e.e.s.e.e.s.s.s.s.s.e.e.e.s.s.s.s.s.s.s.s.e.e.e.e.e.e.s.s.s.s.s.s.s.s.s.s.s.s.s.e.e.e.e.e.s.s.e.e.e.s...- ",
"G.M.e.e.s.e.s.s.s.s.s.s.s.s.s.s.s.s.e.e.s.e.e.e.s.s.s.s.s.s.s.s.e.e.s.s.e.s.e.e.s.s.s.s.s.s.s.s.s.s.e.e.e.s.e.e.e.e.e.s.e.e.s.e.s.s.s.s.s.s.s.s.s.e.s.e.s.s.s.V :.Z.e.s.s.g.e.s.s.s.s.e.e.s.s.s.s.s.s.e.e.e.s.s.s.s.s.s.s.s.s.s.s.s.s.s.s.s.s.s.e.e.s.s.e.e.s.e.s.s.s.s.s.s.s.s.e.e.e.e.s.s.s.s.e.e.e.e.e.e.e.e.s.e.s.s.s.s.s.V e.M.s.e.s.e.s.s.e.e.e.e.e.e.s.s.s.s.s.s.s.s.s.s.e.e.s.s.s.s.s.s.e.e.s.s.s.s.s.s.e.s.s.s.e.e.e.e.s.s.s.s.s.s.e.e.e.e.s.s.s.s.s.s.s.e.e.e.s.s.s.s.s.e.s.s.s.s.s.v e.g.<.e.s.e.e.e.e.e.e.e.e.e.e.e.e.e.e.e.e.e.e.e.e.e.e.e.e.e.e.e.e.e.<.<.<.<.e.e.e.e.e.e.e.e.e.e.e.e.e.e.e.e.e.e.<.<.<.e.e.e.e.e.e.e.e.e.e.e.e.e.e.e.e.e.e.s.:.v g.g.s.s.s.s.s.s.s.s.s.e.e.e.s.s.e.s.s.s.s.s.s.s.s.s.s.s.s.s.s.s.s.s.s.s.e.e.e.e.e.s.s.s.s.s.s.s.s.s.s.e.e.s.s.s.s.s.s.s.s.s.s.s.s.s.s.s.s.s.s.s.s.s.s.s.e.s.<.V Z.g.e.s.s.e.e.s.e.e.e.e.s.s.s.s.s.s.s.s.e.e.e.e.e.e.s.s.s.e.s.s.s.s.s.s.s.s.s.s.e.e.s.s.s.s.e.e.e.s.s.s.e.e.e.e.<.e.e.e.s.s.s.s.s.s.s.s.s.s.s.s.s.s.s.e.s.g.%.V Z.s.s.s.e.e.s.e.e.e.e.s.e.e.e.e.e.e.e.e.s.s.s.e.e.e.s.e.s.s.s.s.e.e.e.s.s.s.s.s.s.s.s.s.s.s.s.s.s.s.s.e.e.e.e.e.s.s.s.s.s.s.s.s.s.s.e.e.e.e.s.s.s.s.s.s.s.s...V G.s.e.s.e.e.e.e.e.s.s.s.s.s.s.s.s.s.s.s.s.s.s.s.e.e.e.s.e.e.s.s.s.s.s.s.s.e.e.e.s.s.s.s.s.s.s.s.s.e.e.e.e.e.s.s.s.s.s.s.s.s.e.e.s.s.s.s.e.e.e.e.e.s.e.e.e.s...: ",
"G.M.e.e.s.s.s.s.s.s.e.e.e.e.e.e.s.s.s.s.e.e.e.e.s.s.s.s.s.s.s.s.e.s.s.s.s.s.e.e.s.s.s.s.s.s.s.s.s.s.e.e.e.s.e.e.e.e.e.e.s.s.e.e.s.s.s.s.s.s.s.s.s.e.s.e.s.s.s.V <.G.e.s.s.g.s.s.s.s.s.e.e.s.s.s.s.s.e.e.e.s.s.s.s.s.s.s.s.s.s.s.s.s.s.s.s.s.s.s.s.s.s.s.s.s.s.s.s.s.e.e.e.e.e.e.s.s.s.s.s.s.s.s.e.e.e.e.e.e.s.s.s.e.s.s.s.s.s.V e.M.s.e.s.e.s.e.e.e.e.s.s.s.s.s.s.s.s.s.s.s.s.s.e.e.s.s.s.s.s.s.s.s.s.s.s.s.s.s.e.s.s.s.s.s.s.e.s.s.s.s.s.s.e.s.s.s.s.s.s.s.s.s.s.s.e.e.e.e.s.s.s.e.s.s.s.s.s.v s.M.<.e.s.<.e.e.e.e.e.e.e.e.e.e.e.e.e.e.e.e.e.e.e.e.e.e.e.e.e.e.e.e.e.<.e.e.e.e.e.e.e.e.e.e.e.e.e.e.e.e.e.e.e.e.e.e.<.e.e.e.e.e.e.e.e.e.e.e.e.e.e.e.<.e.e.s.:.p g.g.s.s.s.s.s.s.s.s.e.e.e.e.e.s.s.s.s.s.s.s.s.s.s.s.s.s.s.s.s.s.s.s.s.s.e.e.e.e.e.e.s.s.s.s.s.s.s.s.s.e.e.s.s.s.s.s.s.s.s.s.s.s.s.s.s.s.s.s.s.s.s.s.s.s.e.s.<.v Z.g.e.s.s.s.e.s.s.e.e.s.s.s.s.s.s.s.s.e.e.e.s.s.e.e.s.s.s.e.s.s.e.e.e.s.e.e.e.e.e.e.s.s.s.e.e.e.s.s.s.e.e.e.e.e.e.e.e.s.s.s.s.s.s.s.s.s.s.s.s.s.s.s.s.e.s.g.%.V Z.s.s.s.e.e.s.<.e.e.s.s.s.e.e.e.e.e.e.s.s.s.e.e.e.e.s.s.e.s.s.s.e.e.e.s.s.s.s.s.s.s.s.s.s.s.s.e.e.e.e.e.e.e.e.e.s.s.s.s.s.s.s.s.s.s.e.e.e.e.s.s.s.e.s.s.s.s...V G.s.e.s.e.e.s.s.e.e.s.s.s.s.s.s.s.s.s.s.s.s.s.s.e.e.s.s.s.s.s.s.s.s.s.s.s.e.e.e.s.s.s.s.s.s.s.s.s.s.e.e.e.e.s.s.s.s.e.s.e.e.e.e.s.s.s.s.e.e.e.s.e.s.s.s.s.s...: ",
"G.M.e.e.s.s.s.s.s.s.e.e.e.e.e.e.s.s.s.s.e.e.e.e.s.s.s.s.s.s.s.s.s.s.s.s.s.s.s.s.s.s.s.s.s.s.s.s.s.e.<.<.e.s.s.e.e.s.s.s.s.s.s.s.e.s.s.s.e.s.s.s.g.e.s.e.s.s.s.V <.G.e.s.s.g.e.s.s.s.s.e.e.s.s.s.s.e.e.e.e.s.s.s.s.s.s.s.s.s.s.s.s.s.s.s.s.s.s.s.s.s.s.s.s.s.s.s.s.s.e.e.e.e.e.e.s.s.s.s.s.s.s.s.e.e.e.e.e.s.s.s.s.e.s.e.s.s.s.V e.M.s.s.s.e.s.e.e.e.s.s.s.s.s.s.s.s.s.s.s.s.s.s.e.e.s.s.s.s.s.s.s.s.s.s.s.s.s.s.s.s.s.s.s.s.s.s.s.s.s.s.s.s.e.s.s.s.s.s.s.s.s.s.s.s.e.e.e.e.s.s.s.e.s.s.s.s.s.v s.M.<.<.s.<.e.e.e.e.e.e.e.e.e.e.e.e.e.e.e.e.e.e.e.e.e.e.e.e.e.e.e.e.e.e.e.e.e.e.<.<.<.e.e.e.<.<.e.e.e.e.e.e.e.e.<.e.e.e.e.e.e.e.e.e.e.e.e.e.e.e.e.e.<.e.e.s.:.p g.g.s.s.s.s.s.s.s.e.e.e.e.e.s.s.e.e.s.s.s.e.e.e.s.s.s.s.s.s.s.s.e.e.e.e.e.e.e.e.e.e.s.s.s.s.s.s.s.s.s.e.e.s.s.s.s.s.s.s.s.s.s.s.s.s.s.s.s.s.s.s.s.s.s.s.e.s.<.V Z.g.e.e.s.s.e.s.s.s.s.s.s.s.s.e.s.s.e.e.e.e.s.s.e.e.s.s.s.e.s.s.e.e.e.s.s.e.e.e.e.e.e.e.e.e.e.e.s.s.s.e.e.e.e.e.s.s.s.s.s.s.s.s.s.s.s.s.s.s.s.s.s.s.s.e.s.g.%.V Z.s.s.s.e.e.e.<.e.e.s.s.s.s.s.s.e.e.e.s.s.s.e.e.e.e.s.s.e.s.s.s.e.e.e.s.s.s.s.s.s.s.s.s.s.s.e.e.e.e.e.e.s.s.s.s.s.s.s.s.s.s.s.s.s.e.e.e.e.e.s.s.s.e.s.s.s.s...V Z.e.<.s.e.e.s.s.e.e.s.s.s.s.s.s.s.s.s.s.s.s.s.s.s.s.s.s.s.s.s.s.s.s.s.s.s.e.e.e.s.s.s.s.s.s.s.s.s.s.e.e.e.e.s.s.s.s.e.e.e.e.e.e.s.s.s.e.e.e.s.s.e.s.s.s.s.g...: ",
"G.M.s.e.e.e.e.s.e.e.s.s.s.s.e.e.e.e.e.s.s.s.s.s.e.e.s.s.s.e.e.e.s.s.s.s.s.s.s.s.e.e.e.s.s.e.e.e.s.s.s.s.s.s.s.s.s.s.s.s.s.s.s.s.s.s.s.e.e.s.s.s.s.s.s.s.s.e.g.V :.Z.e.s.s.s.e.s.s.s.s.s.s.s.s.s.s.s.s.s.s.s.s.s.s.s.s.s.s.e.e.e.e.e.e.s.s.s.s.s.e.e.s.s.s.s.e.e.s.s.s.s.s.s.s.s.s.s.s.e.e.e.e.e.e.e.s.s.s.s.s.s.s.e.s.e.s.s.s.V s.M.s.e.s.e.s.e.s.s.e.e.e.s.s.s.s.s.e.e.e.e.s.s.e.s.s.s.s.s.e.e.s.s.e.e.s.s.s.s.s.s.s.e.e.s.s.s.s.s.s.s.s.s.e.e.e.e.s.s.s.s.s.s.s.s.s.s.s.s.s.s.g.e.g.e.e.e.e.p s.g.e.<.e.e.<.e.e.e.e.e.e.e.e.e.e.e.e.e.e.e.e.e.e.e.e.e.e.e.e.<.e.e.e.e.e.e.<.<.<.<.<.<.<.<.<.<.e.e.e.e.e.e.<.e.e.e.e.e.e.e.s.s.e.e.e.e.e.e.e.e.e.e.e.e.e.s.:.p M.g.s.s.s.s.s.s.s.s.s.e.e.e.s.s.s.s.s.s.s.s.s.s.e.s.s.s.e.e.e.e.s.s.s.s.s.s.s.s.e.s.s.s.s.e.e.e.s.s.e.e.e.e.s.s.s.s.s.s.s.s.s.s.s.e.e.e.e.s.e.e.e.s.e.e.e.s.<.v M.g.s.s.s.e.e.e.s.s.s.s.s.s.s.s.s.s.s.e.s.s.e.e.s.s.s.s.s.s.s.s.e.e.s.s.s.s.s.s.e.s.s.s.s.s.s.e.e.e.s.s.s.s.e.e.s.s.s.s.s.s.e.e.s.s.s.s.s.s.e.e.e.s.e.s.s.s.:.V M.g.s.s.s.e.e.e.e.e.s.s.s.s.e.e.s.s.s.s.s.s.e.e.s.s.s.s.s.s.s.s.s.s.s.s.s.s.s.s.e.e.e.e.e.e.e.e.e.e.e.e.e.s.s.s.s.s.s.s.s.s.s.s.s.s.s.s.s.s.s.s.s.e.s.s.s.s.%.S G.s.e.s.e.e.s.s.s.s.s.s.s.s.s.s.s.s.s.s.s.s.e.e.s.s.s.s.s.s.s.s.s.s.s.s.s.s.s.s.s.s.s.s.s.s.s.s.s.e.e.e.e.e.e.s.s.e.e.e.e.e.e.s.s.s.s.e.e.s.s.s.e.g.s.s.s.g...: ",
"G.M.e.e.e.s.s.s.e.s.s.s.s.s.s.e.e.e.e.s.s.s.s.s.e.e.s.s.s.e.e.e.s.s.s.s.s.s.s.s.e.e.e.s.s.e.e.e.s.s.s.s.s.s.s.s.s.s.s.s.s.s.s.s.s.s.s.e.e.s.s.s.s.s.s.s.s.e.g.V :.Z.e.s.s.s.e.s.s.s.s.s.s.s.s.s.s.s.s.s.s.s.s.s.s.s.s.s.s.e.e.e.e.e.e.e.e.e.s.s.e.e.s.s.s.s.e.e.e.e.e.e.e.e.e.e.e.e.e.e.e.e.e.e.s.s.s.s.s.s.s.s.s.e.s.e.s.s.s.V e.M.s.e.s.e.s.e.s.s.e.e.e.s.s.s.s.s.e.e.e.e.s.s.s.s.s.s.s.s.s.e.e.e.e.e.e.e.e.e.s.s.s.e.e.s.s.s.s.s.s.s.s.e.e.e.s.s.s.s.s.s.s.s.s.s.s.s.s.s.s.s.s.e.g.e.e.s.e.p s.s.e.<.e.e.<.e.e.e.e.e.e.e.e.e.e.e.e.e.e.e.e.e.e.e.e.e.e.e.e.<.e.e.e.e.e.e.<.<.<.<.e.e.<.<.<.e.e.e.e.e.e.e.e.e.<.e.e.e.e.e.e.e.e.e.e.e.e.e.e.e.e.e.e.e.e.s.:.p M.g.s.s.s.s.s.s.s.s.s.e.e.e.s.s.s.s.s.s.s.s.s.s.e.s.s.s.e.e.e.e.s.s.s.s.s.s.s.s.e.s.s.s.s.e.e.s.s.s.e.e.e.e.s.s.s.s.s.s.s.s.s.s.s.e.e.e.e.s.e.e.e.s.e.e.e.s.<.v M.g.s.s.s.s.e.s.s.s.s.s.s.s.s.s.s.s.s.e.s.s.e.e.s.s.s.s.s.s.s.s.e.e.s.s.s.s.s.s.e.s.s.s.s.s.s.e.e.e.s.s.s.s.e.e.s.s.s.s.s.s.e.e.s.s.s.s.s.s.e.e.e.s.e.s.s.s.:.V M.g.e.s.s.e.e.e.e.s.s.s.s.s.s.e.s.s.s.s.s.s.e.e.s.s.s.s.s.s.s.s.s.s.s.s.s.s.s.s.e.e.e.e.e.e.s.s.e.e.e.e.s.s.s.s.s.s.s.s.s.s.s.s.e.e.e.s.s.s.s.s.s.e.s.s.s.s.%.S G.s.e.s.e.e.s.s.s.s.s.s.s.s.s.s.e.s.s.s.s.s.s.s.s.s.s.s.s.s.s.s.s.s.s.s.s.s.s.s.s.s.s.s.s.s.s.s.s.e.e.e.e.e.e.s.s.s.e.e.e.e.s.s.s.s.s.e.e.s.s.s.e.g.s.s.s.g...: ",
"G.M.e.e.s.s.s.s.s.s.s.s.s.s.s.e.e.e.s.s.s.s.s.s.e.e.s.s.s.s.e.e.s.s.s.s.s.s.s.s.s.s.s.s.s.s.e.e.s.s.s.s.s.s.s.s.s.s.s.s.s.s.s.s.s.s.s.e.e.s.s.s.s.s.s.s.s.e.g.V :.Z.e.s.s.s.e.s.s.s.s.s.s.s.s.s.s.s.s.s.s.s.s.s.s.s.s.s.s.s.e.e.s.s.e.e.e.e.e.e.e.e.s.s.s.s.e.e.e.e.e.e.e.e.e.e.s.s.s.e.s.s.s.s.s.s.s.s.s.s.s.s.s.e.s.e.s.s.s.V e.M.e.e.s.e.s.s.s.s.e.e.e.s.s.s.s.s.e.e.e.e.s.s.e.s.s.s.s.s.s.s.e.e.e.e.e.e.e.e.s.s.s.e.e.s.s.s.s.s.e.e.e.e.e.e.s.s.s.s.s.s.s.s.s.s.s.s.s.s.e.e.s.e.s.e.e.s.s.v s.s.e.<.e.e.<.e.e.e.e.e.e.e.e.e.e.e.e.e.e.e.e.e.e.e.e.e.e.e.e.<.<.<.e.e.e.e.e.e.e.e.e.e.e.e.e.e.e.e.e.e.e.e.e.e.<.e.s.s.s.e.e.<.e.e.e.e.e.e.e.e.e.e.<.e.e.s.:.p M.g.s.s.s.s.s.s.s.s.s.e.e.e.s.s.s.s.s.s.s.s.s.s.e.s.s.s.s.e.e.e.s.s.s.s.s.s.s.s.s.s.s.e.e.e.e.s.s.s.e.e.e.e.s.s.s.s.s.s.s.s.s.s.s.e.e.e.e.s.s.s.e.s.e.e.e.s.<.v M.g.s.s.s.s.s.s.s.s.s.s.s.s.s.s.s.s.s.s.s.e.e.e.s.s.s.s.s.s.s.s.e.e.e.e.s.s.s.s.e.s.s.s.s.s.s.e.e.e.s.s.s.s.e.e.s.s.s.s.s.s.e.e.s.s.s.e.s.e.e.e.e.s.e.s.s.s.:.V Z.g.s.s.s.e.e.e.s.s.s.s.s.s.s.e.s.s.s.s.s.s.e.e.s.s.s.e.e.e.s.e.s.s.s.s.s.s.s.s.s.e.e.e.e.e.s.s.e.e.s.s.s.s.s.s.s.s.s.s.s.s.s.s.e.e.e.e.s.e.e.s.s.e.s.s.s.s.%.S G.s.e.s.e.e.s.e.s.s.s.s.s.s.s.s.e.e.s.s.s.s.s.s.s.s.s.s.s.s.s.s.s.s.s.s.s.s.s.s.s.s.s.s.s.s.s.s.s.s.s.s.s.s.s.s.s.s.s.s.s.s.s.s.s.s.s.e.e.s.s.s.s.g.s.s.s.g...: ",
"G.M.s.e.e.e.e.s.s.s.s.s.s.e.e.e.s.s.s.s.s.s.s.s.e.e.s.s.s.s.e.e.s.s.s.s.s.s.s.s.s.s.s.s.e.s.s.s.s.s.s.s.s.s.s.s.s.s.s.s.s.s.s.e.s.s.s.e.e.s.s.s.s.s.s.s.s.e.g.V :.Z.e.s.s.s.e.s.e.s.e.e.e.e.s.s.s.s.s.s.s.s.s.s.s.s.s.s.s.e.e.e.s.s.s.s.e.e.e.e.e.e.s.s.s.s.e.e.e.e.e.e.e.e.e.e.s.s.e.e.e.s.s.s.s.s.s.s.s.s.s.s.s.e.s.e.s.s.s.V <.M.e.e.s.e.s.s.s.s.e.e.e.s.s.s.s.s.e.e.e.e.s.s.s.s.s.s.s.s.s.s.e.e.e.e.s.s.s.s.s.s.s.e.e.s.s.s.s.e.e.e.e.e.e.e.s.s.s.s.s.s.s.s.s.s.s.s.s.s.e.e.s.e.s.e.e.s.s.v s.s.e.<.e.e.<.e.e.e.e.e.e.e.e.e.e.e.e.e.e.e.e.e.e.e.e.e.e.e.e.<.<.<.e.e.e.e.e.e.e.e.e.e.e.e.e.e.e.e.e.e.e.e.e.e.e.e.s.s.s.e.e.e.e.e.e.e.e.e.e.e.e.e.e.e.e.s.:.p M.g.s.s.s.s.s.s.s.s.s.e.e.e.s.s.s.s.s.s.s.s.s.s.e.s.s.s.s.e.e.e.s.s.s.s.s.s.s.s.s.s.s.s.e.e.e.s.s.s.e.e.e.e.s.s.s.s.s.s.s.s.s.s.s.e.e.e.s.s.s.e.e.s.e.s.e.s.<.v M.s.e.s.s.s.s.s.s.s.s.s.s.s.s.s.s.e.s.s.s.s.e.e.s.s.s.s.s.s.s.s.e.e.e.e.s.s.e.s.e.s.s.s.s.s.s.s.e.e.s.s.s.s.s.s.s.s.s.s.s.s.s.e.e.e.e.e.e.e.e.e.e.s.e.s.s.s.:.V Z.g.s.e.e.e.e.s.s.s.s.s.s.s.s.s.s.s.s.s.s.s.e.e.s.s.s.e.e.e.e.e.s.s.s.s.s.s.s.s.s.s.s.s.s.s.s.s.e.e.s.s.s.s.s.s.s.s.s.s.e.e.s.e.e.e.e.e.e.s.e.e.s.e.s.s.s.s.%.S G.s.e.s.e.e.s.e.s.s.s.s.s.s.s.s.e.e.e.s.s.s.s.s.s.s.s.s.s.s.s.s.s.s.s.s.s.s.s.e.e.e.e.e.s.s.e.e.s.s.s.s.s.s.s.s.s.s.s.s.s.s.s.s.s.s.s.e.e.s.s.s.e.s.s.s.s.g...: ",
"G.g.e.e.s.e.e.s.s.s.e.e.e.e.e.e.s.s.s.s.s.s.s.s.e.e.s.s.s.s.s.s.s.s.s.s.s.s.s.s.s.s.s.s.s.s.s.s.s.s.s.s.s.s.s.s.s.s.s.s.s.s.s.e.s.s.s.e.e.s.s.s.s.s.s.s.s.e.g.V :.Z.e.s.s.s.e.s.e.e.e.e.s.s.s.s.s.s.s.s.s.s.s.s.s.s.s.s.s.s.s.s.s.s.s.s.s.e.e.e.e.s.s.s.s.s.e.e.e.e.e.e.e.e.e.e.s.s.e.e.e.e.s.s.s.s.s.s.s.s.s.s.s.e.s.e.s.s.s.v e.M.s.e.s.e.s.s.s.s.s.e.e.s.s.s.s.s.e.e.e.e.s.s.s.s.s.s.s.s.s.s.s.s.s.s.s.s.s.s.s.s.s.s.e.s.s.s.s.e.e.e.e.e.e.s.e.e.s.s.s.s.s.s.s.s.s.s.s.s.e.e.s.e.s.e.e.s.s.v s.s.e.<.e.e.<.s.e.e.e.e.e.e.e.e.e.e.e.e.e.e.e.e.e.e.e.e.e.e.e.<.<.<.e.e.e.e.e.e.e.e.e.e.e.e.e.e.e.e.e.e.e.e.e.e.e.e.e.e.<.<.e.e.e.e.e.e.e.e.e.e.e.e.<.e.e.s.:.p M.g.s.s.s.s.s.s.s.s.s.e.e.e.s.s.s.s.s.s.s.s.s.s.s.s.s.s.s.e.e.s.s.s.s.s.s.s.s.s.e.s.s.e.e.e.s.s.s.s.s.s.s.s.s.s.s.s.s.s.s.s.s.s.s.s.e.s.s.s.s.e.e.s.e.s.s.g.<.v M.s.e.e.e.e.e.s.s.s.s.s.s.s.s.s.e.e.e.e.e.e.e.s.s.s.s.s.s.s.s.s.s.s.e.e.e.e.e.e.e.s.s.s.s.s.s.s.e.e.s.s.s.s.s.s.e.s.s.s.s.s.s.s.e.e.e.e.e.e.e.e.e.s.e.s.s.s.:.V M.g.e.e.e.e.e.s.s.s.s.s.s.s.s.s.s.s.s.s.s.s.s.s.s.s.e.e.e.e.e.e.s.s.s.s.s.s.s.s.s.s.s.s.s.s.s.s.s.s.s.s.e.s.s.s.s.s.s.e.s.s.e.e.e.e.e.e.e.e.e.e.s.s.s.s.s.s.%.S G.s.e.s.s.s.s.e.e.s.s.s.s.s.s.e.e.e.e.s.s.s.s.s.s.s.s.s.s.s.s.s.s.s.s.s.s.s.s.s.e.e.e.e.e.e.e.e.s.s.s.s.s.s.s.s.s.s.s.s.s.s.s.s.s.s.s.s.e.s.s.s.e.s.e.e.s.g...: ",
"Z.M.e.e.s.e.e.e.s.e.e.e.e.e.e.e.s.s.s.s.s.s.e.e.e.e.s.s.s.s.s.s.s.s.s.s.s.s.s.s.e.e.e.s.s.s.s.s.s.s.s.s.s.s.s.s.s.s.s.s.s.s.e.e.s.s.s.e.e.s.s.s.s.s.s.s.s.e.g.V :.Z.e.s.s.s.e.s.e.e.e.e.e.e.e.e.s.s.s.s.s.s.s.s.s.s.s.s.s.s.s.s.s.s.s.s.s.s.s.s.e.e.s.s.s.s.e.e.s.s.s.s.s.s.s.s.s.s.s.e.e.e.e.e.e.e.e.s.s.s.s.s.s.e.s.e.s.s.s.v e.M.e.e.s.e.s.e.s.s.e.e.e.s.s.s.s.s.e.e.e.e.s.s.s.s.s.e.e.s.s.s.s.s.s.s.s.s.s.s.s.s.s.s.e.s.s.s.s.s.e.e.e.e.e.s.e.e.s.s.s.s.s.s.s.s.s.s.s.s.e.e.s.e.s.e.e.s.s.v s.s.e.<.e.e.e.s.e.e.e.e.e.e.e.e.e.e.e.e.e.e.e.e.e.e.e.e.e.e.e.<.<.<.e.e.e.e.e.e.e.e.e.e.e.e.e.e.e.e.e.e.e.e.e.e.e.e.<.<.:.<.<.e.e.e.e.e.e.e.e.e.e.e.<.e.e.s.:.p M.g.s.s.s.s.s.e.s.s.s.e.e.e.s.s.s.s.s.s.s.s.s.s.s.s.s.s.s.e.e.s.s.s.s.s.s.s.s.s.e.s.s.e.e.e.s.s.s.s.s.s.s.s.s.s.s.s.s.s.s.s.s.s.s.s.e.e.s.s.s.s.e.s.e.s.s.g.<.v M.s.e.e.e.e.e.e.s.s.s.s.s.s.s.s.e.e.e.e.e.s.s.s.s.s.s.s.s.s.s.s.s.s.s.e.e.e.e.e.e.s.s.s.s.s.s.s.e.e.s.s.s.s.s.s.e.e.s.s.s.s.s.s.e.s.e.e.s.e.e.e.e.s.e.s.s.s.%.V M.g.e.e.e.e.s.s.s.s.s.e.s.s.s.s.s.s.s.s.s.s.s.s.s.s.e.e.e.e.e.e.s.s.s.s.s.s.s.s.e.s.s.s.s.s.s.e.s.s.s.s.e.s.s.s.s.s.s.e.e.e.e.e.e.e.e.s.e.e.s.s.s.s.s.s.s.s.%.S G.s.e.s.s.s.s.e.e.e.s.s.s.s.e.e.e.e.s.s.s.s.s.s.s.s.s.s.s.s.s.s.s.s.s.s.e.s.s.s.e.e.e.e.e.s.s.e.s.s.s.s.s.s.s.s.s.s.s.e.s.s.e.s.s.s.s.s.e.s.s.s.e.s.s.s.s.g...: ",
"G.g.s.e.s.s.e.s.s.s.e.e.e.e.s.s.s.s.s.s.s.s.e.e.e.e.s.s.s.s.s.s.s.s.s.s.s.s.s.s.<.e.e.s.s.s.s.s.s.s.s.s.s.s.s.s.s.s.s.s.s.s.e.e.s.s.s.e.e.s.s.s.s.s.s.s.s.e.g.V :.Z.e.s.s.s.e.s.s.s.e.e.e.s.s.e.s.s.s.s.s.s.s.s.s.s.s.s.s.s.s.s.e.e.e.e.s.s.s.s.s.s.s.s.s.s.s.s.s.s.s.s.s.s.s.s.s.s.s.s.s.e.e.e.e.e.e.e.s.s.s.s.s.e.s.e.s.s.s.v e.M.s.s.g.e.e.e.e.e.e.e.s.s.s.s.s.s.s.e.s.s.s.s.s.s.s.e.e.s.s.s.s.s.s.s.s.s.s.s.s.s.s.e.e.s.s.s.s.s.s.s.s.s.s.e.e.e.s.s.s.s.s.s.s.s.s.s.s.s.e.e.s.e.s.e.e.s.s.v e.s.e.<.e.e.<.e.e.e.e.e.e.e.e.e.e.e.e.e.e.e.e.e.e.e.e.e.e.e.e.<.e.e.e.e.e.e.e.e.e.e.e.e.e.e.e.e.e.e.e.e.e.e.e.e.<.<.<.<.<.<.e.e.e.e.e.e.e.e.e.e.e.e.e.e.e.s.:.p g.g.s.s.s.e.e.e.s.s.s.e.e.e.s.s.s.s.s.s.s.s.s.s.s.s.s.s.e.e.e.s.s.s.s.s.s.s.s.s.e.e.s.s.e.e.s.s.s.s.s.s.s.s.s.s.s.s.s.s.s.s.s.s.s.e.e.e.s.s.s.s.e.s.s.s.s.g.<.v M.s.e.e.e.e.e.s.s.s.s.s.s.s.s.s.e.e.e.e.e.s.s.s.s.s.s.s.s.s.s.s.s.s.s.s.e.e.e.e.s.s.s.s.s.s.s.e.s.s.s.s.s.s.e.e.e.e.s.s.s.s.s.s.s.s.s.s.s.s.s.s.e.g.e.s.s.s.:.V Z.g.e.e.e.e.e.s.s.s.s.e.e.s.s.s.s.s.s.s.s.s.e.s.s.s.e.e.e.e.e.s.s.s.s.s.s.s.s.s.e.e.s.s.s.s.e.e.e.s.e.e.e.s.s.s.s.s.e.e.e.e.e.e.s.s.s.s.s.s.s.s.s.e.s.s.s.s.%.S G.s.e.s.s.s.s.e.e.e.s.s.s.s.e.e.s.s.s.s.s.s.s.s.s.s.s.s.s.s.s.s.s.s.s.e.e.e.s.s.s.s.e.e.s.s.s.s.s.e.e.e.e.e.e.s.e.e.e.e.e.e.e.e.s.s.s.e.e.s.s.s.s.g.s.s.s.g...: ",
"G.g.s.s.s.s.e.s.s.s.e.e.e.s.s.s.s.s.s.s.s.s.e.e.e.e.e.s.s.s.s.s.s.s.s.s.s.s.s.s.<.<.e.s.s.s.s.e.s.s.s.s.s.s.s.s.s.s.s.s.s.e.e.e.s.s.s.e.e.s.s.s.s.s.s.s.s.e.g.V :.Z.e.s.s.s.e.s.e.e.e.e.e.e.e.e.s.s.s.s.s.s.s.s.e.s.s.s.s.s.s.s.e.e.e.e.e.e.e.s.s.s.s.s.s.s.s.s.e.e.e.e.s.s.s.e.s.s.s.s.s.e.e.e.e.e.e.e.s.s.s.s.s.e.s.e.s.s.s.v e.M.s.s.g.e.e.e.e.e.e.e.s.s.s.s.s.s.e.e.s.s.s.s.s.s.e.e.e.e.s.s.s.s.e.e.e.e.e.e.s.s.s.e.e.s.s.s.s.s.s.s.s.s.s.e.e.e.s.s.s.s.s.s.s.s.s.s.s.s.e.e.s.e.s.e.e.s.s.v e.s.<.<.e.e.<.e.e.e.e.e.e.e.e.e.e.e.e.s.s.s.e.e.e.e.e.e.e.e.e.<.e.e.e.e.e.e.e.e.e.e.e.e.e.e.e.e.e.e.e.e.e.e.e.e.<.e.e.e.e.e.e.e.e.e.e.e.e.e.e.e.e.e.e.e.e.s.:.v g.g.s.s.s.s.e.e.s.s.s.e.e.e.s.s.s.s.s.s.s.s.s.s.e.s.s.s.e.e.e.s.s.s.s.s.s.s.s.s.e.e.s.s.s.s.s.s.s.s.s.s.s.s.s.s.s.s.s.s.s.s.s.s.s.e.e.e.s.s.s.s.e.s.s.s.s.g.<.v M.s.e.e.s.s.s.s.s.s.s.s.s.s.s.s.e.e.e.e.e.s.s.s.s.s.s.s.s.s.s.s.s.s.s.s.s.s.e.e.s.s.s.s.s.s.s.e.s.s.s.s.s.s.e.e.e.e.s.s.s.s.s.s.s.s.s.s.s.s.s.s.e.s.e.s.s.s.:.V Z.g.e.e.e.e.s.s.s.s.e.e.e.e.s.s.s.s.s.s.s.s.e.e.s.s.s.e.e.e.s.s.s.s.s.s.s.s.s.s.e.e.s.s.s.s.e.e.e.e.e.e.e.s.s.s.s.s.e.e.e.e.e.e.s.s.s.s.s.s.s.s.s.e.s.s.s.s.%.S G.s.e.s.e.s.s.s.e.e.e.s.s.e.e.e.s.s.s.s.s.s.e.e.s.s.s.s.s.s.s.s.s.s.s.e.e.e.s.e.e.e.e.e.e.e.e.e.s.e.e.e.e.e.e.s.e.e.e.e.e.e.e.e.s.s.s.e.e.s.s.s.s.g.s.s.s.g...: ",
"Z.g.e.s.s.s.s.s.s.s.s.s.s.s.s.s.s.s.s.s.s.s.s.s.e.e.e.e.s.s.s.s.s.s.s.s.e.e.e.e.e.e.e.e.s.s.s.s.s.s.s.s.s.s.s.s.s.s.s.e.e.e.e.e.e.e.s.s.s.s.s.s.s.e.s.s.s.s.s.V :.M.e.s.e.s.s.s.e.e.e.e.e.s.s.s.e.e.e.e.e.e.s.s.s.s.s.s.e.s.s.s.s.e.e.e.e.e.s.s.s.s.s.s.e.e.e.e.s.s.s.s.e.e.e.e.e.s.s.e.e.e.e.e.s.e.e.e.e.e.s.s.s.e.s.e.s.s.s.V e.M.s.s.s.e.s.e.e.e.e.e.e.e.s.s.e.e.<.<.e.e.s.g.e.e.e.s.s.s.s.s.s.s.s.s.s.s.s.s.e.s.s.s.s.s.s.e.s.s.s.s.s.s.s.e.s.s.s.s.s.s.s.s.s.s.s.s.e.e.e.e.e.e.s.e.s.s.s.v e.s.e.e.s.e.<.s.e.e.e.e.e.e.e.e.e.e.<.<.<.e.e.e.e.e.e.<.<.<.<.<.e.e.e.e.e.e.e.e.e.e.e.e.e.e.e.e.e.e.e.e.e.e.e.e.e.e.e.e.e.e.e.e.e.e.e.e.e.e.e.e.e.e.<.e.e.s.:.v g.g.s.e.e.s.s.s.s.s.s.s.s.s.s.s.s.s.s.s.s.e.e.e.s.s.s.e.e.e.e.e.s.s.s.s.e.e.s.s.s.s.s.s.s.s.s.e.s.s.s.s.s.s.s.s.s.s.s.s.e.e.e.e.s.s.s.s.s.s.s.s.e.s.e.s.e.s.<.v M.s.e.e.s.s.s.g.s.s.s.e.e.e.e.e.s.s.s.s.s.s.s.s.s.s.s.s.s.s.s.s.e.e.e.e.s.s.s.s.e.e.s.s.s.s.e.e.s.s.s.s.s.s.e.e.e.e.e.s.s.s.e.e.s.s.s.s.s.s.s.s.s.e.e.e.s.g.%.V Z.g.e.e.s.s.s.s.s.s.s.s.s.s.s.s.e.e.e.e.s.e.e.e.s.s.s.s.s.s.s.s.s.s.s.s.s.s.s.s.s.s.e.e.e.e.s.s.s.s.e.e.e.s.s.s.s.s.s.s.s.s.e.e.e.s.s.s.s.s.s.s.s.s.s.s.s.s...V G.s.e.s.e.s.g.s.s.s.s.s.s.s.s.s.e.s.s.s.s.s.s.s.s.s.s.s.s.s.s.s.e.e.e.e.e.s.s.s.s.s.s.s.e.e.e.s.e.e.e.e.e.e.e.s.s.e.e.e.s.s.s.e.s.s.s.s.s.s.s.s.s.s.e.e.e.s...- ",
"Z.g.s.s.s.s.s.s.s.s.s.s.s.s.s.s.s.s.s.s.s.s.s.s.e.e.e.e.s.s.s.s.s.s.s.s.s.e.e.e.e.e.e.e.s.s.s.s.s.s.s.s.s.s.s.s.s.s.s.e.e.e.e.e.s.e.s.s.s.s.s.s.s.e.s.s.s.s.s.V :.M.e.s.e.s.s.s.e.e.e.e.e.e.e.e.e.e.e.e.s.s.s.s.s.s.s.e.e.s.s.s.s.s.e.e.e.e.s.s.e.s.s.s.e.e.e.e.s.s.s.s.e.e.e.e.s.s.s.s.e.e.e.e.s.e.e.e.e.e.s.s.s.e.s.e.s.s.s.V e.M.s.e.s.e.s.e.e.e.e.e.e.e.s.s.e.e.e.e.e.s.s.s.e.e.e.s.s.s.s.s.s.s.s.s.s.s.s.s.s.s.s.s.s.s.s.s.s.s.s.s.s.s.s.e.s.s.s.s.s.s.s.s.e.s.s.s.e.e.e.e.e.e.g.e.s.s.s.v e.s.e.e.s.e.<.s.e.e.e.e.e.e.e.e.e.e.<.<.<.e.e.e.e.e.e.e.e.<.<.<.e.e.e.e.e.e.e.e.e.e.e.e.e.e.e.e.e.e.e.e.e.e.e.e.e.e.e.e.e.e.e.e.e.e.e.e.e.e.e.e.e.e.<.e.e.s.:.v g.g.s.e.e.s.s.s.s.s.s.s.s.s.s.s.s.s.s.s.s.e.e.e.s.s.s.e.e.e.s.e.s.s.s.e.e.e.s.s.s.s.s.s.s.s.e.e.s.e.s.s.s.s.s.s.s.s.s.s.e.e.e.e.s.s.s.s.s.s.s.s.e.s.e.s.e.s.<.v M.s.e.e.s.s.s.s.s.s.s.s.e.e.e.e.s.s.s.s.s.s.s.s.e.e.e.e.e.e.s.s.e.e.e.e.s.s.s.s.e.e.s.s.s.s.e.e.e.s.s.s.s.s.e.e.e.e.e.s.s.s.e.e.s.s.s.s.s.s.s.s.s.e.e.e.s.g.%.V Z.g.e.e.s.s.s.s.s.s.s.s.s.s.s.s.s.s.e.e.e.e.e.e.s.s.s.s.s.s.s.s.s.s.s.s.s.s.s.s.s.s.e.e.e.e.s.s.s.s.e.e.e.s.s.s.s.s.s.s.s.s.e.e.e.s.s.s.s.s.s.s.s.s.s.s.s.s...V G.s.e.s.e.e.s.e.s.s.s.s.s.s.s.s.e.s.s.s.s.s.s.s.s.s.s.s.s.s.e.e.e.e.e.s.e.s.s.s.s.s.s.s.e.e.e.s.e.e.e.e.e.s.e.s.s.e.e.e.s.s.s.s.s.s.s.s.s.s.s.s.s.s.e.e.e.s...- ",
"G.g.s.s.s.e.e.e.s.s.s.s.s.s.s.s.s.s.s.s.s.s.s.s.e.e.e.e.s.s.s.s.s.s.s.s.s.e.e.e.e.e.e.e.s.s.s.s.s.s.s.s.s.s.s.s.s.s.e.e.e.e.e.s.s.e.s.s.s.s.s.s.s.e.s.e.s.s.s.V :.M.e.s.e.s.s.s.e.e.e.e.e.e.e.e.s.s.s.s.s.s.s.s.s.s.s.s.e.e.s.s.s.e.e.e.s.s.s.s.e.s.s.s.s.e.s.s.s.s.s.s.e.e.e.e.s.s.s.s.s.e.s.e.e.e.e.e.e.e.e.s.g.e.s.e.s.s.s.v e.M.e.e.s.e.s.e.s.s.s.s.e.e.e.e.e.e.e.e.e.s.s.s.s.s.s.s.s.s.s.s.s.s.s.s.s.s.s.s.s.s.s.s.s.s.s.s.s.s.e.e.s.s.s.e.s.s.s.s.s.s.s.s.e.e.s.s.e.s.s.s.s.e.g.e.s.s.e.p e.s.e.e.s.e.<.s.e.e.e.e.e.e.e.e.e.e.<.<.<.e.e.e.e.e.e.e.e.e.<.<.e.e.e.e.e.e.e.e.e.e.e.e.e.e.e.e.e.e.e.e.e.e.e.e.e.e.e.e.e.e.e.e.e.e.e.e.e.e.e.e.e.e.e.e.e.s.:.p g.g.s.e.e.e.s.s.s.s.s.s.s.s.s.s.s.s.s.s.s.e.e.e.s.s.s.e.s.s.s.s.s.s.s.e.e.e.e.s.s.s.s.s.e.e.e.e.e.e.e.e.e.s.s.s.s.s.s.s.s.s.e.e.s.s.s.s.s.s.s.s.e.s.e.s.e.s.<.v M.s.e.e.e.e.s.s.s.s.e.s.e.e.e.e.s.s.s.s.e.e.e.e.e.e.e.e.e.e.e.e.e.e.e.e.e.e.e.e.e.e.s.s.s.s.s.e.e.e.s.e.e.e.e.e.e.e.s.s.s.s.s.s.s.s.s.s.s.s.s.s.s.e.e.e.s.g.%.V Z.g.e.s.s.e.e.e.s.s.s.s.s.s.s.s.s.s.e.e.e.e.e.e.s.s.s.s.s.s.s.s.s.s.s.s.s.s.s.s.s.s.s.e.e.s.s.s.s.e.e.e.s.s.s.s.s.s.s.s.s.s.e.e.e.e.s.s.s.s.s.s.s.e.e.e.s.s...S Z.s.e.e.e.e.s.e.s.s.s.s.s.s.s.s.s.s.s.s.s.s.e.e.s.s.s.e.e.e.e.e.e.e.e.s.s.s.s.e.s.s.s.e.e.e.e.s.e.e.s.s.s.s.e.e.s.e.e.s.s.s.s.s.s.s.s.s.s.s.s.s.s.s.e.e.e.s...- ",
"G.M.s.e.s.e.e.e.s.s.s.s.s.s.s.s.s.s.s.s.s.s.s.s.e.e.e.e.s.s.s.s.s.s.s.s.s.s.e.e.e.e.e.e.s.s.s.s.s.s.s.s.s.s.s.s.e.e.e.e.e.e.s.s.s.s.s.s.s.s.s.s.s.e.s.e.s.s.s.V :.M.e.s.e.s.s.s.e.s.s.s.s.s.s.s.s.s.s.s.s.s.s.s.s.s.s.s.e.e.s.s.s.e.e.e.s.s.s.s.e.e.s.s.e.e.s.s.s.s.s.s.s.e.s.s.s.s.s.s.s.s.s.s.e.e.e.e.e.e.e.e.g.e.s.s.s.s.s.v <.M.e.e.s.e.s.e.s.s.s.s.e.e.e.e.e.e.s.s.s.s.s.s.s.s.s.s.s.s.s.s.s.s.s.s.s.s.s.s.s.s.e.e.e.e.s.s.s.s.e.e.s.s.s.e.e.e.s.s.e.e.e.e.e.e.e.s.s.s.s.s.s.e.g.e.s.s.e.p e.s.e.e.s.e.<.e.e.e.e.e.e.e.e.e.e.e.<.<.e.e.e.e.e.e.e.e.e.<.e.e.e.e.e.e.e.e.e.e.e.e.e.e.e.e.e.e.e.e.e.e.e.e.e.e.e.e.e.e.e.e.e.e.e.e.e.e.e.e.e.e.e.e.e.e.e.s.:.p g.g.s.e.e.e.s.s.s.s.s.s.s.s.s.s.s.s.s.s.e.e.e.e.s.s.s.e.s.s.s.s.s.s.s.e.e.e.e.e.s.s.s.e.e.e.e.e.e.e.e.e.e.e.s.s.s.s.s.s.s.s.e.e.s.s.s.s.e.e.e.e.e.s.e.s.e.s.<.v M.s.e.e.s.e.e.s.s.e.e.s.e.e.e.e.e.e.e.e.e.e.e.e.s.s.s.s.s.s.e.e.e.e.s.s.e.e.s.s.e.e.e.s.s.s.e.e.s.s.s.e.e.e.e.e.e.e.e.s.s.s.s.s.s.s.s.s.s.s.s.s.s.e.e.e.s.g.%.V Z.g.s.s.s.s.e.e.s.s.s.s.s.s.s.s.s.s.e.e.e.e.e.e.s.s.s.s.s.s.s.s.s.s.s.s.s.s.s.s.s.s.s.e.e.e.s.s.s.e.e.e.s.s.s.s.s.s.s.s.s.s.e.e.e.s.s.s.s.s.s.s.e.e.e.e.e.s...S Z.s.e.e.e.e.s.e.s.s.s.s.s.s.s.s.s.s.s.s.s.e.e.e.s.s.e.e.e.e.e.e.e.e.e.s.s.s.s.e.s.s.s.e.e.e.e.s.e.e.s.s.s.s.s.e.s.e.e.s.s.s.s.s.s.s.s.s.s.s.s.s.e.s.e.e.s.g...- ",
"Z.g.e.e.e.e.e.e.s.s.s.s.s.s.s.s.s.s.s.s.s.e.e.e.e.e.e.e.s.s.s.s.s.s.s.s.s.s.s.s.e.e.e.e.s.s.s.s.s.s.s.s.s.s.s.s.e.e.e.e.e.e.s.s.e.e.s.s.s.s.s.s.s.e.s.e.s.s.g.V :.M.e.s.e.s.s.e.s.s.s.s.s.s.s.s.s.s.s.s.s.s.s.s.s.s.e.e.e.e.s.s.s.s.e.e.s.e.s.s.e.e.s.s.s.e.s.s.s.s.s.e.s.s.s.s.s.s.s.s.s.s.s.s.e.e.e.e.e.e.e.e.s.e.s.s.s.s.e.v <.g.e.e.s.e.s.e.s.s.e.e.e.e.s.e.e.s.s.s.s.s.s.s.s.s.s.s.s.s.s.s.s.s.s.s.s.s.s.s.s.e.s.e.e.e.e.s.e.e.e.e.s.s.s.e.e.e.e.e.e.e.e.e.e.e.e.e.s.s.s.s.g.e.g.e.e.e.e.p e.s.e.e.s.e.<.e.e.e.e.e.e.e.e.e.e.e.e.e.e.e.e.e.e.e.e.e.e.e.e.e.e.e.e.e.e.e.e.e.e.e.e.e.e.e.e.e.e.e.e.e.e.e.e.e.e.e.e.e.e.e.e.e.e.e.e.e.e.e.e.e.e.e.<.e.e.s.:.p g.g.s.s.e.e.e.s.s.s.s.s.s.s.s.s.s.s.e.e.e.e.s.s.s.s.s.s.s.s.e.e.s.s.s.e.e.e.e.e.s.s.s.e.e.e.e.e.e.e.e.e.e.e.s.s.s.s.s.s.s.s.s.s.s.e.s.s.e.e.e.e.e.s.s.s.e.s.<.v M.s.e.e.s.e.e.s.e.e.e.e.e.e.e.e.e.e.e.e.e.e.e.e.s.s.s.s.s.s.s.s.e.e.e.e.s.s.s.s.s.s.s.s.e.s.e.s.s.s.s.s.e.s.s.e.s.s.s.s.s.s.s.s.s.s.s.s.s.s.s.s.s.s.s.e.s.g.%.V Z.g.e.s.s.e.e.e.s.s.s.s.s.s.s.s.s.s.e.e.e.e.e.s.s.s.s.s.s.s.s.s.s.s.s.s.s.s.s.s.e.e.e.s.s.e.e.e.s.e.e.e.s.s.s.s.s.s.s.s.s.s.e.e.s.s.s.s.s.s.s.e.e.<.e.e.e.s...S Z.e.e.e.e.e.s.e.s.s.s.s.s.s.s.s.s.s.s.s.e.e.e.e.s.s.e.e.e.e.e.e.e.e.s.s.s.s.s.e.s.e.e.e.e.s.s.s.e.e.s.s.s.s.s.e.e.e.e.s.s.s.s.e.s.s.s.s.s.s.s.s.e.s.e.e.s.g...: ",
"Z.g.e.e.e.e.e.e.s.s.s.s.s.s.s.s.s.s.s.s.e.e.e.e.s.s.s.s.s.s.s.s.s.s.s.s.s.s.s.s.s.s.s.s.s.s.s.s.s.s.s.s.s.s.s.s.e.e.e.e.e.e.s.s.e.e.s.s.s.s.s.s.s.e.s.e.s.s.g.V :.M.e.s.e.s.s.e.s.s.s.s.s.s.s.s.s.s.s.s.s.s.s.s.e.e.e.e.e.e.s.s.s.s.e.e.s.s.s.s.e.e.s.s.s.e.s.s.s.s.s.e.s.s.s.s.s.s.s.s.s.s.s.s.e.e.e.e.e.e.e.e.s.e.s.s.s.s.s.v <.g.e.e.s.e.s.s.s.s.e.e.s.s.s.s.e.s.s.s.s.s.s.s.s.s.s.s.s.s.s.s.s.s.s.s.s.s.s.s.s.s.e.e.e.e.e.s.e.e.e.e.s.s.s.e.e.e.e.e.e.e.e.e.e.e.e.e.e.s.s.s.g.s.g.e.e.s.e.p e.s.e.e.s.e.<.e.e.e.e.e.e.e.e.e.e.e.e.e.e.e.e.e.e.e.e.e.e.e.e.e.<.<.<.<.e.e.e.e.e.e.e.e.e.e.e.e.e.e.e.e.e.e.e.e.e.e.e.e.e.e.e.e.e.e.e.e.e.e.e.e.e.e.e.e.e.s.:.v g.g.s.s.e.e.s.s.s.s.s.s.s.s.s.s.s.s.e.e.e.e.s.s.s.s.s.s.s.s.e.e.s.s.s.s.s.e.e.e.s.s.s.s.e.e.e.e.e.e.e.e.e.s.s.s.s.s.s.s.s.s.s.s.e.e.e.s.e.e.e.e.e.s.s.s.e.s.<.v M.s.s.s.s.e.e.s.e.e.e.e.e.e.s.s.e.e.e.e.e.e.s.s.s.s.s.s.s.s.s.s.e.e.e.s.s.s.s.s.s.s.s.e.e.e.s.s.s.s.s.s.e.s.s.s.s.e.s.e.e.s.s.s.s.s.s.s.s.s.s.s.s.s.s.e.s.g.%.V Z.g.e.e.s.e.e.e.s.s.s.s.s.s.s.s.s.e.e.e.e.e.s.s.s.s.s.s.s.s.s.s.s.s.s.s.s.s.s.s.e.e.s.s.s.s.e.e.s.e.e.e.e.s.s.s.s.s.s.s.s.s.e.e.s.s.s.s.s.s.e.e.e.<.e.e.e.s...S Z.e.e.s.e.s.s.e.s.s.s.s.s.s.s.s.e.e.e.e.e.e.e.e.s.s.s.e.s.e.e.e.e.s.s.s.s.s.e.e.s.e.e.e.e.s.s.s.e.e.s.s.s.s.s.s.e.e.e.s.s.s.s.e.s.s.s.s.s.s.s.s.e.s.e.s.s.g...: ",
"Z.g.e.e.s.s.e.s.s.s.s.s.s.s.s.s.s.s.s.s.s.e.e.e.s.s.s.s.s.s.s.s.s.s.s.s.s.s.s.s.s.s.s.s.s.s.s.s.s.s.s.s.s.s.s.s.s.e.e.e.e.s.s.s.e.e.s.s.s.s.s.s.s.e.s.s.s.s.g.V :.M.e.s.e.s.s.e.s.s.s.s.s.s.s.s.e.s.e.e.s.s.s.s.e.e.e.e.e.e.s.s.s.s.e.e.e.e.s.s.e.e.s.s.e.s.e.s.s.s.s.e.s.s.e.e.s.e.e.e.s.e.e.e.e.e.e.e.e.e.e.e.s.e.s.s.s.s.s.v <.g.e.e.s.e.s.s.s.e.e.e.s.s.s.s.s.e.s.s.s.s.s.e.e.e.e.s.s.s.s.s.s.s.s.s.s.s.s.s.s.s.e.e.e.e.e.s.e.e.e.e.s.s.s.s.e.e.e.e.s.s.s.s.s.s.e.s.s.s.s.s.g.e.s.e.e.s.s.v e.s.e.e.s.e.<.e.e.e.e.e.e.e.e.e.e.e.e.e.e.e.e.e.e.e.e.e.e.e.e.e.e.e.e.e.e.e.<.<.e.e.e.e.e.e.e.e.e.e.e.e.e.e.e.e.e.e.e.e.e.e.e.e.e.e.e.e.e.e.e.e.e.e.<.e.e.s.:.v g.g.s.s.e.e.e.e.s.s.s.s.s.s.s.s.s.e.e.e.e.s.s.s.s.s.s.s.e.e.e.e.s.s.s.s.s.e.s.e.s.s.s.s.s.e.e.e.e.s.s.s.s.s.s.s.s.s.s.s.s.s.s.s.e.e.s.s.s.s.s.s.e.s.s.s.e.s.<.v M.s.s.s.s.s.e.e.e.e.e.e.e.s.s.s.s.s.s.s.s.s.s.s.e.e.e.e.s.s.s.s.e.e.s.s.s.s.s.s.s.s.e.e.e.e.s.s.s.e.e.e.e.s.s.s.s.e.e.e.e.e.s.s.s.s.s.s.s.s.s.s.s.s.s.e.s.g.%.V Z.s.e.e.e.e.e.e.s.s.s.s.s.s.s.s.e.e.e.e.e.e.s.s.s.s.s.s.s.s.s.s.s.s.s.s.s.s.s.s.e.e.s.s.s.s.s.e.s.s.e.e.e.s.s.s.s.s.s.s.s.s.e.e.s.s.s.s.s.s.e.e.e.e.s.s.s.s.%.S M.e.e.s.e.s.g.s.s.s.s.s.s.s.s.s.e.e.s.s.s.s.s.e.s.s.s.s.s.s.e.s.s.s.s.s.s.s.e.s.s.e.e.e.s.s.s.s.s.s.e.e.s.s.s.s.e.e.e.e.s.s.s.e.s.s.s.s.s.s.s.s.e.s.e.s.s.g.%.: ",
"Z.g.e.e.s.s.e.s.s.s.s.s.s.s.s.s.s.s.s.s.s.e.e.e.s.s.s.s.s.s.s.s.s.s.s.s.s.s.s.s.s.s.s.s.s.s.s.s.s.s.s.s.s.s.s.s.s.s.e.e.e.e.e.e.e.e.s.s.s.s.s.s.s.e.s.s.s.s.g.V :.M.e.s.e.s.s.e.e.e.e.e.e.e.s.s.e.e.e.e.e.s.s.s.e.e.e.e.e.e.s.s.s.s.e.e.e.e.s.s.e.e.s.s.s.s.e.s.s.s.s.e.s.e.e.e.e.e.e.e.e.e.e.e.e.e.e.e.e.e.e.e.s.<.s.s.s.s.s.v <.g.e.e.s.e.g.s.e.e.e.e.s.s.s.s.e.s.s.s.e.e.e.e.e.e.e.s.s.s.s.s.s.s.s.s.s.s.s.s.s.e.e.e.e.e.e.s.e.e.e.e.s.s.s.e.s.s.s.s.s.s.s.s.s.s.s.s.s.s.s.s.s.e.g.e.e.s.s.v e.s.e.e.s.e.<.e.e.e.e.e.e.e.e.e.e.e.e.e.e.e.e.e.e.e.e.e.e.e.e.e.e.e.e.e.e.e.e.e.e.e.e.e.e.e.e.e.e.e.e.e.e.e.e.e.e.e.e.e.e.e.e.e.e.e.e.e.e.e.e.e.e.e.e.e.e.s.:.v g.g.s.s.e.e.e.e.s.s.s.s.s.s.s.s.s.e.e.e.e.s.s.s.s.s.s.e.e.e.e.e.s.s.s.e.e.e.s.s.s.s.s.s.s.s.s.e.s.s.s.s.s.s.s.s.s.s.s.s.s.s.s.s.e.e.e.e.e.e.e.e.e.s.s.s.e.s.<.v M.s.s.s.s.s.e.e.e.e.e.e.e.s.s.s.s.s.s.s.s.s.s.s.e.e.e.e.e.e.e.e.e.s.s.s.s.s.s.s.s.s.e.e.e.e.s.s.e.e.e.e.e.s.s.s.s.e.e.e.e.e.s.s.s.s.s.s.s.s.s.s.s.s.s.e.s.g.%.V M.s.e.e.e.e.e.s.s.s.s.s.s.s.s.s.e.e.e.e.e.s.s.s.s.s.s.s.s.s.s.s.s.s.s.s.s.s.s.s.e.s.s.s.s.s.s.e.s.s.e.e.e.s.s.s.s.s.s.s.s.s.e.e.s.s.s.s.s.s.e.e.s.s.s.s.s.s.%.S M.s.e.s.s.s.g.s.s.s.s.s.s.s.s.s.e.e.e.s.s.s.s.s.s.s.s.s.s.s.s.s.s.s.s.s.s.s.e.e.s.e.e.e.s.s.s.s.s.s.e.e.e.s.s.s.e.e.e.e.s.s.s.s.s.s.s.s.s.s.s.s.e.s.e.s.s.g.%.: ",
"Z.M.g.s.s.e.s.s.s.s.s.s.s.s.s.s.e.e.e.e.e.e.e.e.e.e.e.e.s.e.e.e.s.s.s.s.s.s.s.s.e.s.s.s.s.s.s.s.e.e.e.e.e.e.e.<.s.e.e.s.s.s.s.s.e.e.e.s.s.s.s.e.s.e.e.<.s.s.s.J <.g.e.s.s.e.e.e.e.e.e.e.e.e.e.e.e.e.e.e.s.s.s.s.e.e.e.e.s.s.s.s.s.s.s.s.s.s.s.e.s.s.e.e.s.s.s.e.s.s.e.e.e.s.s.e.s.s.s.s.s.s.s.e.e.e.e.e.e.e.e.e.e.<.e.e.M.g.e.v s.M.e.e.s.<.s.g.e.e.e.s.s.e.e.e.e.e.e.s.s.s.s.s.e.e.s.e.e.e.e.e.e.e.e.e.s.s.s.s.s.s.e.e.e.e.s.s.e.e.e.e.e.e.e.e.s.s.s.e.e.e.s.s.s.s.s.s.s.s.s.s.s.e.<.s.s.g.<.v s.e.e.e.e.e.e.e.e.e.e.e.e.e.e.e.e.e.e.e.e.e.e.e.e.e.e.e.e.e.e.e.<.e.e.e.e.e.e.e.e.e.e.e.e.e.e.e.e.e.e.e.e.e.e.e.e.e.e.e.e.e.e.e.e.e.e.e.e.e.e.e.g.e.:.e.e.s.<.V M.s.s.g.g.s.s.s.s.s.s.e.e.e.s.s.s.s.s.s.e.e.e.s.s.s.s.s.s.s.s.s.s.s.s.e.e.e.s.s.s.e.e.e.e.s.s.s.s.s.s.s.s.s.s.s.e.s.s.s.s.s.s.s.e.e.e.s.s.s.s.e.e.e.:.e.s.s.:.V Z.s.s.g.s.e.s.e.s.s.s.s.s.s.s.s.e.s.s.e.e.e.e.e.e.e.e.e.e.e.e.e.e.s.s.s.s.s.s.s.s.e.e.e.e.e.s.e.s.e.e.e.s.s.s.e.s.s.e.e.e.e.s.s.s.s.s.s.s.s.s.s.g.<.e.e.:.s.<.V G.s.e.s.s.e.e.e.s.s.s.s.s.s.s.s.e.e.e.e.e.s.s.e.s.s.s.s.s.s.s.s.e.e.s.s.s.s.s.s.e.e.e.e.s.s.s.s.s.s.e.s.s.s.s.s.s.e.e.e.s.e.e.e.s.s.s.s.s.s.s.s.e.s.e.<.s.s...S Z.s.s.s.e.s.s.s.s.s.s.s.s.s.s.s.<.e.e.e.e.e.e.e.s.s.s.s.s.e.e.e.s.s.s.s.s.s.s.s.e.e.e.e.e.e.s.s.s.s.s.s.s.s.s.s.<.<.e.e.s.s.s.s.s.s.s.s.s.s.s.s.s.s.e.s.s.s...: ",
"Z.g.s.s.s.s.s.g.s.s.s.s.s.s.s.s.s.s.s.s.s.e.e.s.s.s.s.s.s.s.s.e.s.s.s.s.s.s.s.s.s.s.s.s.s.s.s.s.e.e.s.s.s.s.s.e.s.s.e.s.s.s.s.s.s.s.s.s.s.s.s.s.s.s.g.s.g.g.s.S <.g.e.e.g.s.s.s.e.e.e.e.e.e.e.e.e.s.s.s.s.s.s.s.e.e.e.e.s.s.s.s.s.s.s.s.s.s.s.s.s.s.s.s.s.s.s.s.s.s.s.s.s.s.s.s.s.s.s.s.s.s.s.s.s.s.s.s.e.e.e.e.e.e.s.<.g.s.e.v <.g.e.s.g.s.s.s.s.s.s.s.s.s.s.s.e.e.s.s.s.s.s.s.s.s.s.s.s.s.e.e.e.e.s.s.s.s.s.s.s.s.e.e.e.s.s.s.s.s.s.s.e.s.s.s.s.s.s.e.e.e.s.s.s.s.s.s.s.s.s.s.s.g.s.g.s.g.e.V s.e.e.<.e.s.s.e.e.e.e.e.e.e.e.e.e.e.e.e.s.s.e.e.e.e.e.e.e.e.e.e.e.e.e.e.e.e.e.e.e.e.e.s.e.e.e.e.e.e.e.e.e.e.e.e.e.e.e.e.e.e.e.e.e.e.e.e.e.e.e.e.e.e.e.s.e.s.:.v M.g.e.s.s.s.s.s.s.s.s.s.s.s.s.s.s.s.s.s.s.s.s.s.s.s.s.s.s.s.s.s.s.s.s.s.e.e.e.e.s.e.e.e.e.s.s.s.s.s.s.s.s.e.s.s.s.s.s.s.s.s.s.s.s.s.s.s.s.s.s.s.e.s.e.s.g.g.:.V Z.s.s.s.s.s.g.s.s.s.s.s.s.s.s.s.s.s.s.s.s.s.e.e.e.e.e.e.e.e.e.e.s.s.s.s.s.s.s.s.s.e.e.e.e.s.s.s.s.s.s.s.s.s.s.s.s.s.s.s.s.s.s.s.s.s.s.s.s.s.s.s.g.<.s.g.e.s.:.V Z.e.e.s.e.s.g.s.s.s.s.s.s.s.e.e.e.e.s.s.s.s.s.s.s.s.s.s.s.s.s.s.s.s.s.s.s.s.s.s.e.e.s.e.s.s.s.s.s.s.s.s.s.s.s.s.s.s.s.s.s.s.s.s.s.s.s.s.s.s.s.s.s.s.s.g.M.s...J G.s.s.s.s.s.g.e.s.s.s.s.s.s.s.s.e.e.s.s.s.s.s.s.s.s.s.s.s.s.e.e.s.s.s.s.s.s.s.s.e.e.e.e.e.e.s.s.s.s.s.s.s.s.s.s.e.e.e.s.s.s.s.s.s.s.s.s.s.s.s.s.e.s.s.g.g.g.%.1 ",
"G.g.e.e.s.s.s.s.s.s.e.e.s.e.s.s.s.s.s.e.e.e.e.s.e.s.s.e.s.e.e.e.e.e.e.e.e.e.e.e.e.e.s.e.s.e.e.e.e.e.e.e.s.e.e.e.e.e.e.e.e.e.s.s.s.s.s.s.s.s.s.s.<.s.g.<.s.s.s.V <.M.e.<.s.s.g.e.e.e.e.e.e.e.e.e.e.e.e.s.s.s.s.s.e.e.e.e.e.e.e.e.e.e.e.e.s.e.e.e.e.e.e.e.e.s.s.s.e.e.e.e.e.e.e.e.e.e.e.e.e.e.e.e.s.s.e.e.e.e.e.e.<.e.s.:.e.e.e.v <.g.<.<.s.s.s.<.e.e.e.s.s.e.s.e.e.e.e.e.s.e.s.s.e.s.s.e.e.e.e.e.<.e.e.e.s.s.s.s.e.e.e.e.e.e.e.s.s.s.e.e.e.e.s.s.e.e.e.e.e.e.e.e.s.e.e.e.e.e.e.e.<.s.s.e.<.s.<.v s.e.e.<.<.s.s.<.e.e.e.e.e.e.e.e.<.e.e.e.e.e.e.e.<.<.e.e.e.e.<.<.<.e.e.e.e.<.e.e.e.e.e.e.e.e.<.<.e.e.e.e.e.e.e.e.<.<.<.e.e.e.e.e.e.e.<.<.<.<.e.<.<.e.e.s.<.e.:.p g.g.e.e.e.s.s.<.e.e.e.s.e.e.e.e.e.e.e.e.e.s.s.s.e.e.e.e.e.e.e.e.s.e.e.e.e.e.e.e.e.e.e.e.e.e.e.e.s.e.e.e.e.e.e.e.e.e.e.e.e.e.e.e.s.s.s.s.s.s.s.s.<.s.e.e.e.s.:.v M.s.e.e.e.s.g.e.e.s.e.e.s.e.e.e.e.e.s.e.e.e.e.e.e.e.e.e.e.e.e.e.s.s.s.s.e.e.e.e.e.e.e.e.e.e.e.e.s.s.s.s.s.s.s.s.s.s.e.e.s.s.s.s.s.s.s.e.s.e.e.e.e.:.e.s.<.<...V Z.s.e.e.<.e.g.s.s.s.s.e.e.e.<.<.e.e.e.e.s.s.s.s.e.e.e.e.e.e.e.e.e.e.e.e.s.s.s.e.e.e.e.e.e.e.e.e.s.e.e.e.s.s.s.e.s.s.e.e.s.s.s.e.e.e.e.e.e.e.e.e.e.e.e.s.g.e.' J G.s.e.s.s.s.s.e.e.e.e.e.e.e.e.e.e.e.e.e.s.s.e.e.s.s.s.s.e.e.e.e.e.e.e.e.e.e.e.e.e.<.<.<.e.e.e.e.e.e.e.e.e.e.e.e.e.e.e.e.s.s.e.e.e.e.e.e.e.e.s.s.e.s.e.e.e.s...- ",
"J.M.s.s.s.s.s.s.s.s.s.s.s.s.s.s.s.s.s.s.s.s.s.s.s.s.s.s.s.s.s.s.s.s.s.s.s.s.s.s.s.s.s.s.s.s.s.s.e.e.s.s.s.s.s.s.s.s.s.s.s.s.s.s.s.s.s.s.s.s.s.s.e.s.s.:.e.g.g.S <.Z.g.e.s.s.g.e.s.s.s.s.s.s.s.s.s.g.g.s.g.g.s.s.s.s.s.s.s.s.s.s.s.s.s.s.s.s.s.s.e.e.e.e.s.s.s.s.s.s.s.s.e.s.s.e.s.s.s.s.s.s.s.s.s.s.s.s.s.e.s.s.e.s.s.<.s.g.g.V e.M.e.<.e.s.g.e.e.s.s.s.s.s.s.s.s.s.s.s.s.s.s.s.s.s.s.s.s.s.s.s.e.e.e.s.s.s.s.s.e.e.e.e.e.s.s.s.s.s.s.s.s.s.s.s.s.s.s.s.s.s.s.s.s.s.s.s.s.s.s.s.e.s.s.e.e.g.e.v s.g.s.e.e.s.s.<.s.s.s.s.s.s.s.s.e.e.e.e.e.e.e.e.e.e.s.s.s.s.e.e.e.e.e.e.e.e.e.e.e.e.e.e.e.e.e.e.e.e.e.e.e.e.e.e.e.e.e.e.e.e.s.s.e.e.e.e.e.e.e.e.e.s.e.e.<.s.<.v g.g.s.s.s.g.g.e.e.s.s.s.s.s.e.e.s.s.s.s.s.s.s.s.s.s.s.s.s.s.s.s.g.s.s.s.s.s.s.s.s.s.s.s.s.s.s.s.s.s.s.s.s.s.s.s.s.s.s.s.s.s.s.s.s.s.s.s.s.s.s.s.e.g.s.e.e.g.<.V Z.g.g.s.e.g.g.e.s.s.s.s.s.s.e.e.s.s.s.s.s.s.s.s.s.s.s.s.s.s.s.s.s.s.s.s.s.s.s.e.s.s.s.s.s.s.s.s.s.s.s.s.s.s.s.s.s.s.s.s.s.s.s.s.s.s.s.s.s.e.e.e.e.e.e.e.e.s.:.S Z.g.g.s.e.s.g.s.s.s.s.s.e.e.e.e.e.s.s.s.s.s.s.s.s.s.s.s.s.s.s.s.e.e.e.s.s.s.s.s.s.s.s.s.s.s.s.s.s.s.e.e.s.s.s.s.s.s.s.s.s.s.s.s.s.s.s.s.s.s.s.s.s.s.e.<.s.s...J G.g.s.g.s.s.g.s.e.s.s.s.s.s.s.s.s.s.s.s.s.s.s.s.s.s.s.s.s.e.e.e.s.s.s.s.s.s.s.s.s.s.s.s.s.s.s.s.s.s.s.s.s.s.s.s.s.s.s.s.s.s.s.e.s.s.s.s.s.s.s.s.s.g.e.<.e.M.%.: ",
"G.g.s.s.s.e.e.s.e.e.e.e.e.e.e.e.s.s.s.s.e.e.e.s.s.e.s.s.s.e.e.e.e.e.s.e.e.e.e.e.e.e.s.s.s.s.e.e.e.e.e.s.s.s.s.s.e.e.s.s.s.s.e.e.e.e.s.s.s.s.e.e.s.s.s.<.s.g.g.V %.g.s.e.e.e.s.e.s.s.s.s.s.s.s.s.s.s.s.s.s.s.e.e.s.s.s.s.s.s.e.e.e.e.s.s.s.s.e.s.e.e.e.e.e.e.e.e.e.e.e.e.e.e.e.e.e.e.e.s.s.s.s.s.s.e.e.e.e.e.e.e.<.<.e.:.s.g.s.v <.M.e.e.e.<.s.s.e.e.e.e.e.e.e.e.s.s.s.s.s.s.s.s.s.s.s.s.e.e.e.e.<.e.e.s.s.s.e.e.e.e.e.e.e.e.e.s.s.s.e.e.e.e.s.s.e.e.e.e.s.s.s.s.e.e.e.e.e.e.e.e.s.g.s.e.e.M.<.p <.s.s.<.<.e.e.<.e.e.e.e.e.e.e.e.<.<.e.e.e.e.e.<.e.e.e.e.e.e.e.e.<.<.<.<.<.<.<.e.e.e.e.e.e.e.<.<.e.e.e.e.e.e.e.e.e.e.e.e.e.e.e.e.e.e.e.e.e.e.e.e.e.e.<.<.<.e.%.u s.s.s.s.e.e.e.e.e.e.e.s.s.e.e.e.s.e.e.e.s.s.s.s.s.s.s.s.s.s.s.s.s.s.s.s.s.s.s.s.s.s.s.s.s.s.s.s.s.s.s.s.e.e.e.e.s.s.s.s.s.s.s.s.s.e.s.s.s.s.e.s.s.g.s.s.s.g.:.v g.s.g.s.e.e.s.e.e.e.s.e.e.e.e.e.e.e.e.e.s.s.s.s.s.s.s.s.s.s.s.s.s.s.s.s.e.e.e.e.s.e.e.e.e.e.e.s.e.e.e.e.e.e.e.e.e.e.e.e.e.e.e.e.e.e.e.e.e.e.<.<.<.s.g.e.s.M.%.v M.s.e.s.e.s.g.e.e.e.e.e.e.e.s.s.e.e.s.s.s.s.e.e.s.s.s.s.s.s.s.s.e.e.e.e.e.e.e.e.s.s.s.s.s.s.s.s.s.e.e.e.e.s.s.e.s.s.s.s.s.s.e.e.s.s.s.s.s.s.e.e.e.g.s.<.s.M.%.v Z.s.s.g.e.<.e.s.e.e.e.s.e.s.s.e.e.s.s.s.s.s.e.e.e.e.s.s.e.e.e.e.e.e.s.s.s.s.e.s.e.e.e.e.e.s.s.s.e.e.e.e.e.e.s.s.s.s.e.e.s.s.e.e.e.e.e.e.e.e.e.e.e.s.e.e.s.M.%.- ",
"J.M.s.g.g.s.s.M.g.g.g.g.g.g.g.g.g.g.g.s.s.s.g.g.g.g.g.g.g.g.s.s.s.s.s.s.s.s.s.s.s.s.g.g.g.g.s.g.s.g.g.g.g.g.g.g.g.g.s.s.s.s.s.s.s.s.s.s.s.s.s.s.s.s.g.s.M.g.s.V <.M.s.s.s.s.g.g.g.g.g.g.g.g.g.g.s.s.s.g.g.g.s.s.s.s.g.g.g.g.s.s.s.s.s.g.g.s.s.s.g.s.g.g.g.g.g.g.g.g.g.g.s.s.s.s.s.s.s.s.s.g.g.g.g.g.s.s.s.s.s.s.s.e.e.<.s.s.s.V e.M.s.g.M.s.s.g.s.s.s.g.g.s.s.s.g.g.g.g.g.s.s.s.g.g.g.g.g.g.g.g.s.s.g.g.g.g.g.g.s.s.g.g.g.g.g.g.g.g.g.g.g.g.g.g.s.s.s.s.s.s.s.s.g.g.g.g.g.g.g.g.M.M.s.s.s.g.e.V s.s.s.s.e.e.s.s.s.s.s.s.s.s.e.e.e.s.s.s.s.s.s.s.s.s.s.s.s.s.s.s.e.s.s.s.e.e.s.s.s.s.s.s.s.s.s.s.s.s.s.s.s.s.s.s.s.s.e.s.s.s.s.s.s.s.s.s.s.s.s.s.e.s.s.g.s.s.%.p M.g.g.g.g.s.s.s.s.s.g.g.g.g.s.s.g.g.g.g.g.g.g.g.g.g.g.g.s.s.g.g.g.g.g.s.s.s.s.s.g.g.s.s.s.s.g.g.g.g.s.s.s.s.s.s.g.g.g.g.g.g.g.g.g.g.g.g.g.g.g.g.s.g.s.g.M.g.:.v Z.g.g.g.s.s.g.g.s.s.g.g.g.s.s.s.s.s.g.g.g.g.g.g.g.g.g.g.g.g.g.g.g.g.g.g.g.g.g.g.s.s.s.s.s.s.s.s.g.g.s.s.g.g.g.g.s.s.s.s.s.s.s.s.s.s.s.s.s.s.s.s.<.g.M.s.M.Z.%.V Z.e.e.g.g.g.g.g.s.s.g.g.g.g.g.g.s.g.g.g.g.g.g.g.s.s.g.g.g.g.g.g.s.s.s.g.g.g.g.s.s.s.s.s.g.g.g.g.g.g.s.s.g.g.g.g.g.g.g.g.g.g.g.g.s.s.s.s.s.s.s.s.e.g.g.s.M.M.%.V J.g.s.g.s.e.s.s.s.s.s.s.s.s.s.s.g.g.g.g.g.g.g.s.s.g.g.g.g.g.s.s.s.s.g.g.g.g.s.s.g.s.s.s.s.s.s.g.s.s.s.s.s.s.s.s.g.g.g.g.g.g.g.g.g.g.g.g.g.g.g.g.g.g.g.g.g.g...- ",
"J.<.' ..%.....%...%.%...%.%.%.%.%.............%.......%.%.........................%.%.%.%.%.%.%.....%.%.%.%.......................................' %...%.....v <.<.' ..%.' %.%.........................%.%.%.......%.%.%.....' ................%.%.%.%.........%.%.%.%.%.......................%.%...............' ..' ..' %.V e.e...%.<.....%.....%.%.%.%.........%.%.%.......%.%.%...............%.%.%.%.%...%.%.%.%.%.%.%.%.%.%.........%.%.................%...%.%.%.%.%.%.%...' ..' ....v s.:.' ....' ....' ' ' ' ' ' ' ' ' ..............................' ..........................' ' ....................' ' ..........................' ..%...' ' v M.:.' ..%...' ..%.%...%.%.%.%.%.%.%.....%.%.%.%.................%.........................................................%.%.%.......%.%.%.%...' ..' %...' / V M.%.' %.....%.%.......%.%.................%.%.%.................%.%.%.%.%...%.%.%.%.........%.%.........................%.......................' ......%...^ J g.../ %.%...%.%.........%.%.%.%.....%.%.%.%.............................%.%.....................%.%.....%.%.%.%.%.%.%.%.%.%.....................' ....%.%...^ P M.%.' %...........................%.%.%.%.%...........%.%.%.........%.%.%.%.......................................%.%.%.%.%.%.%...%.%.%.%.%.%.%.%.%.%.%...' Y : ",
"/ p $ $ : : - - - : - - : : : : - - - - - - - - - - - - - - - - - - - - - : : : - - : : : : - - - - : : - - - - - - - - - - - - - - - - - - - - : - : - : $ 5 o S p $ - : $ - - : : : : : : : : - - : : : : : : - - : : : - - - - - - - - - - - : : : - - - - - : : - - - - - - - - - - - - - - - - - - - - - - - $ : : : - e + J p $ - 1 $ - : - : : : : : : - - : : : : : - - - - - - - - - - : : - - - - - - : : : : : : - - - - - - - - - - - - - - - - - - : : : : : : : - : - $ : - : 5 o J e $ - : - $ - - - - - - - - - $ - - - - - - - - - - - - - - - $ - - - - - - - - - - - - - $ $ $ $ $ $ $ $ - - - - - - - - - - - - - - - - - - - $ $ : $ $ 1 + P 5 $ - 1 - $ : : - - - - - - : - - - - - - - - : : : : : : : : - : - - - - - - - - - - - - - - - - - - - - - - - - - - : : : : - - - - - - - - 1 : - : - - 5 : Y 5 $ : : - - : - - - - - - - - - - - - - - - - : : : : : : : : - - - : : : : : : : : : : : : : - - - - - - - - - - - - : : - - - - - - : : : : 1 : $ - : - - e J 1 + : : $ - : - - - - - - - - - - - - - - - - - - : : : : : : - - - - - - - - - - - - - - - : : : - - : : : - - - - - - - - - - - - - - - - - : $ - : : $ : u S 1 $ - : : - $ - - - - : : - - - - : - - - - - - - - - : : - - : : : : : : : : : : - - - - - - - - - - - - - : - - - - : - - - - : : - : : : : - - - : - : 5 o "
};
